/* XPM */
static char *_b1252a57fa445fcd3d4450de3f3cd83odyRST35Oxsxn1hg[] = {
/* columns rows colors chars-per-pixel */
"32 32 16 1 ",
"  c None",
". c #101418",
"X c #393037",
"o c #4E454C",
"O c #867B31",
"+ c #E8D619",
"@ c #2A2629",
"# c #414346",
"$ c #AFA782",
"% c #E6DDB4",
"& c #8B0B1B",
"* c #28292A",
"= c #BD2236",
"- c #535255",
"; c #413839",
": c #554B4C",
/* pixels */
"                        .@@@    ",
"                        .===@   ",
"                        .&===@  ",
"                        @-&&==@ ",
"                       .@--#&==@",
"                      .@@-##&==@",
"                     .@#@#-#===@",
"                     @#@#-#&==&@",
"                    @#@#-#&=$%@ ",
"                   @##.-#&==%%%X",
"                 @@##.-#&==&@XXX",
"                @@#@.#&=&$%@    ",
"                .@#@-#&==%%%X   ",
"              ..#@@-#&==&@XXX   ",
"             .##@#-#&=$%@       ",
"            .##@@-#&==%%%X      ",
"        .....@@#@@&==&@XXX      ",
"      ..@XXX.##@ @=$%@          ",
"     .@XXoX.#@#@&==%%%X         ",
"    .@X.o+o.@-@&==&@XXX         ",
"    .X.oooX.-#&==$@             ",
"     .Xo+XOO.#&=$%%X            ",
"    .Xo@XXO+O.=&@XXX            ",
"    .X.@XoXOO.&.                ",
"    ...XoooXX..                 ",
"     .Xo.@oo.                   ",
"    .Xo.X.oo@@@                 ",
"   .Xo.XXX.Xoo@                 ",
" ..Xo..... ...                  ",
".oXX.                           ",
".oo.                            ",
"....                            "
};
