/* XPM */
static char *_ea0efb50dab40c3ca46a52df0654063bX8fUMLkwbg6IyEw[] = {
/* columns rows colors chars-per-pixel */
"32 32 17 1 ",
"  c None",
". c #12151A",
"X c #2B371C",
"o c #1B3829",
"O c #1D3F34",
"+ c #352D33",
"@ c #41383E",
"# c #445C27",
"$ c #4C434A",
"% c #534B50",
"& c #678F36",
"* c #E0CF1A",
"= c #89A863",
"- c #AFA782",
"; c #A4BC87",
": c #B9CBA2",
"> c #E6DDB4",
/* pixels */
"                           ...oo",
"                          .&&&;o",
"                         .&X..;o",
"                        o&.+@.:o",
"                       o&.@@+#=o",
"                      .&X@@@.=o ",
"                     .&X+@@.;o  ",
"                    .&#.@+#;o   ",
"                   o&#.@.#=o    ",
"               $$ o&X.@.X&o     ",
"               $>$&.+@..;o      ",
"               $>-X@@+X;o       ",
"            $$ .-&@@@.=o        ",
"            $>$#&+@@X&o         ",
"            $>-&.@+&-o          ",
"       .    .-&o@.&->>$         ",
"      .   .o&#.@o&#o$$$         ",
"    . .  .#&o+@.&-o$            ",
"   .   ..o&@@%+#->>$            ",
"   . .. .+@+*%#;$$$             ",
"   .   .+%%@@+;o                ",
"    ...++**%+&O                 ",
"     .+*%**%@o  .               ",
"      .+%@@%%.  .               ",
"    ..+@@..+%...                ",
"     .%.......                  ",
"    .%..    .                   ",
"   .%. ..   .                   ",
" ..%.      .                    ",
".-+.                            ",
".>-.                            ",
"...                             "
};
