/* XPM */
static char *_970d6858e8d47e1d187bb72ed35861dmMhXuDRh7zQHMnHm[] = {
/* columns rows colors chars-per-pixel */
"32 32 11 1 ",
"  c None",
". c #101418",
"X c #28292A",
"o c #413839",
"O c #414346",
"+ c #554B4C",
"@ c #535255",
"# c #931828",
"$ c #DA2940",
"% c #AFA782",
"& c #E6DDB4",
/* pixels */
"                 ..             ",
"           ..... .&.  ..        ",
"            .OO#..&&. .&.       ",
"             .OO#.%&&..&%. ..   ",
"         .   .XX##$&&.%&&..&.   ",
"         ..  .XOX###$$$&%.&&.   ",
"         .O...@$@XX###$$$%&&..  ",
"         .OOXOXO@@OXXXX#$$$%.&. ",
"          .XO$OXXO@@@@@XX#$$&&. ",
"           ..XXOX....XOO@X#$$%. ",
"            .XO$Oo.  ...XOX#$#&.",
"            .XXOo+.     ...O#$%.",
"            .XOXo+.        .O$$.",
"            .X@X+o.         .#$.",
"           ..O@.o.           .$.",
"          .o.OO..            .#.",
"          .+.OX.             .. ",
"         .o+XO.                 ",
"         .o+XX.                 ",
"         .+oX.                  ",
"        .X+..                   ",
"       .OXo.                    ",
"       .OO.                     ",
"      .OO.                      ",
"     .XO.                       ",
"    .o..                        ",
"  ..o+.                         ",
" .oo+.                          ",
".o++.                           ",
".o+.                            ",
".o.                             ",
"..                              "
};
