/* XPM */
static char *_81355935cc6485d9384a0b57312bc57J4Ox8255v1KxGrsu[] = {
/* columns rows colors chars-per-pixel */
"32 32 15 1 ",
"  c None",
". c #101418",
"X c #2B371C",
"o c #1D3F34",
"O c #2A2629",
"+ c #393037",
"@ c #3E5224",
"# c #4E454C",
"$ c #506E55",
"% c #757666",
"& c #867B31",
"* c #678F36",
"= c #C3B62E",
"- c #AFA782",
"; c #E6DDB4",
/* pixels */
"                                ",
"            ..oooo.       ......",
"           .o$***.      ..$*.-;.",
"          .o**$$.    ...o**$-;;.",
"          .$*$o+....OOO&#*$$;;;.",
"         .o**o###+.##+#=#$$o-;;.",
"         .$*$++#&=+##+##o**oo%%.",
"         .$*..++##+#+##+$*$o-;;.",
"         .$.  .O+++#O##o$*$-;;;.",
"         ..   .+O+O++#+**$o-;;-.",
"        ..   .O+OO+O&=o**$o$--. ",
"        .+.  .+O+O.O.+$$*o$;;%. ",
"        .+#..&#O.O..OO**$o;;;.  ",
"         .##+=#+X.X.Xo***o;;-.  ",
"         .+#O+OO... .o$*o%-;.   ",
"         OO+.O+X. X  .$$;;-.    ",
"          .++.OXX    .o-;;.     ",
"         .OO=+.       .;;.      ",
"         .XX&.         ..       ",
"        .O@..                   ",
"        O##.X                   ",
"       .+#+.X                   ",
"       XXX.                     ",
"      .X@.                      ",
"     .XX.X                      ",
"    .X@.                        ",
"  ..@@.                         ",
" .X.X.                          ",
".X@@.                           ",
"..X.                            ",
".+.                             ",
"..                              "
};
