/* XPM */
static const char *_[] = {
/* columns rows colors chars-per-pixel */
"512 512 256 2 ",
"   c #030203",
".  c #0C0303",
"X  c #0D0905",
"o  c #03060A",
"O  c #0B0609",
"+  c #05090D",
"@  c #0C0A0C",
"#  c #120405",
"$  c #130A05",
"%  c #170807",
"&  c #140C0B",
"*  c #190E0D",
"=  c #0C1309",
"-  c #191406",
";  c #15120D",
":  c #1B120D",
">  c #070C12",
",  c #090E14",
"<  c #160D12",
"1  c #091315",
"2  c #0A1116",
"3  c #0C151B",
"4  c #0D181E",
"5  c #1C1413",
"6  c #1E1915",
"7  c #13151B",
"8  c #171618",
"9  c #13191E",
"0  c #29060B",
"q  c #38040C",
"w  c #261507",
"e  c #361B07",
"r  c #300B13",
"t  c #211615",
"y  c #241B15",
"u  c #261718",
"i  c #251B1B",
"p  c #291D1D",
"a  c #371719",
"s  c #1C221B",
"d  c #3A230C",
"f  c #26231B",
"g  c #2C211E",
"h  c #392716",
"j  c #352C13",
"k  c #31231E",
"l  c #0D1720",
"z  c #0E1B22",
"x  c #121D24",
"c  c #1A1D23",
"v  c #121E28",
"b  c #251C22",
"n  c #2B1F20",
"m  c #371D23",
"M  c #0F2028",
"N  c #132026",
"B  c #1B2225",
"V  c #14242B",
"C  c #1A252C",
"Z  c #16282F",
"A  c #1A292E",
"S  c #172930",
"D  c #1A2C33",
"F  c #1A2B35",
"G  c #1D3037",
"H  c #1E323A",
"J  c #1E383E",
"K  c #2D2222",
"L  c #292827",
"P  c #332623",
"I  c #3A2426",
"U  c #352925",
"Y  c #392B26",
"T  c #332629",
"R  c #352A2A",
"E  c #3B2E2A",
"W  c #2C322C",
"Q  c #373329",
"!  c #3D312C",
"~  c #242D33",
"^  c #392E32",
"/  c #21353D",
"(  c #293439",
")  c #24383F",
"_  c #3C3232",
"`  c #383638",
"'  c #470408",
"]  c #44040B",
"[  c #4B040B",
"{  c #57060C",
"}  c #4E1312",
"|  c #680B14",
" . c #6B0E14",
".. c #770B15",
"X. c #47260C",
"o. c #55290C",
"O. c #482B15",
"+. c #542C15",
"@. c #4A341A",
"#. c #54331B",
"$. c #59371A",
"%. c #692F15",
"&. c #66391B",
"*. c #4F1D22",
"=. c #6E1C22",
"-. c #472928",
";. c #572628",
":. c #483825",
">. c #41322D",
",. c #593A23",
"<. c #4D2D32",
"1. c #423532",
"2. c #473838",
"3. c #583738",
"4. c #663C24",
"5. c #6F3231",
"6. c #3A423D",
"7. c #68431D",
"8. c #5A4427",
"9. c #5F4C23",
"0. c #4D4635",
"q. c #694527",
"w. c #77482A",
"e. c #784C32",
"r. c #6F5030",
"t. c #795435",
"y. c #1F3740",
"u. c #253B43",
"i. c #253B44",
"p. c #2A3D44",
"a. c #373C43",
"s. c #493D43",
"d. c #6E3D42",
"f. c #2B4046",
"g. c #2C434B",
"h. c #2C454C",
"j. c #32454C",
"k. c #3A454A",
"l. c #33494E",
"z. c #2F4850",
"x. c #334B52",
"c. c #354952",
"v. c #3B4D53",
"b. c #3B5156",
"n. c #375258",
"m. c #3C535A",
"M. c #474749",
"N. c #574749",
"B. c #464C53",
"V. c #554E51",
"C. c #43555B",
"Z. c #495559",
"A. c #43595E",
"S. c #575659",
"D. c #664748",
"F. c #754B4A",
"G. c #665859",
"H. c #785759",
"J. c #696357",
"K. c #495660",
"L. c #455C62",
"P. c #4B5D62",
"I. c #555D62",
"U. c #6A5D62",
"Y. c #4B6366",
"T. c #576669",
"R. c #5B6E70",
"E. c #5C7373",
"W. c #676869",
"Q. c #776768",
"!. c #6E706F",
"~. c #677977",
"^. c #777877",
"/. c #880B15",
"(. c #980B15",
"). c #8D1016",
"_. c #A70D16",
"`. c #B3111A",
"'. c #8A3133",
"]. c #A52228",
"[. c #C9131D",
"{. c #D41922",
"}. c #CC2D31",
"|. c #824B2C",
" X c #85542D",
".X c #854C33",
"XX c #944E30",
"oX c #885636",
"OX c #945B3A",
"+X c #92643C",
"@X c #A0643E",
"#X c #913D42",
"$X c #CD3D42",
"%X c #90504C",
"&X c #875759",
"*X c #AB5253",
"=X c #9A6644",
"-X c #906C4D",
";X c #A46B48",
":X c #A8744C",
">X c #AF7954",
",X c #945D62",
"<X c #876869",
"1X c #95706F",
"2X c #877877",
"3X c #AD716F",
"4X c #D15658",
"5X c #CB7171",
"6X c #6C817E",
"7X c #76827E",
"8X c #B38258",
"9X c #8D837D",
"0X c #AF837A",
"qX c #C6847A",
"wX c #727E80",
"eX c #A37E81",
"rX c #6D8380",
"tX c #788783",
"yX c #868A86",
"uX c #988985",
"iX c #8A928C",
"pX c #97948C",
"aX c #8D9791",
"sX c #989B94",
"dX c #AF908B",
"fX c #A79B94",
"gX c #9CA19A",
"hX c #A8A39C",
"jX c #B6A59C",
"kX c #ADACA3",
"lX c #B6ADA3",
"zX c #BAB4AA",
"xX c #CC9590",
"cX c #E59B97",
"vX c #C9A49C",
"bX c #D6A49C",
"nX c #C8ACA3",
"mX c #D7ABA3",
"MX c #C7B6AB",
"NX c #D8B5AB",
"BX c #C9BCB2",
"VX c #D7BDB2",
"CX c #E4B6AC",
"ZX c #EAB0A9",
"AX c #E5BDB2",
"SX c #CDC1B5",
"DX c #D7C3B8",
"FX c #E7C5B9",
"GX c #F2C7BC",
"HX c #DDD2C5",
"JX c #F4D4C9",
"KX c #F6D6CA",
"LX c #EFE8DA",
"PX c #FAE6D8",
"IX c #FBF0E4",
"UX c #FBF5E8",
/* pixels */
"4 4 4 4 4 3 4 4 4 , +   . . . . . . . . . . . . . . . . . . . . . . . . . . . . . # # # . . # . # . . . # # # # # # # # < c x 3 o > c c x x x x x z x x x V S D D D D S S D G D D G G H H G / / / G G G D D D G / u./ / / / / / / / u.u.u.u.i.u.~ < % 0 0 0 0 0 0 0 0 r r 0 q q q q 0 q q q q q q q q q q q q q q q ] ] ] ] ] ] ] [ [ [ [ { { { { { { { { { { { { *.d.G.T.T.Y.E.R.R.~.Z.T.T.T.Y.T.T.Z.B.R.~.~.R.7XtXtXtXtXtXtXtXtXtXtXtXyX7XyX^.7XyXiXaXpXpXuX0.Q.pXpXfXfXfXpXfXfXhXhXhXjXjXjXH.3.3XnXnXMXNXmXdXdXdX%X*.&XxXxXdXdXdXxXdX0XdXxXvXNXFXFXFXFXFXFXFXFXJXJXJXJXJXJXJXPXPXJXJXJXJXPXLXJXJXPXPXPXPXPXPXJXJXLXIXIXIXIXIXIXnX%X*XvXUXUXUXUXUXUXUXUXUXUXUXUXUXUXUXUXUXIXIXIXIXIXIXPXPXPXJXGXVXnXPXZX4X4X}.}.}.4XcXAXAXcXcXcX*X5XcXxX*X*XxXqX}.}.{.{.{.{.{.{.{.{.{.[.[.[.[.[.[.`.`.`.`.`.`.`.`.`._._._._._._.(.(.(.(.(.(.).)././././././.................| | | | | | | | | | { { | { | } *.d.G.S.S.V.B.M.b < ` B.B.M.s.s.M.a.B.a.k.B.B.B.k.a.a.~ ~ 7 2 x a.v.v.x.c.v.v.l.l.j.j.a.a.b r r q r r r r 0 0 0 r r r 0 0 0 0 t a.k.( ) p.p.i.i.i.i.i.u.u.u.u.) ) ",
"4 4 4 4 l 4 4 4 4 3 +   . . . . . . . . . . . . . . . . . . . . . . . # # # . . . # # # # . # # # # . . # # # # # # # # < c x 9 o + x c c x N x x x x x N A D D D D D S D D D D D G G H H H H H H H G G G G D / u./ / / u.u.u./ / u.i.u.u.u.u.u.( 8 * 0 0 0 0 0 0 0 r a r q 0 0 q q q q q q q q q q q q q q q ] ] ] ] ] ] ] [ [ [ [ [ [ [ { { { { { { { { { { { { *.3.U.T.T.R.Y.R.E.~.R.T.R.T.R.T.~.W.M.S.!.~.~.7XtXtXtXtXyXtXyXtXyXtXyXiXyXiXyXiX9X7XsXsXpX^.2.!.sXuXfXfXfXfXfXhXhXhXhXjXjXjX<X3.H.0XjXNXnXvX0XdXdXF.*.,XxXdXdX0XdXxXdXdXxXbXmXNXFXFXFXFXFXFXDXFXFXDXJXJXJXJXJXPXJXJXJXJXJXPXPXPXPXPXPXPXPXPXPXPXPXPXIXIXIXIXIXIXvX%X*XvXUXUXUXUXUXUXUXUXUXUXUXUXUXUXUXUXUXIXLXLXLXIXPXPXLXJXFXFXAXVXPXZX5X5X$X}.}.4XcXGXCXxXxXqX*X5XxXxX5X*XZXxX].{.{.{.{.{.{.{.{.{.{.[.[.[.[.[.`.`.`.`.`.`.`.`.`.`.`._._._._.(.(.(.(.(.(.(.).).)././././././...................| | | | | | | | { { | { | } *.3.S.I.S.B.B.V.L < ` B.B.M.M.a.a.a.k.B.B.B.B.B.B.k.9 9 2 9 ~ ( a.a.c.v.x.v.v.v.x.j.j.j.a.b r r q r a r r q 0 r r r r 0 0 0 0 b ~ A C i.g.p.p.i.p.i.i.u.u./ / ) ) ",
"l 4 4 4 l l l l 4 4 >   . . . . . . . . . . . . . . . . . . . . . . . # # . . . . # . # # # # # # # # # # # # # # # # # < c x 3 o + x x c x N x N V N N N V S D G D D D D S D D D G G G H / H H G G G G / ~ V G u./ / / ) / / G D / u.u.i.i.u.u.( t r 0 0 0 0 0 0 0 r 1.r 0 q q q q q q q q q q q q q q q q ] ] ] ] ] ] ] ] [ [ [ [ [ [ [ { { { { { { { { { { { } *.<.Q.R.T.~.E.R.R.R.R.Z.~.Z.T.T.R.~.T.` W.!.!.7XtX7XtXtXyXtXtXyXyXyXyXyXyXiXyXiX9XiXsXsXsXpX1.Q.sXsXhXfXfXfXfXfXhXhXlXjXjXdXdX3.F.3.1XnXnX1XdXvX3X5.*.,XdXdXxXxXxXdXxXxXxXmXmXVXFXFXGXFXFXFXFXFXJXDXFXJXJXJXJXPXPXJXJXJXPXPXDXVXJXPXPXPXPXPXPXPXPXPXPXIXIXIXIXIXbXXX3XJXUXUXUXUXUXUXUXUXUXUXUXIXIXUXIXIXUXIXIXIXIXIXPXPXPXPXJXGXFXAXPXFXxXZX5X$X4X5XZXFXAXAXGXcX*XZXCXxXxX3XbXxX].{.{.{.{.{.{.{.{.{.{.{.[.[.[.[.[.`.`.`.`.`.`.`.`.`.`._._._._._.(.(.(.(.(.(.).).)././././././...................|  .| | | | | | | { { | { | *.d.G.I.S.S.B.M.T < R M.B.M.M.M.s.k.M.a.k.a.B.B.B.a.c L L k.k.k.a.) v.v.v.v.v.v.x.j.j.j.a.` a r r r m r r r r r 0 0 0 r 0 0 0 K ~ A / p.p.p.u.i.p.p.u.u.u.u./ / u.",
"l l l 4 4 l l l l 4 >   . . . . . . . . . . . . . . . . . . . . . . # # # . . . @ & . # # # # # # # # # # # # # # # # # < v x 2 o + x N V N N x x V V V V Z D D D D D G G D / G D G G H / / H H H G G H G D G / G / u.u.u.u.u.) u.u./ u.i.i.u.) ( u r 0 0 0 0 0 0 0 r <.r 0 q q q q q q q q q q q q q q q q ] ] ] ] ] ] ] [ [ [ } } } [ [ { { { { { { { { { { { } ;.<.!.R.~.~.~.R.R.R.T.~.~.~.R.R.R.R.~.k.S.S.B.T.^.tXtXtXyXtXyXyXtXyXiX^.yXiXiXyXiXpXsXsXpXpX0.2XfXhXhXhXpXfXhXfXhXhXlXlXjXjXdXH.3.r.D.3XdX3XdXdX3Xd.*.,XxXxXvXbXvXxXvXmXvXbXCXFXFXFXFXGXJXJXJXJXJXJXJXJXJXJXJXPXPXJXJXJXJXJXFXFXJXJXJXPXPXPXPXPXPXPXPXPXPXIXIXPXxX*XxXIXUXUXUXUXUXUXIXUXUXUXUXUXUXUXUXUXUXUXUXIXIXUXIXPXPXJXJXGXAXNXPXGXxXJXZXcXcXxXAXGXFXGXAXcX*XxX,X3XcXxXZXcX}.{.{.{.{.{.{.{.{.{.{.{.[.[.[.[.[.`.`.`.`.`.`.`.`.`.`.`._._._._.(.(.(.(.(.(.(.).).)./././././././.................| | | | | | | | | | | | | *.D.G.I.I.V.V.M.T < ` V.B.B.V.B.s.B.v.a.k.k.B.B.B.L c a.B.B.B.B.v.B.v.b.v.v.v.v.v.l.j.j.c.s.a r r r a r r q q 0 0 r r 0 0 0 0 b b ~ i.p.p.p.u.i.i.p.p.p.i.u.u.u.i.",
"l l 4 l l 4 l l l 4 >   . . . . . . . . . . . . . . . . . . . # # # . . O # # @ O @ . # # # # # # # # # # # # # # # # # < x 9 9 o + x x V N N x x x V V V V S S D D D D D D D G G G G H H H H H H G G G G / / ~ / / / u.u.u.u.u.i.u.p.u.u.i.u.) ~ 5 r 0 0 0 0 0 0 0 r I 0 0 q q q q q q q q q q q q q q q ] ] ] ] ] ] ] ] [ [ [ [ [ [ [ { { { { { { { { { { | { ;.D.3.!.W.R.~.~.~.R.~.~.~.~.~.~.~.~.B.Z.B.9 7 M.S.W.tXtXtXyXiXiXyXyXyXyX7XyXaXaXaXyXsXsXsXpX!.V.uXfXfXfXfXfXfXfXfXhXjXlXfXfXdX<XH.1X1X3.3.1XxXxX3X,X5.*.1XvXvXbXbXxX0XxXmXbXbXNXAXFXGXFXGXGXJXGXJXJXJXJXJXJXJXPXJXJXJXJXJXJXJXJXPXJXPXPXPXPXPXPXPXPXPXPXPXPXIXIXJX3X%XdXPXUXUXUXUXUXUXUXUXUXUXUXUXUXUXIXIXUXUXUXIXIXIXIXPXFXFXJXGXAXCXJXAXxXJXJXZXcXxXAXAXAXFXxXZX5XZXbX3XxX3XcX5X$X}.{.{.{.{.{.{.{.{.{.{.[.[.[.[.[.`.`.`.`.`.`.`.`._.`._._._._._._.(.(.(.(.(.(.).).).)././././././................. ...| | | | | | | | { | | *.D.G.I.S.S.B.V.T < ^ B.B.B.I.B.M.M.B.B.B.B.B.B.B.9 ` B.k.B.B.B.v.C.C.b.b.v.v.x.x.x.j.j.a.R a r r r r a r r r q q q r r 0 r 0 n ` p.p.p.i.i.p.p.p.p.p.H / p.u.u.u.",
"l l l 4 l 4 4 4 l l , O . . . . . . . . . . . . . . . . . . # # . . . < 7 < < c 9 < @ . . # # . # # # # # # # # # # # # < x x 9 o + x x V V N x N V V V l V A S S D D D D D / G / H G H H H H / / H H G G D ~ ( B D / / u.u.u.u.u./ / / u.i.i.u.~ 5 * R s.u 0 0 0 0 0 r q q q 0 q q q q q q q q q q q q q ] ] ] ] ] ] ] [ [ [ [ [ [ [ { { { { { { { { { { { | | ;.3.2.!.~.~.~.E.T.R.~.E.~.Y.T.T.~.~.R.k.Z.Z.L 8 Z.^.tXtXtXyXtXyXiXtXiXiXiXaXiXiXyXiXaXsXfXpX0.^.fXfXfXhXfXfXuXuXhXhXjXjXfXdXdXdXdXjXvXdX5.;.1XdX0X&X5.*.,XxXxXbXvX0X0XxXvXvXdXxXNXVXFXAXFXFXFXJXJXJXJXJXJXJXPXPXPXJXJXJXJXFXNXVXNXFXPXPXPXPXPXPXPXPXPXJXFXJXPXPXmX*X3XFXUXUXUXUXUXUXUXUXUXUXUXUXUXUXUXUXUXUXIXUXIXIXPXPXPXPXJXFXAXGXGXJXCXxXJXJXZXcXxXAXJXJXCXbXZX5XcXZXZXcX3XZXZX4X$X{.{.{.{.{.{.{.{.{.{.{.[.[.[.[.`.`.`.`.`.`.].]._._._._._._._._.(.(.(.(.(.(.(.).)./././././././..... . ........... .| | | | | | | | { | | *.D.S.I.I.I.B.M.L < ` B.B.B.V.s.a.M.B.k.k.a.M.k.c 7 a.k.B.k.B.C.C.b.C.b.b.v.v.v.x.v.x.j.j.s.a r r r -.-.r r r r r r r 0 r r r n ( a./ i.g.p.p.p.p.p.p.p.p.p.) / ) ",
"l l l l l 4 4 4 4 4 , O . . . . . . . . . . . . . . . . . . # . . . O 7 x 7 7 B c 7 < . . # # # # # # # # # # # # # # # < x 9 3 o + c V V V c x x x V C x x V V D G D D D D G / G G G G H H H / u./ H H D D D x > 4 ) / / u.u.u.u.u./ u.i.i.u.p.( b W a.k.T r 0 q 0 0 0 0 q q q q q q q q q q q q q q ] ] ] ] ] ] ] ] ] [ [ [ [ [ [ [ [ { { { { { { { { { | | | 5.3.<.!.~.~.~.~.~.~.~.~.~.~.~.~.^.~.~.~.R.W.!.S.W !.~.tXyXiXtXyXiXiXiXaX7XyXiXsXpXaXsXfXpXV.Q.pXfXfXhXhXfXfXuXpXhXjXjXfXfXfXjXdXjXnXnXjX,X3.3.%X,X,Xd.*.1XvXvXvXvXdXdXdXxXbXbXxXvXmXVXVXNXFXGXJXJXJXJXJXJXJXJXPXPXPXPXPXJXJXJXJXDXFXVXDXPXPXPXPXPXPXJXJXFXJXVX3X%X*XxXJXIXUXUXUXUXUXUXUXUXUXUXUXUXUXUXUXUXUXIXIXIXIXIXPXLXPXJXFXAXGXGXJXAXxXJXAXZXcXxXAXFXJXGXGXcX*XcXAXZXZXxXAXcX*X$X}.{.{.{.{.{.{.{.{.{.[.[.[.[.[.[.[.[.`.`.].*X*X]._._._._._._._.(.(.(.(.(.(.(.).(.)././././././...'.%X=. .........| | | | | | | | { | | | *.D.G.I.I.I.M.B.^ 8 s.V.V.S.S.M.M.` M.a.a.a.` ~ c a.k.a.a.a.B.C.C.C.C.C.v.v.v.v.v.v.x.j.k.V.m r r r 1.m r r r r r r q 0 r 0 0 b a.a.g.g.g.p.p.p.p.p.p.p.p.u.i.p.f.",
"l l l l l 4 l l 4 4 2 O . . . . . . . . . . . . . . . . # # # . . . @ 9 9 7 7 v c x 9 @ O # # # # # # # # # # # # # # @ 7 x 9 2 o + c V V V V N x N x x N V C S D G D S G G G / G G G G / H H / / u./ / / / D 3 , 4 ) ) / u.u.u.u.u.u.p.p.p.i.i.C b ` a.p.^ r 0 0 q 0 q 0 0 q q q q q q q q q q q q ] ] ] ] ] ] ] ] ] ] [ [ } [ [ [ [ [ { { { { { { { { { | | | 5.3.2.!.~.~.~.~.~.E.~.~.~.~.~.~.rX^.~.6X~.~.~.T.M.` !.~.tXiXtXiXiXiXiXaX7XiXaXyXiXaXpXuXV.2.2XfXhXfXfXhXfXfXhXjXjXjXjXjXjXfXdXdXjXnXnXdXdXdXF.;.5.d.5.*.1XvXvXvXvXxXdXdXxXxXbXmXNXFXFXFXJXJXJXJXJXJXJXJXJXJXJXJXJXPXPXPXJXJXJXPXJXNXvXDXPXPXPXPXPXPXJXGXCXdX&X,XxXxX*XNXUXUXUXUXUXUXUXUXUXUXUXUXUXIXIXIXIXIXIXLXIXIXPXPXPXPXJXJXAXGXGXJXCXxXJXAXZXcXxXGXGXGXFXGXcX3XcXAXZXZXxXCXcX*X$X$X{.{.{.{.{.{.{.{.{.[.[.[.$X}.[.[.[.[.`.].3X3X'._._._._._._._.(.(.(.(.(.(.(.).(.)././././././...%XF.=. ....... . .| | | |  .| | | | | | *.D.G.I.I.I.B.V.2.b s.V.V.V.V.B.M.s.M.a.a.a.` b < 7 ( ~ ~ B.Z.C.C.C.b.b.v.b.v.v.v.v.v.l.k.M.m r r r 2.-.r r r r r r r 0 0 0 0 b ( p.p.g.p.p.p.p.p.p.i.p.u.u.) ) ) ",
"l l l l l l l l 4 4 2 O . . . . . . . . . . . . . O O . . # # # . . , x 9 7 9 c x x c 8 < < # # # # # # # # # # # # # < c x x 2 o + x V V V x x V V V C V C C S D D D D D D G G / G G G G H / / / / / / / / / ( ~ ~ / ) / u.u.u.u.i.u.u.p.) N ~ ( L ` p.j.` r r 0 q 0 q 0 0 q q q q q q q q q q q q q q ] ] ] ] ] ] ] ] [ } ;.} [ [ [ [ { { { { { { { { { | | =.5.3.3.!.~.~.~.~.~.~.~.~.~.~.R.~.~.~.R.~.~.W.~.B.T.k.` V.I.yXiXiXiXiXiXiX7XiXyXaXsXsXuXN.T ^.pXfXhXhXfXhXhXhXhXfXhXfXhXdXfXdXuXdXjXnXvXnXvXvXdX&X;.;.;.;.3XxXxXvXvXvXvXvXvXmXNXNXNXAXFXFXFXFXFXFXJXJXJXJXJXPXPXPXPXPXPXPXJXJXJXPXPXJXFXJXPXPXPXPXJXGXxX,X,XdXJXJXJXmX,XxXPXUXUXUXLXLXUXUXUXUXIXIXIXIXUXIXIXUXIXIXIXIXPXPXPXPXJXFXGXGXGXJXAXxXJXGXZXcXxXAXFXFXAXCXZX5XZXAXZXZXxXAXcX*X$X4X{.{.{.{.{.{.{.{.{.[.[.}.4X$X[.[.[.[.`.].3X3X%X_._._._._._._.(.(.(.(.(.(.(.).(.)././././././...%X&X5...........| | ..|  .=. .| | | | | *.D.G.I.I.I.M.M.` u s.V.Z.B.V.V.B.M.M.M.s.L < , a.( k.B.M.B.C.C.C.C.C.C.b.b.v.v.v.v.v.v.v.B.^ a r r s.T r r q q r r r r r 0 0 n ( i.u.p.p.i.D u.p.g.i.i.p.) ~ D / ",
"l l l l l l l l l 4 3 @ . . . . . . . . . . . . , 8 < O . # . # # . < c 9 8 9 c x x B 2 , 8 # # # # # # # # % # % # & 9 v x x 2 o + x V V V V x N V C V C V V S D G F D D G G G G G G G G G H G / / / / / u./ ) ) / ) u.u./ / u.) u.u.u.p.p./ ( p.~ a.a.k.` u I r q 0 q q q 0 q q q q q q q q ] q q q q ] ] ] ] ] [ ] [ ] } 5.} [ [ [ { { { { { { { { { | | { { *.<.3.!.~.~.~.~.~.~.~.~.~.~.~.~.~.~.~.^.tX~.~.~.^.~.k.L ` !.tXyXiXyXiXiXyXyXyX9XiXpXQ.1.^.pXuXpXhXhXhXhXhXhXjXhXfXfXfXfXfXjXnXjXjXnXvXvXvXjXdXdX&X%X5.;.3XxXvXvXvXvXvXxXvXNXNXbXmXAXAXFXVXVXFXFXJXJXJXJXJXJXPXPXPXJXJXJXJXJXJXPXPXPXJXJXJXJXJXGXxX%X%X0XFXJXPXPXPXJXxX3XNXLXIXUXIXIXUXUXUXUXUXUXIXIXIXPXPXIXIXPXPXPXPXPXPXPXPXJXGXJXJXJXFXbXJXJXZXcXxXAXGXFXFXFXZXqXZXCXCXZXxXCXcX*X4X4X}.{.{.{.{.{.{.{.{.[.[.}.4X}.`.[.[.[.`.#X0XdX3X]._._._._._._.(.(.(.(.(.(.(.).).).)./././././...5.&X=...............| |  . . .| | | | | *.D.G.U.U.I.V.s.` u s.V.B.B.B.V.V.a.a.` c 9 < L B.M.B.B.v.C.B.C.C.C.C.C.b.b.v.v.v.v.v.v.l.k.T a r r 2.^ a r q q 0 T _ u r 0 0 u ~ p.p.G / ) / u.p.p.i.i.i.D V C C ",
"l l l l l l l l 4 4 3 @ . . . . . . O O . . . . , x x , . . # # # . 7 c 9 8 c c l l c , 7 9 . # # # # # # # # # # # < L C x 4 +   + x x V V N x V V A S A A S S D D D S S D D D D G G / G / G G / / / / / ) ) ) / / / u.u.u./ ) u.u.u.i.p.g.p.f.a.~ a.a.a.` u 2.r 0 q 0 0 0 q q q q q q q q q ] q ] ] q } ] ] ] ] [ [ [ [ [ } [ [ [ { { { { { { { { { *. .| |  .*.-.<.!.~.E.~.~.~.~.~.R.R.~.T.~.Z.T.~.rX7X^.~.~.~.7X~.S.` W.^.tXyXtXyXyXyXyX!.^.yX2X! Q.uXpXpXsXhXhXfXfXfXfXjXhXfXfXfXjXjXjXdXdXnXjXdXvXdXvX0X3X,X&X5.;.1XxXxXvXvXxXxXvXvXmXbXvXmXAXFXFXGXFXVXFXJXJXJXJXJXJXJXJXJXJXJXJXJXJXJXPXPXPXJXJXJXJXxX%X%X3XbXJXPXPXPXPXPXPXJXdX0XPXIXIXIXLXIXUXUXUXUXIXIXIXIXIXPXPXPXPXPXPXPXPXPXPXPXJXJXJXJXPXAXxXJXGXZXZXqXAXGXFXFXGXCXxXZXZXCXZXxXAXcX*X4X5X}.{.{.{.{.{.{.{.{.[.[.[.[.`.[.[.[.[.`.*X0XdX3X]._._._._._._.(.(.(.(.(.(.(.(.(.).).)./.)././...=.'. ...............| |  .| =.| | | | | *.D.U.U.U.V.S.^ L 5 L M.V.` ^ a.a.a.c c c ` M.B.Z.Z.Z.C.B.v.v.v.C.C.b.C.b.C.v.v.v.v.x.v.l.k.^ a r r s.M.m r q r r ^ ^ u 0 r 0 r c ) p.F u.p.p.p.p.p.i.u.D V c 4 3 ",
"l l z z z z l l l 4 3 @ . . . . . . < < O . . O 2 x x 2 O . # # # . < c 9 9 c x 4 9 c , 3 c < # # # # # # # % # # # < c B c 3 o   o 9 x V V C V V V A A S A S S S G G G G G G G G G G G G / / G / / / ) ) ) u.) u.u./ u.u.u.u.u.u.p.u.u./ p.u.f.k.~ ` ) p.` n s.p 0 0 0 q q q q q q q q q q q q q ] ] } 3.} ] [ [ [ [ [ [ [ [ [ [ { { { { { { { { { } F.%X . .=.;.-.<.!.~.E.~.~.~.E.~.Z.A.~.~.rXR.~.rX7X7X^.tX~.T.^.~.~.W.W L M.W.` ` ` V.W.M.R R g u D.2XuXpXpXfXfXpX9XG.2XfXhXfX2XuXjXfXuXdXdXjX1XuXnXnXnX1X3XxX1X5.*.,XxXxXvXbXmXvXmXNXNXmXVXAXVXFXGXJXJXJXJXJXJXJXJXJXJXJXPXJXJXJXJXPXPXJXJXPXPXPXPXJXGX3X%XdXJXPXPXJXPXPXPXPXJXJXdX&XNXIXIXLXDXHXUXUXUXIXIXPXPXIXIXPXPXPXPXPXPXPXPXPXPXPXJXJXGXJXPXAXxXJXGXZXZXxXAXAXmXFXGXCXxXAXmXZXZXcXZXxX*X4XcX$X$X{.{.{.{.{.{.{.[.{.[.[.[.[.`.[.[.`.*X3X0X*X_._._._._._._.(.(.(.(.(.(.(.(.(.(.).)./././././.....................| |  .=.=.| | | | | *.D.U.W.U.S.V.^ b < t b n 5 8 < < < b M.B.B.Z.Z.Z.B.Z.C.C.C.C.C.C.C.C.C.C.C.C.v.v.l.v.v.v.M.T <.I u s.s.K r q r r b ^ p r r 0 5 L ) p.p.p.u.F ~ / p.p.i.D C A 9 B ",
"l l l l l l l l l l 9 , . . . . . O < 9 , O O O , x x 7 . # . # # . , x 4 7 x x 4 4 c , , B 8 # # # # # # # % % # # < c c c 4 @   + x N V V V V C A A V S S S D D G G G G G G G G G H H G / / / / / u./ / / / / / u.u.u.u.u.u.u.u./ u.u.p./ H ) ( L ` p.a.` n s.u 0 0 q 0 q q q q q q q q q q ] ] ] ] ] } ] ] [ [ [ [ [ [ [ [ [ { { { { { { { { { { { ,X,X=.| 5.5.*.-.!.~.~.~.~.E.~.~.~.~.~.~.rXZ.R.^.tXrXtXk.` W.^.~.^.^.^.M.` M.W W ` ` ` V.^.2XN.J.N.g p p T V.uX2XQ.N.Q.pXhXfX<X9XfXdXdXjXdXdXdXjXMXnXnX3X3XxXdXF.*.,XxXvXvXxXvXmXNXNXVXNXVXFXFXFXFXJXJXJXJXJXJXJXJXJXJXPXJXJXJXJXJXJXJXJXJXJXJXPXPXJXxX,XbXJXPXPXPXPXJXJXJXPXHXMXVXdX3XPXIXHXjXDXIXUXUXIXPXPXPXIXIXPXPXPXPXPXPXPXPXPXPXPXJXJXGXJXJXGXbXGXAXZXcXxXAXGXFXNXFXCXxXAXCXAXZXcXZXcX*X5XcX5X}.{.{.{.{.{.{.{.[.[.[.[.[.[.}.`.[.`.].*X3X*X_._._._._._._._._.(.(.(.(.(.(.(.(.).)./.)./././....................... . .=.| | | | | | *.d.G.U.G.V.N.^ t < u u t < ^ b W s.B.B.Z.Z.Z.K.B.K.Z.C.C.C.B.C.C.C.C.C.v.C.v.v.k.v.v.v.v.k.P 2.1.b ^ ` T a q r a ` ` p r r r r L i.p.p.g.p.i.G D u.p.u.u.( B 9 4 ",
"l l l l l l l l l l l < . . . . . O 2 9 9 , o + 3 l l < . # # # # O , x 4 , 2 4 x 9 c 3 3 B 9 O # # # # # # % % # # < c B c 3 o   o 9 N V V V V V C A S S D S D D D G G G G / G G G H / ) / / / / / H / / ) / ) u./ u.u.i./ u.i.p.u.p.u.u.p.g.p.) c ` a.k.` n ` u 0 0 q r q q q q q q q q q q ] ] ] ] ] ] ] ] ] [ [ [ [ [ [ [ { { [ { { { { { { { | { } =.| { 5.;.-.D.!.~.~.~.~.~.~.~.~.~.~.6XrX~.~.^.rXrXtXtX7XtX7X^.7X^.7XyX7X^.yXyXtX9X9XyXsX^.G.yXyX9X9X2XM.1.2X<.3.-.p 2XpXpX2XdXfXjXjXjXdXdXnXMXnXnXNX&X5.5.5.5.;.1XvXbXmXmXbXmXNXVXVXFXFXFXFXFXFXJXJXJXJXJXJXJXJXJXJXPXJXJXJXFXFXJXJXJXJXJXPXJXPXAX,X3XJXPXPXPXPXPXPXPXPXPXPXPXPXNX1XvXIXIXIXLXUXUXUXIXIXIXIXIXIXPXPXPXPXPXJXPXLXPXPXPXJXJXGXJXJXAXbXGXmXGXZXxXAXGXNXFXFXCXxXAXCXCXZXxXZXcX*X5XcXcX}.{.{.{.{.{.{.[.[.[.[.`.`.`.`.[.`.`.].*X3X*X`._._._._._._._._.(.(.(.(.(.(.(.)././.).)././././....................... . .| | | | | | ;.D.U.W.U.S.s.2.n 5 5 t ^ M.B.V.Z.S.S.S.Z.B.B.K.Z.K.P.K.P.K.P.C.C.C.C.C.v.c.v.C.c.v.v.j.j.k.T 2.<.b ^ M.` a r r T a.a.p r r 0 u ~ ~ p.g.g.g.p.u.p.p.i.i.p.) V A ( ",
"z l l l l l l l l l l < . . . . . @ 7 x l x l 9 x x x < . # # # # O , x 9 , , 3 x 9 c 7 3 B 9 8 9 # # # # # # # # # < c c x 3 +   o x V V C C A A V V Z S S S S D D G G G G G / G G G / G D / / D ) / / / / u.) u.u.i.u.i.u.u.i.u.u.p.u.p.g.g.p.( L ` a.k.` b ` u q 0 r 3.a r q q q q q q q ] ] ] ] ] ] ] ] [ [ [ [ [ [ [ { [ [ [ [ { { { { { { { | { {  .| | 5.5.-.N.^.~.~.~.~.~.~.~.~.~.~.~.~.~.R.~.rXtXrX~.~.tXtXtXW.~.yX7X^.!.yX^.7X7XyXsXyXM.2XsXhXsXpXfXfXfXpXpXN.3.<.3.2XuX9XuX9XuXdXjXdXjXNXMXMXnXdX0XF.5.&Xd.;.1XbXvXmXmXmXmXmXNXVXFXFXFXFXFXFXJXJXJXJXJXJXFXJXJXJXvXvXJXJXJXGXJXJXJXJXJXJXPXJXdX%XdXJXPXPXPXPXPXPXPXPXPXJXNXNXJXxX3XJXIXIXIXUXUXUXIXPXPXPXPXPXPXPXPXPXPXPXPXPXPXPXPXJXJXGXJXJXAXbXGXZXGXZXxXCXFXFXVXNXCXxXAXAXAXZXxXZXcX*X5XcXcX}.{.{.{.{.{.{.[.[.[.[.[.}.`.[.`.`.`.].5XxX5X]._._._._._._._._._.(.(.(.(.(.).'.*X)./.)./././.........................| | | | | | | | ;.G.U.S.I.S.s.s.b t t ` M.S.S.S.B.B.S.S.S.Z.Z.I.I.K.P.Z.C.C.K.K.C.C.C.b.v./ j.v.v.v.v.v.v.k.T s.<.n ^ k.s.m r r ^ a.` b 5 r 0 T ( a.i.p.p.p.u.u.p.p.p.p.i.D V ~ ) ",
"l l l z l l l l l l l , . . . . . @ 3 l l l l l l x x < . # # # . O 3 x 9 , > 3 x 9 B 9 3 B 9 7 c @ # # # # # # # # < c c x 3 o   + x c V C C V A S S Z A S S S D G / / G / G / / D G / / / G S D G S / / ) u./ u.u.u.u.u.u.u.u.p.p.u.i.g.p.p.i.A L a.p.j.` b ` u q q 0 u 1.3.r q q q q q q ] ] ] ] ] ] ] ] ] [ [ [ [ [ [ { { { { { { { { { { { { { { { | | | 5.;.3.I !.~.~.~.~.R.~.~.~.~.~.~.~.W.T.R.~.rXrXtXtX7XtX!.^.yXyX7XyXiX7X7XiXyX9XW.S.S.yXhXsXpXfXsXfXsXuX2X2XN.N.H.N.<XdXuXfXdXdXuXuXjXnXvXvXdXdXH.,X1X,X5.*.3XvXvXmXmXmXNXNXVXFXFXFXDXFXVXVXFXJXJXJXJXJXAXNXFXJXJXFXNXmXAXAXVXFXJXJXJXJXCX3X%X5.3XJXPXPXPXPXPXPXPXPXPXJXNXvXJXNX,X0XPXIXIXUXIXIXPXPXPXPXPXPXPXPXPXPXJXJXPXPXPXPXPXJXGXAXAXJXCXxXJXGXxXcXxXAXFXDXFXFXCXxXAXAXAXZXcXZXcX*X5XcXcX$X{.{.{.{.{.{.[.[.[.[.}.$X[.[.`.`.`.].5X5X4X`._._._._._._._._._.(.(.(.(.(.).'.*X'./.)./././...........................| | | | | | | ;.G.U.I.S.S.s.2.t u n M.S.B.B.I.B.B.Z.S.S.Z.S.I.I.v.P.P.Z.C.C.C.C.B.v.v.v.v.B.v.) ~ i.p.j.a.T 2.<.T ` M.s.m r r T ` ~ ` ` b 5 ^ ~ i.p.p.p.u.u.u.u.p.p.p.p./ / ) / ",
"l l l l l l l l l l x < . . . . . @ 3 l z z l l x l x < . . # # # O < x 9 , > 4 c 9 B c 7 B 9 7 c < # # # # # % # & 8 c x x 2 o   o 9 c C C A S V A S S S S D D G / / G G G G / G D G / / / G / / / / / G H / u.u.u.u.i.u.u.i.i.u.u.u.p.i.f.f.f.( L a.a.j.` b ` u 0 q 0 a 2.N.r q q q q q q q ] ] ] ] ] ] ] ] [ [ [ [ [ [ [ [ [ { { { { { { { { { { | | | | | 5.;.3.D.!.~.R.~.~.T.~.~.~.R.~.R.Y.T.Z.B.R.^.tXtXtXtX7X!.tX^.yXiX7XyXyXiXiXiXV.f K U.pXgXsXsXsXpXfXpX9X9X9X2XQ.3.<.D.2XuXdXjXdXjXdXjXvXdX0XdX<X1XdX,X5.;.*.3XbXvXmXmXmXnXNXVXAXFXFXGXVXVXFXFXFXFXFXFXJXFXmXVXJXJXJXJXJXJXJXJXFXFXJXJXCX,X5.5.5.3XJXPXPXPXPXPXPXPXPXPXPXJXHXPXJX0X3XJXIXIXIXIXPXPXPXPXIXPXPXPXPXPXPXPXJXPXJXJXJXPXJXGXGXGXJXZXxXJXGXbXbXqXAXGXFXAXFXCXxXZXAXCXZXcXCXcX%X*XcXcX4X}.{.{.{.{.{.[.[.[.[.[.[.[.{.`.[.`.].5X#X]._._.`._._._._._.(.(.(.(.(.(.(.).%X,X'.).)./.).'.....).......................| | | | | | *.G.U.I.I.V.s.s.b u T M.S.S.V.S.Z.Z.S.I.S.S.Z.Z.Z.Z.C.Z.Z.C.C.C.C.j.a.c.v.b.l.v.v.v.v.j.j.a.P 2.2.K ` B.a.n r r m ` ~ ` a.( ^ a.p.p.p.p.g.p.p.p.p.p.p.p.u.u.p.) / ",
"l l l l l l z l l l l , O O . . . @ 3 x z z x x z z 9 < . # # # # O < x 9 < , 7 c 9 B c x c 9 7 c < # # # # # # # < b x 3 9 2 o   o 3 c V C Z S S S S S D F D D G G G G G G / / G D G / / H / / ) H / / / u.u./ u.u.i.i.i.i.i.i.u.i.i.g.f.g.p.g.) ~ a.p.j.` b 2.u q q q r a m q q q q q q q ] ] ] ] ] ] ] ] [ [ [ [ [ [ [ [ [ { { { { { { { { { { { |  .=.| | 5.=.} <.Q.~.~.W.~.~.~.~.R.S.~.~.~.~.~.~.~.~.7XtXtXtXyXtXiXyXiXaXyXyXyXtXiXyXV.L ` ^.sXsXhXsXsXsXsXpXpXpXpXpXuX9X2XD.3.G.<X1XdXjXdXdXjXjXdX&XF.1X1X5.5.;.;.3XxXvXmXNXVXVXVXVXAXVXFXFXFXFXFXFXJXFXFXJXJXGXNXNXFXJXJXJXJXJXJXJXJXGXJXCX3X5.%X3X3XxXJXPXPXPXPXPXPXPXPXPXPXPXPXPXJXvX,XxXPXIXIXIXPXPXPXPXPXPXPXPXPXPXJXPXPXPXPXPXJXPXJXGXGXGXJXZXxXJXGXbXZXxXAXGXFXAXFXCXcXZXAXCXZXcXZXqX%X3XcXcX*X4X}.{.{.{.[.[.[.[.[.[.[.[.[.`.`.`.`.].`._.`.`._.`._._._._._._.(.).'.).).).%X,X'./.)./././...............................| | | | | *.H.U.G.S.N.2.2.u u n M.S.S.S.I.I.I.S.S.I.I.Z.I.P.Z.K.C.Z.Z.Z.C.C.C.j.v.C.b.b.b.b.b.b.v.k.k.R s.s.K a.B.a.n r r u ` ~ ( a.a.` a.p.p.p.p.p.i.p.p.p.p.p.p.p.p.p.u.) ",
"l l l l l l l l l l x , < 8 O . . @ 4 z z z x x x x x < . # # # # # 7 x 9 , , 9 x x c x B c 9 7 9 @ # # # # # # # < c 7 2 > o o   o 3 x V C S S D D D S S D D S D G G G D S / G D S D / / u./ / / / / / u.u.u.u.u.i.i.i.i.i.i.i.i.i.p.i.i.p.g.g.i.~ k.p.p.` b 2.u q q q r q q q q q q q q ] ] ] ] ] ] ] ] ] [ [ [ [ [ [ [ [ { { { { { { { { { { { { 5.F.;.{ | =. .| *.Q.!.~.~.~.~.~.~.R.R.~.^.^.~.~.^.~.~.~.tXtXtXtXtXiXaXyXiXiXyXiXiXiXyX9X!.^.iXsXsXfXsXpXpXpXpXfXpXpXpXuXuXdXuX<XD.-.D.<XdXdXdXdXjX1X5.5.5.5.5.5.5.;.3XxXvXmXVXVXFXFXFXFXFXVXvXNXFXGXGXFXVXNXFXFXAXmXAXJXJXJXJXJXJXJXJXFXFXAX3X5.,XbXGXJXJXJXPXPXPXPXPXPXPXPXPXPXPXPXPXPXJX0X*XNXPXPXIXPXPXPXPXPXPXPXPXPXPXPXPXPXPXPXPXJXJXJXAXGXAXAXbXxXJXJXZXmXqXAXFXVXNXFXZXZXAXAXCXZXcXZXxX*X5XcXcX#X5X4X}.{.{.{.[.[.[.[.[.[.[.[.`.`.`.`.`._._._.`.`._._._._._._._.(.'.5X=.].).%X,X5./.).)./././.................................| | | *.H.Q.U.S.s.T ^ u b b s.V.S.I.I.I.I.I.I.I.I.I.B.Z.Z.P.Z.C.B.Z.Z.B.v.k.C.C.C.C.b.v.b.b.v.v.k.R s.s.K ` B.a.K r r u ` ~ ( a.a.a.a.p.p.p.p.p.p.u.p.g.p.p.p.u.u.i.u.) ",
"l l l l l l l l l l x , < 9 & . . , 4 z z z x x x x c < # # # # # @ 7 x 9 , , c N c x 4 V V l 3 9 & # # # # # # % < 9 7 2 @ o     o 3 c C A S S D D D D D D D S D G G G D D S G / / / / u.u./ u.u./ / u.u.u.u.u.u.i.i.i.i.i.i.i.i.i.i.i.g.p.g.f.p.( a.p.p.` i 2.p q q q q q q q q q q q ] ] ] ] ] ] ] ] [ ] [ [ [ [ [ [ [ [ { { { { { { { { { { { } &XH.;.{ |  . . . .;.Q.~.~.~.~.~.~.~.~.~.~.~.~.~.~.~.tXtXtXtXtXE.tXiXaXaXiXiXiXiXiXiXiXpXyXpXsXsXsXhXfXsXpXsXpXfXfXfXfXuXfXfXfXdX2X<XH.<.-.3.3.3.r.d.3.;.5.;.;.5.5.;.3XbXmXNXNXVXDXFXFXFXFXFXnXNXFXFXFXFXVXmXvXNXVXNXFXJXJXJXJXJXJXJXJXJXFX0X.X,XCXGXJXJXJXJXPXPXPXPXPXPXPXPXPXJXJXPXPXPXPXmX%X3XJXPXPXPXPXPXPXPXPXPXPXPXPXPXPXPXPXPXPXPXPXJXCXJXJXJXCXxXJXJXZXmXqXZXFXFXNXAXAXZXZXCXCXZXcXZX3X*X5XcXcX*X5X4X$X{.{.{.[.[.[.[.[.[.[.[.`.`.`.`.`.`.`._.`._._._._._._._._.(.'.xX5.*X).%X,X'.).).)././......./......................... .| | | *.H.Q.U.V.s.2.^ u u b s.V.I.I.I.I.I.I.I.I.I.I.Z.Z.P.Z.C.Z.B.k.B.B.v.v.Z.C.C.C.b.b.b.v.v.v.M.T s.s.K ` k.a.^ r r R a.( ( k.a.( a.i.p.p.g.i.p.i.p.p.p.g.g.p.i.p.p.p.",
"l l l l l l l l l l x , , 9 < . . , x z z z z x x x v 7 O # # # # & 7 x 9 @ < B V c V V V V x 3 9 @ # # # % % # % < < < > + o o   o 3 c C D S S D D D D D D G G D D D / / D D S D G / / u.u.u.u.u./ u.u.u.u.u.u.i.i.i.i.p.i.i.i.i.u.i.i.g.g.g.f.p.( k.p.k.` i 2.a q q q q q q q q q q q ] ] ] ] ] ] ] ] ] [ [ [ [ [ [ [ } [ [ { { { { { { { { { { } H.D.5.| |  ..... . .3.!.~.R.~.~.~.T.~.~.~.~.~.R.~.~.tXtXtXtXtXtXtXiXiXaXaXaXiXyXyXaXaXsXpXsXsXgXsXhXhXpXsXfXfXfXfXfXfXfXfXfXfXfXdX9X1X9X<XD.3.F.&X1X3X3X1X5.5.d.5.;.3XbXmXNXVXVXDXFXDXFXFXFXFXVXNXVXVXAXmXNXNXbXVXFXFXJXJXJXJXJXJXJXJXGX0X%X3XCXGXJXJXJXJXJXJXJXJXJXPXPXPXPXPXPXPXPXPXPXPXJXqX*XbXPXPXPXPXPXPXPXPXPXPXPXPXPXPXPXPXJXJXPXJXGXCXJXJXJXZXxXJXJXGXZXqXZXFXVXmXGXGXZXcXZXCXZXcXZXxX5X4XcXcX*XqX4X$X[.{.[.[.[.[.[.[.[.[.[.`.`.`.`.`.`.`.`.`._.`._._._._._.(.).'.dXF.3X'.%X3X5./.).)././.'.'.....................| ....|  .| | | ;.H.Q.S.V.1.1.T u b n s.V.S.I.I.I.T.I.I.I.I.I.S.Z.Z.P.Z.C.k.a.k.k.B.v.v.C.C.C.C.b.b.v.v.v.k.T s.s.T a.M.k.^ r r 2.a.~ ( k.a.( a.a.p.p.p.p.p.i.p.g.p.g.g.p.i.p.p.u.",
"l l l l l l z l l l x , , 9 < . . 2 l z z z z x x x x 9 < . # # # @ 9 x 9 > < B N x x V V V 9 2 9 @ # # # % # # # < 7 7 > + > o   o 2 x N V S S D D D D D G G G / G G G G / G G G G G / / u.u./ / / u.u.u.u.u.u.u.u.i.i.p.i.i.i.p.i.p.i.p.g.g.g.p.( k.p.a.` u m r q q q q q q q q q q q ] ] ] ] ] ] ] [ [ [ [ [ [ [ [ *.5.} { { { { { { { { { { { *.H.D.F.| |  ....... .} Q.!.~.~.~.~.~.~.~.6XrX~.R.~.tX7X~.tXtXtXiXyXiXaXaXaXiXiXaXyXaXsXpXsXsXsXsXsXsXhXsXfXfXfXfXfXpXfXjXfXdXfXfX9XuXdXdXuXuXdXdXdXdXdXdX1X5.5.5.5.5.3XdXxXvXmXVXFXDXVXFXFXFXFXFXFXFXFXAXFXFXCXAXAXNXVXGXJXJXJXJXJXJXFX3X5.,XmXJXJXJXJXJXGXmXbXZXGXJXJXJXJXPXPXPXJXPXPXPXPXPXAX3X3XJXPXPXPXPXPXPXPXPXPXPXPXPXPXPXPXJXJXJXJXGXCXJXJXJXCXxXJXGXCXZXqXCXFXDXNXFXGXZXcXCXCXcXxXcXqX5X5XcXcX*XxX4X$X[.[.[.[.[.[.[.[.[.[.`.`.$X`.`.`.`.`.`.`._._._._._._._.(.).'.dXF.5X=.#X3X=./.)./././.'.,X=................... .....| | | | | 5.D.U.V.N.s.^ 1.u u T s.N.S.I.S.I.T.I.I.I.I.I.I.I.I.Z.Z.B.C.Z.B.C.v.v.C.v.C.C.b.v.v.v.v.v.M.n s.s.T a.a.a.^ a 0 s.k.( p.a.a.( a.p.i.p.p.g.u.u.p.g.g.g.p.p.p.p.p.p.",
"l l l l l l l z l l x , , c < . O 2 l z M z z z z x x x 7 O # # # @ 3 x x < < C C x x N V V 9 3 9 @ # # # # # # # < < , @ + +     O 2 3 N C C D D D D G D G / G D D G G / G G S G G / ) / u.u.u.u.u./ u./ u.u.) u.i.u.u.p.p.p.p.g.p.p.f.g.g.g.f.) ~ k.a.a.m r 0 0 q q q q q q q q q q q ] ] ] ] ] ] ] [ [ [ [ [ [ [ } 3.F.*.[ { { { { { { { { { { *.H.dX} |  .| | | .. . .H.!.~.~.R.R.~.~.~.7X7X7XtX7X7XtXtXiXyXiXiXyXtXyXiXiXiXaXyX7XiXaXsXsXsXsXgXsXpXpXsXhXhXfXfXpXuXdXuXfXdXfXjXfXdXdXdXdXdX1XdXdXdXdX1XF.;.;.} ;.;.,XdXdXvXmXVXVXVXVXFXFXFXFXFXFXAXVXVXAXAXAXFXAXCXCXAXJXJXJXJXJXGX3X5.,XxXNXJXJXJXJXGXZX3X%X%XxXJXPXJXJXPXJXPXPXJXPXPXPXPXPXbX,XxXJXFXJXPXPXPXPXPXPXPXJXPXPXPXPXJXJXFXJXCXmXJXJXGXZXxXCXAXxXmXqXAXVXNXFXFXGXZXcXAXAXcXxXmXxX3X3XcXcX*XcX5X$X[.[.$XcX}.[.[.[.[.[.`.}.5X_.`.`.]._.`.`._._._._._._._.(.).'.dXF.5X).'.*X/././././...5.%X'...........................| |  .=.F.D.G.V.` 1.T T u b b T 2.V.S.I.I.I.I.I.I.I.I.I.I.Z.B.Z.Z.C.Z.C.C.B.v.j.C.C.C.C.v.v.x.v.v.k.T 2.s.T s.a.a.^ a 0 2.M.( p.j.k.a.p.a.p.g.g.p.u.p.p.g.p.p.u.p.p.i.i.i.",
"l l l l l l l z l 4 x , , c < . O 3 z z z M N N x x x x c < # # # O 7 x x 2 < C N x N N N V x 7 9 # # # # # # # # & < < @ + >     o , 7 c C S D G D G G G G G G G D G D G / G D S D D D / u.u.u.u.u./ / u.u.u.u.i.i.i.p.u.i.p.p.i.p.p.p.p.g.g.f.a.~ k.a.b 0 q q q q q q q q q q q q q ] ] ] ] ] ] ] ] [ [ [ [ [ [ [ [ } 5.} { { { { { { { { { { { } 5.;.{ =.%X'. .| |  .| H.!.~.~.~.~.~.~.~.~.~.7X~.~.7X~.tXiXyXiXtXiXiXyXtXiXaXaXsXaXsXsXaXsXsXsXsXpXpX9XpXsXfXfXfXfXfXfXdXjXdXuXdXjX1X1XuXdXdXdXdXjXdXdX,X5.;.5.5.5.5.,X0XxXmXNXVXDXDXFXFXFXFXJXFXVXVXAXFXFXFXVXNXmXxXvXNXFXJXJXJXmX&X%.,XmXGXJXJXJXJXGXJXqX'.'.%X0XJXJXJXPXPXPXPXPXPXPXPXPXPXPXFX3X%XdXFXPXPXPXPXPXPXPXPXPXPXPXPXJXJXJXJXJXJXJXJXGXAXCXxXGXJXGXmXqXAXFXFXFXFXAXZXcXCXCXZXxXmXbX3X3XcXcX*X5X4X$X[.[.$XcX].[.[.[.[.[.`.}.4X_.].*X5X]._._._._._._._._.(.(.).'.dXF.5X).).)./././.'.......=...........................| | | | ;.H.G.G.N.M.^ ^ 1.n n T T ` M.I.I.I.T.I.I.I.I.I.I.I.Z.Z.Z.C.C.B.C.v.B.B.v.C.C.C.C.b.b.v.v.v.M.T s.N.T a.M.k.` a r _ a.~ / p.a.( a.j.p.j.p.p.p.g.g.g.p.p.p.p.p.i.i.i.",
"l l l l l l l l l 4 x 2 , c < . @ 3 l z z z N x N N x x c 7 . # # O 9 x l , < B V v V V N V x 9 9 . # # # # # # # & < @ + > @ @   o o 2 N V S S D D G G G G G D D G G D G / G G D D ~ S / u.u.u./ G / u./ u.i.p.i.u.i.i.i.u.i.i.i.p.i.i.p.f.f.f.a.( s.u 0 0 q q q q q q q q r q q q q q ] ] ] ] ] ] ] [ [ [ [ [ [ [ [ [ [ [ [ { { { { { { { { { { { |  .| {  .5. ... .| } Q.~.~.~.~.R.T.~.~.~.^.tX7XtXtXtXtXtXiXtX7XtXyXiXiXiXiXaXaXaXsXpXsXiXsXsXsXsXpXuXpXpXpXfXfXhXfXuXuXuXfXdXdXuX0XdXdXdX1XdXdXjXdX3X&X;.*.5.5.;.;.,X3X0XvXNXFXFXFXFXFXFXFXFXVXNXAXNXAXFXFXFXmXmXNXNXmXAXJXJXbX&X5.5.0XGXJXJXJXJXJXJXJXqX'.'.*XxXGXJXJXJXJXJXPXPXPXPXPXPXPXPXJXxX%XdXJXPXPXPXPXPXPXPXPXPXPXPXJXJXJXJXJXJXJXJXJXGXJXZXxXAXGXGXZXqXGXFXFXFXCXAXZXcXCXZXZXxXmXbX3X3XcXcX4X5X4X$X[.[.$XxX].[.[.[.[.[.`.`.`.`.].5X5X]._._._._._._.].*X].(.).#X3XF.5X).).)./...'.3X#X)./......................... ....... .5.H.G.G.G.N.N.s.R _ n b T K T M.S.I.I.T.T.I.I.I.I.I.Z.Z.Z.Z.Z.B.C.C.v.B.B.B.B.C.C.C.b.v.v.v.v.M.R s.M.T s.B.a.` a r _ a.~ ) p.a.` a.j.p.p.i.p.p.g.p.p.p.p.p.p.p.i.i.i.",
"l l l l l l l z z l x 2 , c < O @ 3 l z z z z N N z z x c 7 . # # < l x 9 , O 9 C V V V V V c 9 7 # # # # # # # # @ < , > > +     o @ 2 c V A S D D D D G / G D D G G G G / G G / D / ) / / / / / / / / / u.u.u.i.i.u.u.u.u.i.i.u.u.H f.p.g.f.p.( R p 0 q q 0 q q q q q q r D.r q q q ] ] ] ] ] ] ] ] ] [ [ [ [ [ [ [ { { [ [ { { { { { { { { { { { { { | | |  . ...| | 3.!.~.~.~.!.W.~.~.~.7XtXtXtXtXtXtXtXyXtXtXtXtXiXiXiXaXiXaXiXaXpXiX^.iXpXsXsXpXyX2X^.pXfXfXfXfX9X2XuXuXfXuX9XdXdX0XdXdXdXuXdXdXdX1X%X5.5.5.5.;.;.%X3XxXbXNXDXFXFXDXFXFXFXFXAXVXVXVXVXNXAXFXmXmXAXFXVXFXJXvX%X5.3XCXCXFXGXJXJXJXJXJXJXZX3X%X3XmXGXJXJXJXGXCXJXPXPXJXPXPXPXPXPXxX5.,XJXJXPXPXPXPXJXJXJXJXJXPXJXJXJXJXJXJXJXJXJXGXFXZXxXGXFXFXZXqXGXFXFXFXFXAXZXxXAXAXcXxXbXbX3X*XZXcX*X5X4X$X[.[.#XxX].`.[.[.[.`.`.`.`.`.].5X3X]._.`._._._._.#X3X*X).).%X1XF.5X).).)././.*X%X'.)./././...../................. ..... .H.G.G.G.V.V.s.^ _ K u u b T T s.V.I.I.T.T.T.I.I.I.I.Z.P.Z.Z.Z.Z.B.Z.C.B.v.v.v.C.b.b.C.v.x.v.j.k.T s.N.T s.k.k.` T u s.a.~ ( a.a.` a.p.g.p./ i.g.g.g.p.p.p.p.p.i.i.u.u.",
"l l l l l l 4 l l l x , , c < O @ 4 z z z z N N z z z N V 7 . # # < x v 9 , < x c N V V V V x 9 9 . # # # # # % # & 7 7 > 2 > o o o + 2 x V S D D D D D / G G G D / / / / G / / D / / D D / / / / u.u.) / / / u.u.u.u.u.u.u.u.i.u.) u.p.g.f.p.p.K r 0 q q 0 0 q q q q q q a 3.r q q ] ] ] ] ] ] ] ] [ [ [ [ [ [ [ [ { [ { { { { { { { { { { { { { { | | | | | =. . . .F.Q.!.~.~.~.~.~.~.~.~.^.7XtXtXtXtXtX7XtXtX7X!.7XyXiXiXiXiXaXaXsXaXaXyX^.sXsXsXpXuXU.Q.uXpXfXfXfX9XuXdX9XuXdXdXuXuX9XuX0X1X0XdXdXdX3X,X5.;.5.5.5.=.,X3XdXvXNXVXVXVXVXFXFXFXFXVXNXAXFXFXFXFXAXbXNXGXFXxXxXdXF.5.3XFXGXFXFXGXJXJXJXGXGXJXJXxX*XqXGXGXGXFXGXbX*X3XZXFXNXJXPXPXPXPXbX5.%XJXPXJXJXJXNXNXNXJXJXJXJXJXJXJXJXJXJXGXJXJXGXJXCXbXGXFXFXmX0XGXFXFXFXFXAXZXcXAXCXcXxXbXbX5X*XcXxX*X4X4X$X[.[.$XcX$X`.[.`.`.].4X].`.`.].qX5X)._.`._._._.].3X3X*X).).%X1XF.5X).).).)./.'.*X'././././././././.....=.=.'.=.| .... .} H.G.G.G.V.N.V.T s.2.u u u K T V.S.I.I.T.I.T.I.I.I.I.Z.Z.I.Z.Z.Z.C.C.v.v.k.v.B.C.b.b.b.v.v.x.l.M.P 2.N.T a.k.k.a.^ u s.k.~ ( a.a.` a.p.p.p.u.p.p.g.p.p.i.i.u.i.u.p.u./ ",
"z z l l 4 4 4 4 z l x , , c < O , 9 x z z z x N N x N z x 7 # # # < x x 9 < < x V N N V V V x 9 7 . # # # # # % # @ 8 9 > , > o   o > 9 x V S S S D G G / D S D G G G / / / D G S D D D / u.u.u.H u./ u.u.) u.i.i.i.i.) / u.u.p.) u.u.u.f.i.p.( u 0 0 q q q q q a q q q q a -.*.q q q ] ] ] ] ] ] ] [ [ [ [ [ [ [ [ =.{ { { { { { { { { { { { { { { | | | | | | |  .| <X!.W.~.~.~.~.R.~.R.~.~.7XtXtXtXtXtX!.7X~.tXtX^.yXiXaXiXaXaXaXsXsXsX9XyXpXsXsXsX9XG.N.H.uXfXfXfXfXfXuX9XuXdXuXuXdXuXuX0X1X1XdXdX3X3X1X5.5.5.;.;.;.%X3XxXmXNXVXNXVXVXDXDXFXNXvXNXFXFXFXFXAXmXNXCXFXGX0X,X%X5.0XAXJXJXFXGXGXJXJXJXJXJXJXFXCXbXbXAXGXCXvXmXxX'.'.3XGXJXJXPXPXJXJXNX%X%XAXJXJXJXJXFXvXmXFXJXJXJXJXJXGXFXJXGXFXGXJXGXJXAXmXGXFXFXbX0XAXFXVXVXAXAXZXbXFXCXbXxXbXxX3X*XcXcX*X4X$X}.[.[.].cX$X`.`.`.$X4X5X].`.`.#XxX5X)._._._._._.].3X3X%X'.).*X3X%X5X)./.).)./.).'. .../././././././...=.*X=.%X5. ..... .5.D.V.G.V.V.V.N.T s.s.u u n R 2.V.V.S.I.I.I.I.I.I.S.Z.I.Z.Z.P.P.P.Z.C.v.v.v.a.B.C.b.C.C.v.b.v.v.k.K 2.s.T ` v.v.a.^ u s.k.( ( k.k.a.a.j.g.p.p.p.i.p.g.p.i.u.i.p.p.p.u.u.",
"l 4 4 4 l l z z l l x , , 9 < O < x z z z z N N x z z z x 7 . # # < x x 9 < , 7 x N V V V V c x 9 O # # # # # # # # @ 9 7 > o     o > 9 B C S S D D D D G D D D G G G / H G D ) S D S N / u.u.u.G G ) u.u.u.i.i.i.i.p.u./ u.p.) / u.p.p.p.g.j.( 5 0 0 q q 0 q q } q q q q r -.r q q q ] ] ] ] ] ] ] [ [ [ [ [ [ [ [ { [ [ { { { { { { { { { | { { { | | | | | |  . .| H.W.W.Z.~.~.~.R.~.W.~.~.7XtXtXtXtX~.T.7X7XyX^.W.^.tXiXiXaXsXaXsXaXiXiXsXpXiXpXpXQ.2.-.>.2XuXpXfXfXfX2X2XdXdXdXdXfXdXdXuXuX3X0X0XdXdX3XF.5.5.5.;.;.5.F.0XvXmXVXnXNXVXVXDXFXAXNXNXAXFXFXFXGXAXNXNXAXxX,X5.5.1XNXGXGXFXCXGXJXJXJXJXJXJXJXJXGXCXxXxXZXGXGXJXxX#X'.*XbXJXPXPXJXJXJXCX,X,XJXJXJXJXJXJXAXGXJXJXJXJXJXJXFXJXJXFXNXGXGXGXGXCXmXGXCXAXbX3XCXFXFXFXVXAXZXmXCXmXbXxXCXbX5X*XcXcX*X4X$X[.[.[.}.5X].`.`.].*X5X5X$X`.`.*XxX3X)._._._._._.).3X3X,X'.).*X3X#X5X)./.)./././...../././.../././.....=.%X;.&X%X=..... .5.D.G.G.G.G.V.2.T ^ K u u u T ^ N.S.S.I.S.I.I.I.T.I.Z.Z.Z.P.P.P.P.Z.C.B.a.a.p.v.v.C.C.C.v.v.l.k.a.p 2.s.T a.B.v.a.1.u s.k.~ ) a.k.` a.p.u.i.j.i.) p.p.p.p.p.p.p.i.p.p.u.",
"4 3 3 4 4 l l l 4 4 3 > , 9 < . < x z z z z N z x N z z x 7 . # # < x x 9 < < x N N N N v v c x 9 # # # # # # # # # O < 9 , o o   o 2 7 B C S D D D D D G D G G G G / / / / / / / D S N D ) u.u.G / D u.u.u.i.i.i.i.i.u.) u.u.u./ ) p.p.f.f.p.( a 0 0 q q 0 q q q q q q q q q q q q q ] ] ] ] ] ] ] [ [ [ [ [ [ [ [ [ { { { { { { { { { { | '. .{ { | | | | | | | | | 5.Q.!.S.~.~.!.!.T.~.!.~.^.7XtX~.~.!.^.7XyXtXyX!.yX^.yXaXaXaXsXsXsX^.9XpXaXyXiXpXN.1.u I Q.9XQ.9XfXfXuX2XdXuX2XuXfXdXdXdXdX0XdXdXdXdX3X&X5.5.5.;.;.5.&XdXvXnXVXVXVXDXVXVXFXFXAXAXFXFXFXFXFXFXNXNXCX3X5.=.3XGXJXFXFXGXFXGXJXJXJXJXJXJXJXJXAXZXxX*X3XmXJXJXAX5X#X'.xXJXJXJXPXPXJXmX,X3XJXJXJXJXJXNXCXJXJXJXJXJXJXJXGXFXFXFXFXFXGXGXAXCXbXGXAXAXCXCXCXAXAXAXCXNXAXCXmXbXcXxXCXbX3X*XcXxX*X5X$X[.[.[.`.].`.[.`.`.].#X*X*X`.`.*XxX3X)._._._._._.).3X3X*X'.).).'.=.4X)./.).).)./...*X)./......././...| =.,X;.&X&X=. ... .d.H.G.G.S.S.V.N.^ s.^ u 5 u m _ s.S.I.I.I.I.I.I.I.I.Z.Z.P.I.P.P.K.P.C.C.C.v.C.k.v.C.b.C.x.v.v.l.k.b 1.s.T a.k.k.a.1.u s.a.~ ` p.k.` k.p.g.p.p.p.p.p.p.) u.u.p.p.u.u.u.u.",
"4 l l l 4 4 4 4 l 4 3 > , 9 < . < c x z z x v v v x x z x 7 O # # < x x 9 < < x N N N N V V c c 8 # # # # # # # # # & < > + o     o 2 2 c V S D D D D D D G G G / / / / / ) / G / / / D ) / u.u.G / G u.u.u.i.u.p.u.p.p./ / ) ) / ) u./ p.p.a.T r q 0 q 0 q q q q q q q q q q q q q q ] ] ] ] ] ] ] [ [ [ [ [ [ [ [ [ { { { { { { { { { { {  .{ | | | | | | |  .| | | } H.!.~.~.~.!.T.R.T.E.!.^.~.~.^.^.~.tX^.tX!.^.tXtXyXiXiXaXaXsXsXaXaXsXaXsXpX9X9XQ.1.I <X9XuXuXuXfXuXfXuX9XdXdXdXdXuXdXdXdXdXdXvXdXdX1XF.%X%Xd.5.;.5.%X3XxXmXVXVXFXVXVXDXFXAXVXAXFXFXFXFXFXVXAXCX3X%X5.%X3XxXJXFXCXGXGXJXJXJXFXJXJXJXGXAXNXxX%X'.3XAXJXJXGXbX*X3XJXJXJXJXJXJXJXGXxX3XGXJXJXJXJXGXAXAXJXJXJXJXJXFXFXGXFXFXFXFXFXFXFXCXbXFXmXCXAXmXCXmXvXvXCXAXCXCXmXmXcXxXmXmX3X*XcXxX*X5X}.[.[.[.[.[.[.[.[.`.`.].*X]._.`.].*X'.(._._._._._.'.3X3X,X'.(.(.).).]./.).).)././...*X)././...../.....| %X,X5.H.F.=. . . .F.U.G.U.S.S.N.N.s.T b t u u 1._ V.V.I.I.I.I.T.I.I.I.Z.Z.I.P.P.P.I.P.B.B.C.B.C.C.C.C.C.b.a.v.v.j.k.p <.s.T ` k.a.a.2.u a.k.~ ( k.k.a.k.p.p.p.j.g.p.p.p.i.) u.u.i.p.p.u.u.",
"l 4 4 4 4 4 4 4 x 4 3 , , c < O < x z z v N v v N N N N V 7 O O . < x x x < 8 c c V N V V V c c 5 # # # # # # # # # & < < > o     o , x c N D D D S S D D D G G / / G G G / / D G G D / G / u./ / / / ) u.u.i.u.p./ u.G / / / / / / u.i.f.( W r 0 0 0 q q q q q q q q q q q q q ] ] ] ] ] ] ] ] ] [ [ [ [ [ [ [ [ [ [ { { { { { { { { { { { { { | | | | | | | | | |  .| ;.W.W.T.R.~.~.~.~.T.~.~.^.~.^.7XtXyX^.tX7X!.^.7XiXaXaXaXaXsXsXsXyXyX9XsXsXpXsX^.2.>.9X2XuXuXfXpXdXpXdX1X9X1XdXjXdXdXvXdXdXjXvXjX0X,X%X%XF.5.5.=.%X3X0XxXvXmXNXNXmXNXAXFXVXNXVXVXFXFXVXAXAXdX%Xe.5.1XCXAXAXGXJXFXFXGXGXJXJXGXJXGXNXCXGXbX%X5.5.3XCXAXJXJXJXGXJXJXJXJXJXJXJXJXFXxX3XGXGXCXJXJXGXFXFXJXGXFXFXGXGXGXJXJXGXFXGXGXGXGXCXbXAXAXAXFXCXNXNXVXNXmXNXCXCXxXbXbXxXmXbX3X*XcXxX*X5X$X[.[.[.[.[.[.[.[.`.`.].4X].`.`.`.].]._._._._._._.'.3X1X*X'.(.(./.).(.).).).)././...#X)./.............| ,X&X5.H.H.;. .=.| F.D.s.G.G.V.N.s.s.s.T b n n 2.N.M.S.I.I.I.I.I.I.I.I.I.Z.I.P.Z.Z.P.Z.Z.B.v.v.B.Z.C.C.C.C.C.v.v.l.k.b 1.s.T a.k.k.a.2.u s.a.~ ) k.k.a.k.g.g.j.g.p.p.i.p.p.u.u.u./ u.p.u.u.",
"l 4 4 4 4 l 4 4 x 9 9 > , x < . < c z z z v v v N z z x N 7 @ < @ < x x x < < x V N N V V x c 8 # # # # % # # # # # < < , < < @   > c c V C C S C V S D S S D G / G / / G G G / G / ) ) / / u.u.i.u.u.u.) u.u.) D D ) / ) ) ) u.) u.i.p.p.( 5 0 0 0 q q q q q q q q q q q q q q ] ] ] ] q ] ] ] ] [ [ [ [ [ [ [ [ [ [ { { { { { { { { { { { | { | | | | | | | |  .| | | 3.W.T.T.W.~.W.~.tX~.~.~.~.^.T.^.7XtXtX!.7XtXtXyX!.7XaXiXaXsXsXiXyXyXyXaXaXiXpXpXuXuXfXuXfXfXfXfXdXdXfXfXfXdXdXdXdX0XdXdXdXdXvXdXdXdXdXdX3X,X#X5.F.3X0XxXmXmXnXvXxXvXmXNXNXNXFXFXNXNXNXmX1X5.%X,XdXFXGXAXVXFXGXGXGXFXAXAXCXmX0X3XxXZXGXmX3X*X%X3XAXJXJXJXJXFXmXNXFXJXJXJXJXJXGXxX%XbXJXGXAXGXGXFXFXFXGXJXJXJXGXJXGXGXGXGXFXGXFXNXCXbXAXAXCXCXAXAXVXVXNXmXNXCXCXbXbXxXxXmXxX3X*XcXxX*X4X}.[.[.[.[.[.[.[.`.`.`.].4X].`.`.`.`._._._._._._._.'.,X3X%X'.(.)./.)././.).).)././...'.)./. . .......=.=.,X&X5.H.Q.;.=.,X=.H.G.G.U.Q.G.G.G.V.s._ n u n N.V.S.S.S.V.S.B.B.Z.S.B.Z.I.I.Z.Z.Z.Z.P.P.Z.C.C.C.C.C.C.b.C.b.v.v.j.k.b <.s.T ` v.k.a.2.u s.k.~ ~ a.k.a.k.j.i.) p.p.p.p.i.i.) / u.) / u.) / ",
"l 4 4 4 4 4 4 4 4 4 4 > , c < . < c z v v N v x x x z l c 7 @ 7 < , c v x < 8 B V V N V V V B 8 # # # # % # # # % # % & , , 3 2   2 B B C C C V A C V V S ~ ~ G G D D G G G / / / / / ) / ) ) / ) / G / ) ) / / D D ) D u./ ) ) ) u.u.p.f.a.t 0 0 0 q q q q q q q q q q q q ] q ] ] ] ] ] ] ] ] ] [ [ [ [ [ [ [ [ [ [ { { { { { { { { { { { { | | | | | | | | |  .| | | D.W.~.~.!.~.~.W.T.~.W.~.7X~.W.!.^.tXtX^.yXyXyXyX7XyXiXiXiXaXaXsXiXsXsXaXaXuXiXpXhXfXpXfXfXuXfXjXfXfXdXfXfXfXdXdX1X0X0XdX0XdXdXdXvXvXdXdXdX3X5.5.%X3XdXvXvXvXvXvXxXdXvXNXVXAXFXmXNXCX3X5.5.0XxX3XvXGXGXGXGXGXGXFXAXCXCXGXFXbXxXbXxXbXZXmXbXxXxXZXGXGXGXJXJXJXFXGXJXJXJXJXJXJXGXxX,XxXxXCXGXJXJXJXGXGXJXJXJXJXJXJXFXFXFXFXGXGXFXFXCXbXAXAXmXmXmXmXNXVXVXNXbXbX0XdXxXxXxXbXvX3X*XcXqX*X5X$X`.[.[.[.[.[.[.`.`.`.].4X]._.`.`.`._.`._._._._._.'.3X,X%X'.).].*X/./.).).).).)./...'.).).*X*X'.=.%X%X .,X&X3.H.Q.d.;.,X*.<XU.G.V.G.U.U.V.S.s.N.T n n N.V.S.V.S.S.S.S.B.B.Z.S.I.I.Z.Z.Z.B.B.Z.Z.Z.Z.C.C.C.C.C.C.C.b.b.l.k.k.n <.s.T a.k.a.a.2.u s.a.~ ( k.k.a.k.p.p.p.p.p.p.p.p.i.) ) / ) u.u.) / ",
"x l 4 4 4 4 3 4 4 4 9 > > x 7 O 7 c x z v N N N x N N N N 7 @ 7 < , c v x < 7 B c N V V N V c < # # # # % % % % % % % < 9 ~ x 2   , B C C C C C A C S A A D D / / / G G D / / / / / / ) / ) / / / ) / / ) ) / / G / ~ / / / / / / p.p.p.p.a.u 0 0 0 q q q q q q q q q q q q ] ] ] ] ] ] ] ] ] ] ] [ [ [ [ [ [ [ [ [ [ { { { { { { { { { { { | { | | | { { |  . . . . .5.G.W.~.~.~.R.W.!.R.~.~.~.R.~.^.^.^.7XtX7X7XtX7X7XyXiXiXiXaXaXaXsXyXyXyXyXsXsXpXfXfXuXpXpX<X9XfXjXfXfXfXfXfXdXdX1X1XuXdXjX0XdXvXjXvXvXvXdXdX3X5.=.%X3XdXxXxXvXmXvXdXxXbXNXAXFXCXmXbX,X%X%X3XCXAXNXCXFXGXJXGXAXCXCXAXAXFXFXAXAXAXZXmXCXbXbXCXZXZXCXAXAXZXmXGXGXGXJXJXJXJXJXJXGXCX3X%XxXbXxXGXJXJXGXCXCXGXGXGXJXJXFXFXFXFXGXFXGXFXGXmXbXAXCXmXmXvXNXVXVXVXmXbXmXxXbXbXxXqXvXxX3X*XcXqX*X5X$X[.[.[.[.[.[.[.`.`.`.].4X].`.`.`._._._._._._._._.'.3X1X%X#X).].5X/././.).).).).).*X'./.).'...=.=.,X%X .,X&X5.H.Q.F.*.&X;.<XU.V.V.U.U.U.S.G.V.N.T u n s.N.V.S.S.S.S.B.B.B.Z.S.Z.I.Z.Z.Z.B.v.C.Z.Z.Z.C.P.C.C.C.C.v.j.v.j.l.M.m 2.s.T a.v.c.a.s.u a.k.~ ( a.a.a.a.p.p.p.g.p.p.p.u.u.) u.) / ) / / / ",
"l 4 4 4 4 4 3 4 4 4 x 2 3 x , O 7 c v v v N N N N x z x N 7 @ 9 < , x x x < , 7 c c c v V V x < # # # # % % % % % % # # < B 7 2 o 2 c x x C C C C C C C D D S D / G S D G G / / / / / ) / u./ / G G / ) u./ u.) ) D ) / H ) ) / u.g.p.p.j.a.u 0 0 0 q q q q q q q q q q q q ] ] ] ] ] ] ] ] ] ] ] [ [ [ [ [ [ [ [ [ [ { { { { { { { { { { { { | | | =.{  .F.5.=. . .=.;.G.!.E.~.~.W.!.W.~.E.~.~.!.!.!.~.^.^.tX7XyXyXyX7X7XyXiXaXaXaXsXsX9X9X9X9XpXiXpXfX9XuXuX2XH.9XfXdXfXfXfXfXfX0XuX1X1X1XdXdX0XdXvXvXvXvXvXvXdX3X5.=.%X3X3X3XdXbXmXxX3XxXmXmXmXmXxX3X%X5.5.%X0XCXGXFXFXFXFXGXFXAXCXCXAXFXFXGXAXFXFXmXZXZXbXxXmXCXmXAXGXxX3XxXZXCXAXGXJXGXFXGXGXCXbX3X5.3XxXxXFXGXJXFXmXCXAXNXAXGXJXGXAXAXCXAXFXGXFXAXCXmXAXNXbXmXAXAXVXVXNXvXbXbXbXvXbXxX5XxXxX3X*XcXqX*X*X}.[.[.[.[.[.[.[.`.`._.].4X].`.`.`.`._._._._._._._.'.3X3X%X#X).).4X/./.).).)././.).%X=..././.....5.1X5. .,X&X5.H.Q.Q.;.&X;.Q.W.U.U.U.U.U.S.G.N.2.T u u 2.s.2.V.S.S.S.V.B.B.B.S.Z.S.Z.B.B.B.B.Z.C.Z.Z.Z.C.C.C.C.B.v.j.l.v.j.k.m 2.s.^ a.c.j.a.2.u a.k.~ ~ ( a.` ( ) u.p.p.p.p.p.i.i.u.) / / ) / / / ",
"l 4 4 4 4 3 3 3 4 4 9 , 7 x 7 O < x z M x x N N N N N N c 3 > 9 7 < x x 9 < O + , 7 x x c c 9 @ # # % % % % % % % % # # & , > O o < x c B B C C V c x c B C C D / ~ D D / / / / / / / u./ u./ / / ) ) ) u./ ) / / ~ ~ V D D ) ) u.p.p.g.j.a.r 0 0 0 q q q q q q q q q q q q q ] ] ] ] ] ] ] ] ] [ [ [ [ [ [ [ [ [ [ { { { { { { { { { { { { | | { {  .{ 5.D.<X&X5. .%XD.W.W.~.7X~.E.!.!.^.~.~.!.~.~.!.!.^.7X^.tXyXyXyXyXyXyXyXaXaXiXiXiXiXiXsXpXpX9XpXhX9X2XH.3.<.H.uX1XdXjXfXdXdXdX1X1XH.D.&XF.&XdXvXvXvXvXvXjXvX1X5.=.5.5.%X%X,X3X3X3X,X3X3XxXbX0X,X5.=.5.%X3XxXCXAXAXFXFXFXFXAXmXmXCXAXFXFXAXCXmXCXCXbXxXxXmXbXbXCXGXZX3X'.%X3XbXZXbXZXGXZXbXCXZXZX3X#X3X3XxXbXCXAXZXxXCXCXNXFXGXGXGXFXAXFXAXFXFXAXCXCXbXCXAXNXNXAXVXNXmXvXvXmXbXvXvXxXxXxXvXvX3X*XcXxX3X5X$X[.[.[.[.[.[.`.`.`._.].*X].`.`.`._.`._._._._._._.'.3X1X%X'.).).*X/.).).).).)./.).'.=.../././...'.1Xd.| ,X&X3.U.Q.Q.;.,X;.H.U.U.U.U.U.U.S.G.M.N.^ n u T ^ 2.M.V.M.M.s.` s.M.M.B.S.Z.Z.k.B.B.Z.Z.Z.A.C.C.C.C.C.v.v.k.j.x.j.k.n 2.s.T a.j.j.a.2.u a.a.~ ( a.a.` ( ) i.p.p.p.u.) / ) u./ ) u./ / / / ",
"4 4 4 3 3 4 3 3 3 4 3 > 3 x 7 O < c z z z x N z z x x N c 3 , 9 < , 9 x 7 @ O O + > 7 9 3 , , # # # % % # % % % % % # # @ < @ O o @ 2 9 x 9 9 x 9 3 3 x 9 c N C C C C A D D / / / / / u./ u.) / / / ) u.) ) ) ) / D ~ D A ( ~ ) p.u.p.p.a.L 0 0 0 0 q q q q q q q q q q q q q ] ] ] ] ] ] ] ] ] ] ] [ [ [ [ [ [ [ [ [ { { { { { { { { { { { | | | { %X} 5.G.^.H.;.} H.N.W.T.~.W.R.E.~.~.^.W.T.!.W.~.^.^.^.7XtX7X7XyXyXyX7XyXyXyXiXiXiXyXyXyXaXpXsX9XyXfXfXG.<.m a *.F.H.1XdXdXdXdXdX1X,XF.5.3.;.5.3XdX3X3XdXdXdX3X%X5.;.5.5.5.5.%X%X%X%X%X%X%X%X%X%X5.5.#X%X%X3XbXmXmXAXFXFXGXFXFXCXCXCXAXAXCXNXmXCXmXbXxXxXcXZXmXZXAXGXZX3X'.%X3XxXcXZXcXZXZXZXZXxXxX3X'.%X3X3XxXxXxXbXmXCXCXAXGXGXGXFXFXAXAXCXAXAXAXAXCXbXmXCXmXmXNXmXmXNXmXmXvXbXbXxXbXxXdXvXdX3X%XbXxXxX5X$X[.[.[.[.[.[.`.`.`._.].$X].`.`.`.].].`._._.].].).'.3X3X%X#X).).*X/.(.).).)./././.'.'.../././...=.,X%X=.,X&X3.U.!.Q.;.&X;.F.U.G.G.s.N.V.V.V.s.s.R n u b n n b s.s.2.^ ^ s.a.` s.M.` a.M.M.M.B.Z.C.Z.Z.C.C.C.Z.B.v.j.v.k.k.k.n <.2.T a.c.c.a.2.u a.a.~ ( k.a.` ( i.p.u.p.p.p.i.) ) ) ) ) ) / G / / ",
"3 3 3 3 3 3 3 3 3 3 7 , 2 x < O < c x x N N x x z x x N c 7 , 9 < @ 9 3 , < O     O + + o + O # # # % % % % % % # # # # # @ o o o @ @ , , > > 2 2 > , > > 2 3 9 x c B B C D / ) / ) ) u.) ) ) ~ D ) ) ) i.p.u.i./ ~ ~ / ~ D / / u./ p.p.( b 0 0 0 0 q q q q q q q q q q q q q q q q q q q q q ] ] ] ] ] ] ] [ [ [ [ { { { { { { { { { { { { { { { *.%X*.;.Q.Q.G.3.;.H.V.W.S.T.~.^.~.~.7X^.S.` V.S.!.W.W.W.^.7X!.!.^.^.^.yXyXiXaXiXyXyX9X^.2XyXiXpX9X9X2X<XH.-.a a *.<.3.D.F.F.H.&X&XF.3.;.;.*.;.;.5.F.5.5.F.%XF.&X%X5.;.=.5.5.=.=.=.=.=.5.5.5.5.5.5.=.5.'.'.'.,XxXCXAXCXCXGXFXFXAXCXmXCXCXmXmXCXFXAXCXbXxXbXmXbXxXmXCXCXxX*X%X*X3X5XxXcXxXxXxX5X5XqX5X3X*X'.*X*X*X5XxXbXbXCXCXmXCXAXGXFXGXGXAXmXbXCXmXAXmXbXmXCXmXmXbXxXbXxXvXvXmXmXxXxXxXxX3XvXxX5X%XcXxXxX5X}.`.[.[.[.`.`.`.`.`._.].}.`.`.`._.].$X_._._.].*X'.=.3X3X%X#X).).*X).).).).)././...'.'./././..... .5.5.| &X&X5.H.W.<X;.&X*.d.<.>.1.1.2.<.1.R m m n u u n b u m b T b b b T b L T b b L L L a.M.B.B.C.C.C.C.C.C.B.v.v.v.k.k.` u 2.2.L ` a.j.a.2.p ` k.~ ( a.a.` ( p.i.i.u.p.p.u.) ( ( ) ) ) ) / / / ",
"+ > > > 2 3 3 3 3 2 , + > 3 , O , 9 4 l x x x 4 l x x x x < , 9 < @ < < @ O               . . . # # # # # # # # # # # . O @ o o o o O o O @ o o + @ @ @ o @ > + + + > > , x D ~ D ~ ~ ~ ~ ~ ~ ~ D A ~ ~ ~ ~ ( ) ~ N ~ ~ D ~ ~ ( ( ) i.( L T 0 0 0 0 0 0 0 0 0 0 0 0 q 0 q q q q q q q 0 0 0 q q q q q q q q ] ] ] [ [ [ ] ] ] ] ] ] q ] ] ] ] } } ;.&X} ;.G.G.G.F.3.H.G.S.Z.B.B.!.^.!.!.S.^ K ^ ` M.` M.S.W.V.W.S.U.W.W.!.^.9XyXyX9X9X9X2X2XyXuX9X2XQ.Q.H.<.-.-.a *.-.*.3.;.3.*.;.3.5.5.5.;.*.;.5.5.5.F.F.F.5.5.5.;.;.=.=.=.=.=.=.=.=.5.5.5.5.5.5.5.5.5.5.=.=.5.%XxXmXZXmXmXmXmXbXbXbXbXZXZXbXmXZXZXZXxX5X5XxXbXxXZXcXcX5X*X#X#X*X*X5X5X5X5X*X3X5X5X*X*X*X%X%X%X'.*XxXxXcXZXCXZXCXZXbXbXCXCXZXZXmXmXmXxXxXxXxXbXmXbXxX3X3X3XvXbXbXbXxXxXxXxX5XxXxX3X*XxX5X5X4X}.`.`.`.`.`.`.`._._.`.].].]._._.(.].].].].].*X3X*X=.,X,X'.'.).).*X).).).).%X#X=.'.%X'.../....... . .=.| %XF.5.s.2.F.;.d.] 3.a I T m n b K m u u u u u u u u b t t b b t t 5 b b 8 u b b u 8 W a.k.B.k.B.B.k.B.B.M.k.k.a.a.` n <.1.T ` k.a.a.2.p ` a.L ~ a.a.` ( p.p.( ( ) i.( ( ( ( ~ ~ / ~ ( ~ / ",
"        o o o + + + > + @ , @ . O > + > + + + + o o o o o     o o     o o                   . . . # # # # # # # # . . . O + o       o o @ o o o o @ , @ o @ @ o o o   o , , 2 x 9 2 9 c 9 , 2 , > > > > > 2 , 2 +   o 2 9 x x 3 2 9 B c < & * * % % % % % % # % % % 0 % 0 0 0 0 r r 0 0 0 0 0 0 0 0 0 0 0 0 0 0 0 q q q q q q q q r 0 r r r 0 0 q 0 a ] q 0 u a -.a a P ` ` L b 8 8 8 6 < K b i 5 i T T i i < i p K i K 5 5 K R R p T K P g p a m a a a a a a -.*.-.<.-.-.*.a *.*.*.*.;.;.;.;.5.5.5.5.5.;.;.5.5.;.=.;.;.5.5.5.5.5.5.5.5.5.5.=.=.5.5.5.5.5.#X%X5.5.5.5.5.%X%X%X%X%X5.5.5.5.5.=.5.'.'.5.'.'.#X%X%X'.%X'.'.'.'.=.=.=.=.'.'.'.'.%X*X%X'.'.'.'.'.5.=.'.'.5.%X*X%X%X%X%X%X#X%X%X%X%X%X%X%X,X,X,X%X%X%X%X%X%X,X,X,X,X,X%X%X#X%X%X'.'.'.'.%X..=.=.).].].(.(.`.`.`.].(.(.(.(.).).].(.(.).#X).).)./.=.=.'. . .=. .=.....=. .|  . .| =. . .=.=....... .| { | | | } } } a a *.} ;.a -.a m b u u t u u n T n b b u u u u t n u u t u t 5 b 5 u 8 8 8 < 8 c c 9 c c c 9 9 3 , > > , @ < 0 r r u b b b i m 5 L L 8 7 L W b L ~ ~ ~ ~ ~ A C A c c B D ~ ~ ~ A ~ ",
"o o                 o o o @ O . @ , , > > + + > > > > > > O O @ @ @ 2 > > @ o o o     o       . . . # # # . . # . .       o @ o o o   o +   o     o o o @ @ + + + + > > > 2 , , , 3 2 7 > > 2 2 7 2 , < 7 9 7 7 > 7 7 9 B 9 9 9 x N N c 9 L c 5 # # # # % # % % % % % # % 0 # # % 0 0 0 0 0 0 q q 0 0 q 0 0 q q 0 q q q q q q q q r 0 0 0 0 0 0 a *.*.q *.I E >.<.*.-.n ` ~ ( W W W W L < O O 6 8 5 & L L 2.S.` p t R ` 2.1._ _ T i T R E 2.1.P a a m r r a a a -.a a *.*.a *.-.*.} } ;.;.;.;.;.*.;.5.5.5.5.5.5.5.;.;.5.5.5.5.'.5.5.5.'.'.'.5.'.'.#X'.%X,X%X5.5.5.5.5.%X%X%X%X%X%XF.5.5.'.'.%X%X%X%X%X%X*X3X,X,X%X,X3X3X'.'.%X%X%X'.'.5.5.'.%X'.'.'.'.'.'.'.5.=.'.%X*X,X,X3X3X,X%X%X,X,X%X%X%X%X*X%X%X%X%X5.d.5.%X%X%X%XF.F.%X%X%X%X%X%X%X%X'.=.=.'.'.%X*X'.].]._.].]._._._.(./.).).).)./.).).../.)./././.=.=.=. .5.5.|  ...'.'. . .=.=.=.=.=.=.=.=..... .| | | | |  .5.5.*.3.3.-.} 3.r a a m u u u u u u u t 5 t 5 5 u u u t b n T n b b b b n b c c b b c L B B c x c B B C ~ B c B B b u a p u R ~ L L m u R ^ b b b L b c B c B B c B B B A ~ A ~ D v c B c ",
"+ + > > > 2 2 3 3 7 9 > , 7 < . , x x x x x x x x x x 9 9 , @ 8 < < c x 9 < , > > + @ > @ @ O . . . # # # # # # # < 9 c x 9 7 , o o @ @ @ > @ , 3 , @ > 2 9 B B C ~ C N N C ~ ~ ( / ( ) ( D ~ W W ( ~ L A ( ~ ~ ~ ) p.) p.p.p.p.) ) p.( ~ a.a.( n * 0 0 0 0 0 0 0 0 0 r q q q q 0 q q q q q q q ] ] ] ] ] ] ] ] ] [ ] ] ] ] [ } q } q ] ] ] ] ] *.3.F.*.F.W.!.G.U.3.N.V.T.T.S.S.T.T.T.T.S.M.M.W W M.W.M.W 6 R b K _ V.U.W.^.2XyXW.^.9XyX9X9XU.2.P Q.2XN.I G.2X2X<Xd.3.3.D.H.D.F.D.F.F.H.H.&X&XF.5.;.;.*.*.5.5.;.;.5.5.;.5.5.#X#X%X5.5.%X%X'.5.'.%X%X%X#X%X,X,XdXbXmXNXbXbXmXNXNXmXvXxXxXxX,X3XxXbXqX*X3XxXxXZXCXbXxXbXbX3X%X'.'.%X*X3X3X*X3X3X3X3X*X3XxXqX%X'.'.3XbXmXZXZXZXZXZXAXGXGXCXZXbXxXxXbXZXxXxXmXxXmXmXbXvXbXvXdXxXnXmXmXdXbXbXmXxX3X3X%X5X%XxXqX'.5X$X`.`.`.`.`._.`.].].].].].(.].].].(._.(._.].'.,X'.'.,X,X#X=...'.,X5.%X,X5.5.,X5.5.,X%X....'.'.......=. .%X&X5.<XQ.&X*.&X*.D.G.N.N.N.V.s.V.s._ _ u u n 1.n ^ 2.2.T _ s.` 2.` ^ s.s.a.M.` a.a.k.B.B.k.k.v.B.B.B.v.k.k.k.) ( a.n 2.2.n ` k.a.M.2.n a.a.L ( ( a.V.` ( ( / / / / ( ~ ~ ( ( D ~ ( / ) ~ ",
"3 3 3 3 4 4 4 4 4 x 9 > , 9 < . < c x x x x x x x x x x 9 , @ 9 < < c x x 7 2 3 9 3 4 9 4 7 < @ . # # # # # # # & c B C C c 9 >   o @ o @ @ > 9 9 x 9 2 9 B C D D D D D D / ( ( ) / / i.i.~ 8 < 8 ` ~ ( ~ / ~ ~ ~ D ) i.i.p.p.p.p.p.p.a.( k.k.( ^ 0 0 0 0 0 0 q q q q q q q q q q q q ] ] ] ] ] [ ] ] [ [ [ [ [ [ [ [ { { { { [ { { { { { { { { } ;.F.} F.U.W.G.H.3.G.W.~.~.W.T.T.T.I.I.S.S.W.V.S.!.!.!.!.!.` R t M.^.yX^.7XiXyX^.^.yXiX^.2XV.P I 2XuXQ.>.3.<XuXuXD.H.<X<XQ.<X&X<X1XdXH.H.<X&Xd.;.;.;.*.;.;.;.;.5.;.*.*.5.5.=.=.5.5.5.5.5.5.5.=.5.5.#X%X,X3X3XxXmXNXNXNXCXAXAXmXvXNXmXbXbXxXxXxXbXbXxX3X0XbXAXAXmXCXAXmX0X*X%X3X3X*X*X*X*X*X5XxXxXxXxXxXcXqX3XqXbXmXbXbXCXCXAXCXCXGXFXAXmXbXbXCXmXbXCXmXxXxXmXvXvXNXmXvXvXNXmXnXnXvXmXvXbXdX3XxX,X5X#XxXxX'.5X4X`.`.`.`.`.`.`.`._._._._.]._.]._._._._._.].#X3X'.'.3X,X%X'./.%X3Xd.&X,X%X5.,X5.#X1X5............. .=. .5.&X5.H.Q.F.;.&X*.D.Q.U.U.U.U.U.G.S.S.V.n u n T n ` ^ _ b b T ` s.^ s.M.B.M.B.M.B.B.Z.Z.B.B.v.C.Z.C.v.v.c.k.v.a.a.` b s.` n ` k.k.M.2.n a.a.L ( a.a.a.a.a.p.p.i.p.p.p.i.) p.p.p.) i.p.p.) ",
"4 4 4 4 4 4 4 l x l x , , 9 < . , x x x x N x x x x z x x < @ 9 < < c x c 9 4 x N c x N N c x 7 < # # # # # # # < B A A A C B 2   @ , > > > > 3 9 x c c B C S S ~ / ) ~ ~ / ) ) u.) ) ) ( W 0 r 5 5 ~ ~ / ) ) / ~ ) ) ) p.p.p.p.p.g.p.a.( k.k.k.` 0 0 q q q q q q q q q q q q q q ] ] ] ] ] ] ] [ ] [ [ [ [ [ { [ [ [ } { { { { { { { { { { | |  .5.5.} F.G.W.G.G.<.S.!.!.R.~.Z.S.B.T.!.T.T.I.W.T.W.S.!.7X7X^.V.T i W.^.9XyXiXyXyX9X9XpXyXyXD.E a Q.pXfXG.-.H.2XuX2X2XuXuXuXdXuX1X9XdX1X1XdX1XD.;.;.*.*.;.3.,X&X&XF.;.;.F.3X3X,X%X%X#X5.%X#X5.5.%X%X%X1XdXxXxXmXNXVXNXNXAXFXFXAXNXmXmXNXCXbXxXbXxXxXxXdXmXmXNXCXCXAXAXmXxX*X'.%X*X%X%X%X%X*X3XxXxXxXxXbXbXZXZXZXmXbXmXmXNXCXAXNXCXCXFXFXmXxXCXmXmXmXCXCXCXmXNXmXvXvXvXvX0XmXNXnXxXvXvXvXvXxX3XxX,X5X#XxXxX'.5X5X`.`.`.`.`.`.`.`.`.`.`._.`._._._._._._._.].'.3X'.5.3X1X%X'.).#X3X&X1X,X&X5.,Xd.%X1X5...........=.#X#X| %X&Xd.Q.Q.F.;.&X*.D.Q.W.W.W.W.W.W.W.U.S.T t n s.s.M.^ s.L ` s.M.s.s.B.M.S.S.I.Z.B.B.Z.Z.C.B.B.C.C.C.v.v.v.v.v.j.a.` u s.` R ` a.k.k.2.b a.a.L a.k.a.a.a.p.p.) p.p.i.i.i.i.) p.p.i.i.i.) ) ",
"l l z l x l l z x x x , , x < . 7 c x z x N N N x z z x x < @ 9 < < c l x 9 9 c V V V V C V c c 5 # # # % % % # < L D D D D C 7   @ 9 x 7 2 9 B V V V A C V D / ~ D / D D ) ) u.) ) ) ) ~ n 0 0 0 u ( ~ ) ( / ) D ( ( i.a.p.p.p.g.g.p.j.( k.j.k.` 0 q q q q q q q q q q q q ] ] ] ] ] ] ] ] [ [ [ [ [ [ [ [ { { [ { *.*.} { { { { { { | | | | | | ;.d.} H.G.G.G.Q.>.V.!.R.R.~.!.!.T.!.~.~.~.!.~.!.^.~.7XtXtXyX^.!.V.^ M.^.iX9X^.yXiXyXiXyXpXQ.-.2.2X9XuXpX3.G.2XuXfXpXpXfXfXjXdXdXdXdXdXdX1X3X<X5.;.*.;.<X1X3XdXdX1X5.*.F.3XdX3X3X,X,X,X%X%X,X,X%X,X3XxXvXvXvXvXmXNXVXNXNXFXVXVXAXCXNXNXCXbXxXxXvXxX0X0XbXmXNXCXmXNXNXNXCXbX3X*X3X5X3X3X3X3XxXcXbXxXZXCXmXCXCXCXmXmXvXNXAXAXAXAXNXmXAXAXAXNXNXmXmXmXvXAXCXNXNXNXNXmXmXvXvXmXnXvXdXvXnXvXnXdX3XqX%X5X%XxXxX.XxX5X`.`.`.`.`.`.`.`.`.`.`.`.`._._._._._._._.].#X3X%X=.3X1XF.'.).#X3XF.,X,X&X5.,XF.%X3X#X..../.....#X,XF.=.&X&X5.H.Q.F.;.&X<.H.Q.W.!.!.W.W.W.W.W.G.s.b n ` s.s.^ s.` B.M.s.M.M.S.I.I.B.Z.Z.Z.B.Z.Z.Z.Z.C.C.Z.C.C.B.v.v.v.j.k.a.i s.` ^ a.k.k.M.2.T a.k.L a.j.a.a.a.p.i.) p.j.j.i.i.p.p.p.i.) p.i.i.i.",
"l z z z z l x z x x x 2 , c < O 8 c z z v x x N N x x x c 7 , 9 8 < c x x 7 3 c V V V V V B B x < # # # % % % % < L D D D S C 9   @ 7 x x 9 4 N A A V C ~ D ~ / ~ D / G / ) / ) u.) ) ) L * 0 0 0 u ( ( ~ / ) ) ( ( / ) i.p.p.p.p.g.g.a.( k.j.k.2.0 q q q q q q q q q q q q ] ] ] ] ] ] ] [ [ [ [ [ [ [ [ [ [ [ { } 3.G.F.} { { { { { | | | | | | *.d.} F.I 2.G.Q.1.W.W.I.~.~.~.~.~.~.~.~.^.tX~.~.tXtX7X6X7XiXT.^.^.W.^ V.^.yXyXyXpXyXyXpXiXuX>.Q.pX9XyXQ.<.G.9XuXfXfXfXhXfXfXfXfXjXdXdXuX1X1X&X3.3.3.<XdXjXjXjXjX1X5.*.5.,X0X3X3X0XxX3X,X,XdXdX1XdXvXvXvXmXnXvXnXNXVXNXNXFXDXVXNXNXVXNXNXmXmXxXxXxXdX0X3X0XbXNXmXNXCXAXCXmXbXcXxXxXxXxXxXbXmXCXCXmXmXCXmXmXCXNXmXCXCXCXAXAXAXVXNXmXNXAXCXmXxXbXvXmXNXNXmXNXNXNXmXVXNXmXmXNXmXNXVXnXnXvXdXdXxXxX,X5X*XcXxX'.5X5X`.`.`.`.`.`.`.`.`.`.`.`.`.`._._._._._._.'.%X3X*X5.3X1X&X'.).#X3XF.1X&XF.5.,X5.#X,X%X)./././...%X&XF.=.&XF.d.Q.H.F.;.&X<.H.Q.!.!.!.W.W.W.W.W.S.T u n ` B.V.S.V.s.B.B.B.S.S.I.S.I.Z.Z.Z.Z.C.Z.Z.C.B.C.C.C.C.C.C.B.B.B.k.k.M.u 2.2.^ a.a.a.M.2.T ` k.L a.j.a.` a.j.j.p.j.j.p.p.p.i.p.j.p.p.i.) ) i.",
"z z z l l x x x l x x , , 9 < @ 8 c x x N N x z N N N v B 7 , 9 8 , x x c 7 9 N V V V V V V B c < # # % % % % % < L D D S C C 7   O 7 B B A C V D D C S G G G D G / ) / / / / ) G / ) ( L 0 0 0 0 r ^ ( / ) p./ ~ V x D G / / u.p.g.j.j.( k.p.k.s.0 q q q q q q q q q q q q ] ] ] ] ] ] ] ] [ [ [ [ [ [ [ { [ [ [ [ H.U.H.} { { { { { { | | | | | } 5.{ ;.-.V.G.H.>.S.S.W.~.~.T.~.~.~.~.~.7X~.~.~.^.tXtX7XtXyXW.7XtX^.^.` ^ W.!.W.!.^.yXiX9XQ.>.Q.9X9X9XG.-.<XfX9XfXhXpXfXpXfXfXfXdXdX9X<XH.D.3.<.H.3XdXjXjXjXjXdX,X5.*.5.3XdXdXdXvXmXvXdXdXvXvXvXNXmXnXnXnXNXNXnXNXvXvXNXVXDXFXFXFXnXvXNXNXNXmXxXxXdX&X&X3XxXdXdXxXNXAXmXbXAXAXmXbXAXmXxXmXAXFXFXAXmXbXvXvXVXNXmXNXNXNXNXNXAXNXNXmXVXAXNXbXNXmXmXmXAXVXAXVXnXVXmXnXnXNXvX0XNXNXNXvXnXnXmXnXxX3X%XqX*XcXxX'.5X5X`.`.`.`.`.`.`.`.`.`.`.`.`._._._._._._._.'.%X3X%X5.3X1X&X'.).#X3XF.1X,X&Xd.,X5.d.d.%X/./././...%X1X&X=.&XF.5.Q.U.F.;.&X<.G.Q.W.!.!.!.W.W.W.W.V.n n ^ M.M.V.V.I.S.I.S.Z.S.I.Z.I.I.Z.P.Z.P.C.Z.P.C.Z.Z.Z.K.K.C.C.v.C.C.v.k.M.p ^ ^ L L v ( a.2.n ` k.W a.j.k.` a.j.j.j.j.j.j.j.p.) ) p.p.i.i.i.) i.",
"z z z z z l z x x x x 2 2 c < # 8 c x N N N M M N v N x N 7 , c 8 < c c x 7 9 c C C V V V V V x & # % % # % % # < L D A D V 3 >   @ 9 A D C D G G D D G G D G / G / / / ) / / / / ) / ( b u 0 0 0 r L ( ) ) p.) ~ ( ( i.f.p.p.p.p.g.f.j.p.k.p.k.s.0 q q q q q q q q q ] ] ] ] ] ] ] ] ] ] ] [ [ [ [ [ [ [ [ [ [ [ } D.N.<.} { { { { { | | | | | { | 5.{ ;.G.W.W.U.N.W.W.R.~.T.~.~.R.W.~.^.7X~.tX~.~.tXtXtX7X7XtX^.tX7XtXiX` 5 K 2.i M.J.Q.V.V.I u 2.Q.Q.<.<.uXfXpXfXfXpX9XpXpXhXjXuX<XH.D.<.3.-.<XdXdXdXjXjXjXjX<X&X5.*.,XxXvXvXdXvXnXvXnXNXvXvXVXVXNXMXNXMXNXNXNXNXVXnXNXDXDXDXFXFXNXmXNXNXNXnXvXNXbXxXbXmXNXVXNXmXVXFXAXFXFXFXFXAXAXAXmXNXVXDXFXFXAXNXFXFXAXAXNXmXmXvXmXAXNXCXmXFXAXAXNXNXAXNXNXVXNXAXAXVXVXVXNXNXNXvXdXvXNXMXNXnXNXMXMXvXvXdX5.qX%XxXxX%X5X4X`.`.`.`.`.`.`.`.`.`.`.`.`._._._._._._.(.'.%X3X%X5.3X1X&X'.).#X3X&X1X&X&XF.,X5.%X,X%X.././...=.&X1X&X| &X&X3.Q.Q.H.;.&X*.H.Q.!.!.!.W.W.W.U.V.^ b b 2.M.S.I.M.I.I.I.T.I.I.I.T.I.I.B.I.Z.Z.C.C.C.B.C.B.C.C.C.K.C.C.C.C.v.v.M.u I 2.M.a.a.j.M.2.b ` k.~ ( c.k.^ ~ a.j.j.g.g.g.g.g.i.p.f.p.p.p.i.) p.",
"z N z z l l z x v x x 2 , c < . 8 c N N N N N N N N N N N 7 < c 7 < c c c 9 9 c V V V V V V V x < # % % % # % # < C A V N c x 2   O 7 C A V N D G / G G D D G / / ) / / ) / / D / / ( ~ 5 1.r 0 0 0 t ( i.i.p.p.) ) i.p.p.g.p.p.g.j.g.j.( k.j.k.a.r r q q q q q q q q q ] ] ] ] ] ] ] ] ] ] [ [ [ [ [ [ [ [ [ [ [ [ -.D.} { { { { { | { | | | | | =.'.{ F.Q.W.W.Q.s.W.S.~.~.R.rX~.R.E.~.R.~.tXtX7X7XtXtX7X7XtXtX7XyXtXiXyXsXS.i : 5 t u u p t t N.2.I P -.N.2X2X2XpXhXuXpXhXfXpXuXQ.D.-.<.3.-.H.uXdXjXjXdXdXjX<X&XF.;.;.;.,XdXdXdXvXMXnXMXMXMXNXNXnXNXMXMXMXMXNXMXNXMXnXNXNXVXVXVXVXNXNXVXVXNXNXNXmXvXvXvXvXnXNXNXNXVXFXFXFXNXNXVXFXFXNXVXFXFXDXFXDXVXFXFXVXAXAXAXVXFXAXNXNXNXNXNXVXVXVXNXVXNXmXAXFXFXFXVXmXnXnXnXNXnXNXNXnXnXNXVXNXFXMXnXjXdXdXF.3X*XxXxX%X5X5X`.`.`.`.`.`.`.`.`.`.`.`._._._._._._._.(.*X%XdX%X5.dX1XF.=...'.3X&X3X&XF.D.1Xd.%X&X%X../.....=.,X2X&X=.&X&X5.D.H.&X;.H.*.H.W.W.!.W.W.W.B.M.M.V.b b b s.S.S.B.I.I.T.I.T.I.I.I.I.I.P.I.Z.Z.Z.C.P.Z.B.k.v.C.C.K.C.B.C.b.v.j.B.u ^ s.M./ p.j.M.2.b a.k.^ ( a.k.^ ( p.g.g.g.g.g.p.p.p.p.g.f.p.p.) ) i.",
"x N N x z z z N x x x 2 2 x < # 7 N z z N N N N N N N v V 9 , c 9 < c x x 9 9 v V N V N v V V x < # % % % % % # < c A C N 4 2 2 o @ 2 , x V D D G / / G G D D G / / / / / / ) / ) / ( ~ t 1.% 0 0 0 u ( i.p.p.) ) ~ ) p.i.p.p.p.f.g.g.j.( k.v.p.k.p 3.r q q q q q q q q q q q ] ] ] ] ] ] ] ] ] [ [ [ [ [ [ [ [ [ [ } } [ { { { { { { | { { | | | 5.'.| F.W.W.!.H.2.U.~.~.~.~.~.~.~.~.~.~.^.~.tXtX7XtXtXtXtXyXyXtX7XtXiXiXyX^.V.1.! t 2.E >.I u u m 3.>.3.<X9XfXhXlXhXuXuXfXpXQ.3.F.<.D.3.Q.dXfXjXjXjXfXdX9XjXdX0X,X5.;.F.F.&X3XdXNXVXVXMXMXBXNXjXvXMXNXNXMXNXVXVXMXNXNXNXVXVXDXDXvXdXnXNXNXNXNXmXvXvXmXvXdXdXvXmXmXNXFXFXFXFXAXAXFXJXFXDXFXFXDXVXFXFXFXDXVXVXNXVXFXFXFXNXNXAXCXAXNXAXVXNXAXVXnXNXVXNXnXNXmXvXvXNXmXNXNXnXNXVXMXnXMXVXMXvXvXmXxX&X3X*XCXxX%X5X5X`.`.`.`.`.`.`.`.`.`.`._._._._._._._._.(.%X%X3X%X5.3X1X&X'...=.,X&X1X&X,XF.<X5.5.5.%X).....%X=.1X2X&X*.&X&X5.H.Q.<X;.&X-.D.U.!.!.S.W.U.U.V.T s.b * b N.` B.S.I.T.T.T.I.I.I.P.I.Z.I.P.P.Z.Z.B.v.B.k.v.C.C.L.C.k.) v.v.v.v.B.u I 2.a.j.x.x.a.1.n a.M.^ ( j.B.^ ( j.j.j.j.j.j.j.j.p.f.p.p.p.i.p.i.) ",
"z z N z l z z z z z x 2 2 x < O < c x v x N N N N N v v B 7 , c 7 , c x x 9 9 V V N N N C V V c 5 # % % % % % % < B A A c 9 3 2   @ , 7 C D S D / / G G / G D G / / / / / / / ) / / ~ T * u m 0 0 0 u ( i.) i.i.i.) u.i./ p.p.i.p.u.h.k.( v.j.l.j.K N.s.0 q q q q q q q q q ] ] ] ] ] ] ] ] ] [ [ [ [ [ [ [ [ { { [ =.{ { { { { { { { { { | | | | =.=.{ F.W.G.Q.Q.2.S.!.E.~.~.~.6X~.~.E.6X~.^.7X7XtXtXtXtXtXtXtXtXtXyXiXyXyXW.0.!.!.N.!.Q.N.2.E u m u u r G.H.2XuXpXpXfXfXfXuXQ.<.a D.<XQ.9XdXfXjXlXjXfXjXjXjX1XH.F.5.*.;.;.1XdXjXnXnXnXMXMXNXVXMXMXMXMXVXVXVXNXNXMXnXvXnXNXNXVXDXVXVXNXVXVXVXVXmXvXnXmXNXNXNXvXdXvXmXNXFXHXFXNXNXFXHXFXDXFXDXFXVXFXFXFXFXFXVXAXFXFXAXAXNXmXVXFXVXNXNXmXNXVXVXVXVXNXVXFXNXNXNXmXnXnXNXvXNXVXVXMXnXnXNXVXnXnXvXxX%X3X*XmXxX'.3X5X`.`.`.`.`._._._._._._._._._._._._._._.(.*X%X3X,X5.eX1XF.=.).*X3X&X3X1X1XH.<X5.=.H.&X=... .#X;.1X<X,X=.&X&X3.Q.Q.<X;.,X<.Q.W.W.!.!.I.W.I.S.M.^ i u b 2.s.V.S.I.I.T.I.I.I.T.I.I.P.P.I.P.Z.Z.C.Z.C.C.a.C.j.C.C.C.v.v.v.b.b.Z.u >.s.a.k.x.p.M.2.T a.M.^ ( c.B.( a.j.j.j.j.j.j.j.j.j.g.g.g.p.p.p.i.i.",
"x N z z z z N N z x x 3 2 x < . < c x x N N N N N N N N V 7 , c 9 , x x c 9 9 c V V V V V V C B 8 # % % % # # # < ~ C A B 3 2 o   o + 2 B D D D G G G G / / G / / / G G / D ) ) ) ~ B 5 % 0 0 0 0 0 r ( i.i.p.u.u.) ) p.j.p.a./ ) g.j.k.( v.l.j.a.L N.N.m r q q q q q q q ] q q ] ] ] ] ] ] ] [ [ [ [ [ [ [ { { { { { { { { { { { { { { { | | | *.5.5.{ H.!.S.W.2X2.V.W.R.E.~.~.~.~.~.~.7X~.~.7X7XtXtXtXtXtXtX7XtX7X7X^.7X7X^.V.S.!.^.9X9X^.0.V.Y Y P u r U.Q.N.2XuX9X2X<X9XQ.<.<.D.Q.dX1XdXfXfXfXfXfXjXfXdXdX1X<X5.;.*.*.5.&XdXvXnXnXnXMXNXMXVXNXMXNXBXNXMXvXnXnXnXnXdXvXNXVXFXVXvXjXvXNXVXNXVXVXNXnXdXnXNXNXNXnXvXmXDXFXFXFXFXFXFXFXDXVXFXFXVXNXVXFXFXFXVXNXmXNXAXVXFXVXVXVXVXVXmXnXNXmXnXVXVXVXFXFXAXNXvXvXVXNXnXNXnXNXNXVXMXVXBXBXMXnXnXmXxX%X*X*XxXxX%X3X5X`.`.`.`.].].].(.(._._._._._._._._._.(.].*X%XdX,X5.eX1XF.=.=.*X,X&X1X1X<XD.1Xd.5.<X&X=.).=.%X;.1X2X,X=.,X&X3.Q.Q.<X;.&X<.Q.!.W.!.!.!.I.S.I.^ _ n b b ` ` M.I.T.T.T.I.I.T.T.T.I.P.I.P.Z.C.B.C.Z.Z.B.B.Z.C.P.v.v.c.v.v.v.v.Z.u <.s.a.) j.k.s.1.b a.M.^ ( v.B.( a.v.j.p.g.j.g.p.f.g.p.j.p.p.p.u.) i.",
"N N N N N z N N x x c 3 7 c < . 8 B x z z N N N N N N V C 9 , c 7 < x l x 7 9 x N V V V V V V B 9 8 b & # & & . < B B 9 x x 2 +   o + x A S D S D G G G / G / / / / / G / / / ) ) ( L * 0 0 0 0 0 0 r ( i.p.u./ i.) ) p.p.i.p.u.p.j.l.k.( v.j.k.k.L N.N.u 2.r q q q q q q q q ] ] ] ] ] ] ] ] [ [ [ [ [ [ [ [ [ { { { { { { { { { { { { { { |  .5.5.5.} Q.W.W.!.^.N.S.T.~.~.~.~.~.~.~.6X~.~.7X7XtXtXtXtXtXtXtXtXtXtXtXtXiXiXyX^.^.yXiXaXiX9X9X2.P p u u a m D.N.I -.N.H.D.3.-.I 3.<X1XfX9XuXfXdXfXfXjXfXfXdXdX1X<X5.;.;.*.5.,XdXdXnXnXnXMXMXMXVXVXMXVXVXVXMXjXjXvXnXnXjXdXvXVXDXVXNXjXvXVXVXVXVXDXFXNXnXvXmXNXvXvXnXvXNXVXFXFXFXFXFXHXDXDXFXFXDXVXFXFXDXFXVXnXvXAXFXAXVXNXVXVXDXVXNXNXNXNXNXNXVXVXVXVXNXNXmXnXNXNXMXVXMXVXVXVXMXMXMXBXMXMXMXNXbX#X*X*XbXxX%X3X5X`.`.`.].4X*X'.].4X]._._._._._._._._.(.(.*X%X3X3X=.3X1X<X%X=.,X3X,X3X1X<XF.<X5.5.H.,X=.=.5.,X;.1X2X<X} ,X&X3.Q.Q.H.;.&X3.<X!.^.!.W.W.S.B.S.S.s.b u u ^ ` S.I.T.I.T.T.T.T.T.I.P.I.I.P.P.C.B.C.C.B.B.B.C.C.P.C.C.g.j.v.v.v.B.u 1.M.k.j.j.k.` 1.T a.M.W ( v.B.` a.v.x.j.j.j.j.g.g.f.g.g.g.) ) p.p.i.",
"x x N N N N N N x l x , 7 c 8 . 8 B x z N N N N N N N N B 9 , c 8 < x x x 9 7 x N V V V V V V C x 7 ~ b < b 6 . < c c x x x 7 >   O , 9 N V D D D / G G / G / / / / / / D V S S D / L * 0 0 0 0 0 0 u ( p.p.p.) u.u.u.i.i.) i.p.u.j.j.k.( k.p.k.k.L s.M.i s.a q q q q q q q ] ;.] ] ] ] ] ] [ [ [ [ [ [ [ [ [ [ { { { { { { { { { { { { { | {  .5.H.5.} <X!.U.W.Q.N.S.E.~.~.~.~.~.~.~.~.6X7X7XtXtXtXtXtXtXtXtXtXtXtXyXyXtXiXiXtX7XyXaXaXaXiX2XN.U u u u u r a I a 3.D.H.D.H.H.-.<.3.2.<.<.<.N.Q.9XuX1XdXdXdXdX1X1XF.;.;.*.F.3X1X0XvXMXMXMXMXMXMXMXMXMXMXBXMXuX1XvXNXjXdXnXNXnXMXNXNXMXnXNXVXVXVXDXDXVXmXmXNXnXvXmXnXnXNXVXVXDXFXFXFXDXFXFXFXFXFXVXVXVXDXFXFXNXNXVXAXVXNXVXVXFXDXVXVXVXNXNXNXVXVXVXNXnXVXNXNXNXVXVXBXBXMXVXVXVXVXBXMXMXMXMXMXNXbX%X*X*XmXxX%X3X5X`.`.].xX3X3X%X'.5X*X_._._._._._._._.(.).%X%X0X3X=.1XuX1X,X5.,X1X,XeX<XF.H.<Xd.F.H.,X=.#X5.,X;.1X2X<X} &X&X3.Q.Q.&X;.&X3.<XU.W.W.U.S.S.S.V.M.M.u 5 u ^ V.V.S.I.I.T.T.T.T.T.I.I.I.P.P.P.B.a.k.B.Z.Z.v.C.C.C.v.C.v.v.b.b.v.B.t 2.M.k.j.j.j.` 2.T ` M.^ ( c.v.^ ( j.c.j.j.j.j.g.g.g.g.g.g.p.) ) ) u.",
"x x N N N M v N z x c , 7 c < . 7 N x z N N N N N N N N V 9 , c 8 < c x x 7 9 N V V V V V V C C c 9 ~ c < L b . @ 9 9 9 B x 2 +   O , 9 x V D G G / G G G G / / / / / G D S S / ~ ) ~ < % 0 0 0 0 0 u ( p.p.p.) i.) D / i./ p.) f.j.j.k.( v.j.k.a.T N.N.b s.a q q q q q q ] q ] ] ] ] ] ] ] [ [ [ [ [ [ [ [ [ [ { { { { { { { { { { { | { { {  .D.Q.3.} Q.W.S.W.Q.N.S.!.E.~.~.~.~.~.~.6X6XrXrXrXtXtX7XtXrXtXtXtXtXyXyXyXtXyXtX7XyXiXiXyXiXpX^._ N.E u u u u a Y a a I -.3.N.2.a I Y E -.<.I a I <.3.F.H.H.1XuX<XF.3.*.;.5.d.,X1X0XvXMXMXMXMXMXMXMXnXMXMXBXlXdXdXjXnXnXNXMXVXBXNXnXnXNXMXNXVXVXVXVXDXVXnXvXvXvXvXvXnXNXNXVXDXFXFXFXFXFXFXFXFXHXHXVXNXVXVXNXNXNXvXvXFXVXVXVXVXVXFXVXVXVXNXNXVXNXVXNXNXNXjXNXNXMXVXVXVXVXBXVXBXBXBXBXMXnXMXMXMXNXbX%X*X*XmXdX.X3X5X`._.].xX,X3X%X'.5X*X(._._._._._._._.(.).%X&XdX3X5.1XuXeX,XF.,X1X&XuX<X&XH.<XF.F.H.1X5.%X=.1X;.<X2X<X} &X&Xd.Q.Q.&X;.<X3.<XW.W.W.M.V.V.V.V.V.M.T b u ^ M.B.M.I.I.T.T.T.T.T.T.P.I.I.Y.P.C.v.B.k.v.C.C.C.Z.C.v.C.v.v.C.v.v.B.t 2.M.M.p.a.k.` 2.^ a.M.^ a.l.B.^ ( j.x.x.x.j.j.g.p.g.j.p.g.i.) / ) i.",
"N N M M M M N N x x c , 7 c < . < B V N x N V N N N V N V 9 , c 8 < c x x 9 7 c V V V V V V V C c c ~ c < L c O @ 7 9 N x x 9 >   o > 9 N V G G / / / G / / / G / / / / / / D Z / ) ( L * 0 0 0 0 0 L ) p.p.p.u.i.) ) / ) ) p.p.j.j.l.k.( v.l.v.k.T N.s.8 s.r q q q q q q ] ] ] ] ] ] ] ] ] ] [ [ [ [ [ [ [ [ { [ { { { { { { { { { | .X{ { { =.D.Q.3.*.Q.S.S.W.!.N.I.~.~.~.~.~.~.~.~.6X6X6XrXtXrXtXtXtXtXtXtXyXtXyXtXtXyXiXtXtX7XtXyXyXaX2X2.R V.V.p u t N.U.N.3.N.>.P >.-.u u G.9XuXQ.D.H.H.<XD.3.3.<.<.-.<X1X&X;.*.*.3.F.1X1XdXnXMXMXMXMXMXMXMXnXMXMXMXMXnXnXMXjXnXMXMXMXVXVXjXjXNXNXNXDXVXVXVXNXvXnXnXnXvXvXNXNXNXVXDXDXDXFXFXFXHXHXHXFXHXHXVXNXVXVXNXNXNXnXnXVXVXNXNXVXDXVXVXVXVXNXNXNXVXVXNXVXVXMXnXMXNXNXVXBXBXBXMXMXBXBXMXMXnXBXMXnXnXmX%X*X,XmXxX%X3X4X`._.'.xX,X3X%X'.qX3X(._._._._._._._.(.).#X%X0X3X5.eXuX2X1X%X,X3X2XuX1X&XH.<XF.&X<X1X5.%X;.1X;.1X2X1X} &X&Xd.Q.!.<X;.<X3.<XU.S.S.V.M.M.M.S.V.` R < t ^ M.B.B.I.T.T.T.T.T.I.I.I.P.I.P.P.P.Z.Z.k.v.b.C.C.C.C.C.v.v.v.C.v.B.B.b 2.M.k.a.a.k.` 1.^ a.M.W p.l.B.W a.l.x.x.x.x.j.j.p.g.g.g.g.p.p.p.p.p.",
"N N N N N N x v x x x , 7 c < . < B V N z N N N N x V N N 7 , c 7 < x 9 x 9 9 V V V V V V V V C c c ~ c 5 L c O @ 7 x B V 4 2 >   o 2 9 V C G G / / / / / G G / / / / / ) / V D / / / ~ 8 * 0 * * n ` i.p.p.p.p.) u./ ) i.) p.p.p.j.h.k.( v.l.k.k.T N.2.6 N.r q q q ] ] q q q ] ] ] ] ] ] ] [ ' [ [ [ [ [ [ { { [ =.{ { { { {  .=.{ { .X} { } } D.G.3.*.Q.W.W.W.2XN.T.E.~.~.~.~.6X6X6X6X7X7XtXtXrXtXtXtXtXtXtXtXtXtXtXtXiXiXiXiXyXyXiXyX^.0.T G.N.2.p * N.Q.Q.W.U.^.!.G.Q.1.u N.9XfXfXfXQ.D.H.2XfXD.<.<.3.<.3.0.5.;.*.*.;.F.1XdXjXnXnXMXMXMXMXMXnXnXMXMXjXlXMXMXuXuXMXMXMXBXVXBXnXjXnXnXnXNXVXVXVXNXnXNXnXNXvXvXVXVXVXVXNXDXFXFXFXFXFXFXFXHXDXDXVXVXDXDXNXnXNXnXnXVXNXNXNXNXVXVXVXVXVXMXNXNXVXDXVXVXVXMXvXnXjXVXBXBXVXBXBXBXVXMXMXnXjXMXMXMXNXbX%X*X,XmXxX%X3X5X]._.'.xX,X3X'.%X0X*X(._._._._._._._.(.).'.%X0X3X5.uXuXuX1X&X1XuXuXuX<X3.F.<XF.&X<X1X;.%X;.,X;.1X2X1X} &X&X3.Q.!.Q.;.<X3.Q.U.U.S.V.V.V.U.S.M.M.i 5 b s.M.B.B.T.T.T.T.T.I.I.Z.I.I.P.P.Z.P.T.a.k.C.Z.L.C.C.K.C.v.v.v.b.v.v.B.b 2.M.k.j.p.j.` 2.^ a.M.W p.x.B.( a.l.c.c.x.x.h.g.g.p.g.g.f.p.i.p.p.p.",
"z z x v v v v N x z x , 3 c < O 8 B N N N N N N N N V N V 7 , c 8 < c x x 9 9 N V V V V V V V C c 9 ~ c 5 L c   @ 9 c C A x 3 2   O 7 x V A ~ / / / / / / / / / / / G G / / i.p.u./ / / ~ W L L ( ( p.p.p.p.f.u.u.) ) G D ) p.g.u.p.f.k.( v.l.j.` L N.` 8 N.r q q q ] q q q q ] ] ] ] ] ] [ [ ] ] [ [ [ [ { { { { { { { { { { 5.{ | {  .{ 5.&X;.F.G.3.} Q.!.W.W.^.N.W.~.~.~.~.~.6X6X6X~.~.rXrXtXtXtXtXtXtXtXtXiXiXyXiXiXiXiXiXyXaXaXiXyXM.K R Q.0.U u u G.!.^.iXpXuX^.N.uXN.Q.uXsXfXfXfX2XQ.<X2XuX2XQ.<X<X9XdXuXF.-.*.;.3.3.H.0XdXjXvXMXMXMXMXMXMXMXMXnXjXjXjXMXBXMXMXnXMXnXMXVXBXMXMXnXMXVXVXDXVXjXjXNXvXvXmXNXVXMXnXNXNXDXDXDXDXDXFXHXDXDXDXDXVXDXDXDXDXVXNXNXNXNXNXNXVXVXVXVXVXDXDXVXVXVXBXDXVXVXVXMXNXMXnXVXBXVXBXBXBXBXBXBXBXMXMXnXnXnXMXbX%X*X,XmXxX%X0X5X]._.'.xX,X*X*X'.3X*X(._._._._._._._.(.(.'.%XdX3X5.uXuXuX1X&X2XyX9XuX<X3.<XH.5.%XH.<X*.,X;.,X;.1XQ.<X} &X&X3.Q.!.H.;.<X3.<XW.W.I.S.S.S.U.W.B.s.i u n ` M.S.I.T.T.T.T.T.I.I.I.I.P.Z.P.K.C.Y.C.C.P.P.C.b.C.C.C.C.v.v.b.v.b.S.n s.k.k.f.l.j.( 2.^ a.M.( p.l.B.` a.l.c.x.c.j.h.g.p.p.j.f.f.f.p.p.i.u.",
"N z v v v v N x x x x , 3 B 8 O < N V N N N N N V N N V C 9 , c 7 < B c x 7 3 V V V V V V V A A B x ~ c < L c o , x c N A B >     o < x D D / / G / / / / / / / / / / / / / / u.u./ ) / / p.( ~ ( ) p.p.p.p.p./ ) p.i.p.p.p.p.f.p.f.f.k.( v.v.l.a.T V.^ b N.r q q q q q q q q ] ] ] ] ] ] [ [ ] ] [ [ ] [ [ { [ [ [ { { { { { { { { { =. .F.Q.3.D.G.3.*.Q.S.W.W.^.N.W.~.~.~.~.~.6X6X6X6X6XrXtXrXtXtXrXtXtXtXtXiXyXiXiXiXiXiXyXiXiXiXyXyX2.i W.G.G.I u 2.Q.!.uXpXpXiXuXV.2XG.2X9XpXfXfXfXfXfXuX2X<X2XdXdX1X9XfXdX<X;.} ;.3.5.&X0XjXjXjXMXMXMXMXMXMXMXMXMXnXMXBXMXnXMXBXMXMXMXMXMXMXnXnXBXVXVXVXVXNXvXnXMXMXVXMXnXVXNXvXvXNXDXDXDXFXDXHXFXDXDXDXDXDXVXVXVXVXVXVXNXNXNXVXVXVXVXVXDXDXDXDXVXVXBXBXDXVXVXVXVXVXNXVXVXBXBXSXVXBXBXBXMXBXMXMXnXnXMXMXmX%X,X,XbXxX%X0XxX].(.'.xX,X%X*X'.3X*X(._._._._._._._.(.(.'.%X0X1X5.dXuXeX1X,XuXuXyXuXQ.3.<X1X5.&X1X1X*.,X;.,X;.1XQ.<X} &X&X3.Q.^.U.;.<Xs.Q.Q.I.I.I.S.M.S.S.S.u b < u ` M.S.I.T.I.T.T.T.I.I.P.P.P.P.Z.P.P.P.P.C.P.L.L.C.v.C.C.b.v.b.b.b.C.I.n N.M.k.x.x.j.` 1._ a.M.( p.l.B.` a.l.c.j.c.c.h.g.g.p.g.f.g.f.p.p.p.p.",
"v v x v v v v N x x x , 3 B 7 O 7 B V N N N N V V N N N v 9 2 B 7 < B c c 9 7 N N V V V V V C A B x D c 5 L c o , x c V C x 2 O   o > x D D / / / / / / / / / / / ) / / ) ) / G u.) ) u.p.i.i.) / u.p.p.p.f.g.p.i.p.p.p.f.f.j.g.g.u.g.k.( v.v.v.k.L V.R L M.r q q q q ] q ] ] ] ] ] ] ] ] ] ] ] [ [ [ [ [ [ { { [ { { { { { { { | { { 5.} F.Q.D.N.S.<.;.2XT.T.!.^.N.W.~.~.~.~.~.~.6X6X6X6X6XrXrXrX6X7XtXtXtXtXiXtXtXtXtXiXiXiXyXiXyX7XW.R M.G.V.1.u t G.uX9XyXsXyXsXpX2XV.2XfXhXhXfXhXhXfXfXfX1XuXfXfXpX2X2XdXjX<X3.;.*.*.3.1XjXjXlXnXMXMXMXMXMXMXMXMXMXMXMXnXnXnXMXMXMXMXBXVXDXVXBXnXMXVXVXVXVXVXNXVXVXVXVXMXnXNXNXvXvXVXFXDXDXDXFXDXDXDXDXDXDXDXVXVXVXVXNXVXNXNXDXDXDXVXBXBXVXDXDXDXVXVXVXBXVXVXBXMXVXVXVXMXMXMXBXBXBXMXMXBXBXMXMXMXMXzXzXMXmX%X,X,XmXxX&XjXxX5X(.'.xX%X%X*X'.5X*X(._._._.(._._._.(.(.'.%XdX3X5.dXuXuX,X,X2XyXuXyXQ.3.<X1Xd.%X1X<X5.,X;.,X;.1XQ.<X} ,X&X3.Q.^.Q.<.<Xs.<X!.W.W.W.W.S.S.U.S.L 5 5 b ` B.S.I.T.T.T.I.I.I.T.Y.P.P.P.Z.P.P.P.P.C.P.L.L.C.C.C.C.C.j.v.b.C.b.Z.b 2.k.v.x.x.j.a.1.T a.B.W p.j.B.( a.c.c.x.x.j.j.g.g.i.g.p.j.j.p.p.p.p.",
"v v v v v v v x x x x , 3 B 7 O 7 B V N N N N V N N N N V 9 2 B 7 < c x x 9 7 V V V V V V V C A B c D c 5 L 9   , c c N B C x 2   @ 7 N C S D G G / / / / / / / / ) ) / / / ) u.) ) u.u.p.u.i.) ) u.u.p.p.p.f.p.i.p.p.p.p.f.j.g.j.c.j.k.` v.v.v.k.b V.T W M.r r a q q ] q ] ] ] ] ] ] ] ] ] ] [ ] [ [ [ [ [ [ { { { { { { { { { { | { 5.*.H.Q.D.N.G.3.;.2XW.W.!.!.N.W.~.~.~.~.~.6X6X6X6XrXrXrXtXrXrXtXtXtX~.tXtXtXtXtXiXiXiXtXyXiXiXyXM._ V.2.M.M.P t W.sXsXiXaXiXyXyXsX` Q.sXsXfXfXfXhXhXhXfXuXuXfXfXpXuX9X9XuX0XD.-.} ;.F.1XdXjXlXnXMXnXnXMXMXMXBXMXMXMXMXMXfXfXMXMXBXBXBXVXBXBXnXnXVXVXVXVXVXVXMXNXDXVXBXMXnXnXNXnXNXVXDXDXDXDXDXDXDXDXDXDXDXVXMXVXVXDXDXvXdXVXDXDXDXDXVXDXDXDXDXDXVXVXVXVXVXVXVXBXMXVXMXMXMXMXBXVXBXMXMXBXMXMXMXMXMXzXzXMXbX%X,X1XmXxX,XjXvX5X).'.xX&X3X3X%XqX*X(._._._._._._._.(.).%X%X0X3X;.uXuXuXF.&X2XyXyXyXQ.d.<X<Xd.%X2X<X;.,X;.,X;.<X^.<X} ,X,X3.Q.^.Q.-.<Xs.<XW.S.W.W.W.S.S.I.S.S.T 5 R s.M.Z.Z.I.T.T.I.I.P.P.Y.Y.T.P.P.P.P.C.C.P.P.P.P.P.C.C.C.C.v.j.v.b.v.B.i ^ a.k.x.v.j.a.1.T a.B.( a.j.B.( p.c.c.x.j.j.j.j.j.p.g.g.j.p.i.p.p.p.",
"v v v N v v v v x x c , 7 B 8 O 7 V V N N N N N N N N N V 9 2 B 9 < B c c 9 7 B V V Z Z Z Z V A B v ~ c < L 7   , x c N A B x 2   o 2 c C D D / / / / / / / / / ) ) ) / G / u.u.) u.u.u.u.u.u.) i.p.p.p.p.p.p.f.f.p.p.g.g.p.g.p.g.j.j.k.` k.x.v.k.b V.m ` B.u r s.r q ] ] ] ] ] ] ] ] ] ] [ ] ] ] [ [ [ [ [ [ [ { { { { { { { { { | { 5.*.H.Q.D.N.G.3.3.Q.W.W.!.!.s.S.~.~.~.~.~.~.~.~.6XrXrXrXrXtXtXtXtXtXtXtXtXtXtXtXtXiXiX7XiXiXaX9XR 1.E _ E p u ! ^.sXpXaXsXyXiXsXsXV.G.uXpXsXfXhXhXhXhXfXuXuXpXfXuX1X<X2XuXuXF.*.;.;.&X1X1XfXjXlXnXlXnXMXMXMXBXBXMXfXjXMXMXMXBXBXBXVXBXBXBXBXnXnXBXBXBXVXVXVXMXMXVXBXBXVXnXjXvXnXMXVXDXDXDXDXDXDXDXDXDXDXDXMXvXVXDXDXMXjXNXVXSXSXSXDXDXVXDXDXDXDXVXVXVXMXMXBXVXBXMXBXBXVXVXBXVXBXBXMXMXBXBXMXMXMXMXzXMXMXmX%X,X1XnXvX1XjXdX5X).'.xX&XdX3X%X0X*X(._._._._._.(.(.(.).#X%X3X3X;.eXuX2XF.&X2XyXiXyXQ.3.<X1XF.%X<X<X;.,X;.&X;.<X^.<X} ,X,X<.Q.!.Q.-.2XN.^.W.S.W.I.S.V.M.S.V.S.` i ^ M.M.Z.B.S.T.I.Z.I.I.I.Y.Y.Y.P.P.B.C.C.C.P.L.P.L.A.C.C.C.C.C.b.v.b.C.Z.b s.M.v.x.v.j.k.^ m a.M.( a.j.B.^ a.c.c.c.j.h.j.j.g.j.j.j.p.) p.g.p.p.",
"v v v v v x v v x x c , 3 B 8 O 7 V V N N N V V V N N V V 9 2 B 9 < B N c 9 9 C V Z S S Z Z C C C B ~ c < L 7   , 9 9 B V B B 3   + 2 x A D D ~ G / / / / / / / / u.) ) / ) / / ) ) u.) u.u.u.u.p.p.p.p.p.p.p.f.f.f.f.f.p.p.g.g.j.j.j.k.( k.x.x.a.L V.I s.S.u p s.r q q ] ] ] ] ] ] ] ] ] ] ] ] ] [ [ [ [ [ { [ { { { { { { {  .{ { { 5.*.H.Q.3.D.U.3.3.Q.I.T.!.^.N.W.~.~.~.~.~.~.6X6X6XrXrXrXrXrXtXtXtXtXtXtXtXtXtXtXtXiXiXtXiXiXiXG.K T p T U p i G.iXsX9XiXiXiXaXsXsX2XM.!.pXsXfXhXhXhXhXfXpXuXpXfX9X<X<X2XuXdX<X;.*.;.H.1X9XdXjXnXlXlXlXnXMXMXMXMXMXMXMXMXMXMXMXMXBXBXBXBXBXMXMXMXMXMXMXVXVXVXMXNXVXBXMXMXnXnXnXNXVXDXDXDXDXDXDXDXDXDXDXDXDXDXVXDXDXVXMXDXDXSXDXDXSXDXDXVXVXSXVXDXDXVXVXMXVXVXVXVXBXBXVXVXMXBXVXBXVXMXBXBXBXMXMXMXMXzXzXMXmX%X3X1XnXvX0XjXdX5X).'.xX&XdX,X%XxX*X(._._._.(.(.(.(.(.).'.%X3X3X;.uXuX2XF.F.2XiXyX2X2X3.<X2XF.&X2X<X;.,X;.&X;.<X^.<X} ,X,X<.Q.^.Q.-.2XN.2X!.W.I.S.S.B.M.S.S.S.a.u T M.S.Z.B.I.T.I.Z.I.I.P.T.T.P.P.P.P.P.Z.P.L.P.L.C.C.C.C.C.C.C.v.b.b.C.Z.n M.B.v.x.x.j.k.^ m a.M.( a.j.B.^ a.c.c.c.h.h.h.j.j.g.j.g.g.p.g.g.g.g.",
"z z v N N v x v x x c , 3 v 8 @ 8 B V N N N V N V N N N V 9 2 B 9 < B c B c 9 V V V Z V S S S A C B ~ c 5 L 9 o , x 4 x N C N 2   @ x C D D D G G / G G / / / / u.u.) ) u./ / ) ) ) u.u.u.p.u.u.p.p.p.p.p.p.f.f.p.f.g.g.p.p.f.p.j.j.j.j.( k.x.x.k.R V.-.s.S.i K s.r q q ] ] ] ] ] ] ] ] ] ] [ [ ] [ [ [ { [ { [ { { { { { { *.F.*.{ { 5.*.H.U.<.N.U.3.;.2XW.T.!.^.s.W.~.~.~.~.6X~.~.6X6X6XrXrXrXrXtXtXtXtXtXtXtXtXtX7XtXiXiXiXyXaXyXR i R R N.E t R ^.sXsX9XyXiXaXaXpXsXyX` 2.9XsXfXhXhXhXhXfXpXpXpXuX2X<X<X1X9XuX<X3.*.3.<XdXdXfXfXjXlXlXjXlXMXMXMXMXMXMXMXMXMXMXMXMXBXBXMXBXBXBXMXMXBXMXBXBXVXVXVXBXVXVXBXMXnXjXjXnXVXDXDXDXDXDXDXDXDXDXDXDXDXDXDXDXDXDXDXDXDXDXDXDXDXDXSXSXDXSXVXVXBXDXVXBXVXVXVXVXVXBXVXMXMXBXMXNXNXvXnXBXMXMXMXMXMXMXMXMXmX%X3X1XnXdXdXjXdX5X).'.xX&XdX%X%XxX*X(._._._._._.(.(.(.(.).'.3X0X;.uXuX2XF.F.2XyXyX2XQ.3.<X2XF.&X2X<X;.,X;.&X5.<X^.<X} ,X<X3.Q.^.Q.<.2XN.2X^.W.W.S.M.s.B.I.V.V.` b ` B.S.S.Z.I.I.T.P.I.P.P.P.T.Y.P.P.P.P.P.P.L.L.L.A.C.C.C.b.b.C.C.b.b.b.B.L s.B.v.x.j.j.k.^ T a.B.` a.j.B.( a.l.x.z.h.h.h.j.j.j.j.g.h.j.g.g.g.g.",
"v z v v N x N v c x x , 3 c 8 O 7 V V N N N V V N N V V V 9 2 L 9 < B c c c 9 C V V V V V Z V A C B ~ c 5 L 7   , B x 9 x A C 3   2 C A D D D / / / / / / / / ) / / u.u.) ) / ) u.u.u.u.p.u.) p.p.p.p.p.f.p.f.p.f.f.g.f.p.p.u.u.g.j.l.j.( k.x.x.k.W V.1.M.S.p R M.r q q q ] ] ] ] ] ] ] ] ] [ [ [ [ [ { *.[ [ [ { { { { { { } %XF.*.} ,X;.H.W.<.3.G.3.;.2X!.T.!.^.s.W.~.~.~.6X6X~.6X6X6X6X6XrXrXtXtXtXtXtXtXtXtXtX7XtXtXtXiXyXtXyX!.L t M.M.G.T * V.yXaXyX9XiXaXpXaXiXaX9XV.2.9XfXfXhXhXhXhXfXsXpX9X9X2X<XQ.1XuXuX1X3.*.H.dXdXfXfXjXjXlXjXlXnXMXMXMXMXMXMXMXMXMXMXMXBXBXBXBXBXBXBXBXBXBXMXBXVXMXBXBXBXVXVXVXVXvXdXdXnXVXDXDXDXDXDXDXDXDXDXDXVXSXSXSXDXDXDXDXSXSXDXDXSXSXSXSXVXVXVXVXBXBXSXDXVXVXVXVXVXVXBXMXMXMXBXMXmXxX3X0XNXMXMXMXMXzXzXzXMXmX%X,X1XMXjX9XfXdX5X).'.xX&XxX'.#XxX*X(._._._._._.(.(.(.(.).'.3X3X;.uXuX9X&X&X2XyXyX2XQ.3.<X2X5.F.2X2X;.%X;.&X5.<X^.<X} &X<X<.Q.^.Q.-.2Xs.^.^.W.!.I.Z.M.M.V.S.I.` i ^ M.Z.S.I.I.T.I.Z.I.I.I.T.T.P.P.P.P.P.P.P.L.P.L.L.C.C.C.C.v.C.b.v.v.b.B.T M.B.v.x.x.j.k.T K a.B.a.j.j.B.^ a.c.x.z.g.h.h.j.j.g.g.h.h.h.h.g.g.g.",
"v v v N N N N v x 9 x 3 3 B 8 O < V V N V N V N N V V V C 9 < B 9 < A V B c 9 V V S S S S S A A A B ~ b < B 9 o 2 B N N B C ~ 7   2 B C D ~ / / G G / / G / / / u.u.u.u.u.u.u.) u.u.u.u.p.p.p.p.p.u.p.f.p.p.f.f.p.g.g.j.p.p.p.j.j.h.l.k.( k.l.x.k.W V.1.S.Z.u T s.r q q q q ] ] ] ] ] ] [ ] ' ' ] ] ] [ [ [ [ [ { { { { { { } F.&X5.} ,XO.H.W.3.N.G.3.;.2X!.T.!.^.2.W.~.~.~.6X6X6X6X6X6XrX6XrXrXtXtXtXtXtXtXtXtXtX6XtXtXtXyXtXtXiX` i K G.2.i t t ^.iXyXiXaXsXaXaXsXsXsXsXhX2.^.fXfXhXhXhXfXhXpXuXpXpXuXuXuXuXpXuX2X3.-.F.1XdXfXjXjXjXlXjXlXnXMXMXMXMXMXMXMXzXMXMXMXMXBXMXBXBXBXBXBXBXMXMXBXBXBXBXMXMXBXVXVXVXMXvXMXVXVXDXDXDXSXDXDXDXDXDXDXDXSXVXDXSXSXDXSXSXSXSXDXDXSXDXSXVXBXBXVXBXBXVXSXBXVXBXMXjXMXBXBXMXMXMXNXxX*X].*XbXMXMXMXMXzXzXzXMXmX%X,X1XlXlXhXfXdX5X).'.xX,XxX'.'.3X*X(.(.(.(.(.(.(.(.(.(.).'.0X3X;.uXuX2XF.&X2XyXyX9XQ.3.<X2X5.F.2X2X;.,X5.&X5.<X^.<X} &X<X<.Q.^.Q.-.2XN.!.!.W.W.W.T.I.M.S.I.I.M.i ^ B.Z.S.I.I.I.P.Z.P.T.I.Y.P.Y.P.P.P.P.P.P.P.L.P.A.C.C.A.C.C.C.v.v.v.b.Z.T s.B.v.v.j.v.B.^ T a.B.a.j.j.B.W a.l.x.x.z.j.j.x.j.j.g.h.g.g.g.g.g.g.",
"v z v v v x v x x l x , 3 c 7 O < v N N N N N N V V V V C 9 < B 7 2 A B c 9 9 V V V V Z S S A A A A ~ c 8 L 9 o < B V C C A c +   2 C A A D / / / G G / / / / / / u.u.u.u.u.u.u.u.u.i.p.p.p.p.p.p.p.u.p.p.p.g.g.p.g.j.j.g.p.p.l.j.h.x.k.( k.v.x.k.( V.` S.B.u T M.u r r r q q ] ] ] ] ] ] ] ] [ [ [ [ [ [ [ [ [ [ { { { { { } F.&X5.] &XO.U.W.N.D.W.<.;.Q.!.Z.~.^.2.W.~.6X6X~.6X~.~.6X6X6X6XrXtXtXtXtXtXtXtXtXtXtXtXtXtXtXtXyX^.!.L < 0.!._ 5 * 0.^.iXaXiXsXsXaXiXsXsXaXaXsXM.V.yXfXhXhXhXhXfXpXsXfXpXpXuXuXfXfXfX<X<.a F.9XdXfXjXlXlXlXjXjXlXlXzXzXlXzXMXMXMXMXMXMXMXMXMXMXMXBXBXMXnXMXBXBXMXBXBXMXMXBXBXVXMXjXjXnXMXVXSXDXDXVXBXSXSXDXDXDXDXSXSXDXDXDXDXDXSXBXSXSXSXSXSXBXSXBXBXVXSXBXBXBXBXBXVXBXdX1XDXMXMXBXMXmX3X].].].*XNXMXMXMXzXzXzXMXmX,XxXdXlXjXjXhXjX5X).'.xX,XdX%X5.dX5X).(.(.(.(.(.(.(.(.(.'.%XdX3X;.uXuX2X5.&X2XyXyX2XQ.D.2X2Xe.5.N.2X;.,X;.<X5.<X^.<X} ,X&X3.U.!.Q.>.Q.V.W.W.W.W.T.I.I.S.W.W.S.M.b V.V.Z.Z.I.I.I.I.Z.P.T.T.Y.P.P.P.P.P.P.P.A.L.P.A.C.L.C.C.C.C.C.C.C.v.b.Z.T M.B.l.x.v.v.k.T ^ M.B.a.j.j.B.^ a.x.x.x.x.c.x.h.j.h.h.h.h.h.j.g.g.g.",
"z v x z v z v N 9 9 c 3 7 v 7 O < V V x z N V N v N V N V 9 < c 9 3 B V B c 9 C S Z Z S V N V D ~ ~ ~ c < L 9 O 7 B x C C A B 2 o 7 A C S D G / / G / G / / / u.u.u.u.u.u./ u.u.u.u.u.u.p.p.p.u.u.p.p.p.p.g.g.g.g.g.g.j.p.p.p.j.j.j.j.k.( B.v.x.k.~ S.s.B.B.u T M.u I V.V.q q ] ] ] ] ] ] [ [ ] [ [ [ [ [ [ [ [ { { { { { { } F.<X*.q F.*.U.W.N.D.W.<.*.Q.~.~.~.^.^ W.~.~.~.6X~.6X~.6X6X6X6XrXtXrXtXtXtXrXtXtXtXtXtXtXtXtXtXtXyXM.i < V.R t i t ^.sXpXyXiXyXyXaXiXiXsXsXsXgXkXM.Q.fXsXfXkXkXhXpXfXfXfXuX2X2XuXpXuXH.-.a Q.dX9XuXfXjXjXjXlXlXzXzXzXzXMXMXMXMXzXMXMXBXMXMXBXBXMXMXBXMXMXBXBXVXBXMXBXBXBXBXVXBXBXnXnXMXBXBXVXSXDXSXDXBXBXDXDXDXSXSXSXDXDXDXDXSXDXDXDXDXSXSXSXSXSXSXSXBXBXBXBXBXBXSXVXVXDXVXMXVXMXMXnXxX*X]._.].%XNXMXzXzXzXzXzXMXmX,XnXlXlXlXhXfXdX3X).'.xX3XxX3X5.0X3X).(.(.(.(.(.(.(.(.).'.%XuX3X5.uXuX9XF.<X2XyX^.9X2XD.1X2X5.F.H.1X;.3X;.,X3.<X!.<X*.&X&X3.Q.^.Q.1.2XN.W.^.!.!.W.S.S.S.I.T.S.` 8 ^ Z.Z.S.Z.I.I.T.P.P.P.Y.P.P.P.P.P.P.P.P.A.P.P.P.P.C.C.C.A.A.C.b.C.b.b.Z.T M.B.v.x.x.v.k.^ ` k.B.a.a.j.B.W a.x.x.x.z.h.j.j.h.h.h.h.h.g.h.g.g.g.",
"v N x z M N v v 9 9 c , 3 v 8 O 7 V v z z N N N x x V V B 9 < L 9 < C V B c 7 V V Z V V S A V C ~ ~ ~ c < L c O < C V C A A B +   2 ~ ~ D D D / / / / / / / ) u.) u.u./ / / ) / u.u.i.u.u.p.p.u.G p.p.p.g.g.g.g.g.g.g.g.g.p.g.j.j.h.l.k.( B.x.x.k.~ B.^ ` M.t T s.t T S.S.r q ] ] ] ] ] [ ] ] [ ] [ [ [ [ [ [ [ { [ [ { { { { d.&X<.3.5.} G.!.N.V.U.3.O.2X~.~.~.^.^ W.~.~.~.~.6X~.6X6X6XrX6X6XrXtXtXtXrXrXtXtXtXtXtXtXtXtXtX~.^.S.L ` !._ 5 * i W.iX9XaXiXiXpXsXsXaXsXsXsXsXsX` !.fXfXfXfXsXpXpXpXfXuXuXuXuXpXfXdXQ.<.O.<XfXdXuXfXjXlXjXjXjXjXlXzXzXzXzXMXMXzXzXMXBXMXMXBXMXMXMXMXMXfXjXBXVXBXBXBXBXBXBXBXBXBXMXMXBXVXSXVXDXDXVXSXVXBXSXDXDXSXSXSXDXDXDXDXDXDXSXSXSXSXSXBXBXBXBXnXjXBXMXBXBXSXMXfXBXfX<XBXBXnXMXMXxX'.]._.].,XnXzXzXzXzXzXzXMXmX,XnXlXhXfXuXfXdX3X).'.3XF.3X'.5.dX3X'.#X).(.(.(.(.(.(.).%X&XuX3X5.uXpXuXF.<X2XyXyX!.Q.D.<X2X5.5.2X2X;.,X;.<X3.<X^.Q.| &X&X3.Q.^.^.U.Q.2.S.W.W.W.W.S.Z.S.S.T.W.M.i M.S.S.Z.Z.I.I.T.P.Z.I.Y.T.P.P.P.P.P.P.P.A.Z.A.P.C.L.C.C.C.C.j.j.b.C.C.Z.^ M.B.x.x.x.x.M.T ^ M.M.` j.j.B.W a.x.x.x.x.x.c.j.h.h.g.h.h.h.g.g.g.g.",
"z v v N N N N v 9 9 c , 3 v 8 O 7 V V N N N V N N V V V B 9 7 B 9 < B V B c 9 C Z V V V V V V A ~ ~ ~ c 8 L 7 O 7 C N A D A B 2 o 9 A A D D D / / / / / G / / u.) ) u.) ) ) u.u.u.u.i.p.p.p.p.p.u.i.p.p.g.g.g.g.g.g.g.f.j.f.p.j.j.g.j.k.( M.x.x.k.~ Z.a.( M.u T M.u T S.S.a q ] ] ] ] ] ] ] [ ' [ [ [ ] [ [ [ { [ [ [ { [ { { ;.&XG.<X;.*.H.!.N.V.W.<.a !.~.~.~.^.` W.~.~.~.~.~.~.6X~.6XrXrXrXrXrXtXtXtXrXtX7XtXtXtXtXtXiXtXyXW.L 8 G.9X^ t p !.aXaXyXaXsXyXyXyXyXyXaXsXsXsXpXG.!.pXpXpX^.9XpXpXfXfXfXpX9X9XuXpX9XQ.<.<.<XuXuXuXfXjXlXlXjXlXlXlXzXzXzXzXMXMXzXMXBXBXMXMXBXMXMXzXMXMXzXMXBXBXBXBXBXBXBXMXMXBXBXnXjXMXBXBXBXDXSXBXSXDXDXDXDXDXDXDXDXSXSXDXDXDXSXSXSXBXSXSXBXBXBXMXMXMXBXMXlXBXMXMXMXMXnXvXnXMXMXMXnXvX3X].].%XmXlXlXlXzXzXzXzXMXnX,XjXlXfXlXjXhXdX3X).'.3X%X3X*X5.dX3X'.3X5X).(.(.(.(.(.).%XF.uX1X5.uXyXuX&X,X9XtXyX^.!.D.<X<X5.F.<X<X;.,X;.&X;.<X!.Q.=.&X&X3.Q.^.Q.G.Q.V.I.W.W.W.!.I.S.S.T.I.S.` 8 ` S.Z.B.I.T.I.T.P.P.T.Y.Y.P.P.P.P.P.P.P.P.P.L.A.L.C.A.P.A.C.C.C.C.b.C.Z.^ M.B.v.x.x.v.B.T ` M.M.` j.j.B.^ a.x.x.x.x.x.h.h.h.h.h.h.h.h.g.g.g.g.",
"z v v x x N N V 9 l c , 3 v 8 O 7 V V v v N V V V V V V B 9 7 L 9 < B v B c 9 C V V V V N Z C C C B A c < L 9 O 7 A C C C V B 2 + x D A D D G D / / / / / / ) / / ) u.) u./ u.p.u.i.u.u.p.p.p.f.p.p.p.p.p.p.p.g.g.g.g.g.j.j.j.j.g.j.j.k.( B.v.x.j.L Z.B.k.M.u T s.u P S.V.a q ] ] ] ] ] [ ] [ ' ] ] ] [ [ [ [ [ { [ *.d.} [ { ;.H.H.Q.;.;.G.W.N.G.W.<.*.!.~.~.~.^.^ W.~.~.~.~.6X~.6X6X6X6XrXrXrXtXrXtXtXrXtXrXtXtXtXtXtXtXtXtXB.8 K U.9XT * L ^.iXaXiXyXaXiXyX9X^.iXsXpXsXpXV.M.S.2XyX2X^.2X^.9XpXpXfXfXuX2X9X9X2X<X3.3.H.1X9X9XfXjXlXlXlXlXzXzXzXzXzXzXMXMXMXMXzXMXMXMXMXMXMXlXjXlXnXMXMXBXMXMXMXBXMXMXBXBXVXMXnXMXBXBXVXVXSXBXSXSXDXDXDXDXDXSXMXDXDXDXSXSXSXSXBXBXBXBXBXBXBXBXBXMXBXBXMXMXBXBXnXjXjXjXjXnXMXBXMXMXxX3X*XbXnXlXlXzXzXzXzXzXMXnX&XjXhX9XlXlXjXjX3X).'.3X%X,X*X5.dX3X5.3X3X/.(.(.(.(.(.).%XF.dX3X5.uXyXuX&X,X2XtXtX^.Q.D.1X1XF.F.Q.2X;.,X;.&X;.<X^.<X=.&X&X3.Q.!.G.G.G.U.W.I.W.W.W.W.S.T.I.S.I.M.8 a.S.Z.B.Z.I.I.I.I.T.T.T.P.Y.P.Y.Y.Y.P.P.P.L.L.A.L.A.A.A.b.b.C.b.b.C.C.Z.T M.B.v.v.x.v.B.T ` k.B.a.j.x.B.( a.x.c.j.j.x.h.h.j.j.x.h.h.g.g.g.g.g.",
"z N N N x N N V 9 9 c 2 3 B 8 O 7 V V N N N N N N N V V C 9 7 L 9 7 B V B 9 3 C V V V Z V V C C L L L c 8 L c @ 7 A S A A A C 9 + B D C D D G / / / / / / / / / u.u.u.u.u.) / u.i.p.p.i.u.p.p.p.p.p.p.p.p.i.u.f.g.g.g.f.f.j.g.g.h.h.j.j.~ k.l.x.k.~ B.v.v.M.u I s.u n V.V.m q ] ] ] ] [ ] ] ' [ ] [ [ [ [ [ [ [ [ ] d.G.3.} } D.H.G.Q.;.;.G.W.N.G.Q.<.O.!.~.E.~.^.W W.~.~.~.~.~.6X6X6X6X6XrXrXrX6X6XrXtXrXtXtXtXtXtX7X7XtXtX^.L & J.9XW.g 5 M.9XiXiXyX9X^.yXsXsXpXiXyXaXsX^._ g _ !.uXuXuXuXuXuXpXfXfXpXuXuX2X2X9X2X3.3.<X9X9XpXhXjXlXlXlXlXzXzXzXzXzXzXzXzXzXlXzXzXMXMXMXMXMXMXzXzXMXMXMXMXMXjXzXBXBXMXMXBXBXMXMXMXBXVXSXSXVXBXSXSXSXDXDXDXDXDXSXSXSXSXSXSXSXBXSXSXBXBXBXBXBXMXMXzXMXMXMXlXMXzXBXBXnXlXnXlXjXMXlXMXnXvXdXjXlXlXzXzXzXlXzXzXMXvX&XjXlXfXlXlXjXjX3X).'.3XF.dX%X5.dX3X=.dX3X..(.(.(.(.(.).%XF.dX3X5.uXyXuX&X,X2XtXyX7XQ.D.<X<Xd.&X<X<X;.,X5.&X;.<X^.<X=.&X&X3.Q.!.S.U.W.S.I.W.W.T.T.T.T.T.S.S.W.S.b B.S.B.Z.Z.I.I.I.I.T.T.T.T.T.P.P.P.P.P.A.A.A.A.A.A.A.C.C.C.n.b.b.b.b.C.B.T M.B.v.x.x.v.B.T 2.B.v.k.j.x.B.( a.x.x.x.x.c.c.c.c.h.h.h.h.g.g.g.g.g.",
"v M v v N N N V 4 9 B 2 3 c 8 O 7 V V V N N V N N N V V C 9 7 L 9 7 C V B c 3 C V Z V V V V V A L L C c 8 b < @ 7 A A C C A A B @ B A C S D G G / / / / / / / / u./ ) / / / / u.i.p.p.p.p.p.p.p.p.p.p.p.i.) i.p.g.g.f.p.p.j.f.f.j.h.h.k.( k.l.x.k.~ B.v.v.M.u I M.u p B.V.m q ] ] ] [ [ ] ] ' ' ] ] ] [ ] [ { [ ] q D.G.D.*.;.D.G.Q.Q.3.;.G.Q.N.V.W.3.O.!.E.R.E.~.W T.~.~.~.~.~.6X6X6X6XrXrX6X6X~.6XrXrXtXtXtXtXtXtXtXtXtXtXV.L ` !.J.U.K * L W.yXiXyXiX7XiXiXyXyXyXiXiXiXW.M.M.L W.9XyXuXuXyXpXpXfXpXpXpXpXuX9XuXuXD.3.<X9XuXfXfXfXjXlXlXlXlXzXzXzXzXzXzXzXlXhXlXzXzXzXzXMXMXMXMXlXjXzXMXBXnXlXnXMXMXMXMXMXBXMXMXBXBXBXVXDXSXSXSXBXSXDXSXSXSXSXSXSXSXSXSXSXSXBXBXBXBXSXBXBXMXMXMXMXMXMXMXMXMXMXMXMXnXnXlXjXfXzXlXMXMXvXdXlXzXlXlXzXzXzXzXlXMXvX&XjXlXhXlXlXhXfX3X).'.3XF.dX%X5.dX3X=.0X3X..(.(.(.(.(.).%XF.dX1X5.uXyXuX&X&X2XyXtXyXQ.D.<X<X5.&X<X2X;.,X;.&X;.<X2XH.*.F.&X3.Q.W.V.V.S.T.S.T.T.T.T.I.S.T.S.S.W.I.i V.Z.B.Z.Z.I.I.T.P.T.T.T.Y.P.P.P.P.L.A.b.v.b.b.C.C.C.C.C.C.b.b.m.b.b.b.B.T M.B.x.x.x.j.B.T ` k.x.x.x.v.B.^ a.l.x.c.c.z.z.x.x.h.h.h.h.h.g.g.g.g.",
"M N N N v v v x 3 4 B < 3 B 8 O 7 V N N N V V N N N N V V 9 7 L 9 7 C V B 9 2 C Z V V V V V C A C v C c 8 c , @ 7 A A C C A A x @ B D A D D G / / / / ) / / u.u.u.u.) / u.) ) u.u.u.u.u.p.p.p.p.p.g.p.p.u.p.p.g.g.g.f.g.f.j.g.f.h.h.j.k.~ k.l.v.k.~ B.v.v.M.u I s.r m V.M.r r <.] ] ] ] ] ] [ ] ] ] ] [ [ [ [ [ [ a G.U.G.*.3.G.G.Q.Q.3.-.G.W.N.V.W.2.a Q.~.E.E.~.` T.~.~.~.~.~.6X6X~.6X6X6X6X6X6XrXrXtXtXtXtXtXtXtXtXtX6X^.V.^ G.!.V.!.L 5 2.U.yXiXaXaXiXaXaXsXaXaXaXaXpX9XW.^._ 0.Q.uXpX9XuXuXpXpXpXpXpXpX<XQ.uX2X3.3.1X9X9XpXhXlXlXlXjXlXlXlXlXzXzXzXzXlXlXjXzXzXlXjXlXlXzXMXMXMXlXjXzXMXMXlXlXnXMXMXMXnXBXBXBXBXBXBXBXSXSXSXSXBXBXSXSXSXSXSXSXSXSXSXSXSXSXBXBXBXBXBXBXBXBXBXBXMXBXBXMXMXBXBXMXMXMXlXjXzXlXzXMXMXnXnXdXlXlXlXzXzXzXlXlXlXMXvXH.jXhXhXlXkXhXfX3X).'.3XH.dX,X5.dX3X5.dX,X=.(.(.(.(.(.).%XF.dX1X;.uXyXuX<X<X2XtX^.yX^.D.<X2XD.&X<X1X3.,X;.&X;.<X2XG.*.F.&X3.Q.W.S.M.V.V.I.I.T.T.T.T.T.S.I.S.W.W.i M.Z.B.Z.Z.I.T.I.T.T.Y.Y.Y.P.P.P.P.L.C.b.b.B.C.C.B.A.C.A.A.C.C.b.b.v.v.B.n s.k.l.x.v.j.B.T a.k.x.x.x.v.B.^ a.x.x.z.h.z.x.j.j.h.j.h.h.g.g.g.g.g.",
"M N N N x z x x 3 7 c 7 7 B 7 O 7 V N N N V V V V V V V C 9 7 L 9 7 B V C 9 3 C V Z Z V Z V V B B B A c 8 L 9 @ 7 ~ S A C A D B + C A S S D / / / / / / / / u.u.u.u.u./ u.u./ / u.u.u.i.p.u.p.p.p.p.p.p.p.p.p.p.g.g.p.p.j.j.g.g.g.h.j.k.( B.l.l.k.~ C.b.v.M.u I 2.t m M.M.0 2.N.q ] ] ] ] ] ] ] ] [ [ { [ [ [ [ [ } G.U.H.*.<.G.D.Q.Q.3.-.G.W.N.N.W.s.a Q.R.E.E.~.T.~.~.~.~.~.~.~.~.~.6X6X6X6X6XrXrX~.rXtXtXrXtXtXtXtXtX^.!.W.L U.W.U.2.t 5 S.^.iXiXaXiXiXyXsXsXaXsXaXiXiXaXuXuXQ.^ W.pXpXpXpXpXpXpXpXuXuX<X2.1.<X<X<.3.H.2X9XpXhXlXlXlXjXlXlXlXlXlXzXzXzXzXlXlXzXjXpXfXlXjXlXzXMXzXzXzXMXMXMXlXjXlXlXnXMXMXBXBXBXBXBXBXBXBXBXBXSXSXSXSXSXSXSXSXSXSXSXSXSXBXBXBXBXBXBXBXBXBXBXMXjXMXMXBXMXMXMXMXMXMXlXjXlXzXzXMXMXMXnXnXdXnXzXzXzXlXzXlXlXlXnXvXH.jXhXhXlXhXhXfX3X).'.3XH.dX,X5.3X,X5.0X1X'.(.(.(.(.(.).%XF.dX1X;.uXyXuX<X&X2XtXtXyX!.D.2X2XF.&X<X<X;.,X;.&X3.<X^.H.} &X&X3.Q.S.S.W.S.W.W.W.T.R.R.R.T.T.T.S.I.W.8 M.Z.B.Z.Z.I.Y.P.P.T.Y.Y.T.Y.Y.P.P.P.L.C.C.C.b.v.A.A.A.A.C.C.C.C.b.v.v.M.b s.B.v.x.x.v.B.K ` v.x.x.x.x.B.^ a.c.h.z.c.x.x.j.j.h.h.h.h.g.g.g.g.p.",
"M M v N N N v x 9 9 B 7 7 v 8 O 7 V N N V V V V N V V V C 9 2 C 9 8 B V A c 3 V V S Z Z V V V C A B A c 8 L 9 @ 8 ~ S S A A A x > C D D S D / / / / / / / u.u.u.u.u./ / / / D H u.u.p.p.u.u.i.p.p.p.p.u.i.) i.p.p.p.p.f.g.g.f.g.j.h.j.j.( B.v.v.k.~ C.v.b.M.u E s.u T B.V.0 s.V.r q ] ] [ [ ] ] ] ] [ [ [ [ [ [ [ *.G.S.H.*.<.G.D.Q.Q.3.O.G.W.N.N.U.s.a !.~.E.E.E.~.~.~.~.~.R.~.~.~.6X6X6X6XrX6XrX6XtXtXrXtXtXtXtXtXtXyXM.V.R M.^.M.M.K * 5 U.9XyXiXiXaXyXiXiXyX9XpX9X^.yXiXpX9X9XU.S.^.uXyXyXpXpXpXpXuX9X3.u N.D.D.<.3.<X9X9XuXhXlXlXjXhXlXzXzXlXlXlXlXlXlXjXlXlXhXjXzXzXzXjXlXMXzXlXzXzXlXjXfXfXjXjXjXlXMXMXBXBXMXBXBXBXBXBXBXMXSXSXSXSXSXSXSXSXSXSXBXSXSXBXBXBXpXQ.SXBXBXBXBXBXBXMXMXzXMXMXMXMXMXjXfXlXlXlXlXzXzXMXnXdXlXlXlXzXlXlXlXlXpXjXvX&XjXlXkXlXkXhXfX3X).'.3XF.0X,X'.3X3X5.dX1X%X).(.(.(.(.).%XF.uX1X;.eXpXuX<X&X2XtXyX^.^.F.2X2Xd.&X2X<X;.,X;.&X5.<X^.H.*.H.&X3.W.V.S.W.W.T.T.W.W.T.R.T.T.T.I.T.I.W.6 M.I.Z.Z.I.T.T.T.Y.T.T.P.P.Y.P.P.L.A.A.v.k.j.C.L.A.A.A.C.A.A.C.C.C.v.v.M.b ` k.l.j.l.v.B.T ` k.x.x.x.x.B.^ a.c.x.h.x.x.z.h.h.h.h.h.h.h.g.g.g.D ",
"M M N N N N N V 9 9 c 7 7 B 7 O 7 B V N V V V N N V V V C 9 < L 9 8 B V C 9 2 V A S S V V S V B B B ~ c 8 L c & 7 ~ D S A D ~ x + c D D D D G / G G / / / u.u.u.u.u.u.u.u.u.i.i.u.i.p.p.i.i.p.g.p.p.p.p.) ) ) f.i.p.f.g.j.g.g.h.h.h.j.k.( B.v.v.k.~ C.b.v.M.u E M.u T B.V.t R N.r q ] ] [ [ [ ] [ ] [ [ [ [ [ { [ *.V.S.H.*.3.G.D.Q.Q.3.O.Q.W.N.N.U.2.a W.~.E.E.E.E.E.~.~.~.~.E.~.6X6X6X6X6XrXrX6XrXrXtXrXrXtXtX6XtXtXyXI.M.T W.S.S.!.L 5 _ !.yXaXsXsXaXyXaXiXiX^.!.^.yXiXiXpX^.9XyX` U.yXyX9XuXfXuXuXpXN.E -.D.3.<.-.<.<XuX9XuXhXjXjXjXhXhXlXlXlXlXlXlXlXzXlXzXzXzXMXMXzXMXMXzXlXlXzXMXlXlXjXfXfXfXjXlXMXMXMXMXnXMXMXBXBXBXBXBXBXBXBXBXSXSXSXSXSXSXBXBXSXSXBXSXBXBXBXBXBXBXBXBXBXBXBXMXMXMXMXzXMXMXMXMXjXlXjXjXzXlXMXnXdXnXzXkXkXlXlXhXpXfXjXnX&XjXhXhXkXkXhXjX3X).%X3XH.0X,X5.3X3X5.dX1X*X).(.(././.).%XF.0X1X;.9XpXuX<XH.2XtXtX^.^.G.2X<X5.H.2X2X;.,X;.&X;.<X!.<X*.H.H.3.U.W.S.!.~.W.!.T.I.T.T.T.W.T.T.T.R.W.8 M.I.Z.S.Z.T.T.P.Y.Y.T.Y.P.P.P.P.P.P.L.C.v.C.m.A.C.m.A.A.A.C.b.C.C.v.k.B.b 2.B.v.x.l.v.B.n ` k.x.x.x.x.B.( a.c.z.z.x.x.x.j.j.h.h.h.h.h.h.g.g.i.",
"M M N N N N N v 9 4 v 7 7 B 9 O 7 V N N V V V V V V V V C 9 7 B 9 < B C A 9 7 C S S Z S S A V C B B ~ L 8 L 9 < 7 ~ S S A D D x > C D S S D / / H G / / u./ u.u.u.u.u.u.u.i.u.u.u.i.i.i.i.i.p.u.p.p.p.p.i.i.p.g.p.g.g.g.j.j.g.g.h.h.h.k.( B.l.l.k.~ B.v.v.M.u ^ M.u T M.N.* s.V.r q ] ] ' ' ] ] ] ] [ [ [ [ [ { [ -.V.G.H.*.<.G.3.Q.Q.0.-.G.W.N.N.U.s.O.!.~.E.E.E.E.E.E.~.~.E.E.~.~.~.6X6X6XrXrX6XrX6XrXrXtXtXtXtXtXtX!.M.f V.^.!.W.!.T 5 M.^.yXiXiXaXsXiXiXiXaXiXiXpXyXpXpXpXiX7XyXS.!.pXpXyXuXQ.2.g g V.2XN.-.0.D.-.D.2XpX9X9XfXjXjXhXhXhXjXlXlXlXlXlXlXzXlXzXzXMXzXlXzXzXzXzXzXzXlXlXzXzXjXfXfXjXnXMXMXMXMXMXnXnXMXBXBXBXBXBXBXBXBXSXSXSXBXSXBXBXBXBXSXSXBXBXBXBXBXBXBXMXlXMXMXMXMXMXMXMXMXMXnXnXlXfXfXfXzXzXzXzXMXnX0XlXzXzXlXkXlXlXlXlXlXnXH.jXhXkXkXhXhXfX3X'.%X3XH.0X,X5.3X,X'.dX0X*X).(.(.(./.).%X&X0X3X5.eXyX2X<X&X2XtXtXtX^.H.<X<X5.H.Q.2X;.,X;.H.3.<X^.Q.*.&XH.3.Q.W.W.!.!.!.W.R.W.R.T.R.R.T.T.T.T.T.c M.S.B.Z.I.I.T.P.I.T.T.Y.P.P.P.P.P.P.A.A.A.A.A.L.L.L.C.C.b.C.b.v.C.v.k.B.n s.B.v.x.x.n.B.n _ k.j.j.l.j.B.( a.x.z.z.x.j.x.z.h.h.h.h.h.h.h.g.g.g.",
"M M N N M M N v 9 9 c 7 7 B 9 O 7 C V N V V V V V V V V C 9 7 L 9 7 B V A 9 3 V Z S S V V S Z C B B ~ b 8 L c , 8 ~ D S A D ~ B 2 ~ D ~ D S D G G G / / / / u.u.u.u.u.u.u.u.u.u.i.i.i.i.p.i.u.u.p.g.p.p.) ) ) p.p.f.g.g.j.j.g.g.h.g.j.k.( B.l.x.k.~ B.v.v.M.u ^ s.u T M.N.t M.V.a q ] ] ' ' [ ] ] ] ] [ ] [ [ [ [ -.S.S.H.;.<.Q.2.Q.Q.3.-.U.W.3.N.U.s.a W.~.E.E.E.E.E.E.~.~.~.6X6X6X6X6X6XrXrXrXrXrXtX6XrXtXtXrX~.W.` 6 W M.^.^.^.W.V.i 5 8 V.^.yXyXaXsXyXyXyXpXiXiXyXiXyXyXyXiXaXyXyXV.^.pXuXN.D.2X2XuXfXfX2XH.uXfXN.G.uXpXuX2XQ.2X9X2X2X9X9XuXpXhXlXlXlXlXlXzXzXzXzXlXlXlXzXlXjXfXfXjXzXMXlXfXpXuXjXMXMXMXMXMXMXMXBXBXBXBXBXBXMXBXBXBXSXSXBXBXBXBXBXBXBXBXBXBXBXBXBXBXBXBXMXMXMXMXMXMXMXMXMXMXzXzXlXjXjXfXlXMXzXzXMXvX0XjXzXzXzXkXhXfXlXlXjXnXH.jXlXkXkXkXhXjX3X=.'.3XF.0X,X5.3X,X.XdX9X*X).(.(.(./.).%XF.9X3X;.1XyX2X1XH.2XtXtX^.!.G.<X2X5.&XQ.<X;.,X;.H.3.<XQ.<X*.&XH.3.Q.W.!.!.W.W.T.W.R.R.T.R.R.T.T.T.T.!.B M.S.Z.C.Z.T.P.P.P.Y.P.P.P.Y.P.P.P.P.A.L.P.P.L.L.L.A.C.C.b.v.l.v.C.b.v.B.n ` k.v.x.x.n.B.K ` k.l.j.l.l.M.` j.x.z.z.x.x.h.h.h.h.j.h.h.h.h.g.g.h.",
"N M N N N N N v 9 9 v 7 7 B 9 O 7 C V V V V V V V V V V C 9 3 L 9 7 B c C x 9 C V V S S A V V C C C D c 8 L c < 9 ~ D S D D ~ B > A D D D D G / H G / / / / u.u.u.u.u.u.u.u.u.i.i.i.i.i.p.u./ p.i.f.p.p.i.i.p.p.p.f.j.j.j.j.j.j.j.j.j.k.( B.j.k.k.~ B.v.v.M.u _ M.u p M.s.u M.V.I q ] ] ] ] ] ] ] ] ] } [ [ ] [ [ -.S.V.H.-.3.G.E U.Q.N.-.G.W.0.N.U.N.m W.E.R.E.E.E.E.~.~.~.~.~.6X6X6X6X6X6X6XrXrXrXrX6XrXrX~.^.T.L B W S.!.^.7X^.V.K < & < 6 S.yXyXiXaXaXaXiXiXyXyXyXyXyX7XiXpXyXyXiXM.^.yXG.! G.2X9XpXsXfXpX9XpXuX3.D.9X9XQ.1.! 0.1.! _ ! _ 2.M.G.yXhXhXlXlXlXlXlXzXlXlXlXlXlXjXjXfXjXzXzXlXjXfXfXfXjXMXBXMXMXMXMXMXMXBXBXBXBXBXBXBXMXBXSXBXBXSXSXBXBXBXBXBXBXBXBXBXBXMXBXBXMXzXMXMXMXzXMXMXMXzXzXlXjXhXpXjXMXMXzXMXvX0XjXlXzXzXlXlXkXlXlXMXnXH.jXhXkXhXhXhXjX0X=.'.3XF.0X,X5.dX3X%XuX1X*X).(.(.(./.).%XF.uX3X5.1XyXuX1X&X2XtXtX^.^.H.<X2X5.H.Q.<X;.,X;.F.3.<X^.<X*.&XH.3.Q.!.!.W.T.T.W.T.T.T.T.T.T.T.T.T.T.W.c B.I.T.B.P.P.P.P.Z.P.P.P.P.P.P.L.P.P.A.A.C.L.A.L.A.A.C.C.v.v.j.g.v.v.j.M.n ` k.l.x.v.n.B.T ` k.x.j.l.x.B.` a.x.x.z.x.x.c.c.z.z.h.h.h.h.h.h.h.h.",
"N M N N N N N V 9 9 c 7 8 B 9 O 7 B V N N N V V V V V V C 9 7 L 9 7 B V A c 9 V V V V Z S V V C C C ~ b 8 L x , 9 ~ D S S D ~ B , D D D D D G G G G / / / u./ u.u.u.u.u.u./ i.p.i.i.p.p.p.u.p.p.i./ p.p.p.) / u.p.f.g.j.h.h.j.j.j.j.j.k.( k.l.l.k.~ B.v.j.M.t ` M.u p ` M.u M.Z.>.q ] ] ] ] ] ] [ ] } d.} [ [ [ [ -.S.S.H.-.3.U.I G.W.N.-.G.W.3.N.U.s.I !.~.R.R.E.~.E.E.~.~.~.~.~.~.6X6X6X6X6XrX6X6XrX6X6X7X( ` M.` !.tX!.^.^.^.S.L 8 < 5 5 f L V.9XiXiXtXyXiXiXaXpXyXyX9XyXiXyXyXyX9XQ.V.^.2XQ.U.2XuXpXsXsXuXuXuX2X2.2.V.V.` Q ` _ ! ! ! ! ! ! _ ! M.W.9XpXsXhXlXlXkXkXlXlXlXlXlXlXjXjXzXzXlXfXfXfXfXnXMXMXMXMXMXMXMXMXMXBXBXBXBXMXMXMXMXMXBXBXSXSXBXBXBXBXBXBXMXMXMXMXMXMXMXMXzXzXMXzXlXzXzXzXzXzXjXpXjXlXlXzXzXzXnXvXdXjXlXzXzXkXlXlXkXlXMXnXH.fXfXhXkXhXhXjXdX=.'.1XF.3X3X5.dX,XF.9X<X*X).(.(.(./.).%XF.uX1X5.eXyXuX&X&X2X^.7X^.!.H.<X<X5.H.Q.Q.;.%X;.F.D.<X!.<X*.&XH.3.Q.W.^.W.T.T.S.T.T.T.I.T.R.T.T.I.T.W.c M.S.Z.Z.Z.Z.P.Z.Z.P.P.P.P.P.P.P.P.P.A.C.C.A.C.A.A.A.C.C.b.C.b.g.v.n.v.M.n ^ k.v.x.x.v.B.I _ k.x.j.j.j.M.^ a.x.z.z.z.c.c.x.x.h.h.h.h.h.h.h.g.h.",
"V M N N N N N V 9 9 c 7 7 B 9 O 7 C N N N V V V V V V V C 9 7 L 9 7 B V B c 9 V V V V Z A V V A A B ~ c < B c , 9 ~ D D D S D B 2 ~ D D S D G G G / / / / / u.u.u.u.u.u./ u.u.u.i.i.p.p.p.p.p.p.p./ p.p.p.i./ ) p.g.g.h.h.h.j.j.j.j.j.k.( k.j.l.k.~ B.v.j.M.t _ M.i P ` N.u Z.B.2.q q ] [ ] ] ] [ ] -.D.} ] [ [ [ <.S.S.H.*.3.G.I V.U.D.O.G.W.N.N.I.N.-.W.~.R.R.E.E.E.~.~.~.~.~.~.~.~.6X6X6X6X6X6X6XrX6X6X7XM.W R.~.tXtX^.tX^.V.L i M.L ` ` V.0.K 0.^.aXtXiXiXiXiXyXyXyXyXiXiX9X7X9X!.S.2.Q.9XyXyXyXyXsXsXyX2XQ.G.1.t 6 6 _ 2._ _ _ >.>.! ! ! ! ! ! U 6 K ^ M.W.9XpXsXhXlXzXlXlXlXlXfXpXlXzXlXjXpXuXfXnXMXMXMXMXMXMXMXMXzXMXMXzXMXMXMXMXMXzXMXBXBXSXBXBXMXzXzXzXzXzXzXMXMXMXMXzXzXzXzXjXfXjXzXlXlXzXlXlXjXlXlXzXlXlXnXvX0XjXlXlXzXlXlXkXlXlXMXvXF.fXhXhXhXhXhXjX0X=.'.3XF.3X3X5.dX1X&XuX<X*X)././././.).%XF.uX1X5.uXyXuX<X&X2X7X7X^.!.G.<X2X5.F.Q.<X;.&X;.F.3.<X!.<X*.&XH.<.Q.W.!.W.T.T.T.Z.T.T.T.T.T.T.T.T.T.W.c B.Z.S.S.Z.Z.Z.Z.Z.Z.P.P.P.P.P.P.P.P.L.C.C.A.A.L.A.A.C.C.b.b.b.p.l.n.k.M.n ` k.x.x.x.v.B.T _ k.x.x.j.j.B.( a.x.x.x.h.h.h.h.c.x.h.h.h.h.h.h.g.h.",
"N N N N M N N V 9 9 c < 7 B 9 O 7 C N N N N N V V V V V B 9 7 L 9 8 B V B c x V Z Z S S A A C A A B ~ c 8 L B < 9 ~ D G G D ~ B 2 A D G D D / / G G G / / / u.u.u.u.u.u./ u.u.u.i.i.p.p.p.p.p.p.u.p.p.p.p.i.i.f.p.p.f.g.h.j.j.j.j.j.l.j.( k.j.l.k.~ v.b.v.M.t _ M.u R M.N.u Z.k.s.r q ] [ ] ] ] [ ] d.V.} ] ] [ [ -.S.S.H.-.3.G.I S.U.D.a G.W.N.s.I.N.-.!.E.R.R.E.E.E.E.~.~.~.~.~.~.~.6X~.6X6X6X6X6X~.6X6X6X~.~.tXtX7XtXtX^.` ` L S.!.V.W.!.^.W.V.K V.7XyXyXiXyXaXiXiXyXiXiXyX9XyX9XS.Q.2XM.W.yXiXpXyXiX^.S.N.2.1.1.2.0.2.1.1.>.! ! ! ! ! ! ! ! ! ! Q Q Q ! _ ` 0.V.W.^.yXhXkXkXlXlXhXhXlXlXjXjXjXfXfXlXzXMXMXMXMXMXMXMXzXzXMXzXlXMXMXMXMXBXMXzXzXBXBXMXBXzXzXzXzXzXzXzXMXzXzXzXzXzXjXuXuXfXlXzXlXlXjXlXjXhXlXzXzXlXlXvX0XjXkXkXlXlXlXlXlXlXzXjXF.fXhXkXhXhXhXfX0X=.'.3XF.1X3X5.xX3X,XuX<X*X/././././.).#XF.uX1X5.uXyX2X<XH.2X^.^.^.2XH.<X2X5.H.Q.<X;.&X;.F.3.<X!.<X*.&XH.3.Q.I.!.W.W.W.W.T.T.T.T.T.T.T.T.T.T.T.c S.T.T.Z.B.Z.Z.Z.P.Z.P.P.P.P.Y.P.P.P.P.P.P.A.A.L.A.A.A.C.C.b.b.v.x.v.v.B.T ( k.j.x.x.v.M.m ` k.x.x.x.j.M.^ a.x.z.x.z.j.h.h.z.z.c.h.h.h.h.h.h.h.",
"N N N M N N N V 4 9 c < 7 B 9 @ 7 C N N N N V V V N N V V 9 7 L 9 8 B V A B x V S V V V V A A D A B D c < C B < 9 ~ D D D ~ ~ B 2 ~ D ~ D D / G G G G / / u.u.u.u.u.u.u./ / u.i.i.i.p.p.p.p.p.p.p.g.g.p.p.) p.p.p.f.g.g.g.g.j.j.j.l.l.k.W k.k.k.k.( B.b.x.B.5 ` M.p T M.V.t B.k.M.r q ] ' ' ' ' [ ] <.N.a [ [ [ ] -.S.S.H.-.3.G.P S.U.D.a G.W.N.s.I.N.h !.E.E.E.E.E.~.~.E.~.~.~.~.~.6X6X~.~.rX~.6XrXrX6X6XrXrX~.tXyXtX^.^.W ` W.M.W.^.~.7XtX7X^.^.` 6 W.aX7XtXaXaXiXaXyXyXyX9X7X^.U.^.^.9XV.M.^.pX9X^.J.2.! ! ! ! >.:.1.2.1.1.>.>.! ! ! E E E E ! ! ! ! ! Q ! _ ! ^ 6 6 W S.9XfXjXlXhXlXzXlXjXjXfXfXjXlXMXMXMXzXzXzXMXMXMXMXzXjXzXzXMXBXzXzXzXzXzXzXzXBXBXzXzXzXzXzXBXBXMXzXzXzXzXlXlXjXfXfXjXjXlXjXlXlXlXjXlXlXlXlXnXvX0XjXkXkXlXlXkXhXkXkXzXjXF.hXhXkXhXhXhXfX0X=.'.3XF.0X3X5.dX1X<XuX<X*X/./././././.#XF.1X1X5.9XyX2X<XH.^.^.tXtX^.G.<X<X5.F.2X<X;.&X;.D.3.Q.Q.<X} &XH.<.Q.W.W.W.R.T.R.T.R.T.T.T.T.T.T.T.T.T.9 Z.I.Y.Z.Z.Z.Z.C.P.P.P.P.P.Y.P.P.P.P.P.P.A.A.L.A.L.A.L.A.C.b.b.b.n.v.v.B.R ` k.j.x.x.x.B.T ` k.x.x.x.k.M.^ a.x.x.l.h.j.h.j.z.h.h.h.j.h.h.h.h.h.",
"M M M N N N N V 4 9 c , 7 B 9 & 7 C V V N N V V N V V V V 9 9 L 9 8 B N C B x V V Z Z S S S S A A B ~ c < L B < 9 ~ D D D D D N 2 A D / D D G G G G G / / u.u.u./ u.u.u./ u.u.u.i.i.p.i.p.p.p.p.p.h.g.f.) ~ ) ~ p.p.j.j.g.f.g.j.j.h.x.k.~ k.k.k.k.( v.b.v.M.5 ` M.b ^ B.V.t Z.Z.M.r q ] ' ' ] ] ] ] a N.a ] [ [ ] -.S.S.H.-.3.U.I G.G.D.a G.W.N.N.T.s.a W.R.E.E.E.E.E.~.E.~.~.~.~.~.~.~.6X~.rX6X~.tXrXrXrXrXtX7XtXtX7X^.W ` ~.7X^.!.^.7XtXiX7X!.tXW.L 0.yXiXyXiXiXaXaXiXyXsXpXM.V.!.!.^.^.^.2.V.Q.V.! ! Y Y Y Y Y ! >.:.1.1.! ! Y Y U U U U U U Y E ! ! _ ! ! _ ! ! ; O & ; L M.^.pXpXhXzXlXlXhXuXuXfXjXzXzXlXlXlXlXMXMXMXMXMXMXMXMXzXBXBXBXBXzXzXzXzXzXMXzXzXzXzXzXzXzXzXzXzXzXzXlXjXzXhXlXlXhXlXzXlXjXjXlXzXzXlXjXlXvX0XjXzXkXlXzXlXkXkXkXzXjXF.fXhXhXhXhXhXfXdX=.'.3XH.uX3X5.dX1X,X9X1X*X/./././././.#XF.1X1X5.uXyXyX<XH.^.wXtXtX^.U.2X2X5.F.2X<X;.&X;.D.d.Q.Q.Q.} F.H.<.Q.!.~.R.R.R.R.R.R.T.T.T.T.T.T.T.T.T.9 B.T.I.Z.Z.Z.P.P.P.Z.P.P.P.P.A.P.L.A.L.A.b.A.L.L.A.C.C.C.b.b.b.v.b.v.v.a.b ( a.j.x.x.v.B.n ^ k.l.z.l.v.M.` a.x.h.z.x.x.j.j.z.z.h.h.h.h.h.h.h.h.",
"M N N M N N N V 9 9 v 9 9 B 9 O 7 C V N V V N V V V V V c 7 7 L 9 8 B V C c c V Z S S S S S S A C B ~ L 8 L B 7 x ~ D D D D A x , A D / G G G H G G G / / u.u.u.u.u.u.u.u./ u.p.u.i.p.p.p.u.p.p.p.p.p.p.) p.i./ / p.f.g.j.j.g.j.j.h.l.k.( k.l.k.k.~ v.b.v.M.t ` M.K _ B.V.8 Z.Z.N.r q ] ] ] ] ] ] ] *.D.a ] ] [ ] -.S.S.G.-.3.U.m S.G.D.a G.W.N.N.T.N.a W.E.E.E.E.E.E.E.E.~.~.~.~.~.~.6X6X~.rX6X~.6XrXrXtX6XtXtX7XtXyXk.8 !.tXtXtXT.~.^.tXiXtXtXtXyXS.L ^.iXiXyXtX7XiXiXpX^.` !.iXiXpXiX7X!.W.P ! >.Y h h h Y h h k Y Y ! Y k k g f u u u u u f k h U E ! ! ! _ ! _ ^ ^ ! Q _ 2.0.V.G.9XhXhXfXfXfXuXpXjXjXzXzXzXMXzXzXzXMXMXzXzXzXzXzXMXzXBXzXzXzXBXMXMXzXMXzXzXzXzXMXzXzXzXzXzXzXzXzXlXjXlXlXlXlXzXlXhXfXlXlXlXlXlXlXvX0XlXlXzXkXkXkXkXkXlXzXjXD.hXkXkXkXhXhXjXdX=.'.3XH.0X3X5.dX1X<XdXdX,X/././././.).%XF.1X1X5.uXyX9X<X&X2X^.tX7X^.Q.Q.<X5.F.Q.2X;.%X;.F.d.Q.Q.Q.} H.H.<.Q.T.!.~.R.R.R.T.R.R.R.T.T.T.T.Z.Z.T.9 Z.T.I.Z.I.P.Z.P.A.P.Y.P.P.Y.L.L.A.P.P.C.A.P.L.L.L.A.C.C.b.b.b.m.x.x.l.a.T ( k.k.x.v.v.B.n ` k.l.z.l.k.M.` a.c.h.z.z.c.x.j.h.h.h.h.h.h.g.h.h.h.",
"M N N N N N N V 9 4 c 3 7 B 9 O 7 A V N N V V N N V V V c 7 7 L 8 < C V B c x V S S S S S S S D A B ~ b 8 L B < x D D D A C A x 2 ~ / D G G / / H H H / / / u.u.u.u.u.u.u.u.u.i.i.p.p.p.p.p.p.p.g.p.f.p.p.) ) i.f.f.g.j.j.g.j.j.l.l.x.k.( B.l.k.k.~ B.b.j.M.t ` M.L _ B.B.i Z.Z.P q ] ] ] ] ] q F.} *.D.a ] [ [ ] -.S.S.H.-.3.G.I S.U.D.O.G.W.N.N.W.M.a W.R.R.E.E.E.E.E.E.E.~.~.~.~.~.6XE.~.rX6X6X6X6X6X~.tX6XrX~.7XM.L @ Z.~.7XtXyXiXyX^.^.7XtX~.yXiXM.^ V.^.yXtXaXyX!.L W.yXW.9XiX9X^.U.M.! Y Y Y Y Y h h h h h h h h k g y w : - - - - - % - y u g k U ! Q ! ! _ ^ R E ! ! ! ! ! ! M.W.uXfXfXfXjXlXlXlXlXlXhXhXzXzXzXzXMXMXzXzXzXzXzXzXBXzXzXzXzXBXBXBXBXzXzXzXzXzXzXzXzXzXzXzXzXzXlXhXzXzXzXlXlXzXlXhXjXlXlXzXlXnXvX0XjXlXlXlXkXkXkXkXkXlXdXH.hXkXkXkXhXhXhXdX=.'.3XF.0X3X5.dX1X<XuXuX3X/./././././.%XF.2X1X5.uXtX2X<XH.^.^.tXtX^.V.U.<X5.F.Q.<X;.,X;.F.D.<XQ.Q.} H.H.<.Q.B.W.R.T.T.B.T.T.T.R.R.R.T.I.Y.Z.T.9 Z.T.I.Z.Z.Z.P.Z.P.P.P.P.P.Y.P.P.P.P.P.C.A.L.A.L.A.A.A.L.b.m.C.v.b.v.v.B.R ` p.j.l.x.v.B.b _ k.x.l.x.v.M.^ a.j.x.x.x.x.j.j.h.h.h.h.h.h.h.h.h.h.",
"N N N N N N N V 9 4 c 9 9 B 9 O 8 C V V N N V V N V V V V 9 7 L 9 7 B x B B x V S Z S S S Z V A A B ~ B 8 L C < 9 ~ D D D D A x 2 ~ D / G G G / / / / / / ) u.u.u.u.u.u.u.u.u.i.i.p.p.p.p.p.p.p.u.g.g.g.p.p.) / p.g.g.j.j.l.j.j.j.j.l.k.( B.v.v.k.~ B.v.l.M.u ` M.K _ B.B.i Z.Z.2.a ] ] } 3.a <.H.-.m N.a ] ] ] ] -.S.S.Q.-.3.G.Y G.W.D.a G.W.D.N.T.V.I !.T.R.E.E.E.E.~.E.~.~.~.~.~.~.~.6X~.6XrX~.~.rXE.~.rXrXtX^.k.` !.L W I.tXtXtXyX7XtXtXtX7XtXyX~.tXQ W !.7X7XyX` I.yXaXpX^.7XW.! t y >.>.Y Y -.Y Y Y Y h k k k k g y w - % $ # # # # # # $ % : y u g P U Q Q _ _ ` _ ! E Y Y R R Q L f V.uXfXfXzXlXlXzXlXlXlXlXzXzXzXzXMXzXMXzXzXMXBXBXBXzXzXzXzXBXBXBXBXzXzXzXzXzXzXMXzXzXzXzXlXlXlXlXlXlXlXzXMXzXlXjXlXzXlXlXlXvX0XjXkXlXkXkXlXkXkXhXzXjXD.fXhXkXhXhXhXhXdX=.'.3XD.uX,X5.dX1X<XuXuX,X/././././...%XF.1X3X5.eXyX9X<X&X^.tX7X7X^.U.Q.<X5.&XQ.<X;.,X;.F.3.H.Q.H.] H.F.<.Q.Z.W.E.T.R.I.T.R.T.T.T.T.T.T.I.I.T.c B.I.I.Z.P.B.P.P.P.P.P.P.P.Y.P.P.Y.L.P.P.P.L.L.L.L.C.L.C.C.b.v.v.b.v.b.M.T ` p.k.l.x.v.B.n ` k.x.x.x.v.M.` a.x.x.z.h.h.j.h.h.h.h.h.h.h.h.h.h.h.",
"N N M z M N N V 9 9 N 7 7 B 8 O 7 C V V N N N N V V V V x 3 7 L 9 8 A B C c c V S S S S S A V C B B ~ L 8 L x < 9 ~ D S A D ~ x > A ~ / G G / G / / / u.u.u.u.u.u.u.u.u.u.u.p.p.u.i.i.p.p.p.p.f.p.p.f.g.p.p.p.p.j.g.g.g.h.j.j.j.j.h.l.k.( k.l.v.k.~ v.v.v.B.u ` M.b ^ B.V.i Z.Z.s.a ] q } H.r s.G.>.m D.a ] ] ] ] -.V.S.G.-.3.G.P G.G.N.a G.W.N.N.T.W.I W.W.E.E.E.E.E.~.~.E.E.~.~.~.~.~.6X~.~.~.6XrXrX~.rX6XrX~.W k.!.^.^.7X7XtXtXtXtX~.7XtXtXtXtX^.tX!.^.` L ` W S.^.iXpXyX!.M.N.0.:.:.-.-.-.-.-.-.I k k k p y w - % $ $ $ # # . . # # # # # # # % * : t y f g P R R ^ ^ ^ E Y Y R R U U Q 2.M.N.2XfXjXlXlXlXzXlXlXzXzXzXzXMXMXMXzXzXzXzXzXzXzXzXzXMXzXzXzXzXzXzXzXzXzXzXzXlXzXzXlXhXlXlXzXlXlXlXzXzXlXfXlXlXlXlXlXlXvX0XlXlXkXkXkXkXkXkXkXlXjXD.hXhXhXhXhXhXfXdX=.'.1XD.uX,X5.dX1X<XuXuX,X/././././.).%XF.2X,X5.1X9X2X<XH.!.^.^.W.W.Q.Q.<Xd.1XQ.<X;.&X;.F.<.Q.Q.U.q H.F.<.Q.B.W.~.T.R.R.T.R.T.T.T.T.T.T.Z.Z.T.c B.I.I.P.P.T.P.P.P.Y.P.P.P.P.P.P.P.P.P.P.Y.L.L.C.C.L.L.C.m.b.b.b.m.n.v.B.T ` k.v.v.x.v.M.b ` k.x.x.x.v.M.` a.c.z.z.x.c.h.z.c.h.h.j.j.h.h.h.g.g.",
"N N z M N N N v 3 9 c 7 7 B 9 O 7 C N N N N N N N N N N c 7 7 L 9 8 B V C c c V Z Z Z Z V V V C B c B c < c c < 9 ~ S S A A D x > ~ / / G G / G H / / / u.u.u.u.u.u.u.i.u.u.p.i.u.i.p.i.p.p.p.f.p.f.p.p.i.u.f.f.f.f.g.g.h.h.h.j.g.l.l.k.( k.l.x.k.~ v.v.b.Z.u ` M.K ^ k.M.i B.Z.2.q ] q a G.a N.G.1.I D.] ] ] [ ] -.V.S.H.-.3.G.I S.S.D.a G.G.3.N.T.W.P W.R.E.E.E.E.E.E.~.E.E.E.~.~.~.E.6X~.~.6XrXrXrX~.~.~.~.Z.` W.^.~.tXtX7X7X7X7X~.tX7XtXtX7XtXyXyXW.^.I.M.` 0.!.yX^.W.M._ U >.1.<.-.-.-.-.-.I k k a u u w - % % $ $ # # # # $ $ # # # $ $ $ # # $ % * * : t y g K T Y E E E E E R U U U Q R W ` V.9XfXlXlXlXlXlXzXzXzXzXzXzXzXzXzXzXzXzXzXzXzXzXzXzXzXzXzXzXzXzXzXzXzXzXzXzXzXzXlXlXlXzXzXlXlXzXlXlXhXhXlXlXlXlXlXjX0XjXlXhXkXhXhXkXkXhXlXjXD.jXhXhXhXhXhXfX0X=.'.1XH.1X%X5.dX1X<XuX9X%X/././././.).%X&X2X1X5.1X^.W.<XF.!.~.^.W.!.U.Q.Q.d.F.Q.<X;.&X;.H.3.Q.Q.H.q H.H.-.Q.Z.~.~.R.R.R.R.T.I.P.I.T.I.I.Z.Z.T.c B.T.I.Z.B.P.T.P.P.P.P.P.Z.P.P.P.L.P.P.L.L.L.L.A.L.L.L.C.m.b.b.b.n.b.v.S.T a.k.l.x.l.v.B.b ` k.x.x.x.v.M.` a.c.x.x.x.x.h.c.z.h.h.z.h.h.g.h.h.h.",
"N M M N N N N V 9 9 c 2 7 L 9 O 7 D V V V V N N N N N N c 7 7 B 9 8 B V B c x C Z V V V V V V C A c C B < c x & 9 ~ S S D A D x > ~ / G G / / / / / u.u.u.u.u.u.u.u.u.u.u.u.u.i.i.p.i.p.i.p.p.p.p.p.p.f.f.g.g.g.g.g.f.g.h.h.h.j.h.j.l.k.( k.v.x.k.( v.x.b.Z.t _ M.K ^ B.M.i B.B.2.q ] q r G.r 3.V.-.I N.] ] ] ] ] <.V.S.H.*.3.G.>.S.G.D.a G.S.3.N.I.I.k W.~.R.R.E.E.E.~.E.~.~.~.~.E.E.~.~.~.6XE.6XrXrXE.6X~.~.W W.~.7X7XtXtXtX7X~.7X~.~.7XtXtX!.7XiXS.V.7X7XW.!.^.!.M.^ 0.1.>.>.>.1.<.-.-.-.I k a p u w w - % # # # $ $ # # # $ $ $ $ % $ $ $ $ $ $ # # # # $ % : 5 t i p P I I Y E Q Q U U W U R R Q L M.^.sXhXlXlXzXzXzXlXzXzXzXzXzXzXzXzXzXzXzXzXzXzXzXzXkXzXzXzXzXzXzXzXzXzXzXkXkXlXlXlXlXzXlXjXjXlXjXhXlXlXlXlXlXjX1XjXlXkXhXhXhXhXkXhXhXdXF.hXhXhXhXhXhXfX3X=.5.1XQ.1X,X5.dX1X<XuX9X%X/././././...%XH.<X1X5.2X^.Q.<XD.^.^.^.^.^.U.Q.Q.3.H.U.<X;.%X;.F.3.Q.Q.H.r &XH.-.W.Z.W.~.T.T.I.T.I.I.P.T.P.B.P.I.Z.I.c S.T.I.P.Z.P.P.Y.P.P.P.P.P.A.P.P.L.P.P.L.C.L.L.A.L.A.L.A.b.v.n.b.n.n.b.M.b ` k.v.x.x.v.B.i ` k.x.x.x.x.M.` a.c.x.x.x.x.h.h.c.c.h.x.h.p.g.h.h.h.",
"v N N N N N N v 9 x N 2 7 B 9 O 9 A V V N V V V N N N V B 9 7 B c 8 B v B c x V Z Z S V V C V D D B A c < B c , 9 D D D D D D x , ~ / G G G / / / / u.u./ u.u.u.u.u.u.i.i.u.i.i.i.i.i.p.p.p.i.p.p.) p.g.g.g.h.j.g.h.g.g.h.g.h.h.x.j.l.k.( k.x.v.k.( v.x.n.B.t _ M.i ^ B.M.i B.B.N.q q q r H.r -.<.a -.D.} ] ] ] ] <.V.S.G.*.d.G.I S.U.D.a G.G.3.N.I.S.g !.R.R.R.R.R.E.Y.Y.E.E.~.E.~.~.E.~.~.~.~.~.6X6XrX~.^.6.T.~.6XrXtX~.7XtX~.^.tX7X7X7X^.tX~.!.tX^.!.7XtXtXI.V.M._ ! >.>.>.>.Y >.>.-.Y k a y w w - % $ $ # # # # % % $ $ $ $ $ $ $ $ & $ $ $ $ % % $ # # # # % & * * t u u n P T U U R Q R R L L Q Q _ M.S.G.yXhXzXzXzXzXzXzXzXzXzXzXzXzXzXzXzXzXzXBXzXzXzXzXzXzXzXzXzXzXzXzXzXkXlXlXkXlXlXlXhXlXlXlXlXlXlXlXlXlXlXjX1XfXhXkXkXhXhXhXpXhXhXdXD.hXhXsXhXsXpXfX3X=.5.<XuXuX,X5.dX1X<XuX9X%X.././././...%X<X2X1X5.2X^.Q.<XF.^.^.^.^.^.G.Q.Q.3.&XG.<X;.&X;.F.<.Q.Q.U.r H.H.-.U.I.T.W.T.T.T.I.T.T.Z.I.Y.P.Z.I.Z.S.9 Z.I.Y.I.I.P.T.Y.P.P.P.P.P.P.Y.P.P.P.L.L.L.L.L.L.A.C.C.C.b.n.v.x.b.b.B.S.K a.k.x.x.x.x.M.b ` k.x.x.x.x.M.` k.x.x.x.x.c.z.z.x.x.j.j.h.g.g.h.h.h.",
"v z z v N N N V 9 9 9 + < B 9 O 7 D V N N N V V V V V N c 7 7 B 9 7 B v A c c A S S S S S S C A A C ~ c < B c < 9 A D D S S D c , ~ G G G / / / H / / / / u.u.u.u.u.u.i.i.u.i.i.i.i.i.i.p.p.) ) ) ) u.g.g.g.j.h.j.j.h.j.l.h.x.z.z.x.x.k.( v.x.v.k.( v.v.n.M.u _ k.8 ^ B.M.i Z.Z.s.r q q a H.r q q q a N.] ] ] [ ] <.V.S.H.*.N.G.E S.U.D.a G.W.3.N.T.T.P !.R.R.R.~.~.R.R.P.P.R.~.~.~.~.~.~.~.~.~.~.6XrXrX6XE.S.~.rX7XtXtX7X7XtXtXtXtXtXtXtX~.^.~.T.7XyX^.tX~.W.M._ _ ! ! >.Y -.>.-.>.-.Y k u y w - - % $ $ $ # # % % w w * - - - : * * * * * * * * & & % % & & & & % # # % % * t t i f P U U R R R Q Q Q Q Q ^ ` M.G.uXzXzXzXzXzXzXzXzXzXzXzXzXzXzXBXBXSXBXzXzXzXzXzXzXzXzXzXzXzXzXzXzXzXlXkXkXlXkXkXlXhXhXhXlXlXlXlXlXdX1XfXhXkXkXkXhXhXhXkXlXdXD.hXhXgXsXsXpXpX1X=.5.<XpXuX,X5.dX<X<XuX9X%X/././././...,XH.2X,X5.9XyX^.<XD.^.^.^.^.!.V.H.Q.3.<XQ.<X;.%X;.H.3.<XQ.Q.r H.H.-.U.T.R.R.R.R.R.R.T.T.T.T.T.T.I.P.Z.S.9 B.P.Y.I.T.T.Y.P.P.Y.P.P.P.P.C.P.P.P.L.L.L.L.L.A.C.A.C.b.v.l.f.v.b.n.v.Z.K a.v.x.x.x.l.B.b ` k.x.x.x.v.B.a.k.x.x.x.x.c.h.z.x.x.l.l.j.h.h.h.h.h.",
"v N N M M N N v 9 7 7 @ < b 9 O 7 C V V V N V V N V V V x 7 7 C c 7 A V A B x S F S D S V S C D ~ C ~ c < L c < 9 ~ D S C C A x > A / G G / / / / u.u.u.u.u.u.u.u.u.i.u.i.i.i.i.i.i.i.i.p.u.G u.u.f.f.f.g.g.g.j.g.h.h.j.l.l.z.x.x.j.l.k.` k.x.v.k.( v.x.n.B.u ^ ` 8 ^ B.B.i S.S.2.r ] q } H.q ] ] q *.3.] ] [ [ ] 3.V.S.H.*.D.G.Y S.U.D.a G.W.3.V.T.T.T W.R.R.R.E.R.Y.T.T.Z.) T.E.E.~.~.~.~.E.~.~.rXrX6X^.` !.tXrXtXtXtXtXtXtXtX7XtXtXtX7X^.7X~.^.iXyXtXS.M.M._ ! ! ! E ! Y >.-.Y Y Y k p y : * % % $ $ $ $ % % * : y y w w : - : * * * * * * * & & & * * * 5 * * % # # . # # & * : y f K T R R T T R R R R R R _ 2.0.!.hXzXzXzXzXzXzXzXzXzXzXzXzXzXhXyXhXlXzXzXzXzXzXzXzXzXzXzXzXhXzXzXzXlXkXhXhXkXhXsXfXkXlXkXlXlXlXdX1XjXkXkXkXhXhXhXhXhXhXdXD.hXhXhXpX^.W.^.1X=.#X<XpXpX,X5.3X<X<XuXG.%X/././././...,XH.<X1X5.eXyX^.<XD.^.^.^.^.!.G.H.Q.3.H.Q.<X;.&X;.H.-.<XQ.G.a H.H.<.U.T.R.T.R.Z.T.T.T.T.T.T.T.Y.I.B.Z.S.9 B.T.P.P.I.Y.P.P.Y.Y.Y.P.P.P.L.P.L.P.L.L.L.L.A.L.L.m.C.C.b.j.h.v.b.b.B.Z.L a.v.v.x.x.v.B.b ` v.v.x.x.x.B.k.j.x.x.x.j.h.z.z.c./ V p.x.h.h.h.h.h.",
"M N N N N N N c x c 7 O < c 9 @ 7 C C V V V V V V V V V x < 9 B 9 7 A C A B c S S S S S S S A A A C D c < L c < 9 ~ D D A A A x , ~ / / G / / / / / u./ u.u.u.u.u.i.i.u.i.i.i.f.f.i.i.i.i.u.u.u./ u.p.f.g.g.g.h.h.h.f.l.x.x.z.x.z.x.x.k.` k.x.v.k.~ v.n.n.M.u _ M.6 ` B.M.i S.Z.1.r ] ] } H.q ] [ ] *.D.} ] ] ] ] 3.S.S.G.*.3.G.E S.I.D.a G.W.2.V.T.T.L W.R.R.R.R.~.~.R.R.C x Y.~.~.~.v.R.~.~.6X~.6XrXrXS.k.!.tXrXtXrXtXtXtX~.7X7X~.iXtX7XE.^.~.!.tX^.B.L i _ ! ! ! ! ! E E Y U k p y w * % % % $ $ $ $ $ % * : w y p p p p y t : * & & & & & & % % : t y i i i t 5 * & # # . O O # $ & 5 i K K T T T R T R E R R ^ 1.2.V.pXkXzXzXzXzXzXzXlXlXzXzXzXSXhXiXzXzXzXzXzXzXzXzXzXzXzXkXhXkXkXlXkXlXkXkXlXhXhXhXhXlXkXlXlXlXdX9XhXkXkXkXhXkXkXhXhXfXdXD.fXsXhXsXpXG.V.,X=.'.&XuXuX1X5.3X<X<X9X<X5..././././...%XH.<X1X5.9XyX!.<XD.^.7X^.^.!.V.Q.U.3.H.U.<X;.%X;.H.<.<XQ.G.r H.H.<.U.B.T.T.T.Z.Y.T.T.T.T.T.Y.P.B.Z.Z.S.9 B.I.T.I.T.Y.Y.Y.P.P.P.P.P.P.Y.L.P.L.L.L.L.L.A.L.A.C.C.C.v.v.n.j.b.b.C.S.L a.v.v.x.x.v.B.b a.v.x.x.x.v.B.a.k.x.x.x.g.g.x.z.h.j.i.j.j.h.h.h.h.h.",
"M N N N N N N v 9 x c 9 7 c 9 O 7 C V N V V N N N V V x x 7 9 L c 8 B V A c x S F S S A V V V C B C ~ c < L c < 9 D D D A A C x , D / / / / / / u.u./ / / u.u.u.u.u.u.u.u.i.i.f.i.i.i.i.u./ u.i.p.f.f.f.) ) f.h.h.h.x.j.x.x.x.z.z.x.l.k.( v.x.v.k.( v.n.n.M.u ^ M.b ` B.M.i Z.Z.2.a ] ] } H.q ] ] ] } d.] [ ] [ q 3.B.S.H.;.3.G.>.S.U.D.O.G.W.3.V.T.W.R W.R.R.R.T.R.E.E.~.B.k.R.E.T.E.Z.~.~.~.E.~.rX6X~.L ` Z.~.tXtXtX6X7X~.7X7X7XtXiXtX7XI.^.tX!.I.0.Q P T _ ! ! ! E E R U P g y t % $ # # # # # # # # # % : : t i p g g g p y t 5 : : : : : : : : t p p p b b p i 5 5 < & # # # . . # & 5 5 i n K R R E E ^ R R R R R R M.^.sXzXzXzXzXzXzXzXzXzXzXzXzXhXlXzXzXzXzXzXzXzXzXzXlXhXhXzXlXkXkXkXzXzXzXlXhXfXhXlXkXzXlXjXjXfXlXkXhXhXkXhXhXhXhXhXdXD.hXsXsXyXpXpX2X1X=.'.&XpXpX1X5.0X<X<XuXQ.5..././././...%XH.<X1X5.uX^.W.H.D.^.T.^.^.W.M.Q.U.3.F.G.<X;.&X;.H.<.Q.Q.G.r H.H.<.W.T.I.T.Z.I.T.T.T.Y.T.T.T.I.Z.Z.Z.S.9 B.T.T.P.Y.P.Y.Y.Y.P.P.Y.L.P.P.P.L.L.L.L.L.L.A.A.A.L.C.n.v.v.n.C.m.m.k.B.L a.v.v.x.x.v.B.n a.v.x.x.x.v.B.M.j.x.x.z.j.x.x.z.z.h.j.i.g.h.h.h.g.g.",
"N N v v v N N x 4 x c x 9 c 8 O < C V V V V V N V V V C c < 9 B 9 8 B V ~ c x A S S S S Z C V C A V A b < B x < 9 D A A C V C 9 > D G G G G / u./ / / u.u.u.u.u./ ) u.u.i.i.i.i.u.i.i.i.p.u.u.i.p.g.g.g.f.p.p.h.h.h.x.x.j.x.x.z.x.l.x.j.( v.x.x.k.) b.n.n.B.u ^ M.b W B.M.8 Z.Z.2.a ] ] } H.q q q ] } 3.] ] [ [ q <.Z.V.D.*.3.G.I S.S.N.a G.W.3.V.T.T.R !.R.R.R.R.R.E.E.R.~.~.R.Z.R.R.R.v.T.~.R.~.~.~.k.Z.!.~.rXtXtXtXtXtX7XtXtXtX7XtXtX7XT.T.M.Q ! R U U ! ! E E R T P g p y : * % # # # # # $ $ $ $ $ $ % 5 t y p g k P P K g u y t t y i i i i i p P T T K T K K b i t 5 * & # . . . # & & < t i K T R R ^ ^ R R E ^ R _ 2.M.9XhXzXzXzXzXzXzXzXzXzXzXzXzXzXzXzXzXlXlXlXlXzXzXlXlXzXlXkXkXkXhXsXpXfXfXsXhXhXhXfXkXkXjXhXhXhXhXhXhXhXhXhXhXhXdXD.fXgXsXsXsXfXfX3X=.'.<XuXuX1X5.3X<X1X<XQ.5.../././.....5.H.<X&X5.2X^.!.H.D.^.^.^.!.!.V.G.U.D.H.G.<X;.%X;.H.<.Q.Q.G.r H.Q.-.U.T.T.T.Z.Z.S.T.I.Y.I.I.I.Z.Z.Z.Z.Z.9 k.Y.T.P.P.Y.Y.Y.P.Y.P.Y.Y.P.P.L.P.L.L.L.A.L.A.C.m.m.m.n.x.n.b.b.m.b.v.Z.b a.v.n.n.x.v.B.n a.v.x.x.x.v.B.M.k.x.x.x.z.x.z.z.x.x.x.x.h.g.h.h.g.g.",
"v v v v v v N v 4 x N x 9 c 8 O 7 C V V V V V V V V V A x < 9 C c 7 B V A B x S S S S S S V C A C N C c < c 9 < 9 A C D A C A x > ~ G D G G H / / / / / u./ u./ / / u.i.i.p.i.i.f.i.u.u.u.) u.p.g.g.g.g.f.g.h.h.h.h.h.x.x.h.h.x.x.x.l.j.( k.x.x.v.x.x.n.n.B.u ^ B.L W B.M.t Z.B.s.*.q q } H.q r a q } 3.] ] ] ] q <.M.B.D.*.N.G.E S.S.N.a G.U.2.V.T.T.R !.~.E.E.E.E.R.E.E.E.~.R.R.T.R.T.R.T.R.R.~.6X~.L T.~.~.tXrXrXrXtX7XtXtX7XtXtXtX7XR.` ` Q Q R U Y Y Y E U P g p t : * % # . . # # $ % % % % % % % % - t y p g P P U P P g p i i p p p g g g g K U T T T R T T K K b i 5 < & # . . . # # # & < 5 i b L T R ^ ^ ^ _ ` R R ` ` S.iXkXzXzXzXzXzXzXzXzXzXlXzXzXzXkXhXlXzXkXzXlXlXkXkXkXkXkXkXkXhXsXhXfXsXhXhXkXkXhXkXkXhXkXhXhXhXhXhXhXhXhXhXdXD.hXsXsXsXsXsXfX1X=.'.<XuXuX<X5.3X<X1XQ.<X5.../././.....%XH.<X,X5.2X^.W.H.F.^.^.^.!.!.M.G.Q.3.H.Q.<X;.%X;.H.-.H.W.Q.r F.Q.-.U.T.B.B.S.I.T.T.T.T.Y.Z.Z.B.Z.Z.Z.Z.9 B.P.P.P.Z.Y.Y.Y.P.Y.Y.Y.Y.P.v.L.P.L.L.C.A.A.L.L.A.b.m.x.x.n.n.n.m.m.v.Z.L a.v.x.n.x.v.B.n a.v.x.x.x.x.k.a.j.x.x.x.z.z.z.z.z.x.x.h.h.h.h.h.h.g.",
"N v z v N N N c 4 x V c 9 c 9 O < C V V V N V V V V V V x < 9 C 9 7 C V C c x S S Z V V A C C C C V D c < c 9 < 9 D A A A C C x 2 ~ D D G G / u.u./ / / / / / u./ u.u.u.i.i.i.i.f.p.i.g.p.u.u.p.g.g.g.g.g.g.h.h.h.h.x.x.z.z.z.x.x.x.l.k.( v.x.x.x.x.x.n.n.B.u ^ B.L ^ B.M.t Z.Z.s.a q q } Q.0 N.V.a *.3.] ] ] ] q <.B.B.D.*.3.G.>.V.I.D.a G.U.2.G.T.T._ !.E.R.R.R.R.E.E.R.E.E.~.R.C.C.A.R.T.Y.A.T.P.k.B I.~.~.rXrXrXrXrX~.6X7X7X7X7X~.I.M.W Q U U Y U h U U P g p y : * $ # # . # $ % % - - - - w w w w : w y p g P U U T P P g p y y i i p g g p p g P P T T R T T K K K p t 5 < & # # # # # # . # & < 5 t b K T ^ ^ _ _ E ^ ^ W W M.S.9XhXlXlXzXzXzXlXlXlXzXzXkXhXhXkXlXkXkXlXlXkXkXkXkXkXkXkXhXhXhXhXhXhXhXhXhXhXkXhXhXhXhXsXhXhXhXhXhXhXhXdXD.fXsXsXpXaXaXpX3X=.5.&XuX2X,X5.3XH.2X2XQ.5.../.........%XF.2X,X5.2X^.W.H.D.2X^.~.~.^.G.W.Q.3.H.Q.<X*.%X;.&X3.H.W.G.a F.H.-.G.I.B.S.S.T.T.T.T.T.T.P.Z.Z.Z.Z.B.B.9 B.P.P.P.P.Y.Y.Y.Y.Y.P.P.P.L.L.L.L.L.L.m.A.A.A.L.C.C.A.m.v.n.v.n.m.m.b.B.L a.v.x.x.x.n.B.n a.v.x.x.x.x.k.a.k.x.x.x.z.x.x.x.z.z.x.h.h.h.h.h.h.g.",
"N N v v M M N V x x V c x c 9 O 7 C V V V N V V V V V V N 7 9 C c 7 A V B c x S S S V V Z A C S S S ~ c < c 9 < 9 ~ D C A A A B 2 ~ D D G G / u.u.u.u./ / u.u.u.u.u.u.u.) / u.u.f.p.i.p.f.p.p.p.f.g.g.g.h.h.g.h.h.h.h.h.h.l.x.x.x.x.x.k.( v.x.x.x.x.n.n.n.B.u R M.W ^ B.M.i S.Z.N.a q ] } Q.r V.S.I *.3.] ] ] ] q 2.B.B.D.*.3.D.1.V.T.N.a G.W.N.G.T.T.` !.W.R.R.E.R.R.R.T.R.R.A.Y.R.E.E.E.E.~.R.E.Y.k.( T.E.tXtX6XrXtX~.6X6X7X~.~.I.6.0.2.Q Y U P Y U P P g g y w * $ % # # # # % % % - w w w w w w t t t y y p g P T U P P g g y t t t t y i i t t y p g K K T T T T K L K i t 5 5 < < & & $ # . . . O # & 5 t b P R E ^ R _ ^ ^ W W K ` J.iXhXkXzXzXkXlXlXlXlXkXkXkXlXkXkXkXkXkXkXkXkXkXkXkXhXsXhXhXhXhXhXhXhXhXhXhXhXhXhXhXhXhXhXhXgXsXhXhXuXD.fXsXsXsXpXsXpX1X=.5.<XuX2X,X5.3XH.2X9X2X5.../.........'.F.uX<X5.2X^.W.F.D.^.^.~.~.!.V.W.Q.3.H.^.<X-.&X;.H.<.H.W.N.} 5.H.<.G.S.I.I.I.T.T.T.T.T.T.T.Z.Z.Z.Z.Z.B.9 B.I.P.P.P.Y.Y.Y.Y.Y.P.P.P.L.A.L.L.L.m.C.L.A.A.A.A.n.A.m.b.b.v.n.m.b.b.Z.L a.v.x.x.n.n.B.n a.v.x.x.x.x.k.k.k.x.x.x.z.z.x.j.h.h.h.h.h.h.h.h.g.g.",
"M M N N M N N V x x V N c c 9 @ 7 C V V V V V V Z V V C N 7 9 A c 7 C V B B x C V Z V S S C S Z S S D B 8 L c < 9 ~ D A D D A B , ~ D D G G / u.u./ u.u./ u./ / ) G G u.u./ G D ) p.i.i.i.u./ u.f.g.h.h.h.h.h.h.h.h.h.h.h.l.x.x.x.x.x.k.( v.x.x.n.x.n.n.n.M.u R M.R ` B.M.t S.V.2.a q ] } Q.r V.S.I *.3.] ] ] ] q 2.M.B.D.*.3.G.1.V.I.N.a G.U.2.G.T.I.` W.E.R.R.R.T.R.T.T.Y.k.R.E.E.E.~.E.~.~.~.~.~.~.R.~.~.tXtXrXrXtX6XtXtX7XT.k.W 1.:.>.! Y h U U P g u t : % . . # $ $ # # # . $ % - w w w w w w y u p p g g K P T T T P g p y t : : : 5 5 : : : : t p p K K T T T T T K b i i t 5 5 < < < * # . . . . . # & < t p n T R _ _ ^ W ^ ` ` M.S.!.yXkXzXlXzXlXkXkXkXkXlXkXkXkXkXkXkXkXkXkXhXkXkXsX9X9XyXhXhXhXhXhXhXhXhXfXsXhXhXsXhXhXhXsXsXsXfXdXD.sXsXpXiXyXiXpX1X=.5.<XuXuX1X5.3XH.2X9X2X5..././.......#X&X1X,X5.2X!.W.F.3.!.^.~.^.~.!.!.Q.3.H.2X2X;.F.*.H.3.H.W.N.*.5.H.-.G.!.R.T.T.T.T.T.T.T.T.T.I.Z.I.Z.C.B.9 Z.I.P.Z.Z.Y.Y.Y.P.Y.P.P.P.L.A.L.C.A.A.L.A.l.x.C.C.L.L.m.m.g.x.n.n.n.b.Z.L a.v.x.n.x.v.B.b a.v.x.x.x.x.k.k.k.x.x.x.x.x.x.j.j.x.c.j.j.h.h.g.h.h.",
"N N N v M N M N N N V c c c 9 @ 7 C V V N x N V Z V V S N 7 9 A c 7 A V A B x S S A A S S V S S S S ~ B 8 L B < 9 ~ D A A A D B , ~ D D G G / u./ / / / / u.u.u.u.p.i.u.u.u.u./ / u.f.f.p.) ) u.p.f.g.g.g.f.h.h.h.l.f.g.j.l.l.x.x.x.x.k.( v.x.x.x.x.n.n.n.M.u R M.W ` B.M.i Z.S.2.a q q } Q.r V.S.I *.3.] ] ] ] q 2.B.B.D.*.3.G.2.V.I.D.a G.W.2.V.T.T.2.!.R.R.R.R.R.R.Y.Y.R.~.~.E.E.~.~.E.~.~.~.~.6XrX6X~.~.rXrXtXtXtXtX6X~.S.M.` ! 1.:.>.>.Y h k k g y 5 * % # . # $ % $ $ $ $ # % w t u p p u u u g g k k P P T U U U P P P g y t * * * * * * * * * 5 y p K L T T T T T T K b p i i i i t t 5 < & # # # O O # % * 5 t p K R R ^ ^ ` ` ` ` ` M.S.9XhXkXlXlXlXkXzXzXlXlXkXkXkXkXkXkXkXkXkXkXhXsX9XS.Q.hXhXsXhXhXhXfXhXfXhXhXsXsXgXhXsXsXaXiXhXdXD.fXsXaXsXyXyXpX1X=.5.<XuXyX1X5.3X<X2X9X2X%X.././.......'.&X2X,X;.2X^.W.D.3.N.^.~.^.~.!.!.Q.d.H.2X<X;.F.*.H.3.H.W.V.} D.H.<.G.R.R.T.T.R.R.T.T.T.T.T.Z.B.Z.B.Z.Z.9 Z.I.P.Z.P.Y.Y.Y.P.Y.P.P.L.L.L.P.P.L.A.b.b.b.b.v.x.m.m.m.v.j.v.v.b.m.b.Z.L a.v.n.n.h.n.B.b a.v.x.x.x.x.B.k.k.x.x.x.x.x.x.j.j.c.x.x.c.g.g.h.h.h.",
"N N N N N N N V N N V B c c 9 @ 7 A C V x x x N S S V C B 7 9 A 9 < C C A B x C S S S S S V S D S Z ~ B 8 L c < 9 D D D C A D B 2 ~ D G G / / u.) ) / ) / u.u.u.u.u.u.) u.i.p.u.) u.g.i.i.p.u.u.p.g.g.h.h.g.g.h.h.h.h.j.h.l.l.x.x.x.x.k.( k.x.n.x.n.n.n.b.M.u R M.T 2.B.M.i B.S.N.a q q a Q.r V.S.I *.3.] ] ] ] q 2.B.B.D.O.3.G.2.V.I.N.a G.W.2.G.I.T.2.!.W.T.R.R.R.E.E.E.E.E.R.E.~.~.~.~.E.~.~.6X6XrX6X6XtX~.~.rXtX6X~.I.6.W ` _ >.:.:.>.>.Y k p u t * % % # # # $ * : * * * $ & * y u g k P P k k P U U U U U U P P P P P P g p t * * * * * * * * * 5 t p K T T T R T R T T K K K K K n b b i t t * < & & # # # % & * < 5 i L R ^ ` ` ` ` ` ` 2.M.!.sXlXlXlXkXkXkXkXlXkXkXkXhXhXkXkXkXkXkXkXhXfXyX!.hXhXhXhXkXhXhXhXhXsXsXhXsXsXiXsXsXiXsXhXuXD.fXsXsXsXsXsXpX1X=.5.<XuXpX1X5.3X<X2X9X2X%X../././.....'.H.1X1X;.2X!.W.D.3.N.T.wXwX^.!.U.Q.d.<XyX2X3.&X*.F.-.G.W.G.} 3.H.<.U.!.R.R.R.R.R.R.R.T.T.T.Z.Z.Z.Z.Z.Z.9 B.I.P.P.P.Y.Y.P.Y.P.Y.P.P.L.L.L.L.L.A.C.m.C.v.b.m.C.m.m.l.f.p.h.n.n.b.Z.L a.v.x.z.z.n.B.i ` v.x.x.x.x.B.M.k.x.x.x.x.x.x.x.c.h.x.h.h.h.h.h.h.g.",
"V V N M N N N V V N V B c c 9 @ 7 A V N x N x N S S V C c 7 9 C 9 < B V A B x C S S S C V S D D D S D B < L c < 9 D C C C V C x , ~ D S D G / / ) ) u./ / / u.u.u.u.) u.u.i.i.u.u.p.i.p.p.u.) ) u.g.h.h.h.h.h.z.l.j.h.h.j.x.x.x.x.x.x.j.( k.x.n.n.x.n.n.m.B.u T k.L ^ B.B.i S.S.N.a q q } H.u N.S.P a ;.] ] ] ] q 1.M.B.G.;.3.D.N.V.W.s.a G.W.2.D.I.I.R W.R.R.R.R.E.T.E.E.E.~.~.R.~.~.E.E.~.~.~.6X6X6X6XrXtX~.rX6X~.Z.k.M.` _ Q Q ! 1.>.>.Y k p w w - $ # # # # % * : t y t t 5 : t y u p k U U P P U U Y U U P P P g k U U T P g y 5 : : : 5 5 5 5 : t y p K T T R T T R T T T T R R R T T T K b i i t t 5 & & # # # # # & 5 i L R ^ ^ ^ ` ` ` ` 2.0.S.pXkXlXlXkXkXkXkXkXkXkXkXkXkXkXkXkXhXhXhXsXhXlXhXhXhXhXhXhXhXhXsXgXhXhXsXsXyXiXaXpXsXfXdXD.fXyXaXpXpXsXpX1X=.5.&XuXpX1X5.eX<X9XyX2X'.............5.&X<X,X;.<XW.N.D.;.Q.W.~.^.~.W.V.Q.d.<X2X<X3.&X;.H.>.G.W.G.a 3.H.<.U.T.Z.T.R.R.R.T.T.T.Y.I.Z.Z.Z.B.Z.Z.9 Z.P.Z.C.L.P.P.P.Y.P.L.Y.P.L.P.Y.L.L.C.L.L.L.L.C.m.m.A.m.b.p.p.l.n.n.b.Z.L k.v.n.x.x.b.B.p ` v.x.n.n.x.B.k.k.v.x.x.x.z.x.x.c.h.h.h.h.h.h.z.h.g.",
"V N V V N M M M N N V C c c 9 @ 7 D C V N V z l V S Z C c 7 9 B 7 7 C V A B x C V V V V V C S S S S / B < L c < 9 ~ D C C C D C , ~ D D D G G / / u./ u./ u.u.u.u.i.i.i.u.u.p.p.i.i.i.i.i.i.u./ H g.g.h.h.j.h.h.x.l.x.h.h.x.x.x.x.x.x.k.~ k.n.x.x.x.x.n.m.B.u R M.L W B.M.b B.S.N.a a q } Q.u M.S.P a ;.] ] ] ] q 2.M.M.G.-.3.G.N.S.W.D.a D.G.2.G.W.T.` !.E.R.R.R.E.R.T.R.E.E.~.R.E.~.E.~.~.~.~.~.6X6X6X6XrXrXtXT.k.8 s ` ` _ _ Q ! ! ! Y k u w w - % % # # $ % : w y y y y t t t t y y y p k P P P U U U U P P P P K P U U U P g g i i i i i i y t t i p K K T T T T T T T T T T R R T T T T T K K K b i i i 5 < & # # . # & 5 i K R ^ ^ ^ ^ ^ ` _ R < M.!.sXkXkXkXkXkXkXkXkXhXgXhXkXhXhXhXhXsXhXlXhXhXsXhXsXpXhXhXgXiXiXgXpXsXsXsXsXsXsXsXfXdX0.fXsXpXpXaXiXiX1X=.5.,XuXpX1X5.dX<X9XuX2X'.............5.<X2X1X;.2X^.V.D.3.G.~.~.~.~.!.W.Q.d.<X!.Q.3.&X;.G.N.W.W.Q.a 3.H.3.U.W.T.T.R.R.Y.T.T.P.Z.Z.B.B.B.Z.B.I.x B.Z.Z.B.P.P.Y.Y.P.Y.Y.Y.P.P.P.L.L.L.L.A.A.L.C.L.A.b.C.n.b.v.l.n.n.n.b.Z.L k.v.n.x.x.n.B.i a.v.x.x.n.x.B.M.j.x.x.x.x.x.x.z.h.h.h.h.g.h.c.z.h.g.",
"V M N V V N N M N N V C c c 9 @ 7 A C V N V V N Z Z V C B 9 9 B 7 7 C N C c 9 C Z V V V N V V S S S ~ L < L 9 < c ~ C C C C C B > A D D D D / / / / / / / u./ G u.i.i.u.G u.p.i.i.p.g.g.p.p.p./ u.g.h.h.g.g.p.j.x.h.j.h.x.j.l.l.x.x.l.k.~ k.v.n.n.n.x.x.x.M.u R M.L K B.M.8 M.S.2.a a q a H.r V.S.I a ;.] ] ] ] q 2.B.M.D.} 3.N.2.S.S.N.a D.G.E V.T.T.^ W.T.Z.R.R.E.E.E.E.E.E.~.R.R.~.~.E.~.~.~.6X~.6X6X6X~.~.I.W ; @ 6 ` _ Q Q Q Q R U k u w - % # # # % % & : : y y i y t t t 5 t t t t y i g P P P U U U T T P P P P U U U T P g g g g g g g p p p p g K K T T T T T T R R E E E E T U R T P K K T K K b K i 5 * & % # O # & 5 i L R R ^ _ _ ` _ R & $ i M.^.sXhXkXkXkXkXgXsXhXsXsXhXhXhXhXhXhXgXhXhXsXsXsXsXhXhXsXgXsXyXyXsXyXaXyXsXpXpXfXuXr.uXyXyXsXaXpXpX1X=.5.<XuXpX1X5.dX<X2XuX2X5.....=.'. ...5.<X<X1X;.2XW.G.F.3.!.~.^.7X~.!.G.<Xd.<X^.Q.;.F.*.H.!.W.W.H.q ;.F.<.W.R.T.R.T.R.R.T.T.P.I.P.k.B.k.k.k.Z.9 k.B.Z.k.C.P.P.P.P.Y.A.L.Y.l.A.L.L.L.v.x.A.L.L.A.m.C.m.m.m.l.f.x.b.C.C.B.L a.v.x.x.g.g.M.b ` v.x.x.x.x.B.M.k.x.x.x.x.x.x.x.h.h.x.g.p.h.h.h.h.g.",
"V V N N N N N N N N V B c c 9 @ 7 A C V V z x V Z Z A A B 9 9 B 9 < C V A c 4 V S Z V V S S Z S D S / L 8 L 9 @ 9 ~ S A C N C B > A S D C S D G / / / / / u.u.u.i.i.i.u.u.u.u.i.i.i.p.p.p.u.i.u.u.u.g.g.g.f.g.h.h.l.h.x.x.x.l.l.l.x.x.j.~ j.n.n.n.n.n.m.n.B.u T k.L b B.V.K Z.S.N.a } q r H.u N.S.I a ;.] [ ] ] q 2.M.M.G.*.3.N.2.V.V.N.a V.S.E s.S.T.W W.!.R.R.R.R.R.R.E.E.E.~.E.~.~.~.E.E.~.~.~.~.~.6X~.T.V.6.Q Q Q ! ! ! Q Q W k p : $ $ $ $ $ $ # # # % : : y y y g f t 5 5 : : * * : 5 t i g K K T U R T R T R T U U U T T T T P P P g g g k g g g g P T U T E E E E ! _ _ ! ! E T g p i t t i g K K p K p i u t 5 * $ # . . $ * t g T R _ _ _ _ ` 1.2.2.M.G.W.yXgXkXkXhXgXkXhXsXsXpXyXhXsXsXhXhXgXiXiXpXsXgXsXgXhXsXsXiXiXsXaXaXyXiXsXpX&X3.^.yXaXiXsXaXsX3X=.5.<XuXuX1X5.dX<X2XyX2X%X .=.%X<X,X .5.<X<X1X-.Q.!.G.G.3.!.W.wXtX~.!.S.<Xd.Q.^.Q.;.%X*.Q.!.W.W.H.] 3.H.-.U.R.T.R.T.R.R.T.P.T.P.Z.k.B.k.k.k.Z.9 B.Z.B.k.B.k.P.P.Y.Y.L.P.Y.P.L.L.L.L.L.C.A.L.L.A.m.m.m.b.l.l.l.v.v.n.C.B.b a.v.v.x.n.n.B.b ` v.n.x.x.v.B.k.j.x.x.x.x.x.x.z.c.h.h.g.g.g.g.g.g.g.",
"V N N N N N V N N V V c c c c @ 7 A V V N N N N V Z V V B 9 c B 9 2 B V C c 3 V V V N V Z A S S D S ~ L 8 L c < c ~ S C C C A x 7 ( D A A N S / / / u.) i.i.u.i.i.i.i.i.u.u.) i.i.u.i.i./ G i.p.f.p.p.g.g.p.j.j.h.h.h.l.x.x.x.x.x.x.x.x.x.v.x.x.x.x.n.n.n.B.u T M.T ^ B.B.i B.S.M.a *.q r H.u V.S.I a *.] ] ] ] ] s.B.S.G.*.3.D.2.S.S.G.a G.I.2.V.S.T.B.W.R.R.R.E.E.R.R.R.E.E.R.E.E.~.~.~.~.~.~.~.~.~.~.P.` ` Q Q Q ! ! Q Q Q U k f t * # # # $ # # # $ $ : : : y y i g i t 5 5 5 5 5 5 5 5 5 i g K K T T T U T U R E R U T T T T T P P k g g g P P P P P P T U R ! ! ! ! ! _ ! E T K i t t : * * 5 i g K K K K p p p i t * & . . . O # 5 i K T _ _ _ 1.1.2.2.2.0.2.V.!.aXhXhXhXkXhXsXpXiXpXhXsXgXgXsXgXiX^.pXsXgXsXhXhXgXsXaXsXsXsXsXiXsXsXuX1X3.pXsXpXaXaXaXsX3X .5.&XuXuX1X5.dX2X2XyX2X%X .5.1X9X1X} F.<X<X1X-.2X2X^.H.<.!.T.~.^.R.W.W.<Xd.H.!.Q.;.&X*.W.!.W.!.Q.] d.Q.-.G.R.T.R.E.R.R.T.T.Z.T.T.Z.B.k.k.B.I.x B.Z.v.k.B.Z.Z.P.P.Y.P.Y.Y.P.Y.Y.L.L.L.C.L.m.C.m.m.x.x.v.i.l.v.n.v.v.b.B.8 a.v.v.n.n.n.B.n a.v.x.x.x.x.v.v.x.x.z.x.z.x.x.c.x.h.p.u.p.u.g.g.g.g.",
"N N N V V V V N N N V B c c c , 7 A V N V V x z V Z V S C c 9 B 9 < B V A B 4 V V V V V Z Z S D D S D B 7 L c < c ~ S N x A D x 2 ( D S D D / / G / / u.u.u.u.u.u.i.i.i.i.i.u.i.u.i.i.i.u.p.p.f.f.p.g.g.p.f.g.l.h.h.g.j.j.h.x.x.x.x.x.x.x.x.x.x.x.x.n.x.n.B.u T a.L ^ B.B.K Z.S.2.a *.q r G.u M.I.I *.*.] ] ] ] q V.Z.Z.D.O.N.G.2.S.S.V.a G.I.2.G.S.T.k.R.R.R.R.T.R.E.R.E.E.E.R.E.E.~.~.~.~.E.~.~.~.~.P.W f Q Q Q Q Q Q W U g f y : $ $ # # # # # # # $ : : : w y y p g i i t t t i i i i t 5 i K K L T R T R E E ! ! ! E R T U T T P P k g g g P P P P P P U U E ! 1.1.1.1._ ! E T p t t t : & & * t p K T T T L K K b i t 5 & # O . . # * t K R E ` 1.1.1.2.2.2.2.2.2.V.9XhXkXhXhXgXsXsXsXsXhXgXgXgXsXaXiXiXgXgXgXhXsXsXsXpXsXsXyXpXpXaXpXpXuXD.sXaXaXaXsXiXpX3X=.5.H.uXuX1X5.dX2X2XyX2XF. .5.2X9X<X} d.<X<X1X-.2X2X^.Q.<.G.B.~.~.~.R.W.Q.d.H.!.Q.;.&X;.U.!.W.!.Q.q d.Q.-.S.T.T.R.R.R.R.T.Z.T.T.Y.P.Z.k.v.k.I.9 B.Z.B.v.I.Z.B.P.P.P.A.A.P.P.L.Y.L.L.L.L.Y.L.A.m.m.m.n.l.j.v.v.b.n.v.C.B.8 a.v.v.n.x.n.B.K a.v.x.x.x.x.x.x.x.z.z.z.x.x.x.c.c.h.g.g.g.g.h.g.g.g.",
"V V V V N V N N V V V B c c c @ 7 A C V V V N N S S S C c 9 9 B 9 2 B N A x 3 C V V V V V S D D D D D B 7 L c < c ~ D C V A A B 2 ( ~ D S / / G D G / / ) u.u.i.i.i.i.u.i.i.i.i.i.i.i.i.u.p.u.p.u.g.h.f.f.p.D l.g.j.f.h.l.x.z.l.x.x.x.x.x.x.x.n.x.n.n.n.n.B.u R k.T T B.B.b B.S.s.a O.q r G.u N.U.I *.*.] q a ] q V.C.Z.V.a N.D.2.S.S.N.a V.S.M.S.S.Z.Z.P.T.R.R.Y.R.R.E.E.E.E.R.E.E.~.E.~.~.~.~.~.~.P.( W W W Q Q Q W U g f 6 : : $ . # # $ # # # $ % * : t y y y y g g i i i i i K T L K K i i K K L T R R E E E ! ! ! E E T U T T T P k g g g g g g g g g P P E ! ! 1.1.1.1.! E U g p p p y 5 : 5 5 y p K T R R T T K K p i 5 & & # . . . $ * i T E 1.1.1.2.2.1.2.1.1.2.S.9XgXhXsXhXhXpXsXgXgXgXgXgXaX7XsXsXgXgXgXsXsXsXsXiXsXsXpXsXiXpXiXpXuXD.sXsXaXiXaXyXpX1X=.5.F.2XuX1X5.dX2X2XyX2Xe.=.d.2X9X<X} d.<X<X1X-.2X9X2X2X<.W.T.rX^.~.~.S.Q.d.H.W.Q.<.&X;.Q.!.R.W.W.r D.H.<.G.R.R.R.R.R.T.T.T.T.T.Y.Z.Z.k.k.k.I.9 M.Z.B.B.Z.P.P.C.Z.A.A.P.Y.Y.Y.L.L.L.L.L.L.L.L.L.n.x.v.v.v.v.v.b.b.b.C.B.8 a.B.b.x.n.n.B.K a.v.x.x.x.x.x.x.x.z.z.x.x.x.c.x.h.h.g.g.g.g.g.g.g.g.",
"V V V V V V N N N N V B c c c @ 7 A V V V V V V S Z V C B 9 9 B 9 2 C C A c 4 V V V Z V V A S D D D G C 9 L B < c D S C V C A x 7 ( ~ D D G / ) / D G / / / u.i.i.u.i.i.u.p.p.p.u.u.i.) u.u.u.p.p.f.p.) p.f./ h.h.h.h.l.j.x.l.h.x.x.x.x.x.x.x.n.x.n.n.n.n.B.u R M.L T B.B.b B.S.2.a -.q r G.u M.I.I *.} ] -.N.<.r N.C.P.G.a N.V.M.S.S.D.a S.T.B.S.T.Z.Y.Z.Y.T.R.T.R.R.R.R.E.E.R.E.E.E.E.~.~.~.~.~.Z.( L W Q Q Q Q U P f y 5 ; $ X . . $ % % % % % & * : t y y y y i g g i i i g K L R R T K p i K K L T R R R T U T T P K P T T T T T P k g g p p p p p p p p g P U E ! 1.1.1.! ! R T K P T g i t t t t p g T T T T T R K K i t : * & # O . . . & t K E _ _ _ 1._ _ _ 1._ ` V.!.sXgXgXhXhXsXsXgXhXsXgXgXsXsXsXaXsXgXsXsXsXsXpXsXsXsXsXpXiXyXsXuXD.yXaXpXiXpXyXpX3X=.5.F.<X2X1X5.dXQ.2XyX2XF.=.F.2X2X<X} 5.<X2XD.N.^.^.^.2X<.W.~.~.^.~.!.W.Q.D.H.W.Q.-.%X;.U.T.R.W.W.r 3.H.<.U.R.T.T.T.R.T.T.T.Y.T.T.Z.Z.k.v.B.S.9 B.Z.B.v.Z.T.A.Z.B.C.b.A.L.L.Y.Y.Y.L.L.L.A.L.C.v.v.x.v.v.n.v.l.l.x.x.b.B.7 a.B.j.n.x.n.B.n ` v.x.x.x.x.x.x.x.x.z.x.x.x.x.x.h.g.g.g.g.g.g.g.g.g.",
"V N V N N N V V V N V B c v c @ 7 A C V V V V V S V V S A c c B 9 2 B C A c 3 C S S V V S S D D D G G C 9 ~ B < c D S V N V C x 2 ~ ~ D S ~ / G D S / / / G / i.i.u.i.u.u.u.p.p.) / p.u.p.i.u.f.p.p.p.i.f.p./ j.h.h.l.j.x.x.x.x.x.x.x.x.x.x.x.x.x.x.x.n.n.M.u R M.L T M.M.b B.S.1.a *.q r G.a N.S.m a } a >.V.G.r V.Z.I.W.m D.D.N.T.I.G.a V.Z.Z.Y.Z.Z.Y.T.T.T.R.R.R.R.R.E.R.E.R.E.E.E.~.~.~.E.T.Z.B s W Q Q Q Q Q U f y : ; X X . . . % & * * * * : : t t t y y y f g g i i p K L T T L L K i i K K L T R R T K g p i i i p g P U U T P K g g g p i y y y y t y y g P R 1.1.1._ ! E U P T T K p i t t t p K K T R T E T T K p i 5 5 * * & $ . . . & t K T ! ` ! _ _ _ ! _ ` W L S.pXsXsXgXpXaXsXsXhXgXsXgXpXiXgXsXsXgXgXsXsXsXsXiXaXyXyXaXyXiXuXD.pXyXiXiXaXaXpX1X=.5.F.<X2X1X5.dX2X2XyX2XF.=.F.2XyXQ.*.d.1X<XD.^.^.!.!.2X<.W.^.~.~.T.!.W.Q.D.H.W.Q.-.&X;.Q.!.W.!.Q.r 3.H.<.S.R.T.R.R.T.T.T.T.Y.Y.T.Z.Z.k.k.B.I.x Z.Z.Z.B.Z.P.Z.B.k.k.C.A.n.L.Y.L.L.L.L.m.v.b.j.j.l.b.v.b.b.v.l.v.v.j.k.B.8 ` B.v.x.n.n.B.n a.v.n.n.x.x.x.x.h.x.x.x.x.x.x.x.l.h.h.h.h.h.h.h.g.g.",
"N N V V V N N V V N N c c c 9 , 9 A C V A V V S S S V C V x c C x 2 C V C x 3 V V S Z V V V S D D D D B 9 ~ B < c D S C C V A x 2 ~ D S D D ~ D N x V V G / u.i.p.i.i.i./ G / G / u.D D / ) p.i.) / G / G ) ) j.j.h.j.j.j.x.x.x.x.x.x.x.x.n.x.x.n.n.x.v.v.k.u R M.L T B.M.L B.S.1.a *.q r G.a V.S.I a a } 2.V.G.r V.P.T.W.m D.N.N.T.S.D.a S.Y.P.Z.Y.Y.T.Z.Y.T.R.T.R.R.R.R.R.E.E.E.E.E.E.R.T.k.W ` W W W Q Q Q Q W f 6 ; & $ X X X $ & * * : : : 5 t t t t t y y y y g g g g g L R R T K p i i K K L T T L K g i t : : 5 i p K T U U U P K g K g g g p y y y : : : y p P ! 1.1.1.! E T P g p p i t 5 : t p K K L T T R T R T K i t t 5 5 * & # # # . . & t K U Q ! ! ! ! _ _ Q ` M.W.!.pXsXsXsXaXgXgXgXgXsXaX^.sXgXgXgXsXsXsXsXsXiXsXaXyXyXyXuX<XD.uXyXaXyXaXyXpX1X=.%XF.F.2X1X5.dX2X2XyX2XF.=.F.2XyX<X} 5.1X<XD.2X^.^.^.Q.<.^.~.6X~.~.T.S.Q.D.H.!.U.-.&X;.Q.W.W.!.W.r 3.H.<.U.R.R.R.R.T.T.R.T.T.Y.T.Z.Z.B.k.Z.T.9 B.B.B.k.B.v.B.k.` ) f.B.C.n.L.L.L.L.A.x.v.v.v.j.i.p./ j.v.j.k.) j.j.) B.L a.k.x.x.n.n.B.K a.v.x.x.x.x.x.x.x.x.z.h.x.x.z.z.h.h.h.h.h.j.h.h.h.g.",
"V V N V V V V N N N N c c c c & 7 A A V V Z S S S S Z C B c c C x 3 C V A c 3 D S V S Z V A D S D D D B 9 L B < c ~ A V C V A B 2 ~ D D ~ D S V 4 3 4 V D D u.i.i.i.i.i.i.u.p./ u./ V ~ ) / ) ) / g.p.p.p.p.p.p.g.h.h.h.h.l.l.x.x.x.x.x.x.x.x.n.x.n.x.n.n.M.u R M.K T B.B.b B.V.>.a *.q r G.u V.S.>.a a a 2.V.V.r N.Z.P.W.m D.M.R I.S.V.m S.T.T.T.Y.A.Z.T.T.T.T.Y.R.T.E.R.E.E.E.E.E.R.T.B.` W W W L W W R U L P f 6 ; X X X X & & : 5 5 t t 5 5 t t i i i y y y y p g g p i g L R R T K i i i K K L T L K g p y t t t y g P U T T R U U P P T U U U P K g p y t : t y g U E ! ! ! ! U K p t t t t 5 5 t i g K K T T E E T T K i i i t t 5 * * & & # . . . $ 5 g U ! ! ! ! ! _ _ _ 0.V.W.yXiXsXgXgXgXsXsXgXgXgXgXsXsXgXgXsXsXsXaXpXyXaXyXyXyX9X2X0.9XyXtXyXaXyXyX1X=.%XF.F.2X<X5.uXQ.2XyX2XF.=.F.2XyX<X} 5.1XH.D.^.tXtX9XQ.<.^.~.~.~.~.R.I.W.D.H.!.D.-.&X;.Q.W.W.!.Q.q 3.H.<.W.R.T.R.T.Y.T.T.T.Y.Y.T.Z.Z.k.B.B.T.x B.Z.Z.Z.B.p.( ~ A a.k.B.b.A.P.A.L.L.L.A.b.v.x.j./ D k.B.p.p.f.j.v.j.f.B.L ` k.x.z.x.n.B.L a.x.x.x.x.x.x.x.x.z.l.x.x.x.x.c.c.h.h.g.g.h.g.g.h.g.",
"V N N N N V V V N N N c x c 9 @ 7 A C V V Z Z S S S S C B c c A x 7 C V A B 3 C C V V V Z S S D D D D C 7 L B < c ~ S C A A C x 2 ~ D D D D D A V C C C / G ) u.i.i.i.u.i.p.p.f.p.) ) / / D D ~ ) f.f.g.f.f.f.f.g.j.x.x.x.x.x.x.x.x.x.x.x.x.x.x.n.n.x.x.n.k.u T M.K L B.B.b M.V.>.a *.q r V.u V.S.>.a a a 2.V.V.r V.Z.P.G.a V.V.V.T.S.V.I S.I.A.Y.A.A.T.T.A.T.Y.T.R.R.R.R.R.R.E.R.R.B.s f R L W W L L L L L f y 5 X .   . X & ; : y i i p i i t i i i i p p y i g g g g g g K L R R T i i i i p K L L L K p p i y i p K U E E E R T U U U U U E E E E U U P g p y y y p K T R ! ! ! T g t 5 5 5 t t t y p g L T T T T E R T L K p p i i i t 5 5 5 * $ . . . . & t K R Q ^ ! ! ! ! _ ` ` S.7XsXsXsXgXgXgXgXgXgXgXgXgXgXsXgXgXsXaXyXyXyXyXyXyXuX<XD.uX^.tXiXiXyXiX1X=.%XF.H.2X<X5.uX^.2XyX2X%X=.F.^.9XQ.*.5.eXQ.N.^.^.^.!.Q.<.^.~.~.~.~.~.W.W.3.H.G.G.-.&X;.Q.!.~.!.W.r 3.H.3.U.T.T.R.R.T.T.T.T.T.Y.T.Z.B.B.k.j.Z.9 B.Z.B.k.v.k.k.k.a.( j.k.A.A.L.P.L.L.A.A.L.L.C.b.x.p./ j.p.) j.x.x.v.v.B.L ~ k.x.x.n.n.B.L a.v.x.x.x.x.x.x.x.x.x.x.x.x.x.l.h.h.h.j.h.h.g.g.h.g.",
"V N V V V V V V N V N x c c 9 & 7 A V V Z V Z S S S S C V 9 c L 9 3 A C A x 3 V A V V A S S S S D D D B 7 ~ B , c ~ S V C C C B 2 ~ D D D D ~ D S S D G / G / u.i.i.i.i.p.p.i.i.u./ / / / ~ ~ / ) u.p.g.p.p.f.j.h.x.x.x.x.x.x.x.x.x.x.x.x.n.n.n.n.n.n.n.x.k.u P s.i R B.B.b B.B.I a *.q r N.u M.S.>.a a } 2.V.G.a V.Z.Z.S.m V.T.T.T.I.V.I S.T.Y.Y.Y.Z.T.T.Z.Y.Y.R.R.T.R.T.R.E.R.T.k.0.Q ^ Q L Q U U P L L f 6 ; X .   . X X & ; : t p g K K p i p p b K K g g g g P P P P K L R T R T K i i i p K K L L K g g p g K T R E E ! E E E U U U U R R E E E E E E U T P k g g g g P U E E g i 5 : 5 t i i p g K K K T R T T R T T T T K K K K g p p i t 5 < & # O . . & 6 f U R Q ! ! ! ^ ` ` ` M.^.aXsXgXgXgXgXgXgXgXgXgXgXsXsXsXpXaXiXiXyX7XyXyXyX1X3.2X7XtXiXiXyX9X1X;.%XF.F.2X1X5.uXQ.2XyX2X%X=.F.2X2XU.} 5.uX<XN.^.7X7X!.2X>.^.~.~.~.~.~.W.W.d.H.G.Q.<.&X;.Q.W.R.W.W.r 3.H.3.S.R.R.R.R.T.T.T.T.T.T.P.Z.B.v.k.j.B.9 B.B.B.Z.v.k.j.v.v.v.v.b.C.l.L.Y.L.L.L.L.L.A.A.n.l.v.j.j.p.p.j.j.v.v.x.k.L ( j.x.x.n.n.B.L a.x.x.x.x.x.x.x.x.x.z.x.x.x.x.x.x.h.j.h.h.h.g.g.g.g.",
"V V V V V V V V N N N x x c 9 & 7 C V V Z V V S S S S A N 9 x B 9 2 C V D c 3 C V V V V A S S S D D ~ C 7 L B , c ~ S V C C A N 2 ~ D S D G G D G G G / / / u.u.u.u.H i.i.p.p.i.u.) ) ) ) A D / p.p.g.g.p.p.j.h.x.x.x.x.x.x.x.x.x.x.x.x.n.n.n.n.x.x.x.n.v.k.u P M.i ^ B.B.i B.B.I a *.q r V.p V.S.>.m a } s.V.G.a V.Z.Z.S.m V.T.Y.T.I.G.I S.T.Z.Y.T.T.T.T.T.T.T.T.T.T.T.R.R.E.Y.k.` Q Q Q Q Q U U T L f f 6 & X     . X X & $ ; : y i K T K K b K K K K T P P P U R R E R R R R R R R K g p g g g K K K g g K g K T R E E E E E E E ! E R R R Y E E E E ! ! ! E E E E U P g g g P T p t : : t i g K P T T T P T T U T T T T T T T T T T L K K K p i t * & $ # . . X 6 f W Q ^ ! ! ^ ` ` ` W V.^.aXsXgXsXsXgXgXgXgXgXgXsXsXsXpXaXaXiXyXyXyXyXiX1X0.uXyXiXiXiXtXyX1X;.&XF.H.9X1X5.uXQ.2XyX9X%X=.F.2X9XQ.} 5.uX<XN.^.^.~.^.2X>.^.~.~.~.~.R.B.U.D.H.!.^.<.&X;.Q.!.R.!.W.r 3.H.s.S.T.Y.T.T.T.T.Y.T.Y.Y.P.A.B.v.k.k.B.9 B.Z.B.Z.Z.v.k.v.B.C.A.A.A.L.L.L.L.L.L.A.A.L.C.v.j.l.v.p.i.a.l.x.n.n.n.k.L a.k.x.n.n.n.v.a.k.x.x.x.x.x.x.z.z.x.z.h.l.x.j.j.c.h.h.h.h.h.h.h.g.g.",
"V V V V N N N V V V v x x c 9 & 7 C V V V V V V V S S S B 9 c B 9 < C V A x 3 C S Z C Z S S A S D G ~ L 8 ~ B , c ~ S C A A A N 2 ~ D D / / D D / / ) / u.u.u.u.u.u.i.i.i.i.i.) u./ D / ) C D / / u.u.f.f.f.j.j.x.z.x.x.x.x.x.x.x.x.x.x.x.x.n.n.n.n.x.x.i.k.p P M.i ^ B.M.8 B.B.E a *.q a V.p V.Z.>.a a } s.V.G.a V.Z.Z.S.a V.T.T.T.S.G.I S.T.A.Y.Y.Y.T.T.T.T.T.T.T.T.Y.R.R.T.k.` Q Q Q Q Q Q U L P f f y ; X .   . & ; ; ; : : : : i K T T K K K K T T U U R R R E R E ! R R T R R U T g g g g g g g g g g g g K P T R T E E E E E ! ! E Y E Y E E ! ! ! ! ! ! ! ! ! ! U P g g P K t 5 : 5 i g P T U T T U T U U U T T T T T T T T T T T T T T K p i 5 * * & $ . X ; 6 K W Q Q R R ^ ^ ^ ` ` M.U.aXgXgXsXsXgXgXgXgXsXsXsXsXaXaXaXaXiXyXyXiXpX9X0.2XyXiXyXiXtXuX1X;.&XF.H.uX1X5.eXQ.9XyX2X%X=.F.Q.2XQ.} 5.uXQ.3.^.~.~.^.2X<.^.~.~.~.~.~.S.G.D.H.W.Q.3.<X-.Q.!.R.~.W.r 3.H.N.S.T.P.Y.T.T.T.T.Y.Y.Y.P.Z.v.B.k.k.Z.9 B.Z.B.B.Z.v.C.A.A.A.A.A.P.L.P.m.L.A.A.A.C.b.C.v.j.C.v.j.) ) j.x.x.x.b.B.^ a.x.x.x.n.x.v.k.l.x.x.x.x.x.z.x.x.x.x.h.j.h.p.g.l.h.g.h.h.h.h.g.h.h.",
"N V N V V V N N V N V x x c 9 & 7 C Z V Z Z Z S V Z S S B x 9 C 9 2 A A A x 3 C S S A S S S A S D D / L 8 L B , 9 D V V C A A x > A ~ D D G D G / / / / / u.u.u.u.i.i.u.p.p.p.u.) / D ) / D S ) f.g.g.g.p.p.p.j.l.l.l.h.g.x.x.x.x.x.x.x.x.n.n.n.n.n.n.n.v.~ u K M.i _ k.B.8 B.B.>.m *.q a V.p V.Z.>.a a a N.V.G.a S.Z.P.S.m V.T.T.T.S.G.E S.T.P.Y.P.T.T.Y.T.Y.T.T.T.T.T.R.T.b.9 W Q Q Q Q R U P g i 6 : & X . . . $ y i f i t 5 : : t p T U T P P T T T R T U U U T T T T T T T U U P P k k g k k k k k U P P T T T U R R R R ! ! ! ! ! ! ! ! ! Y Y ! ! ! ! ! ! ! _ 1.1.! ! E R U K t 5 5 y K U T T T T T U E E R R R E E R E Y T T T T T T T T K K K i 5 5 * & $ .   . ; i L R R ^ _ ! R _ ` ` M.S.iXsXgXgXsXaXgXsXsXsXsXaXsXaXaXiXtXyXtXiXaX2X0.2XtXiXiXyXtXyX1X;.&XH.F.uX1X5.uXQ.yXyX2X%X=.F.^.yXQ.*.5.eX<Xs.^.~.^.^.2X<.^.~.~.~.~.~.R.W.D.H.!.W.3.&X;.Q.W.R.!.W.r 3.G.S.S.Y.T.T.T.T.T.T.T.Y.P.A.j.B.B.B.B.Z.9 B.Z.v.B.P.C.Z.P.C.A.A.L.L.L.L.A.L.C.L.L.L.A.b.v.v.v.v.j.a.j.l.l.v.v.C.k.W ( g.x.x.n.g.x.f.l.x.x.x.x.x.z.x.x.x.x.x.x.x.h.h.h.h.g.h.g.h.h.h.h.g.",
"N N N N V V V V V V V x 9 c 9 < 7 A S S Z Z Z V V V V C C c 9 L 9 < A A A x 4 C S Z Z S S S S S S D / L 7 ~ B , c D V C C C A B 2 ~ D A D G D / / u./ / / i.u.i.i.i.i.u.p.p.p.p.i.u./ D D / G u.g.h.g.g.p.i.f.h.x.l.l.h.l.x.x.x.x.x.x.n.x.x.x.n.x.n.n.m.n.` u K M.i ` B.B.b B.B.I I *.q a V.n V.S.>.m a a N.Z.S.a S.Z.P.S.m V.T.Y.T.S.D.I S.Y.Y.Y.Y.Y.Y.R.Y.Y.T.T.Y.T.R.T.k.L L W Q ^ Q R L L f 6 : & X X X . . $ 5 p K L K g t 5 5 t p P U T P P P U U E E R T T U T T T T T T U U P k k k k h U U h h h U U U R R R R R E E ! ! ! Y Y Y Y Y Y Y Y ! ! ! ! ! ! ! ! _ ! ! ! ! Q R P p i y p K T T T U T E E ! ! ! ! E E E E E E E E R R R R R T T L K i t t 5 : & X . . O 5 f R R R _ _ R E _ _ ` 2.V.7XsXgXsXsXgXsXsXsXsXsXaXaXiXiXiXiXiXyXpX9XN.uXiXyXtXyXiXiX1X;.,XH.D.uX1X5.uXyXyXyX2X%X .F.2XtXQ.*.5.1X<XN.^.^.~.^.^.2.^.~.~.~.~.~.W.W.d.H.2XG.N.&X;.Q.!.~.~.Q.r 3.G.T.Y.Z.I.T.T.T.T.Y.P.P.Z.Z.k.B.j.k.k.B.7 k.B.k.C.Z.Z.P.P.L.b.b.L.L.L.L.L.L.L.C.C.A.A.b.b.j.v.v.j.k.j.v.n.b.x.v.k.W ` j.x.x.x.n.v.v.x.x.x.x.x.x.x.x.x.z.x.x.x.x.h.j.j.h.g.g.h.h.h.h.h.h.",
"V N N V V V V V V V N x 9 c < @ 7 C Z S S S S S Z Z V V B c 9 L c 9 A C A c 4 C S S S S S S S S S D / B 8 L B < 9 A C V C A A B > L A D D D / / ) u./ / u.u.i.i.i.p.p.i.i.i.p.p./ / u.) D ) i.f.g.h.g.g.p.p.f.j.l.l.x.x.x.x.x.x.x.x.x.x.x.x.x.x.x.n.n.n.n.k.K K M.b s.B.B.i Z.B.I I -.q r N.n V.S.^ m a a N.Z.S.u S.Z.P.S.m V.T.Y.T.I.G.-.S.Z.Y.A.A.Y.Y.T.Y.T.T.T.Y.T.Y.a.B f Q ` ! ^ R P f f 6 ; & . . . & * : y g K T T K K i t 5 t p P U P P P T U R E E E R R T T K K K K K K P P h U Y Y Y Y Y U U U U R Y Y Y R Y E Y R U U U h h h h U h h U Y Y Y E ! ! ! ! ! ! ! ! ! ! Q U K g p p p g p g P T U T E E ! ! ! ! E E ! ! ! E R R T R R R T T p i i i t 5 ; & $ X   O 5 f T R R R R R ^ _ _ ` 2.V.7XaXsXsXaXsXaXaXaXsXaXaXiXiXyXyXyXyXiX9XN.9XyXyXiXyXyXiX1X;.,XH.D.9X<X5.uXyXyXyX2X%X .d.2X7XQ.*.5.2X<XN.^.^.^.^.^.2.^.~.E.~.~.~.W.U.d.Q.W.S.D.H.;.Q.!.R.~.W.r 3.S.T.T.I.T.T.T.T.Y.A.C.P.B.v.k.Z.B.k.B.B.9 k.B.Z.P.v.A.A.P.Y.P.P.P.P.L.L.Y.L.C.m.A.A.L.b.C.j.b.C.j.f.v.b.m.m.n.v.a.` k.v.x.x.n.n.n.x.x.x.x.x.x.x.x.x.z.x.x.z.x.x.h.h.h.j.j.h.h.h.h.h.h.h.",
"V N V V N V V V V V N x 9 c 8 & 7 C V S V S S S S Z V A C c c C 9 7 A V A c 4 C F D S D D S D S S D / B < L c & 8 C V C A A A B 2 ~ D S D ~ / G / u.u.u.u.u.u.i.i.p.p.p.p.p.i.p.u.u.u.) ) i.g.g.f.h.g.g.p.p.j.g.x.x.x.x.x.x.x.x.x.x.x.x.x.x.z.n.n.n.n.x.n.k.T T M.i ` B.M.8 B.B.>.I -.q r N.n V.S.1.m a a N.Z.S.u V.Z.Z.S.m V.Y.Y.Y.S.N.I V.Y.A.Z.C.Y.P.T.T.T.T.T.Y.C.~ = ` ` _ ` Q U P f 6 5 ; & X . X $ ; y y g g K K g g i i i t t p P U P P P U T R E E E T T K g p i i p K K P P U Y Y ! ! ! ! Y Y Y U Y R R R U R R U k g g g g g g p p g g k k U U Y ! ! ! ! ! ! ! ! ! ! R U P K g p i i y i p g g K T T T T R E E E E E E E T T T T T R R K i i i g i i 6 < ; & . . O 5 f L R T R R ! _ _ _ _ 2.M.^.sXsXaXaXaXaXaXaXaXiXiXtX7X^.^.yXyX2XN.2XyXiXiXtXtXuX1X;.,XH.D.9X<X5.uXyXyXyX2XF. .d.2X^.!.*.5.2XQ.s.^.^.6X^.!.2.^.~.R.~.~.~.W.W.d.Q.S.S.N.H.;.Q.W.R.T.S.r 3.I.T.T.I.T.T.Y.T.P.P.Z.Z.k.v.v.v.Z.k.k.Z.9 k.Z.Z.A.Z.b.A.A.L.L.P.L.L.L.L.Y.L.b.A.L.L.L.m.b.b.n.b.b.j.v.v.n.n.n.v.a.^ ` l.x.n.x.n.x.x.x.x.x.x.x.x.x.g.g.z.z.z.g.H p.h.j.j.j.c.c.h.h.h.h.h.",
"V V V V N N V V V V V x c c 9 & 7 A V S S V V S S Z V V B c 9 C 9 7 A C D c 4 S S S S S D D D D S F D c < B c @ 8 C V V C C A N , ~ A C S D S G H u.u.u.u.u.i.i.i.i.i.i.i.i.p.i.p.u.) / / / j.g.g.f.u./ / i.u.p.x.x.z.x.h.h.x.x.x.x.x.n.x.x.n.n.n.n.n.m.x.k.T T s.i s.Z.B.8 B.Z.>.m -.q r V.K M.Z.1.m a a N.Z.S.u V.A.P.S.m S.T.Y.T.S.V.I V.Z.Z.C.P.Y.Y.T.Y.T.Y.b.~ ` ` W ` ` ` _ R P f 6 ; X X X X & ; : 6 y y f y y y t t 5 5 t 5 t p P U P P P U R E E E T T K p i t 5 t i p K P U Y Y ! ! >.>.! ! Y Y Y Y U U U P k g g g u u u u u u u u u y u g k k U Y Y ! ! ! ! ! Q ! R R T T T P g p i i i i i i i p p g K K P T T T T T T T T T T T T T p t t i K g f i 6 5 ; & X   O : i L T R E _ _ ! _ ` _ ` M.!.aXaXaXaXaXaXaXyXiXtXtX^.^.yXtXyX9XG.yXtX7XyXyXiXuX1X;.,XH.D.9X<X5.2XyXyXtX^.F. .d.^.^.Q.*.;.<X<Xs.^.6X^.^.^.2.W.~.~.R.T.R.T.W.s.Q.!.T.G.H.;.Q.~.R.R.S.r 3.I.T.Y.Y.T.T.Y.T.Z.Z.B.v.k.k.k.k.Z.j.k.a.7 B.Z.v.v.v.v.C.L.P.Y.P.L.L.L.L.L.L.n.C.A.A.L.C.A.b.u.x.C.C.C.m.n.n.v.k.k.` ` x.x.n.x.v.v.x.x.x.x.x.x.x.x.x.x.x.z.x.x.x.x.h.h.h.h.c.c.h.h.h.h.g.",
"N V V V V V V V V V V c c c 9 @ 7 A V S S Z V Z S S V C A c c L 9 7 ~ C ~ c 4 S F S D D S S D D D D D B < B c O 7 A C C C B A N > C D A D D / G G / u.u.u.u.i.i.i.i.u.u.i.i.g.p.p.u.u.i.u.p.g.g.g.g.p.p.u.p.j.g.j.z.x.h.f.h.x.x.x.x.x.n.n.x.x.l.x.n.n.n.x.k.R K s.b M.Z.B.i B.V.I a O.q r V.P M.S.2.m a a M.Z.S.u V.Z.P.S.I V.T.Y.Y.S.V.E V.P.A.A.T.Y.Y.Y.Y.P.k.L 8 W _ ` ` ` 1.! R f y ; X . . X & ; 6 6 y y y y : : : 5 5 5 5 5 5 t p g P P K P U R E E E R K p i t 5 t t i K P U Y Y ! ! >.>.>.>.! Y Y Y U P k k k g u u u u p u u u y y u y w w y p g k U R Q ! ! ! ! ! R R P T T R R T K g p p i i y t t t y i p g K K P K P T T T T T T T K i 5 t i g g f i 6 6 5 : & . . X : i K R R _ _ _ _ _ _ _ ` ` W.iXaXaXaXaXaXiXiXiXtX!.^.yXyXyXuXD.2XtXtXtXyXtXyX1X;.&XH.D.2X<X3.uXyXtXtX2XF.=.5.^.^.Q.*.3.2XQ.N.^.~.~.^.^.s.!.~.~.R.~.R.T.W.3.Q.!.W.S.H.-.Q.!.R.E.I.r s.T.T.T.T.Y.T.Y.P.Z.C.B.B.Z.B.v.A.b.v.j.k.7 B.Z.k.C.b.P.x.L.P.Y.L.L.L.L.L.L.L.A.L.L.L.L.A.A.x.n.C.m.n.b.b.m.n.v.v.M.` k.x.v.x.n.h.l.x.x.x.v.x.x.x.x.x.h.h.x.x.x.x.h.h.h.h.h.h.h.h.c.h.g.g.",
"N N N N V V V V V V V x c c 9 @ 7 A V S V Z S S S S V A A c x L c 7 A A D c 4 S D D S D D D D D S S D B 7 B c O 7 A C C C C C x + x A D S D / / / u.u.u.u.u.i.u.i.i.u.i.i.p.g.p.u.u.i.i.f.p.f.g.g.f.g.g.u.u.h.f.g.h.h.l.h.h.x.x.x.x.x.x.x.x.n.x.x.x.n.n.x.B.E K M.b M.B.M.i B.V.1.a O.q r V.P V.S.2.I a a N.Z.S.r V.Z.I.S.I V.I.T.Y.Z.V.E V.P.Y.Y.Y.T.Y.Y.Z.B.6.` ` ` _ ! ` 1._ T g 6 & .   . X & ; 6 6 y y y : : : ; & : : 5 5 5 5 5 t y y y i P R ! E E R T p t 5 t t i p K T U Y Y Y ! >.>.>.! ! Y Y U k k p u u u p u g g k k k k k g g p y w w w w y y u g P R Q ! Q Q Q R R R E E E E T T P K p i t t t 5 : t i p g K T U U T T T T T E R K t 5 t i i y y i i y y y : & $ X O & * i L R _ ! E _ _ _ _ 2.V.^.iXaXaXaXiXiXyXiXyXtXtXiXiXyX2X0.^.tXyXtXyXtXyX1X;.,XH.D.2X<X3.uXyXtXtX^.F.=.d.2X^.W.*.3.2XQ.N.~.~.~.^.^.s.^.~.~.~.~.R.~.W.3.Q.W.T.W.<X-.Q.!.T.R.T.a s.T.T.T.Y.T.P.Y.C.B.Z.C.Z.b.k.B.P.Z.Z.B.( > a.k.B.C.C.A.A.L.L.L.L.L.L.L.n.L.A.A.L.L.P.L.C.A.C.A.b.C.b.n.b.m.n.v.v.B.M.k.x.x.v.x.x.x.x.x.x.x.x.x.x.x.x.x.x.x.x.x.z.z.z.x.h.h.h.h.h.h.g.g.g.",
"V V N V V V V V V V V c c c 9 @ 7 A V S V S S S S S S V C c c L c 9 A S ~ c 4 S D D S S D D G D S D D B 9 C c O 7 C N x V V C x > B A V S / / / ) u.u.u.u.i.i.i.u./ u.i.i.i.u.p.p.u.p.i.u.p.f.h.f.f.f.p.p.u.h.f.h.h.h.j.l.l.x.x.x.x.x.x.x.n.x.n.n.x.n.x.x.k.E L M.b M.B.B.8 M.V.N.-.*.q r V.n M.Z.2.m a a M.Z.S.r S.Z.P.S.I S.I.Y.Y.Z.V.E V.T.Y.P.Y.T.Y.b.` 6.Q Q ` ! _ _ ! R T p 6 & X   . X & ; : 6 6 y y w : : - & & & & * 5 5 5 : : : : : t g P U U U U K p i i i p K T T R E ! ! ! >.>.>.>.! Y U k k g y y w t u p k k k k h k k k k k g g u y y y y y y y f g P R Q E Q E ! ! ! E E T R R U T P g p i t 5 : 5 t i K T T T U T R T T T T T K 5 5 t i i y y y y y y y 6 : - $ . $ $ $ 5 L E R R E E ! _ _ ` V.W.iXiXiXiXiXiXyXiXtXtXyXiXyX2XN.^.tXyXtX7XtXyX1X;.1XH.D.uX1X3.9XyXtXtX^.F.=.d.^.^.Q.*.3.2XQ.N.~.~.6X7X^.N.^.~.~.~.R.R.R.W.3.Q.W.I.W.Q.-.!.~.R.R.W.m 3.W.T.T.T.P.P.P.Z.Z.T.B.B.B.v.B.B.Z.B.v.B.7 k.k.v.b.C.A.L.L.L.L.L.L.L.L.L.A.m.A.L.L.L.L.m.C.C.m.b.m.n.b.m.C.n.v.v.M.k.k.v.x.x.v.x.x.x.x.v.x.x.x.x.x.x.x.x.x.x.x.c.x.x.x.h.h.z.h.h.h.g.g.g.",
"N V V V V V V V V V V c c c 9 @ 7 C V V S S S S S S Z V B c x L c 7 C V D c 4 D D D D D D D D D Z S D D A C c @ 8 A C V C C A B > C A D G G / / / u.u.u.i.u.u.u.i.i.u.i.i.i.u.i.i.f.p.u.u.p.u.f.f.f.p.p.p.p.h.h.g.h.h.h.h.h.j.h.h.x.x.x.x.x.x.n.x.n.n.x.v.k.E T M.b M.B.M.5 M.M.N.a O.q r V.n M.Z.2.m m a M.Z.S.t S.Z.I.S.I S.Y.T.T.Z.V.E V.Y.A.A.P.Y.C.( f _ Q Q Q ! ! R T K i 5 & X     . & ; ; 5 6 y y 6 : - : : : : : : 5 5 5 5 : : * % $ * y g P P P P K p p b K T T T R E ! ! ! ! ! ! ! ! ! U g y y y w w u p p k k k U Y Y Y Y Y h k k k g g g g u y y y y y g g k P R ! ! ! ! E E R E E E E T T K K i y t t y i P T T U T P L T T T T T K t t p K p y 6 6 6 y y y y y : ; $ $ O . $ i L R R _ E ^ _ ` ` ` M.^.iXiXyXiXiXyXtX7XtXtXiXyX2XN.9XtXyXyXtXtX9X1X;.1XH.G.9X1X3.uXyXtXtX^.H.=.d.^.^.Q.*.3.2XQ.s.!.~.~.~.^.V.~.~.~.~.R.R.S.G.<.Q.W.T.S.Q.I Q.~.R.~.W.m <.W.T.T.T.P.P.C.P.P.P.Z.Z.B.Z.Z.T.Z.k.B.B.7 k.k.B.C.C.b.A.L.L.L.L.L.L.L.L.L.A.C.L.L.L.m.m.A.m.m.m.x.x.n.b.n.x.v.v.M.M.v.v.x.n.b.l.j.x.l.x.x.x.x.x.x.x.x.x.x.x.h.h.z.z.z.h.x.z.z.h.g.g.g.g.",
"N V V V V V V V V V N 9 9 c 9 @ 7 C V S S S V V S V V V C c c L c 8 A S ~ c 3 D D D D D D D D D S D S S C C 9 @ 8 C C C C N A B > x x D G G G / u.u.u.u.u./ u.i.i.i.i.i.p.g.i.g.f.p.p.u./ / u.f.g.g.p.p.p.g.h.h.g.f.g.h.g.h.h.l.x.n.x.x.x.x.x.x.x.n.n.n.x.B.^ T M.b M.B.B.t M.M.s.a *.q r V.P B.S.2.m -.a M.Z.S.t S.Z.P.S.m V.Y.Y.Y.S.S.E V.P.P.Z.b.v.( 2 6 ! Q ! ! ! Q U g t * & $ . . . & ; : 5 6 y y y y w : : : 5 y y t t i i t t : * % $ % : y g g P P K K K T T T T T R E E E ! ! ! Y Y Y U g y w y y u p k k k P U U Y Y Y Y Y Y U U k k k k k k g g g y y y y y y g P R ! ! _ ! E E E ! E E T U T P K g p p p p K T T P g g p p p p p p K i g T T g y 5 : : y y y f g y 5 : & # . O & t K R E R ^ _ 1.1.2.2.M.^.yXyXyXiXyXtXtXtX7XtXyX<XN.yXtXyXtXtXtXyX2X;.1XH.D.9X<X3.uXyX7XtX^.&X=.d.2X^.Q.*.3.<X<Xs.!.~.~.~.^.V.!.~.~.R.R.Y.W.W.2.Q.W.T.!.Q.I W.~.R.R.W.a <.W.T.T.Z.Z.Z.A.Z.T.B.Z.C.b.b.B.Z.B.v.k.B.3 C k.Z.v.C.v.C.L.L.L.L.C.L.L.L.L.L.A.L.L.A.L.L.A.m.b.n.x.j.x.v.n.x.x.B.M.M.k.x.x.v.b.l.f.j.l.x.x.x.x.x.x.z.x.x.x.x.z.x.x.x.x.h.h.h.h.g.u.i.g.g.",
"N N N N N V V V V V c 9 9 c 9 @ 7 A C V V S S S S V V V C c c ~ c 7 A S D c 3 D G D G D D G D D S A S S C C x @ < C V V C V C B 2 C V S D D G ) u.u.u.u.) / u.i.i.u.i.p.p.i.i.g.g.p.p.u./ / u.g.g.g.p.p.f.h.j.u.i.h.g.g.u.u.f.h.l.x.x.n.x.x.x.x.x.x.x.n.n.B.^ R M.b M.B.M.i M.s.3.a *.q r V.K B.Z.2.m -.a M.Z.S.t V.Z.P.S.P S.Y.Y.Y.I.S.1.S.T.Y.A.k.~ < o i ! Q Q Q ! R f t : & & & & & & : 6 6 6 y y y t t y y y y y g g g K K L K i t : * % * : y g g P T T T T T R T R R E E E E Y Y Y U P k k y w w t u p k U Y Y I Y Y Y Y Y Y Y Y U U k k k U Y Y U P g g g y y w : y f g P U ! _ _ ! ! E R T U T T P K K K K K K g K K g p y i i i t t t i p T E T g y : : : y y y g g g i i 5 & $ # # $ t K R R R ^ 1.^ ^ ` b k.^.yXtXtXiXiXtXtXtXyXyX2XN.7XtXtXtXtXtXyX<X;.1XH.G.9X<X3.uX^.~.7X^.F.=.5.2X^.Q.*.3.<XQ.s.^.~.~.~.^.V.!.~.~.R.~.T.W.G.<.Q.T.T.~.!.I !.~.R.R.!.a <.W.T.T.Y.Z.Z.Z.B.T.Z.Z.C.v.k.Z.C.B.v.k.B.7 ( B.Z.C.v.b.C.L.L.L.L.m.L.L.L.L.m.A.A.A.A.C.A.A.m.n.b.l.l.v.v.n.v.v.k.M.M.k.j.h.x.x.x.f.j.x.x.h.x.x.x.x.x.x.x.x.x.x.x.x.h.h.x.z.h.g.g.g.g.g.g.",
"V N N V V V V V N N c 9 c L 9 @ 7 A C V V V S S S S S C B c c A 9 7 A S D c 3 D G G D D D D D S S S S D A C 9 O 8 C V N x C C 9 > A C C D ~ / / u.u.u.u.u.u.u.u.i.i.u.i.i.i.i.f.p.i.f.u.) u.i.p.g.p.u.f.f.f.h.h.h.h.h.h.f.h.h.f.g.z.x.x.x.x.x.x.x.x.x.n.x.v.^ R M.b M.v.B.i M.` s.a *.r u N.p M.Z.2.a -.a M.Z.S.t V.Z.Z.S.I S.Y.Y.Y.Z.S._ S.Y.Z.k.L i 5 : g ! ! Q Q ! T y 5 & $ & & : : : 5 t t t i i i t t y y y p g K T T T R R T g y t : : : : y g g P P U U T T T T E E E E E E U U P g g p y t : w y p g k Y Y P P Y Y U U U U Y U U U U U U Y Y Y U U P P g g u y : w y y p k E _ 1._ E E T U T P P P P P P P P K g g p p y t t t t 5 5 5 t p E ! Y K y : $ : w y u g g g g g i 5 & $ O O & i K L R E >.E E _ i i M.~.tXtXiXiXaXyXtXtXyX2XN.yXtXtXtXtXtXyX<X;.<XH.D.yX<X3.9XtX7X7X^.F. .5.!.^.N.} 3.2XQ.3.!.~.~.~.^.V.!.~.~.~.~.R.T.S.<.Q.W.R.~.!.I W.~.~.R.W.a <.I.R.P.Z.P.Z.P.C.Z.Z.Z.B.B.k.B.v.k.v.k.B.9 a.B.b.B.k.v.b.L.L.L.L.A.A.C.A.A.A.m.m.A.A.A.C.A.m.b.b.x.v.x.n.n.x.j.v.k.M.k.v.x.x.l.x.l.x.x.l.x.x.x.x.x.x.x.x.x.x.z.z.z.x.c.h.h.h.h.g.g.g.g.g.",
"N V V V V V V V V V B c c L 9 @ < c B C V S S S S Z Z V B c c C 9 7 A S ~ c 3 D G G D D D G D S S S A S A C 9 @ 8 C V N N C A B 2 A D D S A D / u.u.u.u./ H / u.i.u.u.i.i.i.f.f.g.p.i.u.u./ g.g.g.f.f.f.p.f.h.g.g.g.j.h.u.f.h.h.h.x.x.x.n.x.x.x.n.x.x.n.x.v.^ R M.i M.k.M.i M._ 3.a a r r V.t M.Z.2.a -.a M.Z.S.t V.Z.P.S.I V.Y.Y.Y.Z.S.E Z.k.6.M.0.2.:.:.>.! ! ! R g t : $ X $ $ & * : 5 t t t t i p p p i i p p g g K T T T T T T K g p y t t y p g P P P P P P P P T R R R R E R T K i t 5 : : 5 t i g K P P U Y Y Y Y Y Y Y Y U U U U U U U U U U U U U Y U P k g p t : : t y p P Y ! ! E E Y U P P P P P P P P P P k g p y t t t y t t : * t g E ! E P y w * * w y g k P U U P g i 5 & $ . O & t p L Y >.>.>.1.1.1.2.V.!.tXiXtXyXyXtXtXyX2XG.yXtXtXtX7XtXyX2X;.1XQ.V.2X<X3.uXtXtXtX^.F. .3.!.^.Q.*.3.^.Q.3.!.~.~.~.^.V.!.~.R.R.T.R.T.G.<.U.R.T.R.!.T W.R.R.R.!.r <.I.T.Z.P.T.P.Z.A.Z.Z.Z.B.v.v.B.B.k.k.( B.9 j.v.C.v.k.l.b.L.L.L.L.b.C.A.m.C.m.m.m.m.A.C.C.m.m.C.x.v.v.v.n.n.x.l.v.M.M.B.x.x.x.x.h.f.l.l.x.x.x.x.x.x.x.z.x.x.x.z.z.z.z.h.h.g.h.h.g.g.g.g.g.",
"V V V V V V V V V V V x c L 8 # # O , c C S S S Z V Z V B c c C 9 7 A S ~ c 3 D D D D G G D D S D A C A A C 7 @ 9 A V N N C C x 2 C D D D D / / / u.u.u.u.u.) / u.i.i.i.i.i.p.i.i.g.f.g.p.p.p.g.g.p.i.p.p.u.h.g.j.h.g.h.f.h.j.h.u.x.x.x.x.x.x.x.x.x.x.x.n.B.^ T M.i M.B.B.b M.^ >.a a a a V.t B.Z.2.u m a M.B.S.0 V.Z.Z.S.P S.Y.Y.Y.Y.S.E M.~ L 2.:.:.:.>.1.>.! R g t : $ # O $ & & * : 5 t y i i i i p p p p g g g K T T T T U U T P g g p y y p g P P P P P P P P P U R R U U U T K p i 5 * & 5 5 i g K T P P U U R R Y Y Y Y R R U U U U U U R R U R R R Y U U P P g y t w w t u p k U Y Y Y U P P P P P U U U U U P k k g p u y y u y t t w u P ! ! E U P g p u u p k P U U U U K p i 5 & . . # * t g U 1.1.1.2.1.1.1.2.V.T.7XtXtX^.~.tXtXuXD.^.tXtXtX~.7XyX<X;.1XQ.V.9X<X3.uXtXrX~.^.&X .5.^.^.W.*.3.^.Q.3.!.~.~.~.^.V.!.~.~.R.T.T.T.G.<.Q.S.T.R.!.T W.R.R.R.W.r <.T.T.T.P.T.Z.Z.A.B.k.C.C.Z.B.B.j.B.k.a.B.7 k.v.b.x.v.C.C.L.L.L.A.C.n.b.C.L.A.A.m.C.C.m.m.m.A.m.n.b.b.v.n.n.x.x.l.M.s.k.l.x.x.x.l.x.x.x.h.x.x.x.x.x.x.x.z.x.x.x.z.x.h.h.h.h.h.g.g.g.g.g.g.",
"N V V V V V V V V V V x b L 8 # # # @ 9 C S S S V V V V C c c C 9 7 A S D c 4 D G G D D D D D S S D A C C C 9 @ 7 A V N N N C x 2 A C D S D / / / u.u.u.u.u.u.u.u.i.i.i.i.i.u.) i.i.i.i.g.f.i.f.g.g.p.g.p.p.f.f.f.g.h.h.z.z.l.j.h.x.x.x.n.x.x.x.x.x.x.n.x.B.^ T s.t M.B.M.i M.T I a a a a V.8 Z.Z.2.a -.a M.B.S.* V.Z.Z.S.m S.I.Y.Y.Y.S.E W 7 y ! ! >.:.>.1.>.! P y : $ O O # $ & : : 5 5 t i i y t i g P T P T T T T T T T U U U U P P P g g g g P U U T P P P P T P U R U T P P K i i 5 5 & 5 i i K K L T T U U R R E Y Y E Y R R R R E E E R Y Y Y Y R R E Y U U P P p u t w w w t y p k P P P P k P P U U U U U U U P P k g g p u u u y y y p P U E Y U U U U P k g P U Y Y Y U T P g i * % # . # & y P >.1.2.2.2.1.2.2.2.` !.^.tXtXtXtXtXyXG.^.7XtXtX7X7X7X<X+.1XQ.G.9X2X3.uXtX6X7X!.&X .3.!.^.W.*.3.^.Q.3.!.~.~.~.!.V.!.~.R.R.Y.T.R.G.<.Q.T.T.~.W.T W.R.R.R.W.0 <.I.Y.Z.Z.k.Z.C.B.v.k.B.Z.B.v.B.k.k.k.( B.7 ( k.v.b.b.C.C.L.L.L.L.A.L.A.v.m.L.A.m.C.m.m.n.m.m.x.n.b.n.n.n.x.x.x.v.M.a.k.v.x.x.x.x.x.x.x.g.x.x.x.x.x.x.z.x.z.z.h.z.x.h.h.h.h.h.h.g.g.g.g.g.",
"V V V V V V N N V V V x c L 8 # # # < c C S S S Z S S S B c c A c 7 A S D c 4 D D G G G D S D D S A V A S C 9 < 7 C V V N N B x + 2 3 B S D D / u.u.u.u.u.u.) u.u.i.i.i.i.i.u.u.p.g.p.i.g.g.u.i.p.g.f.f.f.p.p.f.g.h.h.z.z.z.x.z.l.x.x.x.l.g.h.x.n.n.n.n.x.v.^ T M.8 M.B.M.i M.T I -.a r u V.( Z.B.2.a I a M.C.S.* V.Z.Z.S.P S.Y.A.P.B.V.L ; O 6 Q ! >.:.:.>.! g y : $ . . # $ & 5 5 : 5 t y i y t i p K T U T U R R E R U U U U U T P P P P P P P T U R U U T P P P T T P P g g p i t 5 5 5 5 i K K L L T T U U R E E E E E E E E E E E E E R R E E E E R E E E Y Y Y U P g u t : : : w t u p k g g g P P U U U U U U U U U P P k k p p u u p p p g P P P U U Y E E U P U Y E E E E U T P p t * & # . # : y Y >.2.2.2.2.2.2.0.M.S.^.tXtXtXtXtXyX!.~.7X7XtXrXtX7X<X+.1XQ.V.9X2X3.uXtXrXrX!.&X .d.^.^.W.*.3.^.Q.3.!.~.~.~.!.G.!.~.R.R.T.T.T.G.1.U.T.R.R.W.T W.R.R.R.W.0 2.S.Z.P.Y.P.b.Z.A.C.b.Z.Z.B.v.B.v.k.k.k.k.7 k.v.v.B.C.C.C.L.L.L.C.A.A.m.C.A.A.m.m.m.A.n.n.m.b.n.n.n.n.v.v.x.n.v.v.B.a.k.x.x.x.x.x.x.x.x.x.x.x.x.x.h.h.x.x.z.z.h.z.h.h.h.h.h.h.h.g.g.g.g.g.",
"V V V V V N N V V V V x c L 8 % # & 9 C S S S S S Z S C c 9 c ~ c 8 A S F c 4 D D D G G G D S D D A C S A C 9 < 8 C V V V C V x o , > 9 A D G / / ) / / / u.u.u.i.i.i.i.u.u.H ) i.p.p.i.i.i.i.i.g.g.g.g.p.p.f.g.f.h.h.h.z.z.z.x.x.x.x.x.l.z.h.x.n.x.n.n.n.v.^ T M.6 M.B.B.i M.^ >.-.a a a Z.Z.C.B.s.a -.u M.C.S.* S.Z.A.S.m V.Y.Y.Y.B.2.8 @ L L Q ! >.>.>.! P y : % $ . # $ & 5 5 5 5 5 t y i i p p g K K K K P P T U T T T T T T P P P P P T U U U R R R U P P P P T P K g p y t t 5 5 i i i g L L R R T T U R E E ! ! ! ! ! ! ! ! ! ! E E E E E E ! E E E E ! E E E E U P p y t w : * : w y u p p p k P U Y Y Y Y Y Y Y Y U U U P P g p u p p p g g P U E E E ! E Y U Y E ! ! ! ! T T P g i t : & # . % * p I >.2.2.2.2.0.2.0.M.W.^.tXtXtXtXtX!.7X7X7X^.tX7X^.<X+.1XG.V.9X2X3.yXtX6X6X^.&X| d.^.^.Q.*.3.^.Q.3.!.~.~.~.^.G.!.~.E.R.R.T.I.S.2.W.R.R.~.W.T W.R.R.R.W.0 <.M.Y.Y.T.P.A.C.Z.Z.b.Z.C.v.v.B.v.k.k.k.k.9 k.v.v.B.C.C.C.A.A.C.C.C.A.m.C.L.L.m.m.m.C.x.x.b.b.b.m.b.v.x.x.x.x.x.v.M.a.k.x.x.x.x.x.x.x.x.x.x.x.x.x.h.z.x.x.x.x.h.h.h.h.h.h.h.h.g.g.g.g.g.g.",
"V V V V V N V V V V V x c L 9 # 8 L C C S S S S Z V V C c 9 c A 9 8 A S D c 4 D D G G G D D S D S S D D D A c < 8 C C V V A C 9 @ 7 , 2 C D D / / / / / / / u.u.u.u.u.i.i.u.) u.p.i.i.i.i.g.p.g.g.g.g.p.f.u.f.g.g.g.h.h.x.x.x.x.x.x.x.x.x.x.l.x.n.n.n.n.n.B.` T s.i M.B.B.i M.` ^ -.a a a Z.C.m.C.M.a -.a M.C.S.* S.Z.P.S.I V.P.Y.Y.M.L O o L U Q Q ! ! ! U f : $ . # $ $ & * 5 5 5 5 t t y i p K K K g p p g g K K P T T T P P P P P P P T U U R R E E U U P P P P P P g p y y y t 5 t i g K L T T R T R R R E E ! ! ! ! ! ! ! ! ! ! ! ! ! ! ! ! ! ! ! ! ! ! ! E E E E Y U k p y t w : : w t u u u p k U U Y E E E E E E E Y U U U P P p p u u g g g P E ! ! >.! E E Y E E ! >.>.! T T P K p i t : & # # # w p Y 1.2.2.2.2.2.2.0.V.T.rXtXtXtXtX^.^.7X7X~.tXtX^.<X;.1XG.V.9X2X3.2XtX7X6X^.H.| d.^.^.Q.*.3.^.Q.3.!.~.~.~.!.D.!.R.E.R.R.T.T.S.M.W.T.T.~.W.U W.R.R.R.W.r <.S.Z.A.P.P.Z.P.P.P.Z.Z.Z.v.k.B.k.k.v.j.B.9 k.v.B.B.C.b.C.A.A.C.m.b.C.C.A.A.A.C.m.m.m.n.n.b.b.n.n.n.v.v.n.x.x.n.v.M.s.k.x.x.x.x.x.x.x.x.x.x.x.x.x.x.x.x.x.z.x.x.h.z.z.h.h.h.h.g.g.g.h.g.g.",
"V V V V V V V V V V V x c L 9 @ 8 A A C A A S S S V A V 9 9 B A 9 7 A S D c 4 D D G G G D D D S S S D D D D c , 8 C C V V C C x o , + 2 C D / / / u./ / / / u.u.u.u.u.i.i.u.u.u.i.g.f.i.i.i.f.g.g.g.g.g.f.u.f.g.g.f.g.h.x.x.x.x.x.x.x.x.x.x.x.x.x.z.n.x.v.B._ T M.b M.B.B.b M.^ E I a a m Z.m.m.C.s.m -.a M.Z.S.* V.Z.A.S.I V.Y.A.B.M.6       6 Q Q Q U k y : $ . . . $ $ & 5 5 5 5 t t t i i g K K K g g g g g P T T U U T P P T T E R R U R U R R R R Y R U P k g g p y t y g g y 5 t i K L T R R R R R U E E E ! ! ! E E E E ! E ! ! ! ! ! ! ! ! ! ! ! ! ! ! ! ! ! E E Y U P P p w t y y u u u y y p k P Y E ! ! E E E E E Y Y Y Y U P g p u p g g P U ! ! ! ! ! ! ! ! ! ! >.>.! E R U P g p i t : % # # % w p U >.2.2.2.2.2.0.2.` !.rXtXtXtXtXrXrXtX7X7XtX^.Q.+.1XG.V.9X2X3.2X7X6X6X^.H.| D.^.^.W.*.3.^.Q.2.!.~.R.~.^.V.!.R.R.R.~.R.Z.I.M.T.T.Y.R.W.T !.W.T.R.T.r <.I.T.A.Z.P.A.P.P.P.A.Z.Z.B.B.B.k.k.k.j.v.9 j.v.v.b.C.b.A.L.L.A.C.C.b.m.C.C.m.m.m.m.n.n.m.m.m.b.n.v.v.x.n.n.x.n.B.M.M.v.x.v.x.x.x.x.x.x.x.x.x.x.x.x.x.x.x.g.h.h.h.h.h.h.h.h.h.h.h.h.h.g.g.",
"N V V V V V V V V V V 9 c L 9 @ 7 A S V S S S S Z V V V x 9 B A c 8 B A D c 4 D G G G D D D D S S D D D D D c , 8 L C C V C C 9 o o o 2 V D G / / u./ / ) ) / u.u.u.u.u.i.u.u.i.p.f.f.i.f.p.g.g.g.g.g.g.f.p.p.g.f.h.j.z.x.l.x.x.x.x.x.x.x.x.x.x.x.x.x.x.v.B._ R M.b M.v.B.b N.T ` E a a m B.A.m.C.s.m -.a M.C.S.* V.Z.Z.S.P V.A.b.` ` L L L L Q Q Q U g y : $ $ . . $ $ & 5 5 i i i y i p p g K P P P P K P P P P P T T P P P T T E ! E E E E R Y Y Y R R E R T g y t 5 5 t i g g i t i g K T R R R R R R T R E E ! ! ! E E E E E E E E ! ! ! ! ! ! ! ! ! ! ! ! ! ! ! ! E E Y U P P u y t t u p u y t u u p P U E ! >.>.! ! E E Y Y ! E Y P P g p g g P U E E E E E ! ! ! ! ! ! ! 1._ E R U T K p i 5 * & % % * w u Y >.2.2.0.0.2.2.6.M.~.tXtXtXtX7XrX6X^.6X7X^.<X*.1XG.V.9XQ.3.2X7XrX~.^.F.} D.^.^.W.*.3.^.Q.<.^.~.~.~.!.V.!.R.E.R.~.T.I.S.T.T.R.Y.R.W.T W.R.T.R.T.r <.I.T.Y.Y.A.P.P.P.P.A.Z.C.B.k.B.l.k.l.f.B.9 j.B.C.B.C.C.A.L.L.m.C.b.b.b.b.A.C.m.m.m.m.m.m.b.m.n.n.n.v.n.n.x.n.n.v.B.M.v.x.x.x.x.x.x.x.x.x.z.z.x.x.x.x.z.z.x.h.h.h.h.h.h.h.h.h.h.h.h.h.g.g.",
"N V N V V V V V V V V x c L 9 O 7 A S S Z S S S S V V x 3 7 c B 9 8 B S S x 3 D D G D D D D D D S D D D D A c & 8 L C C V A C x o o + 2 C D / ) / / / / / u.) / ) u.u.u.u.u.u.i.p.p.i.f.p.i.f.g.g.g.g.p.f.p.g.f.g.h.j.l.z.l.l.x.l.l.x.x.x.x.x.x.x.x.l.x.x.k._ R M.b M.v.B.b M.b 2.1.a a m B.A.m.C.2.I I r M.C.S.* V.Z.A.S.P V.A.~ L Q ^ ! ! ! _ Q U f y : $ $ . . $ $ ; 5 5 i g K p p g K P T U U U U T T T T T P K K g g P T R E ! ! ! ! ! E E E Y R R R U T K p y t t t i g p i i i i K L R R R R R R R U T R E E ! ! E E E E E E E E ! ! ! ! ! ! ! ! ! ! ! ! ! ! ! ! ! ! E E E Y P p t t u p p u y y t y p k U E ! 1.1.! ! E E E ! ! E Y U P g g g P P U Y Y E E ! ! ! ! ! ! ! 1._ ! E E T U K p i 5 * & % $ $ - u U >.1.2.2.2.2.0.( Z.E.^.tXrXrXrXrX6X^.7X^.Q.*.1XU.V.^.<X3.2X^.6X~.!.F.*.D.^.^.W.a 3.^.Q.1.^.~.~.~.W.N.!.R.R.R.Y.v.k.k.T.R.T.Y.R.W.T W.T.T.T.T.r <.S.T.Y.P.C.P.P.P.L.C.Z.B.v.B.b.j.v.k.k.B.9 j.B.b.C.C.v.A.A.A.m.m.C.b.b.n.b.b.b.n.n.m.b.m.b.b.b.n.n.x.n.n.x.n.n.B.B.M.k.x.x.x.x.x.x.x.x.x.z.x.x.z.x.x.z.x.x.h.h.h.h.h.h.h.h.h.h.g.g.g.i.g.",
"V V V V V V V V V V V l x A 9 O 7 C Z V V S S S S Z C B 9 9 c N 9 < B V D x 4 D D D D G D D D S S D S S S C 9 @ < C V V C A C x   o + 9 A D / / / / / u.u.) / / ) u.i.i.u.u.i.u.f.i.i.i.i.i.i.h.g.g.g.g.f.p.f.f.h.h.j.h.x.x.x.x.x.x.x.x.x.x.x.x.x.x.x.x.x.v.^ R M.i M.v.B.K N.K s.2.m r a B.m.m.B.2.m I r M.Z.S.* V.Z.A.V.m V.B.7 6 R R ! ! ! ! Q g y : & $ X # $ % & : 5 i i K K K K K T U T E E E R T T T P K g p i i p K T E ! ! ! E E E E E E R U U P K g p p p y p g g p t 5 t K K L T R R R R R R R T T R R E E ! E E E E E E E E ! ! ! ! ! ! ! ! ! ! ! ! ! ! ! ! ! ! ! ! ! ! Y g y t y p p g g p p u y p p P U E ! E E E E E ! ! E E U U k k g k P P P U Y E E ! ! ! ! ! ! 1.1._ _ ! E E U P g i t : % % # # * y U E 1.2.2.2.0.0.M.Z.~.rX7X^.7X~.~.~.7X^.H.*.<XQ.V.7X<X3.^.~.~.~.!.d.} d.^.^.W.*.3.2XQ.<.^.R.E.E.W.M.!.R.R.R.T.Y.B.B.Z.T.Z.P.R.W.T W.T.T.T.T.r <.S.T.Y.P.P.A.P.A.C.C.b.v.v.B.Z.v.v.k.j.Z.9 k.v.v.b.v.v.A.A.A.A.A.C.m.m.b.b.m.m.m.n.b.n.b.b.b.v.x.v.x.n.n.x.n.v.v.B.a.k.x.x.x.x.x.x.x.x.x.x.x.x.x.x.z.x.x.j.h.h.h.h.h.h.h.h.h.g.g.h.h.g.g.",
"V V V V V V V V V V V 9 x ~ c O 7 S Z N N V S S Z Z C V x c C A c < c A D x 4 D D D D D D D D S A A V V A C c < 7 C C A A C C x     > N D G G H / / / / u.) / / ) u.u.i.p.u.i.i.f.g.g.i.i.i.f.f.g.g.g.g.g.g.h.h.h.j.j.h.h.h.x.z.x.h.x.x.x.x.x.x.x.x.x.x.x.v.^ T s.8 M.v.B.K N.T M.2.m r a B.C.m.B.2.m I r M.Z.S.* Z.C.Z.S.I V.k.W ^ Q R ! ! ! Y P f : $ $ $ $ $ $ $ : : 5 t i K K K K T U T E E E E R T T T g p y t 5 t p K U E E E E E E R R U R U P P K g g g g g g g g g y t t i L L L T R T R R R R R T U U R R E E E E ! ! E E E E ! ! ! ! ! ! ! ! ! ! ! ! ! ! ! ! E ! ! ! ! ! E U g u t t u k P P P g u y y p g P U U E E ! ! >.! ! E E E P P k k k g k P U Y E ! ! ! ! ! ! 1.1.1.1._ _ ! E T T g i t - * % $ % * t g E 1.2.2.` 6.0.B.T.~.tX^.rXrX~.rX~.^.H.*.<XQ.V.7XQ.3.2X^.~.~.!.D.*.d.!.~.G.*.3.^.Q.<.^.R.R.T.S.M.R.R.R.T.T.v.Z.I.T.T.T.T.T.W.U S.T.T.T.T.a -.S.T.A.A.Z.A.C.P.B.B.v.v.k.j.v.b.C.v.k.B.9 k.v.b.C.C.b.C.A.C.m.C.C.b.b.x.b.m.m.m.b.n.m.m.b.b.x.x.n.n.n.n.n.n.v.b.B.M.k.v.x.x.x.x.x.z.x.x.x.x.x.x.x.x.x.j.x.x.h.h.h.h.h.h.h.h.h.h.g.h.h.g.",
"V V N V N V V V V N V x x L c O 7 C V V V V S S S S Z V x V C A c 8 B A D c 9 D D D G D D D D D D S A C C C 9 , 7 ~ A V C A V 4   @ x D D D G / / / u./ u.u./ u.u.u.u.i.u.i.i.p.f.i.i.i.f.f.p.g.f.f.g.g.g.g.j.j.j.l.j.z.x.z.l.z.h.h.z.x.x.x.x.x.x.l.l.x.x.l.( T s.6 M.v.B.K 1.T M.s.I r p B.m.A.Z.2.m m r M.C.S.* B.Z.Z.V.P s.6 R ! ! ! ! E E R g y : & & & & & ; : : : 5 t i g K K P P U T E E E E E T U T g i t 5 : t g P T E E E E E R R T R T P g g p g g g g g g g p p y t p L T T T T T T R R R R R T U U R R E E E E ! ! E E E E ! ! ! ! ! ! ! ! ! ! ! ! ! ! ! E E E ! ! ! ! E T U g y t u p P U P P g p y y i p P T T E ! 1.1.1.>.! ! E U P k k g g g K P U E E E E ! _ _ 1._ 1.1.1.1._ E E T P g y : : * % # % $ t P ! 1.2.0.0.0.0.` Z.~.~.^.~.~.~.~.!.H.*.<XQ.N.^.Q.3.2X^.~.~.!.3.*.D.!.~.G.*.3.2XQ.<.!.R.E.~.W.M.W.E.R.T.T.A.A.Y.T.T.T.A.T.V.I W.T.T.T.W.a -.T.Y.Y.A.C.A.Z.A.v.C.Z.B.k.v.v.b.b.v.j.k.9 k.C.v.C.v.b.C.A.C.A.C.C.m.b.n.m.m.b.v.n.n.n.m.n.n.n.x.n.x.n.n.n.n.v.v.B.a.k.x.x.x.x.x.x.x.x.x.z.z.x.x.x.x.x.x.h.h.h.h.h.h.h.h.g.h.h.g.g.g.g.g.",
"M V N N N V V V V V V 4 x ~ c @ 7 A V V V V V V Z Z V V x V C C c 8 B S D x 4 D D D D D D D D S A A V C C C 9 , 9 A A V V C C 9 o + B ~ / / / / / / / / ) / u.u.u.u.u.i.i.i.i.i.f.i.i.u.i.u.i.f.g.f.g.g.f.u.u.u.h.h.x.x.h.x.z.x.x.z.l.x.x.x.x.x.x.x.h.x.x.l.` T s.8 B.v.B.L 2.` M.k.R r a B.C.m.B.2.m a a B.C.S.* Z.Z.Z.V.m ^ & T R E ! R R K y : & & & ; X & ; : 6 t y i i g g g K P P P U E E E E Y U U P g y 5 t p K T T R E ! ! ! ! E E R U P g i i p p g K K K K g p i i p T T T T T T T T R R R R T U U U R R E E E E E ! E E E E ! ! >.>.! ! ! ! ! ! ! ! ! ! ! ! ! ! ! ! ! E T T T T K p t i p K K T U P p i i i p K T T E E ! >.>.! E E E E U P g g g p i b T T T R E _ _ 1.1.1.1.1.1.>.E E E U P P y 5 * $ $ $ # & 5 g R _ 1.0.1.1.6.B.Z.~.^.~.~.~.~.^.H.;.<XQ.V.7X<X3.2X^.~.~.!.3.*.D.!.~.G.a 3.^.Q.-.^.E.E.~.U.N.R.R.R.T.T.R.P.Y.T.T.T.A.T.G.U W.T.T.Y.T.a -.T.T.Y.C.C.Z.C.B.v.k.k.k.k.v.C.C.v.k.k.B.9 k.b.b.b.C.b.C.A.A.A.A.m.C.m.m.m.m.b.b.b.b.b.m.m.b.m.x.n.x.n.n.x.x.n.v.B.( p.l.x.x.x.x.x.x.x.x.x.z.z.x.z.x.x.h.z.g.h.x.h.h.h.h.g.g.h.g.g.h.h.h.",
"M N V N N N V V V V V 9 x A c @ 7 C Z V C Z Z Z S V N V C V V B x 7 B S S x 4 S D D G D D D G D C V A C V N 9 < 7 A A S V C A B o 2 C A G / G / u./ u.u./ / ) u.u.u.u.i.i.i.i.i.i.i.i.u.u.u.i.f.f.f.g.g.f.f.p.h.h.z.x.h.h.z.x.x.x.x.x.x.l.l.x.x.x.l.l.x.x.v.^ T s.i B.b.B.L P ` B.a.R a m B.A.A.B.2.m m u M.C.S.* V.Z.Z.V.u 8 O R E E E T K i 5 & $ X & ; ; ; ; 6 6 y y f f i i i y p g P U Y Y E Y U U P K p i i p L T T T E E ! E E E E R T K p i p p K K K K K K p i i i g K T T T T R T T T R R R R T U U U R R E ! ! E E E E E Y Y ! ! >.>.! ! ! ! ! ! ! ! ! ! ! ! ! ! ! ! ! ! E E R R L K i t t i K L T T R T K b i p p K U E ! 1.1.>.! ! E E Y U U P p i i i i K T T E _ _ _ 1.1.! ! ! ! ! E E U U U p i 5 & $ O O # & t K Q _ ! ` ` ` ` 0.I.!.~.6X~.~.^.H.;.&XQ.V.7X<X3.2X~.~.~.!.F.} D.^.~.G.a 3.^.Q.>.^.R.E.W.s.s.R.R.R.Y.b.Y.R.T.Y.C.Y.Y.T.G.I I.R.T.Y.T.a -.T.Y.Y.P.B.v.Z.A.j.v.k.k.k.B.C.C.b.k.v.Z.9 k.v.v.v.C.n.C.L.A.A.C.C.C.m.C.m.m.m.m.m.m.m.m.b.m.m.n.n.x.x.n.n.n.v.b.B.a.j.x.x.x.x.x.x.x.x.z.x.x.z.h.z.x.z.x.x.z.h.h.h.h.h.h.h.h.h.g.g.g.g.g.",
"N V V V V V V V V V V 9 x A c @ 7 C S V V A Z S V V V V V Z V C c 8 B A D c 4 S D D D D G G D D D A V C V N 7 @ 7 ~ A A C C A N + 2 A D G / / u.u.u.u.u./ / / / / u.i.i.i.i.i.i.i.i.i.i.u.i.p.f.p.f.g.f.g.g.p.h.h.z.l.x.x.x.z.x.x.x.z.l.x.x.x.x.x.l.x.n.x.v.^ K ` 8 B.b.B.L P ` B.k.E r m B.A.A.B.2.m a u M.C.V.t Z.C.Z.M.u ; ; T E E E T i 5 & $ $ $ & ; 5 6 6 6 i i i y t t 5 5 t t p P U U Y U U P P P g i p g T E R R E E E E E E E E T i t t y p K T T K K K p i t i p T T R R T T T T T T R R R R T T U U R R E E ! ! E E E E Y Y ! ! >.>.! ! ! ! ! ! ! ! ! ! ! ! ! ! ! ! ! ! _ _ _ R R L g i 5 5 i K T E _ ^ T K p i i p K T E ! 1.1.>.! E E E E E T K i t 5 5 i p T R _ _ ! 1.1.! ! ! ! ! E U P P P K p i 5 & # $ O O & t f Q _ ` ` ` _ 0.` Z.R.R.R.T.^.H.*.&XU.N.7XQ.<.2X~.~.~.!.H.} D.^.~.G.a 3.^.Q.E !.R.R.R.U.N.R.R.T.b.A.Y.R.R.Y.Y.Y.Y.T.W.I I.T.Y.T.T.a -.I.Y.Y.Y.P.C.b.B.k.k.v.k.v.b.v.B.C.v.v.B.9 k.v.b.b.b.m.L.m.A.m.m.C.m.n.m.m.m.b.m.m.n.b.n.n.n.n.n.n.x.n.x.n.n.x.v.B.a.j.x.x.x.x.x.z.x.x.x.x.z.z.z.x.x.x.z.h.h.z.h.z.z.h.g.g.g.h.g.h.g.g.g.",
"V V V V V V V V V V V 4 l A c @ 7 C Z V V V Z Z V V V Z S S V C c 7 B S D c 4 S D D D D D D D S C A C V V N 7 , 7 C C C V C D N + 2 C D G G / u.u.u.u.u.u./ / / ) u.i.i.u.i.i.i.i.i.i.i.i.f.f.p.f.f.f.g.g.g.f.g.h.h.l.x.x.x.x.x.l.x.z.x.x.x.l.x.x.x.x.x.x.v.^ T s.8 B.v.B.L E s.B.k.E r m Z.C.m.B.2.m a u M.B.V.t V.Z.v.R K R R T E T T i 5 & $ $ $ & ; 6 6 6 i f f f y y y 6 5 5 t t p g P U U U P P k k g g K U E ! ! E E E E E E E T P i t 5 t i K P U T T K p i t t p K T R E R R T T R T T R R R R T U U U R R E E E E E E E E E E ! ! >.>.>.! ! ! ! ! ! ! ! ! ! ! ! ! ! ! ! ! _ _ _ _ R R T g i i i p T T _ _ E T K p i i g P T E ! >.>.>.! ! ! ! ! E T K i t 5 5 i K R R ! ! 1.! ! ! ! ! E U k p p p p p i i 5 & & $ O $ : t U Q _ 1.2.` ` ` 0.B.E.~.~.^.Q.;.<XQ.N.^.Q.<.2X~.~.~.W.H.} D.^.~.G.a 3.^.Q.>.!.R.R.R.W.V.W.R.Y.n.L.Y.T.T.T.R.Y.Y.T.W.P S.T.Y.T.T.m -.I.Y.Y.C.A.Z.v.Z.k.a.k.k.k.b.B.b.B.v.l.B.9 j.v.b.b.b.C.L.A.C.m.m.C.m.b.m.m.m.m.n.b.n.n.b.m.n.n.n.n.n.x.x.x.n.n.v.C.j.j.x.x.x.x.x.z.x.x.x.x.x.z.z.x.h.h.h.j.h.h.h.h.h.h.h.h.h.h.h.h.g.g.g.",
"V V V V V V N V V V V 4 l A c O 7 A S S V V Z V V V Z S S S V C c 7 B S S c 4 D D D D G G G D D D S V C C N 7 @ 9 C C A V C A N + 2 N C D G G / / / / / u.u./ H u.u.u.u.i.i.i.i.i.i.i.u.i.f.f.f.f.i.f.f.g.g.u.g.h.h.h.z.x.z.h.x.z.x.x.x.x.x.l.x.x.x.x.x.x.v.` L a.9 B.b.B.K i S.B.k.^ r m B.A.m.B.2.I a r M.B.V.* Z.v.` R R R R _ E P p 5 & $ $ $ & 5 6 6 f f f f f f f i i i i p p p p g P U U P P k g g K T T E ! E E ! E E E E E T P p i y y i g T U U T T K i t t i K T T R R T R R R R T T R R R R T U U U R R E ! E E E E E E E E ! ! >.>.>.! ! ! ! ! ! ! ! ! ! ! ! ! ! ! ! ! R _ _ _ R R R T K i i i p T R E E E T K p i i p P U E ! ! >.! ! ! E E E T L K i i 5 5 i K R R ! _ ! ! ! ! E P p y t t t t i i i t 5 5 & $ $ & : y k Q _ _ ` ` ` ` 0.Z.~.6X^.Q.*.H.W.N.7XQ.3.2X~.~.~.W.H.} D.!.~.U.a 3.^.U.>.W.R.E.~.!.N.R.T.Y.Y.Y.T.T.T.T.Y.Y.Y.Z.W.P S.T.T.T.T.a -.T.Y.Y.Y.b.b.C.C.b.k.v.v.v.v.v.B.v.k.v.B.9 j.b.v.C.C.m.A.L.m.m.m.m.m.m.m.m.m.n.b.m.m.n.n.n.n.n.v.x.n.n.x.x.x.x.v.C.g.l.x.x.x.x.x.x.z.x.x.x.x.x.z.h.h.h.z.h.h.g.h.h.h.h.h.g.h.g.g.h.g.p.g.",
"V V N N V V V V V V V 4 l A c & 7 C S S S S S S Z S S S S S Z D c 7 B S D V l D D D D D D D D D D S V V C C 9 < 7 C C A C A A N o @ N A D D D G H H H H u.u.) / u.u.u.i.i.i.i.i.u.u.u.u.u.f.i.f.p.p.f.f.f.g.f.g.h.h.j.z.z.h.z.h.h.h.x.x.x.x.x.z.x.x.x.l.x.v.` T a.8 M.b.B.L M.Z.v.k.^ r a B.C.m.B.1.I a u M.b.V.* M.` L f T E R ^ T p 5 & # X $ & 5 6 i f f f f f f f f g g K P T P k g g k P P P k g k g P T E _ _ E E E ! E E E T K p t t p p g P U T U T K p i t i p T T T T T R R R T T T T T T T T T U U U U R E E E ! ! ! ! ! ! ! ! ! ! >.! >.! >.! ! ! ! ! ! ! ! E E E ! ! ! R ! _ _ _ ^ _ R T K i i i K T E E E R T K p i u g P P E ! ! ! ! ! ! E E E T L K i i 5 5 i L R ! ! ! ! E E Y p y w * * : 5 t i p i i t 5 & $ & & 5 i L ^ _ _ _ _ ` 2.M.T.~.^.Q.*.H.W.M.^.<X3.^.~.~.~.!.H.} D.!.~.G.a <.^.U.I W.E.R.~.W.M.T.R.T.Y.T.R.R.R.T.R.T.T.I.U.L S.T.Y.T.T.r >.T.Y.Y.Y.A.C.Z.Z.b.v.B.b.v.v.v.v.b.v.v.B.9 ( v.b.C.C.b.m.m.C.m.m.m.m.C.m.m.b.b.b.b.b.n.n.x.x.n.x.x.n.n.n.x.x.x.x.v.v.x.x.x.x.x.x.x.x.x.z.x.x.x.x.x.x.h.z.h.h.h.h.h.h.g.g.g.h.g.g.h.g.g.g.",
"V V V V V V V V V V V 3 l ~ c O 7 A Z V Z S S Z V V Z M v S S A c 7 B V S V V S D D D D D G D D F S S A C C 9 < 7 A C C V C A x o + x D G D S G / u.u.) / u.u.u.u.u.i.u.u.i.p.i.u.u.u.u.u.i.f.f.g.p.g.f.i.f.h.h.h.h.h.z.h.h.x.x.x.x.x.x.z.z.z.x.x.x.x.x.x.l.` L a.b B.v.B.~ j.B.v.k._ r a Z.m.m.B.! I a u M.b.B.* ( ` 6 O P E ^ T b t * # O $ & & 5 i f L f f f f f f f g P T T T P k g p g k k g g g k P U R E _ _ E E E ! ! E T K i t t y g P P U T U T K p i i p K L T T T T E E E E R T T T T T T T T R U U R E E ! ! ! ! ! ! ! ! ! ! ! ! ! ! ! >.>.! E E E E E E E R E E ! ! ! _ _ _ _ _ _ _ E T L i i t i K R E R R R T K p p p u p g U E ! ! ! ! ! ! _ E T T L K i i i K R ! E E Y U U P t t w w : : t i i K K L K i 5 & & & 5 5 g T ! 1.1._ _ 1.M.V.R.^.Q.} H.U.M.^.^.<.2X~.~.~.!.H.} D.!.^.G.a <.2XH.I W.R.T.R.U.M.T.E.T.Y.T.Y.C.Y.Y.T.A.A.Z.W.L S.T.T.Y.T.r >.I.Y.Y.Y.P.P.P.C.b.b.v.b.v.B.B.v.v.v.b.B.9 j.v.v.b.x.v.x.m.m.m.m.m.m.m.m.m.b.b.b.b.n.m.n.n.x.n.n.n.n.x.x.n.x.x.n.x.x.x.x.x.x.x.x.x.x.z.x.x.x.z.x.x.h.x.h.h.h.h.h.g.g.h.h.g.g.h.h.h.g.g.g.",
"V V V V V V V V V V B 3 l ~ c @ 7 A Z Z S S S Z V S S V V S S A x 7 C V V S D D D D D D D D D D D D S S C N 9 @ 7 B V C C A A B + 2 B D D D D / / H u.u.u.H u.u.i.u.u.i.i.i.i.p.i.p.i.i.i.f.f.g.g.f.g.f.i.g.h.g.h.h.h.z.z.h.h.h.h.x.x.h.z.z.z.x.x.x.g.l.l.j.` L s.L B.v.v.v.v.v.v.M._ r u Z.m.C.B.E I a u M.v.B.< 8 T T L T R T n u < & # $ & & 5 5 i f L L f f f i 6 6 y g P P K g g p p p k k g p g g P U R ! _ _ E E ! ! E U P K p i i g T T U U T T K g i i p K T T R E E E ^ ^ E E R T T T T T T T T R U U R E E ! ! ! ! ! ! E Y Y Y Y Y Y ! ! >.>.! E E E R R R R R E E ! ! ! _ _ _ _ _ _ _ E T L K i i i p T E E E E T T K g p p u p g P E E ! >.! ! _ _ _ R T T K b i K T T Y U U P P g t y y u u p i i K L T T L i 5 5 & & : 5 i L R _ _ _ _ 1.0.0.k.!.Q.*.H.W.M.^.^.<.2X~.~.~.!.H.*.N.!.~.G.a -.2XU.I W.R.R.R.W.N.T.R.T.R.Y.l.Y.T.Y.Y.b.Y.T.S.K S.Y.Y.T.T.r >.T.P.Y.P.P.Z.v.v.B.b.l.B.j.j.C.v.j.j.k.k.7 ( v.v.v.b.b.m.C.m.m.m.b.m.m.m.m.m.b.n.n.n.m.n.n.n.n.x.n.x.x.x.x.x.x.x.x.n.x.x.x.x.z.x.x.x.z.z.h.x.x.z.h.h.h.h.h.h.h.h.h.h.h.h.h.h.h.g.h.h.g.g.",
"V V V V V V V V V V B 3 c ~ c O 7 A S Z V V Z Z V S S Z S S S A x 3 A S S D F D D D D D D D D S D S C C C C 9 @ 9 A V V C V C c + 3 S D D D D G / H H H H ) u.u.u.u.i.u.u.u.i.i.i.i.i.i.f.f.f.g.f.f.g.p.g.h.h.h.g.h.g.h.h.h.h.h.x.x.x.x.z.x.x.x.x.x.x.l.l.j.` L s.b B.b.v.v.v.v.v.k.^ r p B.n.m.B.Y I a u M.B.M.& 5 T P g T T T b 5 * # # & ; 5 5 i i f L L K f f 6 ; ; 5 i g g p p u y y p g g g g k P P U R E _ _ E E E R U P K g g g K T R E E T T K p i i p K R E E _ _ _ _ _ _ _ E R R T T T T T T T R U U R E E ! ! ! ! ! ! E Y Y Y Y Y Y E ! >.>.! Y R R R R R R R E E ! ! ! _ _ _ _ _ _ E R T T K p p i i K T _ E ^ E T T P P g p u u p P Y ! >.! ! ` _ _ _ R R R L K K L T Y U U U P P g g k k P P K K L T R R T K i t 5 5 & * 5 i L E ! _ 1.>.2.` W S.Q.*.H.W.M.^.^.<.^.~.~.~.~.H.*.N.!.~.G.a <.2XQ.I W.R.R.~.!.s.R.R.T.T.T.Y.T.T.Y.T.Y.Y.T.S.L T.T.Y.T.T.r 1.I.Y.Y.P.A.P.B.A.v.l.C.l.v.v.v.v.k.v.v.B.9 k.v.v.b.b.n.C.A.n.n.n.b.m.m.b.n.m.n.n.n.n.m.n.n.n.m.n.n.n.n.x.n.x.x.x.n.n.n.x.x.x.z.x.x.x.x.x.h.h.h.x.h.h.h.x.h.h.h.h.h.h.h.h.g.h.g.g.g.g.g.g.",
"V V V V V V V V V V C 4 l A c @ 7 A S S Z Z V V S V V V C S S D x 3 A S S F D D D D D D D D D D D S V V C C 7 @ 7 B V C V V C x 2 B D D D D G G H H / u./ u.u.u.u.i.i.i.u.i.u.i.i.i.i.i.f.f.f.i.f.f.p.p.g.g.f.g.g.g.h.h.h.h.h.h.x.h.h.x.x.x.x.x.x.x.x.x.x.l.` L s.L B.x.x.x.v.v.v.k._ r p B.m.C.B.I I m a M.k.L 6 R U t O T T n 8 * % # & : 5 6 i i f K K K L f f 6 ; ; 5 t p i t t t t t y p g k P P U U U R E _ ! E R U T K g g K K P U R E E E T K p p i i K T E _ _ _ _ _ _ _ _ ! ^ E R R R T T T T T R U U R E E ! ! ! ! ! ! E Y Y Y Y Y Y Y ! 1.1.! U U U U U U R E E E ! ! ! _ _ _ _ _ _ R R R R T L K p i i T R R E E E T U U P k p u u p P Y E ! ! _ _ _ _ _ R R T T L K K U U U U U U Y Y U U U P K K L T T R T R K p i 5 < & < t i K ! >.1.>.1.2.2.W N.O.H.W.V.^.Q.<.^.~.~.~.!.H.*.D.!.~.G.a -.2XQ.I W.R.T.R.W.N.R.T.R.T.T.P.Y.T.Y.Y.T.Y.T.I.L T.T.Y.T.T.u 1.I.Y.P.Y.P.C.v.v.C.b.v.k.v.j.v.B.k.v.k.B.9 k.v.b.v.b.b.C.m.n.n.b.m.m.m.n.m.m.m.n.n.m.n.n.n.n.n.n.n.n.n.n.n.x.x.x.x.x.x.x.h.x.l.h.x.x.x.x.x.x.x.h.x.h.z.h.h.h.z.h.h.h.h.h.h.h.g.g.h.g.g.f.",
"V N V V V V V V V V B 4 x A c @ 7 A S S Z S V V S V V S S S S D 9 7 A S S S D D D D D D D D D S S A V C A C 7 @ 7 B V C C N V x 7 A D D D D G / G H / / H / ) ) u.u.u.u.u.i.i.u.i.i.f.i.i.f.i.u.i.i.p.u.f.p.i.g.g.f.h.h.h.h.h.h.x.h.x.x.x.x.z.x.x.x.l.x.x.k.a.L a.b M.v.x.x.n.v.k.k._ a p B.b.b.B.I I m a k.~ L U ! ! R K R n b 8 & % & * 5 6 i i f f L K K K K f i 6 5 6 t t t t : : : : t u k U Y E E E T R E _ ! E T K g g g K P T U T E E E E T K p i i p T T ! ! ! _ _ _ _ ! ! ! ! E E E R T T T T T R U U R E E ! ! ! ! ! ! ! E E E E E E Y ! 1.1.! U U U T T U U E E E ! ! ! _ _ _ _ _ E T R R R R T T K i i p T T T E E E Y U U P g p u y p P Y ! ! ! _ _ _ _ _ _ R R T K K P P P P P U Y U U P P P g K K L T T T T R K p i < & & * 5 i R >.1.>.>.1.! Q 2.a D.Q.V.^.!.<.^.~.~.~.!.H.*.D.!.~.G.a -.2XQ.I W.R.T.R.W.M.R.T.Y.Y.Y.Y.Y.Y.Y.T.Y.Y.T.S.L I.T.Y.Y.T.r <.I.Y.C.b.A.b.Z.C.b.l.k.B.b.v.k.v.k.p.k.B.9 j.v.b.v.b.m.m.b.b.x.x.n.n.n.n.n.n.n.n.n.n.n.n.m.n.n.n.n.n.n.x.x.x.x.x.x.x.x.x.h.h.z.z.x.z.x.z.x.z.z.z.h.h.h.h.h.h.h.h.h.g.g.g.h.g.g.g.g.f.p.f.",
"V V V V V V V V V V V 4 l A c @ 7 C V Z Z Z V V S Z V V S S S D 9 3 A S S S D S D D D D D D D D S Z S D S C 9 @ 9 C C C C C V x > B D D S D G G H / / / ) / u.u.u.u.u.u.i.i.u.u.i.i.i.u.i.i.p.i.u.i.p.u.p.u.g.g.g.g.g.h.h.h.h.h.h.h.h.x.x.z.x.x.l.l.x.x.x.j.` L a.b M.x.x.x.x.v.k.a._ a a B.C.m.B.I I a u W 8 Q Q ! ! ! R T i < # # $ & : 5 i i g g f K K K K K K f i t t t t t 5 : * * : y p P T E ! ! ! E R E ! ! R P p g g K P T T T R E R R R P g p p p g U E ! ! ! ! ! ! E E ! ! ! E E E E R R R R R R U R E ! ! ! ! ! ! ! ! ! ! ! ! ! ! E E ! >.>.E U U P P P P U Y Y Y ! ! ! ! ! ! ! ! E R R T T T U U T g i i p P U E E E E E U P k p p t u g P Y E ! _ _ _ _ _ _ E R R L K P g g g g k P P P P k k g p p g K P U T T U K p 5 & % & & t P E >.>.>.1._ _ _ u N.W.V.^.!.>.^.~.~.~.!.H.} D.!.~.G.a -.2XQ.I W.R.R.R.!.M.R.Y.Y.Y.Y.Y.Y.Y.Y.Y.Y.T.T.S.L S.T.Y.Y.T.u 2.S.Y.L.A.b.C.C.A.B.Z.k.v.v.v.v.b.j.j.a.k.9 ` v.x.v.v.C.n.m.n.n.v.n.b.n.n.n.m.n.n.v.n.n.n.n.n.n.n.n.n.n.x.x.x.x.x.x.x.l.h.z.z.x.x.x.x.x.x.z.h.h.h.h.h.h.h.h.h.h.h.g.g.g.h.g.g.g.g.g.f.f.p.",
"V V V V V V V V V V B 4 l A 9 O 7 C V V V V V V V V V V V V Z A 9 7 A S S F S D D D D D D D D D D S S D D A x @ 9 A C V V C C x + B D D D D G G / / H / / / / u.u.u.u.u.u.i.i.u.i.i.i.i.i.i.i.) u.u.u.u.u.u.g.g.g.g.g.h.h.h.h.h.h.h.z.z.x.x.x.x.l.x.x.x.x.k.` L M.b M.x.x.x.x.x.k.k.^ a p B.b.b.B.P I a P _ ^ ^ ! ! ! ! R i 5 $ O . $ & : 5 t i g g K K K K K K K K K p i i t 5 5 5 5 5 t p K T E E _ _ _ ! E E E U g p g K P U U T U R E ! ! E U g p i g g P Y E ! >.>.! ! ! E E E E E E E E ! ! ! R R R R Y E E ! ! ! ! ! ! ! ! ! ! ! ! ! ! ! ! ! ! ! ! Y h h h k k k Y Y Y ! ! ! ! ! ! ! ! E E E Y Y Y Y Y U U g p u p P E E E ! ! E U P g g p u u p k P E ! ! _ _ _ _ _ R R T T P p y u p p u p p p g g p p y p P U U U U U U P u t * % % * t g Y >.1.1.1.1.1.1.s.G.M.^.W.>.!.~.~.~.W.F.} 3.!.~.G.a -.2XU.I W.R.R.R.W.2.T.Y.Y.Y.Y.Y.Y.Y.Y.Y.Y.Y.T.S.L S.T.Y.T.T.u 2.S.Y.Y.L.C.b.m.C.A.C.b.v.v.v.v.v.k.j.a.B.9 ` k.l.v.v.m.n.n.n.x.n.n.n.n.n.n.n.n.n.n.n.n.n.n.n.n.n.n.n.n.n.x.h.g.c.x.x.x.x.x.j.x.l.z.z.z.z.z.z.h.h.h.h.h.h.h.h.g.h.g.g.g.g.g.g.g.g.g.f.g.f.",
"V V V V V V V V V V V 9 x A 9 O 7 V V V V V V V V V V Z Z V V C 9 < A S S S D S D D D D D D D D D D D D D S x @ 7 C C A B C V x > 9 A V A D G / / / G G G G / u.u.u.u.u.i.u.u.u.u.u.i.i.i.i.i.i.u./ u.u.p.p.g.g.f.p.g.g.h.h.h.h.h.j.z.z.l.x.x.x.l.l.l.l.x.k.` L k.b M.x.x.x.x.v.k.k.^ a u B.b.b.B.n I u T _ _ _ _ ! E R K 5 $ O O # $ & : 5 t i K K K K K K P L K K K K p p i i t 5 5 5 i K R E E E _ _ ! ! E E U g p p g P P R R E E E E ! ! E g p p g K P U Y ! ! ! ! ! ! E E Y Y R R R R R E E E E R R R R E E ! ! ! ! ! ! ! ! ! ! ! ! ! ! ! ! ! ! ! ! Y U U h k k h U Y Y ! ! ! ! ! ! ! ! ! E E E E E E E E U P g u y g Y E ! ! ! ! E U P P k g p p p p P T E E _ _ _ _ E T U U K p t t y u u u p p p p p u y p g P U U U U U P p y t * % % * t k E 1.2.1.1.1.1.2.s.` !.W.-.!.~.E.~.!.H.*.N.!.~.S.a -.Q.Q.I W.R.R.R.W._ T.Y.Y.T.T.T.T.Y.Y.T.Y.Y.Y.S.L S.T.Y.T.T.a 2.Z.Y.Y.L.P.L.L.L.A.A.C.b.v.v.C.l.p.( j.B.7 ( p.p.k.x.m.b.b.x.x.x.x.x.n.n.n.n.n.n.n.n.n.n.n.x.n.v.x.x.x.x.l.f.h.h.x.x.x.x.l.j.h.x.x.x.z.z.z.h.z.h.h.h.h.h.h.h.g.g.h.g.g.g.f.g.g.g.g.f.g.f.",
"V V V V V V V V V V V 4 x L c O 3 V V N V V Z V V V V V V V V C 9 7 A S S S D S D D D D G D D D D D D D D S x @ 7 A C C V N V x 2 B D A V D G G G G G G / G / u.u.u.u.u.u.u.u.u.i.i.i.i.i.i.f.i.p.u.u.u.p.u.p.g.f.f.g.h.h.h.h.h.h.h.x.x.z.x.l.x.x.x.z.l.x.k.` L k.b B.x.x.x.x.x.k.k.E a u B.m.b.M.p K t Q _ _ ` _ R R g 5 & . . O $ & & 5 t i p K K L T T T T T L K K K K K g i i t t i K R E _ _ _ _ _ ! E E U P p p g g P P E ! ! ! ! ! ! ! U y u g g T U Y Y ! ! ! ! E E E Y Y Y R R R R R R Y Y R Y R R R E E ! ! ! ! ! ! ! ! ! ! ! ! ! ! ! ! ! ! ! ! Y Y Y U h h h U U Y ! ! ! ! ! ! ! ! ! E E E E E E ! ! E U P p t p P E ! ! ! ! E E Y U P k g p u u p P T E ^ _ E ! E T U U P p t w t y u u p p p p p p p p k P U U U U U P k g p t * $ % * y k E 1.1.1.1.1.1.1.L S.W.-.!.~.~.E.!.H.*.N.!.~.G.a -.Q.U.I W.R.T.R.W._ T.Y.Y.Y.Y.Y.Y.Y.Y.Y.Y.Y.T.I.T Z.Y.Y.Y.T.a <.Z.Y.Y.Y.Y.P.L.L.A.A.B.v.v.v.b.v.j.p.) B.7 a.k.p.p.b.m.b.v.l.j.j.h.v.n.n.n.n.n.n.n.n.n.n.n.n.n.x.x.x.n.l.l.h.h.h.z.x.x.x.h.h.x.x.z.x.z.z.z.z.z.h.c.h.h.h.h.g.g.g.h.g.g.g.f.g.g.g.g.f.f.f.",
"V V V V V V V V V V V 4 x L 9 @ 3 C V V V V V V V V V V V V V C 9 7 A S S S S D D D D D D D G G D D D D D C 9 + 7 A V V N V V x 2 B C C V D D G G D / G D / u.u.u.u.u.u.u.u.u.u.i.i.u.i.i.i.i.p.i.i.i.u.u.u.p.f.f.p.f.g.h.h.h.j.h.h.h.z.h.z.x.x.x.x.l.l.l.k.` L M.L B.x.x.x.x.x.k.k.^ r u B.b.b.B.i K Q ! ! _ _ ! R p 5 & # O # & & & & 5 i i g L L L R R R T T T T T T T K K K p i i K R E _ _ _ _ _ ! R R U K g p g P P P U E ! ! ! ! ! E ! P i p g U E E E ! ! ! ! E E Y Y Y Y Y U U U U U U R R R R R R E E E ! ! ! ! ! ! ! ! ! ! ! ! ! ! ! ! ! ! ! ! ! Y Y Y U U U Y Y Y ! ! ! ! ! ! ! ! ! E E E E E E ! ! E Y P g y y p P E ! ! ! ! E E Y P P P k p p y p P T E E E ^ E E E E P g y t y u p p p p p g g g g k P U U Y Y U U P P P k u w % $ $ * t P Y 1.1.1.1.1.1.1.` V.>.!.~.~.R.!.H.*.N.!.~.G.a -.!.Q.T !.R.T.T.S.R T.Y.Y.Y.Y.T.Y.L.Y.Y.Y.Y.T.T.W Z.Y.Y.Y.I.a <.Z.Y.Y.Y.L.L.L.L.A.C.v.l.k.k.j.k.k.( j.B.3 a.k.p.p.k.l.x.j.l.x.l.x.n.n.n.n.n.n.n.n.n.n.n.n.n.n.n.n.n.x.x.x.h.x.h.x.x.x.j.h.h.h.j.x.x.x.x.x.z.z.h.h.h.h.h.h.h.h.h.h.h.h.u.p.g.g.g.g.g.p.p.",
"V V V V V V V V N V V 4 x L 9 @ 3 V V V V V N V V V V V V C S C 9 7 A A S S S D D D D D G G G G D D D D D A x O 7 B C C V N V c 2 x C A C S S S S G / G G / u.u.u.u.u.u.u.u.u.u.u.u.i.i.i.i.i.p.p.i.u.i.p.p.u.p.f.i.f.i.i.h.h.h.z.z.h.z.h.z.x.x.x.x.x.x.x.k.` L M.b M.x.x.z.x.x.k.a.R r p B.b.b.M.5 i Q ! ! ! _ R K t & # # & & 5 5 * 5 5 i p K L L T R T R T T U T T T T L K K b K L R _ _ _ _ _ _ _ ! R R K g g g P P U U E ! ! ! ! ! E E U P g P U E ! ! ! ! >.>.! Y Y Y Y U U U U U U U U U U Y Y Y Y E E E E ! ! ! ! ! ! ! ! ! ! ! ! ! ! ! ! ! ! ! ! ! ! Y Y Y Y U Y Y Y ! ! ! ! ! ! ! ! ! ! ! ! ! ! ! E ! E Y U k p y y g P Y E E E E E E Y Y U P g p y i p L T E ^ ^ ^ ^ ! E E P p u p p g g g k k k P P P U Y E Y Y Y Y U P U U P g y t * % # % t p E >.2.2.2.1._ 0.V.E !.~.R.R.W.F.*.s.!.~.S.a -.!.Q.I W.R.T.T.W.` T.Y.Y.Y.Y.Y.Y.Y.Y.Y.Y.Y.T.T.W Z.Y.Y.Y.I.a >.Z.Y.Y.Y.Y.L.L.L.m.C.v.v.k.k.k.B.) / f.B.9 k.k.k.j.k.l.j.p.j.v.v.v.n.n.n.n.n.n.n.n.n.n.n.n.x.x.n.n.n.x.x.x.x.j.l.h.j.h.h.h.g.h.h.j.x.h.h.z.h.z.h.h.h.h.h.h.h.h.h.h.h.h.g.p.f.f.f.g.g.f.p.",
"V V V V V V V V V V V 4 9 ~ c @ 3 V V V V V V V V V V Z Z V A C x 7 A S S S S D D D D D G G G G D D G G D C c + 9 B C S V V C N , 9 C A V C S D D G / / / / ) u.u.u.u.u.u.u.u.u.u.i.i.i.i.i.p.i.i.u.) u.u.u./ p.f.f.p.f.f.h.h.h.z.h.h.x.z.z.z.x.x.x.x.x.x.k.` ~ k.K M.l.x.x.x.x.k.k.E r u B.C.v.` 5 K Q Q ! ! E T i * # # & * 5 5 5 5 5 i i K L R R R R R R T T T T T T T K K K K K R R _ _ _ _ _ _ ! R R K p p g P P P T R ! ! ! ! E E E P g g g T E ! ! ! >.>.>.! E Y Y Y Y U U U U U U U U U U Y Y Y Y E R E E ! ! ! ! ! ! ! ! ! ! ! ! ! ! ! ! ! ! ! ! Y Y Y Y Y Y Y Y Y Y ! ! ! ! ! ! ! ! ! ! ! ! ! ! ! E ! E E U P P y t y g U E E E E E E E E Y P g p i y i i L T E E E ^ ! _ ! Y P g g g g P P P P P U U U Y E E U U U U U U U P P g p p : % # # * y T E 2.2.2.` _ 1.M.T !.~.R.R.W.F.*.s.!.~.S.a -.!.Q.I W.T.R.R.W.` Z.T.Y.Y.Y.Y.Y.Y.Y.Y.Y.Y.Y.T.Z.Y.Y.Y.Y.I.m 1.Z.Y.Y.Y.Y.L.L.L.b.B.v.v.v.k.k.k.j.p.p.B.7 j.j.k.) j.j.j.p.j.x.n.n.n.n.n.n.n.n.n.n.n.n.n.n.x.x.x.x.x.n.n.x.g.h.x.x.j.h.h.j.h.h.g.h.z.h.h.z.z.z.h.h.h.h.z.h.h.g.h.g.g.g.g.g.g.g.g.g.g.p.f.",
"V V V V V V V V V V V 4 9 L c O 3 C C V V V V V V V V Z S S Z A 9 7 C S S S D D D D D D D D D D D G G G D D c + 7 C S A V V B N 2 x A A V V S S D / / / / / u.u.u.u.u.u.u.u.u.u.u.u.u.u.i.i.i.i.i.p.u./ u.u.) p.p.f.i.f.h.h.h.h.z.h.x.z.z.z.x.x.x.x.x.l.x.j.` L k.L s.l.x.x.x.x.l.a.E r p B.m.j.W ` Q Q ! ! E T i * # # & * 5 t t t t i i K L T R R T T R T T T T T L L K K K K T R T R _ _ _ _ _ _ R T g p g g P P P P U R E ! E E E E U g y y g P E ! >.1.>.>.>.! E Y Y Y Y Y Y Y Y Y Y Y Y Y Y Y Y Y Y Y E E E ! ! ! ! ! ! ! _ ! ! ! ! ! ! ! ! ! ! ! ! ! Y Y ! ! ! ! Y Y ! ! Y E ! ! ! ! ! ! ! ! ! ! ! >.! ! E Y Y U P p t w u P Y E ! ! E E ! E U P k g p t t t p T T E ^ ^ ! ! ! E U U k g g P U Y U U U U Y Y Y Y Y Y Y Y Y Y U U P g p p t * # # % : K E 1._ ^ ` ^ _ 0.M.U.~.~.~.W.H.*.3.!.!.S.r -.!.Q.I W.T.R.T.W.M.Y.Y.Y.Y.Y.Y.T.T.T.Y.T.T.Y.Y.Y.Y.Y.Y.Y.I.m >.Z.Y.Y.Y.Y.L.L.L.C.C.b.b.v.v.l.v.j.j.p.Z.9 j.k.j.j.j.j.k.f.l.x.x.n.n.n.n.n.n.n.n.n.n.n.n.x.x.x.x.x.x.x.x.x.x.x.h.j.j.h.p.g.j.x.l.z.x.z.h.h.z.h.h.h.h.h.z.z.z.h.h.g.g.g.g.g.g.g.g.g.g.g.p.",
"V V V V V N V V V V V 4 9 A 9 @ 7 C C V V Z S Z V V Z V V S S A x 7 C S S S D D D D D D D D G G G G G D S D c + 9 C C V C V V c 2 x S A V A D S D / / / / / ) u.) / u.u.u.u.u.u.u.u.u.u.i.i.i.i.u.p.u.u.) u.u.u.g.i.p.f.h.h.h.h.z.h.h.j.l.z.x.x.x.z.z.x.x.j.` ~ j.L M.l.x.x.x.x.x.k.E r u B.b.( 9 ` Q Q Q E T p 5 & % & * 5 u u u i i b K T R R R R R R R R R R T T T K K K K K T T R E _ _ _ _ _ E R L g g K T U P P T R E E E Y R U P K p y p K U E ! 1.1.>.>.>.! E E Y Y Y Y Y E ! ! Y Y Y Y Y Y Y Y Y Y Y E E ! ! ! ! ! ! ! _ >.! ! ! ! >.>.>.>.>.>.>.! Y Y ! Y Y ! ! ! Y Y Y E ! ! ! ! ! ! ! ! ! ! >.>.! ! E Y Y U P p y t u k U E ! ! ! E E Y U P g g p i t t i p T T E E ! _ ! ! E E U P k P U U U U E Y Y Y Y Y E E E E E E U U P k g g y : % # # & t T ` ^ ^ ^ ^ _ 2.0.M.T.E.~.W.H.*.3.W.W.S.r -.Q.Q.I W.Y.T.R.W.s.T.Y.T.Y.Y.A.Y.T.Y.Y.Y.Y.Y.Y.Y.T.Y.Y.Y.Z.I >.Z.Y.Y.Y.L.L.L.L.C.C.b.v.v.v.k.j.j.j.) B.9 k.k.f.p.k.j.j.x.x.x.n.n.n.n.n.n.n.n.n.n.n.n.n.n.x.x.x.x.x.x.x.x.x.x.h.h.g.g.h.x.x.c.h.h.z.z.z.h.h.z.h.h.h.h.h.h.z.h.h.g.g.g.g.p.f.g.g.g.g.g.g.",
"V V V V V V V V V V V 4 x ~ c O 9 C V Z Z S S Z Z S Z V V V A A x 7 B S S D D D D D D D D D G D G G D D D A c @ 9 C V V C A C x > 9 C V A A D D / / / G / / u.u.H H u.u.u.u.u.u.u.i.i.u.i.i.i.i.u.i./ ) u./ / u.g.g.i.u.i.g.h.z.z.h.x.z.z.h.x.x.z.z.z.x.l.l.( ~ k.( k.l.x.x.x.x.l.a.E r u B.k.B @ Q Q ! Q Y K 5 # # & * t u p p n K K K T R R R R R R R R E E E T T K K K K K T T T R ! _ _ _ _ E R R L K K T U P K P U E E ! ! E U T g p p p g P R ! ! 1.1.>.>.>.! E E ! ! ! ! ! ! >.>.E Y Y Y Y Y Y Y Y Y Y E E ! ! ! ! ! ! ! _ >.>.>.>.>.>.>.>.>.>.>.>.>.Y ! ! Y ! ! ! Y Y Y Y E ! ! ! ! ! ! ! ! ! ! ! >.! ! E Y Y U P P p y u p P U E ! ! ! E U P k g g p p p i i i p K T E ! ! ! _ 1.! E U P P U U U U E E E Y Y E E E E E E E Y U U P k g p y * % # $ ; K ^ ^ ^ R ^ 1.1.2.R Z.R.R.W.F.*.3.W.W.S.r -.Q.Q.I W.T.R.R.T.M.T.T.Y.T.Y.Y.L.Y.Y.Y.Y.Y.Y.Y.Y.Y.Y.Y.Y.Z.I 1.Z.L.Y.Y.L.L.L.A.A.b.B.b.v.b.v.j.l.j.p.k.3 j.k.j.f.j.j.j.x.x.n.x.n.x.n.n.n.n.n.n.n.n.n.n.n.x.n.x.x.x.x.x.x.x.g.j.g.i.g.h.x.x.x.i.g.z.z.z.h.h.z.h.h.h.h.h.z.z.z.h.g.h.g.g.g.f.g.f.f.f.p.p.",
"V V V V V V V V V V V 4 x A 9 @ 7 C V Z V Z S Z V V V V V V S C x 7 B S F F S D D D D G G D G D D D D D D A c O 7 B V N N V V 9 > 9 C C C N x V D G G G / H / / u.u.u.u.u.u.u.u.u.u.i.i.u.i.u.u.u.u.u.u.u.u.u.f.f.g.p.) i.h.h.h.h.x.z.h.x.z.z.l.l.l.x.z.j.j.( ~ l.l.l.x.x.x.x.l.l.a.E r u M.( = O R Q ! R P u & # # & 5 t i p n K K T T R R R R R R R R R _ _ R T K p p p K T T T R R _ _ _ _ R R R T T T T U P P P R E E ! ! ! E U P p y p g P U E ! 1.1.1.>.>.>.! ! ! ! ! ! ! ! ! >.>.E Y Y Y Y Y Y Y Y Y Y E E ! ! ! ! ! ! ! >.>.>.>.>.>.>.>.>.>.>.>.>.>.! ! Y Y Y Y ! Y Y Y Y E ! ! ! ! ! ! ! ! ! >.>.1.! ! E Y Y U U U P p u p p P Y E ! E E Y U P g g p g K K i i i p K T E ! ! >.1.1.>.E U P P U U Y Y E E E E E E E E E E E E Y U P P k g p t * % $ & 8 K ^ ^ R _ 1.1.2.0.S.T.R.W.F.*.s.W.W.S.r -.Q.Q.I W.R.T.R.T.s.I.Y.A.L.Y.Y.Y.Y.Y.Y.Y.Y.Y.Y.Y.Y.Y.Y.Y.Z.E 2.Z.Y.Y.L.L.L.L.A.A.l.b.b.v.v.k.j.j.j.k.B.7 j.j.j.k.( j.j.j.x.v.v.x.n.n.n.n.x.n.n.n.n.n.n.n.n.n.x.x.x.x.x.g.h.h.g.u.p.g.h.j.x.j.g.h.h.h.z.h.h.h.h.h.h.h.h.h.z.g.g.g.g.g.g.g.g.g.g.f.f.g.g.",
"V V N V V V V V V V V V V A 9 @ 9 C V S V S S S Z S S Z S S A C x 9 B S F D D D D D D D D G D D D D D D S C 9 @ 9 C V N N V A x > 9 C A C N N V S D S D G H / u.u.u.u.u.u.u.u.u.u.u.i.u.u.u.u.u.u.i.) / u.) u.u.p.g.g.g.g.g.h.h.h.z.h.h.h.z.z.z.l.l.h.l.j.k.( ~ l.x.x.l.l.x.x.z.j.a.E r u ` ` W L ! ! ! ! P t & # # * t t u p P P P T T R T T R R R R R R _ E T T p i i p L T R E E ! ! ! _ R T K K L R E R P P P R ! ! ! ! ! E R P g p p g P U R ! ! 1.1.1.>.>.! ! ! ! >.>.>.>.>.! Y E Y Y Y Y Y Y Y Y Y Y Y E E ! ! ! ! ! ! ! 1.1.>.>.>.>.>.>.>.>.>.>.>.>.! ! Y E Y ! ! ! ! ! E E ! ! ! ! ! ! ! ! ! >.>.1._ _ E Y Y T Y E U g i y y p P Y E E E E U P k g g K T T K p i i p K T ! ! ! 1.1.1.>.U U P P U Y Y Y E ! ! >.! ! ! ! ! E E E U U P P p p y w * & $ & 5 T ^ ^ _ ! 1.1.2.M.v.R.W.G.*.s.W.W.V.r -.Q.Q.P T.R.T.R.W.` T.Y.Y.Y.Y.Y.Y.Y.Y.Y.Y.Y.Y.Y.Y.Y.Y.Y.Y.Z.>.2.Z.L.L.L.L.L.L.L.m.b.b.b.b.v.l.l.k.k.v.B.7 k.k.l.j.) / k.j.j.g.v.n.n.n.n.n.n.n.n.n.n.x.x.n.x.n.n.x.x.h.x.g.h.g.h.p.h.h.h.g.h.h.f.h.h.h.h.h.h.h.h.h.h.h.g.h.h.g.g.g.g.g.g.g.g.g.g.g.f.g.f.",
"N N N V V V V V V V V V V C 9 @ 7 C S V V V V V V S S Z S S A C x 9 V S D S D D D G D D D D D D D S D D S A c O 9 C V V V A A N > 9 S S A C A ~ D D S D G / u.u.u.u.u.u.u.u.u.u.u.u.u.u.u.u.i.p.i.p.u.u.p.p.p.u.f.g.g.g.g.g.h.h.h.h.h.h.l.z.z.z.l.z.l.x.h.j.( ~ j.x.x.l.x.x.x.l.l.a.E r t 6 ` _ ! Q ! R U p : % # % * t t u p m P K K T R R R R R R R R R E R T K p i p K T T E ! ! ! ! ! ! R K g K T R ! E P P U ! ! ! ! ! ! ! E P p p p k U E E E ! >.>.>.>.>.>.! ! ! >.>.>.>.>.! Y Y Y Y Y Y U U U U Y R R E E ! ! ! ! ! ! ! 1.1.1.2.1.1.>.>.>.>.>.>.>.! E ! ! ! E E E E E E ! ! ! ! ! ! ! ! E E ! ! ! ! ! ! E Y T T R E T P p u t u g U Y E E E Y U P P P T T T T T p t t p T E E ! ! >.1.1.E Y P P P P P U E ! >.1.! ! ! ! ! ! E E Y U U P g g p y t : & O & b ^ _ ! 1.1.1.1.` ( T.!.H.*.N.W.W.V.r -.!.Q.I T.T.Y.T.W.2.T.Y.Y.Y.Y.Y.Y.Y.Y.Y.Y.Y.L.Y.Y.Y.Y.L.P.Z.2.2.Z.L.L.Y.L.L.L.L.m.v.C.v.l.v.j.l.k.j.l.k.9 k.k.f.f.f.j.k.j.f./ ) j.n.n.n.n.n.n.n.n.n.x.x.n.x.n.x.x.x.x.x.j.j.c.u.g.l.g.g.c.h.g.i.g.h.h.h.h.z.z.z.h.h.h.g.g.g.g.g.g.g.g.g.p.f.g.g.g.g.g.f.",
"V V V V N N V V V V V V C A 9 O 7 C V Z V V S S S V S Z S D S C x 3 B S D S S D D D D G G D D D D D D D S C x O 9 C A Z S C V x > 9 V D A V C D D / G G / u.u.u.u.u.u.u.u.u.u.u.u.u.u.u.u.i.p.p.u.i./ G / p.u.p.g.g.g.p.p.i.g.h.h.h.h.h.z.x.x.x.x.l.x.x.l.j.a.L j.l.x.x.x.x.x.j.k.a.E r * O _ ! E Y E U p * # # # % * < * * t p b p K T T R R R R R R R R T T g p y y g U U E E ! ! ! >.! Y P g g U Y E Y U P U R ! ! ! ! ! ! ! Y P u p k P Y >.E E E >.>.>.>.>.>.>.Y Y >.>.>.>.>.! R R R R R R R R R R R R R E ! ! ! ! ! ! ! 1.1.2.2.2.2.2.>.>.Y Y ! ! Y E ! ! ! ! ! ! ! ! ! ! ! ! E E E E E Y Y Y Y Y E E R R R T T T T T T T U P u t p P U U E Y U U U U T T T U T T p t : t g U E ! ! ! >.1.1.! E P p p p k U E ! >.>.1.1.>.! ! E E E E E E Y P g p y t * % # t T E ! ! 1.1.1._ L Z.!.H.*.N.R.R.V.r -.!.Q.T T.T.T.R.W.s.T.T.Y.Y.Y.Y.Y.Y.Y.Y.Y.Y.Y.Y.Y.Y.Y.Y.P.Z.` M.Z.L.L.L.L.L.C.m.b.x.C.l.v.v.v.v.j.k.j.B.3 ~ k.j.p.) p.n.j.l.u.p.x.n.n.n.n.n.n.x.n.n.n.n.x.x.x.x.x.x.x.x.x.j.g.p.u.h.j.j.j.j.x.h.g.f.h.z.z.z.z.z.z.h.h.h.g.h.h.h.h.g.g.H u.g.g.g.g.g.f.f.",
"V V V V V N V V V V N V C A 9 O 9 C V V V S Z S S S S S S S S A x 3 c A S F D D S D D G G G D D D D D D D D c O 8 A V A V V V B + 9 V S S V V D / / / / u.u.u.u.u.u.u.u.u.u.u.u.u.u.u.u.i.i.i.p.i.u.) p.p.u.p.u.p.g.g.f.u.g.g.h.j.h.h.h.z.x.x.x.x.z.z.z.l.k.` L j.x.x.x.x.l.x.x.k.a.I 0 i _ ! ! ! ! U g : # . . # $ $ & & < 5 5 5 i i L T R R R R R R R R T P p i p g P U E ! ! ! ! >.>.Y Y k g k U Y Y Y Y U R E ! ! ! ! ! ! E U k p k k Y Y >.>.Y Y >.>.>.>.>.>.>.Y Y >.>.>.>.>.! Y Y Y R R R R R U U U U E E E ! ! ! ! ! ! _ 1.2.2.2.2.2.>.>.>.! Y Y Y Y E ! ! ! ! ! ! ! ! ! ! E Y Y Y Y Y Y U U Y Y E E R T R R R R T T T T T T p u t p P U U U U Y Y E R T U U U T K i t t i g Y E ! ! >.1.1.1.! U g u y u P E ! >.>.1.1.1.>.! E E E E E E E U P g p y : % # * p Y ! ! ! >.1.1.k.k.W.H.*.N.W.W.V.a -.!.W.n T.R.T.R.W.s.I.Y.Y.Y.Y.Y.Y.Y.Y.Y.Y.Y.Y.Y.Y.Y.Y.Y.P.Z._ M.Z.A.m.L.L.A.C.A.C.C.C.k.v.j.x.l.k.j.j.B.7 ( k.g.j.D l.v.x.x.j.j.x.n.n.n.x.n.n.n.n.n.n.n.n.x.x.x.x.c.x.x.x.j.l.f.g.j.j.h.j.j.x.x.z.h.h.z.z.z.z.z.h.h.h.h.g.h.h.g.g.g.g.g.g.g.g.g.g.f.f.i.",
"V V V V V V V V V V N V V C c O 9 C V V S S S Z Z S S S S S S A x 2 c S F D D S D S D S Z D D D S V D S S C 9 O 8 A S Z Z V C c 7 ~ D S D C S D G / D / / u.u.u.H u.u.u.u.u.u.u.i.i.u./ / u.p.u.u./ G Z u.p.p.u.p.g.g.f.f.h.h.g.h.z.h.h.x.l.x.x.h.z.z.z.x.j.` ~ j.x.x.l.x.x.x.x.j.` n t L ! Q ! ! ! g : % . . . O $ & & < 5 5 & & 5 i K T R R R R R R R T P g p p g P R E E ! ! ! >.>.! U k g k k Y Y ! ! ! E E ! ! ! ! ! ! R U P k k k Y Y >.>.>.Y Y >.>.>.>.>.>.>.! Y ! >.>.>.>.! R R Y Y R U U U U U U R Y E E ! ! ! ! ! ! ! 1.1.2.2.2.2.1.>.! Y Y Y h U R E ! ! ! ! ! ! ! E E E U U U U U U U U U Y Y U R T R R R R T T T T T U P u t y g P P U U Y E E E E R T T U T g t t t y P Y ! ! ! 1.1.2.1.E P p t y p P E ! ! >.1.1.! ! E E E E E E E Y U P g p t % # % w k Y E ! ! 1.1.` W Z.H.} N.R.R.S.r -.!.W.n T.T.T.T.W.s.T.Y.Y.Y.Y.Y.Y.Y.Y.Y.Y.Y.L.Y.Y.L.A.L.P.B._ M.Z.P.m.A.A.m.m.C.C.j.k.j.v.x.v.v.v.k.i.Z.9 ( l.v.l./ f.x.v.x.j.l.x.n.n.g.x.n.n.n.n.n.n.v.n.x.n.h.x.x.x.j.x.x.) p.g.j.h.j.h.h.x.h.h.z.h.h.h.h.z.h.h.h.h.h.g.h.g.g.g.g.g.g.g.g.g.g.g.g.f.i.",
"V V V V V V V N N V V N V C x , 7 C S Z Z V Z S S S S S S Z A A x 2 B S F D S S S S Z S S S D D D D D D S C 9 O 9 D A S A C C N 2 C D S D D D D D G D D / u.u.u.u.u.u.u.u.u.u.u.u.u.u./ / / / / / / / / ) p.i.p.p.p.f.f.g.h.h.g.h.h.z.h.h.z.x.x.x.z.z.h.l.j.` ~ j.x.x.x.x.x.x.x.k.( t R _ ! ! ! ! U y % # . . . O & 5 5 8 i 8 5 < 5 5 K T R R R T T L L L K g g K U E ! ! ! ! ! ! 1.>.Y k g k h Y Y ! ! ! ! ! ! ! ! ! E E R U P g g U Y Y >.>.>.>.>.! ! >.>.>.>.>.>.>.Y ! >.>.>.>.Y R R R R R U U U U U U U Y Y E ! ! ! ! ! ! ! >.1.2.2.2.>.>.>.Y Y Y Y h U U Y ! ! ! ! ! ! ! ! Y U P P P P k k P P U U U U R T R R T T T R R E E E U g y t p k P U U Y E E E E E R T T U K p y t t g U E ! ! ! 1.1.1.E U g y y u g U E ! ! 1.1.>.! ! ! ! ! ! ! ! E Y U P g y * % # % t P E ! ! ! 1._ 6 W D.} s.T.W.U.r -.W.U.n T.T.T.R.W.s.T.Y.Y.Y.Y.Y.Y.Y.Y.Y.Y.Y.Y.Y.Y.L.L.L.Y.Z.( M.A.L.A.A.L.A.b.n.b.p.j.v.b.C.v.v.v.a.k.Z.9 a.x.x.l.f.f.j.j.j.j.x.x.x.x.x.n.v.n.n.n.n.n.x.x.x.x.h.h.j.p.p.f.j.f.u.h.x.h.h.j.x.x.h.h.h.h.h.h.z.h.h.h.h.h.h.g.h.g.g.g.g.g.g.g.g.g.f.g.g.f.f.",
"V V V V V V N V V V V V V C x , 7 C S Z Z S Z S S S S S S S S A x 7 B S F S S D S Z S S S S S D D D D D S B x O 9 A V V Z V C N 7 ~ S D S D S D D S S D u./ / / / ) u.u.u.H u.u./ H / ) ) / / / / ) ) ) u.p.p.p.) p.f.g.g.h.h.h.h.h.h.z.h.z.x.x.x.z.h.z.j.p.` ( j.x.x.x.x.l.x.l.j.W R Q Q Q R ! R g : # # O O $ & 8 i i i i i i 5 5 5 K T R R L L L L L K K K P R ! ! ! ! ! ! 1.1.1.! U g g h Y Y ! ! ! >.>.1.1.! ! ! E E R T K p g Y Y >.>.>.>.>.>.! Y ! >.>.>.>.>.>.Y Y >.>.>.>.Y Y Y Y Y Y U U U U U U U Y Y E ! ! ! ! ! ! >.>.>.>.>.>.>.Y Y Y Y Y Y U U Y Y ! ! >.>.>.>.! E Y U k k k k k k P P P U U U E R R R R R T R E E E E E U g y y p U U U U E E E E E R R T T P K p i y p P E ! ! ! >.1.>.! E Y p u u p P Y ! ! >.1.1.>.! ! ! ! ! ! >.! E Y U P p t * % % % g Y ! ! ! ! _ ^ ^ 1.} s.T.R.U.r -.Q.U.m T.T.R.T.W.` T.Y.Y.Y.Y.Y.Y.Y.Y.Y.Y.Y.Y.Y.Y.Y.L.A.A.b.v.B.C.A.A.m.L.A.m.m.x.j.v.l.l.j.f.g.k.j.j.Z.9 j.l.x.j.f.l.l.l.p.j.x.x.x.x.x.v.x.n.x.x.n.x.x.x.h.l.x.x.j.j.i.j.j.p.p.g.g.g.h.j.j.x.z.z.h.h.h.h.h.h.h.h.h.h.h.h.g.g.g.g.g.g.g.g.g.g.f.f.f.i.f.",
"V V V V V V V V V V V V V C 9 , 7 C S S Z S Z S S S S S S S S A x 2 B S F D D D S S D D S S S Z D D D S Z V 9 O 9 A V C S A A N 2 C S A S D A S D D D / / / G G G H H H / H H H u.u./ / ) / G / S z / ) ) u.) / ) ) g.g.h.g.g.h.h.h.z.h.z.h.j.h.h.z.z.l.j.p.` ( j.x.x.x.x.x.x.l.( L ` ^ U Q T R P y & # # $ $ & 5 i i b b K K i 5 5 5 p R R L K K p p K g K P U ! ! _ 1.1.1.1.1._ >.Y k p g U ! ! ! ! >.>.1.2.1.1.! ! E R U P g g k Y >.>.>.>.>.>.>.>.! >.>.>.>.>.>.>.Y Y Y >.>.! Y Y Y Y Y Y U P U U U P U Y Y E ! ! ! ! ! ! >.>.>.>.>.! Y Y Y Y Y Y Y Y Y Y Y ! >.>.>.>.>.>.! Y U k k g g k k k k k P U U E E E E E E R E E ! ! ! E E U g y u U U Y U Y E E E E E R U g K P K g p y p P E ! ! >.! ! >.! ! P g u p g P E ! 1.1.1.>.! ! ! ! ! ! ! ! E Y U P p y - % % # y U ! ! ! ! ! _ _ g a 3.T.R.G.a -.W.G.m T.T.T.R.W.` T.Y.Y.Y.Y.Y.Y.Y.Y.Y.L.Y.Y.Y.Y.Y.L.L.L.L.L.A.L.A.v.n.A.A.A.b.v.p.v.v.v.x.p.l.k.j.k.B.7 a.j.j.h.l.l.j.x.j.g.j.x.j.j.h.v.x.x.x.x.x.x.x.x.j.l.x.l.g.g.p.~ p.) p.u.f.f.p.g.j.h.z.h.h.h.h.h.h.h.h.z.h.h.h.h.g.g.g.g.f.g.g.g.g.g.f.i.i.i.f.",
"V V V V V V V V V V V V V C 9 @ 7 C S Z S Z V Z S S S S S S S A x 2 B S D D D D S D D D D D S D D D G D Z V 7 O 9 C V C C C C x 2 C S V S D D D D D D G / / / / G H / / / H H u.u.u.u.u.u./ / G D / / ) / / / / ) i.g.g.h.g.h.h.h.h.h.h.z.h.l.h.z.z.z.z.j.j.( ( j.x.x.x.x.x.x.f.7 f ^ Q R R U T g 5 # # % & & 5 t i b b b b i t 5 5 5 i K K i 5 5 5 5 t i g T E ! 1.1.1.1.1._ ! ! E U g g U Y Y Y ! ! >.>.1.2.1.1.! ! ! R P g g g U Y >.>.>.>.>.>.>.>.>.>.>.>.>.>.>.-.Y Y Y Y Y Y Y Y Y Y U P k k k k k k k U Y E ! ! ! ! ! ! ! ! ! Y Y Y Y Y Y Y Y Y Y Y Y Y E ! >.1.1.>.1.1.>.E Y k g g g k k k k k P P U E ! ! ! ! E E ! _ _ 1.1.>.E Y P p u P U E U Y E ! ! E E E T i g T T P g t t u U ! ! >.! ! ! >.>.E k p u p k Y ! >.1.1.>.! ! ! ! ! ! ! ! ! Y k p u t : * $ # & p Y ! ! ! ! ! _ ` -.3.T.R.G.r -.W.G.P T.T.T.R.W.` T.Y.Y.Y.Y.Y.Y.Y.Y.Y.Y.Y.Y.Y.Y.Y.L.A.A.L.L.L.L.C.m.A.L.A.A.m.l.) l.l.x.j.p.g.j.f.p.k.3 k.k.l.j.j.x.j.x.l.j.f.x.l.j.j.x.x.x.x.x.x.x.x.x.x.x.x.h.h.g.f.S / / ) u.p.p.p.g.g.h.h.h.h.h.g.h.h.h.h.h.h.h.h.h.g.g.g.g.g.g.g.g.g.g.p.p.p.f.f.",
"V V V V V V V V V V V V V C x @ 7 C Z Z Z V V V Z S S S S S S A 9 2 B S D D D D D D D D D D F D D D G D Z N 7 O 9 C C V V V C x 2 x C A S D S D D G D D ~ / / G / / H / / u.u.u.u.u.u.u.u.u.u.H G / D G / G / / ) p.g.g.h.h.h.h.h.h.h.h.h.h.h.h.h.z.z.z.j.k.` ( j.x.x.x.x.x.l.~   6 ^ Q R R R L i 5 # # & * 5 i i b b i i t 5 5 5 5 t i i i 5 & $ $ & : 5 p U E 1.1.1.1.1.! ! ! ! U g k U Y Y Y h Y ! >.>.1.2.1.1.! ! ! U g p p k U Y >.>.>.>.>.>.>.>.>.>.>.>.>.>.>.>.Y Y Y Y Y Y Y Y Y Y Y P k k k k k k k Y Y E >.E E E E ! ! ! ! Y Y Y Y Y Y Y Y Y Y Y Y Y E ! >.>.>.>.1.1.1.>.Y P k k k k U U U U U U U R E ! ! ! E ! ! ! ! _ 1.1.>.E U p y p P U Y U U E E E E R T p p P U T g p t t g E ! ! ! ! ! ! >.E U g u p g U Y E ! >.>.! ! ! ! ! ! E E U k u y t t : % % # # : P ! ! ! ! ! _ _ ^ 2.T.R.S.r -.W.G.T T.Y.Y.T.W.` T.Y.Y.Y.Y.Y.Y.L.Y.Y.L.L.Y.Y.Y.Y.L.L.L.L.L.L.L.C.b.L.L.A.m.A.v.j.k.j.l.j.p.) j.i.p.) 2 a.k.j.k.j.j.j.j.j.j.f.j.l.g.j.l.l.x.x.x.x.x.x.x.x.x.x.h.h.j.g.u./ u.p.u.f.) ) p.g.h.h.h.h.h.h.h.h.h.h.h.h.h.h.h.g.g.g.g.f.g.g.g.g.g.g.g.f.p.i.",
"V V Z V V V V V V V V V Z C x @ 7 V V V V Z Z Z V Z S S S S S A x 3 B S D D D D D D D D D D F D D D D D S B 9 O 9 B C C C V C x 2 x V V S D D D D D D D D D D G H G G H u.u.u.u.u.u.i.u.u.u.u./ / / G / / G S / u.u.f.g.g.g.h.h.g.g.h.h.h.h.h.h.h.z.z.l.l.k.` ( j.x.x.x.x.l.) B ; L Q R R R R K 5 & # # & 5 i b b i i i i 5 5 5 5 t i i i 5 & $ $ $ & 5 5 g E ! 1.1.1.1.1.! ! E R P g h Y ! Y h k Y >.1.1.1.2.2.1.1.! ! U g u p P Y Y >.>.>.>.>.>.>.>.>.>.>.>.>.>.>.>.>.Y Y Y Y Y Y Y Y Y Y U k k k k k k k P Y Y E E E E E E E >.! Y Y Y Y Y Y Y Y Y Y Y Y Y E ! ! >.>.>.1.1.1.>.! Y Y U U Y U U U U U U U R E ! ! ! E E ! ! ! _ 1.2.1.>.E P p y g P U U U T T R T T U g g P E U P P y t u P E ! ! ! ! ! ! ! Y k g p p k P U E ! ! E E E E E E U P g u t w t t : * % # # # t U ! ! ! ! _ _ _ 2.S.R.S.r -.W.G.P T.Y.Y.T.W.` T.Y.Y.Y.Y.Y.Y.Y.Y.L.L.m.Y.Y.Y.Y.L.L.Y.L.L.L.L.m.n.L.L.L.A.L.b.k.j.p.f.f.i.p.j.f.p.) 2 ( j.p.j.f.f.k.j.j.j.j.j.j.j.x.l.h.j.x.x.x.x.x.x.x.x.x.h.h.h.f.p.p.p.u.u.f.) ) p.g.h.h.h.h.h.h.h.h.h.h.g.h.h.g.h.g.g.g.f.g.g.g.g.g.f.p.f.i.i.i.",
"V V V V V V V V V V V V A A 9 @ 7 C S S S S S S Z Z S S Z Z S A x 3 B D D F D D D D D G D D D D D D D D D c 2 @ 9 c x V C C C N 2 9 V D S D ~ D D D S D D D / / G G / / u.u.u.u.u.u.u.u.H u./ G / / / G / / D / / u.u.g.g.h.h.h.g.g.h.h.g.h.h.h.z.x.h.h.j.k.` ` j.x.x.x.x.f.( Q Q Q R R R R R i & # # & * t i f K f i i 6 5 5 5 5 i g i i 5 & $ & & * 5 i T ! _ 1.1.1.1.1.! E U P P P Y ! ! U k k Y >.1.2.2.2.2.1.1._ ! P p i g U E Y >.>.>.>.>.>.>.>.>.>.>.>.>.>.>.>.>.Y Y Y Y Y E E E Y Y Y k k k k k k k k Y Y Y E E -.-.-.>.-.Y Y Y Y Y Y Y Y Y Y Y Y Y Y Y Y E -.-.>.>.2.1.1.>.E ! ! E E Y U U U Y Y U R E ! ! E E ! ! ! ! 1.1.1.1.1.E P g y p g P P P T U U T T T K g T E U T U p t y g P E ! ! ! ! E ! E U P g g g g P U E E U U U U Y U k p u u t t t y t w * % . # # y Y ! >.! ! _ _ ` Z.T.S.r -.Q.G.P T.Y.T.T.W.` T.Y.Y.Y.Y.Y.Y.Y.Y.L.L.Y.Y.Y.L.L.Y.Y.L.Y.A.A.A.m.b.A.L.A.m.m.l.f.j.j.j.j.k.k.p.p.j.k.3 a.k.j.p.k.j.j.j.k.p.p.j.j.g.j.j.x.x.x.x.x.x.x.x.x.x.x.z.h.h.p.f.p.p.p.f.j.) / ) p.g.h.z.h.h.g.h.h.h.h.h.g.g.g.g.g.g.h.f.f.g.g.g.f.g.g.f.f.p.i.",
"V V V Z Z V V V V V V V V C 9 @ 7 C Z S S S S S Z V V S S S S A 9 < B S D D D D D S S F D D D D D D D D A x 2 O 9 B C V A C C x 7 A C S S D D D C C S A D D / G / / / ) u.u.u.u.u.u.u.u.H u.u.G G u.u.G D ) / D ) ) p.g.g.h.h.g.h.g.h.h.z.h.h.h.h.h.x.h.j.k.a.( j.x.x.x.x.~ L Q W R R R R R R 6 # O # & 5 i i K K f i i 6 6 6 6 i g K p i 5 5 * * 5 5 i K U ! 1.1.1.1.1.1.! R P g k Y Y ! ! U k U ! 1.2.2.2.2.2.2.1.1.E g g p K U E Y >.>.>.>.>.>.>.>.>.>.>.>.>.>.>.>.>.Y Y Y Y Y Y E -.Y Y Y P k k k k k k k Y Y Y Y E -.-.>.>.>.-.Y Y Y Y Y Y Y Y Y Y Y Y Y Y Y -.-.E E >.>.>.>.>.! >.>.>.! E Y Y Y Y Y Y U E ! E E E E ! ! ! ! 1.>.! >.! Y P u y u g P P T T U U T T K P T R T U P g u y u p E ! ! ! E E ! E Y U P k g g g P U U U U U U U U p y u y u p u p p u t * # # # % p Y >.E E E ^ R ` T.S.r -.W.G.n I.Y.Y.T.W.s.T.Y.Y.Y.L.Y.L.L.L.L.Y.Y.L.Y.Y.Y.Y.Y.Y.A.f.n.A.m.b.C.A.A.b.n.f.p./ k.k.a.j.f.j.p.j.k.7 k.k.f.) j.j.j.p.p.) p.j.j.g.j.x.l.x.x.x.x.x.x.x.x.x.x.x.g.f.f.p.g.g.) u.p.p.p.) ) p.g.h.h.h.g.h.h.h.g.g.h.h.h.g.g.g.g.g.f.g.f.f.f.f.f.f.f.i.i.",
"V V V V V V V V V Z V V V C 9 @ 7 S S S S S S S Z V V V S V S A 9 , c S D D D D D S V D D D S V V V V A x 9 < + 9 B C C C C A N 2 B A A S D A C C D D D D / / D D G / ) u.u./ / u.u.u.u./ / u.u./ i.u.) D ) ) / p.) p.f.g.h.h.g.h.h.g.h.h.h.h.x.z.z.h.z.x.j.` ` j.x.x.x.l.~ f U R R R T T T g : . . $ * 5 i i f K f i f f f f K K K K K p i t t t y p K U E ! 1.2.1.1.1.! E P g g P Y E ! ! Y Y ! 1.2.2.2.2.2.2.1.1.! T g g g P E E E >.>.>.>.>.>.>.>.>.>.>.>.>.>.>.>.>.Y Y Y Y Y E >.>.E Y Y P P k k k k k P Y Y Y Y E ! ! ! ! E E Y Y ! ! ! ! ! ! ! ! Y Y Y Y Y E E E E >.>.>.>.>.>.>.>.>.>.! Y Y E Y E E Y E E E E E E E ! ! >.! ! ! ! ! E U p y y p g g K T T T T T K P T T T T U P g i y y T E E E E E E E T U P P K g p p p K K P P T T T p y y i g g g g g p u t & % # # : g E E ! ! ! R L I.S.r -.Q.G._ T.Y.Y.T.W.s.T.Y.Y.m.Y.Y.Y.Y.Y.Y.Y.Y.Y.Y.Y.Y.Y.Y.Y.h.m.A.L.m.C.A.x.v.v.b.j.) / l.j.j.k.j.p.p.p.v.7 k.k.j.p.j.k.j.) i.i.p.j.j.f.) j.x.x.x.x.x.x.x.x.x.x.h.g.x.h./ u.g.p.D p.f.u.g.p.u.g.h.h.h.h.g.g.h.g.h.h.g.g.g.g.g.g.g.g.g.f.g.f.f.f.f.f.p.i.u.",
"V V V V V V V V V V V V C C 9 @ 7 C S S Z S S S S S S V Z V S A 9 , B D D D D D V M D D D D S S S D S C x 9 9 O 7 B A A C C A N 2 B x V C S D A D D D D D D ~ / / / / / H u./ u.u.u./ u.u.u.u.u.i.u.u.) ) ) u.i.i.p.p.p.g.g.g.h.g.g.h.h.h.h.h.h.h.h.h.z.x.j.` ` j.x.x.l.f.` R T U Y U T U g & . $ $ $ : t i p g K K K L L L L L T T P P k g g p p g P U E ! _ 1.1.1.1._ ! P p i g U E E ! ! ! >.1.2.0.0.2.2.1._ 1.! U g p g P U E E >.>.>.>.>.E E >.>.>.>.>.>.>.>.>.>.! ! ! ! ! ! ! >.! E Y U U Y U U P P P U U Y Y Y E ! ! ! ! ! ! ! ! ! ! ! ! ! ! ! ! ! ! E E ! ! E ! ! ! ! ! ! ! >.>.>.>.>.>.>.>.>.>.>.>.-.! E E E E E E E E E E E ! _ _ _ E K t t i p p K K T T R T K K K T R T U T L g i t i T E T T E E E T R T K K p i t 5 t i i K L T K g i i g g K K K p i t 5 * & # # * t P E _ _ ! R 8 B.S.r -.Q.G.s.I.Y.Y.T.W.M.I.Y.Y.L.L.A.L.L.Y.L.L.x.L.Y.Y.Y.Y.L.p.n.A.A.L.m.n.v.l.b.v.p./ D k.k.j.g.j.p.f.i.) B.7 ` p.p.f.p.p.p.p.a.k.j.f.g.j.u.h.h.x.x.x.x.x.x.x.x.x.x.h.x.l.l.h.g.g.g.p.g.u.g.g.g.g.h.h.h.h.h.g.h.g.g.h.h.g.g.g.g.g.g.g.g.f.f.f.f.f.f.f.p.i.i.",
"V V V V V V V V V V V V V A 9 @ 7 C S S Z S S S S S Z V Z V A C 9 , B F G G G G D S D D D D S S D A V V x 7 7 @ 9 B V V V V C x 2 c V A S D D D D A S D D D D G G G / / / u.u.u.u.u.u.u.u.u.u.u.i.i.u./ / / / u.u.i.p.g.f.f.g.h.g.h.h.h.h.h.h.h.h.z.z.z.x.j.( ` j.l.x.h.C ^ R R Y Y U T g * . . . $ : y i f p p K K K T L L T T T T P k k g g p p k U E ! 1.1.1.1.1.! ! ! K p g P U E E E ! ! ! 1.2.0.0.2.2.1.E ^ E P p p K T T Y E E E E E E E Y Y >.>.>.>.>.>.>.>.>.! ! ! ! ! E ! >.! E E U U Y Y U U P P U U Y Y Y ! ! Y Y Y Y ! ! ! ! ! ! ! ! ! ! ! ! ! ! ! ! ! ! ! E E E E E E >.>.>.>.>.>.>.>.>.-.-.-.! ! E E E E E E E >.E E E _ _ _ _ E T u t i K L T R T R R T K K K K T T T T T P p i t K T R T E E R T R T K p i t 5 5 5 5 t i g K K i y i i g K K K p i i t 5 & # # & : g U ! ! ! R ^ W V.r *.W.G.s.Y.T.T.T.W.M.I.P.L.A.L.L.L.A.A.L.Y.L.L.Y.Y.Y.Y.L.A.L.m.L.L.m.n.n.b.v.j.p.~ A / / f.f.p.p.p.p.p.k.3 ( ( f.i.) j.p.) i.i.j.f.f.p.j.h.x.x.x.x.x.x.x.x.x.x.x.x.x.j.j.h.g.g.p./ ) f.g.h.g.g.h.h.g.h.g.g.g.h.g.h.h.g.g.g.g.g.g.g.g.f.f.f.f.f.p.p.p.p.i.",
"V V V V V V V V V V V V V A 9 O 7 C S S Z Z S S S S S S Z V A C 9 2 B D G G D D D D D D G D S S Z N V C x 7 7 @ 7 x N N N x V x > x N C C A C D D S S D S D D G G / / / u.u.u.u.u.u.u.u.i.i.u.i.u.i.u.u./ G G ) i.p.g.f.f.g.g.h.h.h.g.h.h.h.h.h.h.h.z.z.x.k.` ( k.l.x.g., ^ R R Y Y Y P t . . . $ - : y f f g p K K K L L L T T T P P k k g g p g P E >.1.1.1.1.1.1.! ! R g p g T U E E E E E E 1.2.0.0.2.1.^ E E Y K p K P T T Y E E E E E E Y Y Y E >.>.>.>.>.>.>.>.! ! E ! ! E ! ! ! E E E Y Y Y U U U U U U Y Y Y ! ! ! Y Y Y ! ! ! ! ! ! ! ! ! ! ! ! ! >.>.>.>.>.! E E Y Y E E >.>.>.>.>.>.>.>.>.>.E -.! E E E E E E E >.>.E E ^ ^ _ _ _ ^ T K i i K T T T E E _ E K K K K K T T T T T P p 5 i T T T T E R T R T K p i t 5 5 5 : 5 6 i i f i 6 5 i i i p p p i i i t * $ # # & p P E E E R ^ L M.0 -.W.S.V.T.Y.Y.Y.W.M.I.Y.L.L.L.Y.L.m.L.L.Y.L.L.Y.Y.Y.L.L.A.L.L.L.A.n.n.v.j.f.k.k.( / ~ ) j.j.j.) p./ ) k.3 ` ( f.j.j.) i.p.i.p.f.f.f.p.j.h.l.x.x.x.x.x.x.x.x.x.x.x.c.x.j.j.g.p.p.p.h.h.g.g.g.g.i.g.g.h.g.h.g.g.g.g.h.g.g.g.g.g.g.g.g.f.f.f.f.p.p.p.p.u.u.",
"V V V V V V V V V V V V V C 9 O 7 C V V S Z S Z S S S S S Z Z C 9 2 A D D G D D D D F D G S Z Z V V C V 4 9 7 @ 8 x C V N x C x 2 B V A C C A D D D D D S D D D G H / / u.u./ u.u.u.i.u.u.u.u.i.i.u.u.u./ G S / u.u.u.u.g.g.g.h.h.g.g.h.h.h.h.h.h.h.z.z.j.j.` ( j.z.x.g.O ^ R E Y Y Y g : . . . & : y f f f p p K K K L T T T T T T P k k g g p k U ! 1.1.1.1.1.1._ ! E P g g P U Y E E Y Y Y Y >.2.0.2.2.1.^ ^ E T K n T T T E E E E E E E E Y Y Y E >.>.>.>.>.>.>.>.>.E E E -.-.E ! ! E E E E E E Y U U U U Y Y Y Y ! Y Y Y Y Y ! ! ! ! ! ! ! ! ! ! ! ! ! >.>.>.>.>.! E E E E E E >.>.>.>.>.>.>.>.>.>.E ! E E E E E E >.>.>.>.E E ^ ^ _ _ ^ ^ E T p i K T T T E E _ E R T K K T T R T T R T K t t p T T T E R T R T K K p i t 5 5 : 5 5 5 6 t 6 5 5 6 i i i i i i i i i 5 & # # % y g U R R R ^ ^ ` % *.Q.U.Z.Y.Y.Y.T.W.M.P.Y.Y.Y.L.L.L.L.Y.Y.L.L.A.Y.Y.L.L.L.L.A.m.m.L.m.n.j.l.l.j.p.( j.l.j.k.) j.j.j.~ / v.4 a.p.j.j.j.) p.j.p.f.f.f.p.p.j.g.h.x.x.x.x.x.x.x.x.x.x.x.h.z.x.c.h.g.g.D u./ i.i.g.i.p.g.g.h.h.h.g.g.g.g.g.g.g.g.g.g.g.g.g.f.p.p.p.p.f.f.p.u.i.",
"V V V V V V V V V V V V V C 9 O 7 C V S S S S S S Z S V A S A A 9 2 B D D G D D D D D D D D S Z A Z V B 4 9 7 @ < x x x 4 4 x 9 , B V V C C V S D D D D S S D / G / / / u.u.u.u.u.u.u.H H u.i.u.u.u.) ) / ) / u.i.p.i.u.g.g.g.h.g.g.h.h.h.h.h.h.h.h.z.z.x.k.` ( j.z.l.f.O ^ R E Y Y U y % . . $ $ 6 f g f i p p K K K L L T T T T T P P k g g g P Y ! 1.1.1.1.2.1._ ! U g K P P U Y E Y U U U U ! 2.0.2.1._ ^ ^ E T K K T T E E ! >.>.>.>.>.-.E E E >.>.>.1.>.>.>.>.>.>.E E E -.-.E E E E E E E ! E E E Y U U U Y Y Y ! Y Y Y Y Y ! ! ! ! ! ! ! ! ! ! ! ! ! E E E E E ! ! ! ! ! ! ! >.>.>.>.>.>.>.>.>.>.E ! E E >.E >.>.>.>.>.>.E E ^ E ! _ ^ ^ E T K i i K T T R E E ^ E T T T R T R T K T T U i t i K T T E R T R T T K K i t t t 5 5 ; : : 5 5 : : 5 t i t t 5 t i i p t 5 & % & t p U U Y T R ^ R # a U.S.S.Y.T.Y.T.W.M.P.L.Y.L.A.L.Y.L.L.Y.L.n.m.L.Y.L.L.L.L.L.L.L.A.A.n.l.l.v.j.( ( j.f.) p./ ~ ) ) ~ ~ B.3 ( p.j.) ( ) p.j.f.f.i.p.p.u.g.g.h.x.x.x.x.x.x.x.x.x.l.h.x.z.z.h.h.f.u.u.H p.h.h.h.g.h.g.g.g.h.h.h.h.h.g.g.g.g.g.g.g.g.g.f.f.p.f.p.p.i.i.p.p.p.",
"V V V V V V V V V V V V V C 9 O 7 C S S S Z S S S S S Z V Z S C 7 , B D D D D D D D D D D D S A S S A N 9 x 9 , < B C V x x N x , C A S D A A D A S G D S S D / G / u.u./ u.u.u.u.u.u.u.u.u.u.i.i.u.u.u.u.u.p.i.i.p.u.u.g.g.g.g.g.h.g.h.h.h.g.g.h.h.h.x.x.j.` ( j.z.x.p.O R E E U Y g : $ . . $ : y f g f f g K K K L T R R T T K P P g g g g k P E ! 1.1.1.1.2.1.! ! P g P P P U Y Y Y U U U Y ! 2.2.2.1._ _ _ E U K P Y E ^ ^ _ >.>.>.>.>.>.>.>.>.>.>.>.>.>.>.>.>.>.>.>.>.>.>.E E E E E E E E E E E E E Y U Y Y Y Y E ! ! ! ! Y E ! ! ! ! ! ! E E ! ! E E Y Y Y Y Y Y E ! ! ! ! >.>.>.>.>.>.>.>.>.>.>.>.>.>.>.>.>.>.>.>.>.>.>.! ! ^ ^ _ _ ! ^ E E K i i p T T T R E E _ E R T T T R K b L T T K t t p T T E R T T T T T L K p i i 5 5 5 6 6 6 5 5 5 5 6 5 * < 5 5 i i p i 5 * & & * u P Y U U U R L 5 u U.V.I.Y.Y.Y.T.T.M.P.L.Y.P.Y.Y.L.Y.Y.Y.m.m.L.Y.Y.A.L.Y.L.Y.L.L.m.n.b.h.l.x.l./ D p.j./ ) / ~ j./ ( p.k.2 ( a.j.p.v.a.p.p.f.j.p.p.p.p.g.h.h.x.x.x.x.x.x.x.x.x.x.x.x.x.z.h.g.p.p.p.p.g.g.g.h.p.h.h.h.g.g.h.h.h.h.g.g.g.g.g.g.g.g.g.f.p.f.g.f.f.p.i.u.p.p.",
"V V V V V V V V V V V V V V 9 O 7 A Z S Z S S S S S S V V V S A 9 , B A V V D D D D D D D S S A S S C B x x 7 @ < x V N N N N 9 2 C C A D A V D D V A A A Z D G G / / u.H H u.u.u.u.u.u.i.i.u.i.u./ G G ) i.i.i.i.u.f.p.f.g.g.i.g.h.g.g.h.h.h.h.h.z.h.h.h.j.` ( j.z.h.~ O T T E U Y g : # . $ $ : y f f f K K K K L L R T R T L K K g p p p k P Y E >.1.1.1.1.1.1.! R g g P P P P U E E E E E ! 1.2.2.2.1.! E ^ Y K p T Y E _ _ _ >.>.>.>.>.>.>.>.>.>.>.>.>.>.>.>.>.>.>.>.>.>.>.>.! ! ! E E E E E E E E E E Y Y Y Y Y E ! ! ! ! E E ! ! ! ! ! ! Y Y Y ! E Y Y Y Y Y Y Y U Y E ! >.>.>.>.>.>.>.>.>.>.>.>.>.>.>.>.>.>.>.>.>.>.>.>.>.! ^ ^ _ _ ! E T T T i t i K P R T T R ^ E R R T T T K p K T T T p t i K T T T R T R T T T T L p i t t f P K f i 6 6 5 5 5 & & * 5 i p p i i 5 * & * t p P U U U U U Q 1.G.M.I.T.Y.Y.T.T.B.P.L.L.P.Y.L.A.L.L.L.n.Y.C.L.L.L.L.Y.L.L.L.L.n.n.b.l.l.l.f.p.~ j.j.) ) ) ) k./ p.) k.2 ( ( j.j.v.j.f.p.p.i.) i.p.) g.h.h.x.x.z.x.x.x.x.h.x.x.j.g.h.h.h.u./ u.g.g.h.g.g.g.g.f.h.l.g.g.g.h.g.g.g.g.g.g.g.g.g.g.g.p.p.p.f.f.f.i.f.p.f.f.",
"V V V V V V V V V V V V V C 9 O 7 D Z V Z S S S S S Z Z S S S A 7 , B S D D D D D D D D S Z S S V N V N x 9 2 O 8 B x V V x N x 2 C V V V V V A V x N C C V D G / / H H / H u.u.u.u.u.u.u.u.u.u./ D A G p.p.i.g.i.i.u.u.H H g.g.g.h.h.i.h.h.h.g.h.h.h.z.z.k.` ( j.h.u.~ T ! E E Y k y * # . % * : y y f f K K K K L L T T L L K g g g p g k U E E ! 1.1.1.1.1.1.! E P g g g g g P U E E ! ! >.>.1.1.1.1.! E Y E T p p P E ^ ^ _ _ >.>.>.>.>.>.>.>.>.>.>.>.>.>.>.>.>.>.>.-.>.>.>.>.! ! ! E E E E E E E E E E Y Y Y Y Y E Y Y ! Y E E ! ! ! ! ! ! Y Y ! ! ! E Y Y Y Y Y Y Y Y E ! ! >.>.>.>.>.>.>.>.>.>.>.>.>.>.>.>.>.>.>.>.>.>.>.>.! ^ ^ _ _ _ ^ R R T p i i p K R T T T ^ R R R T T K K i i p L T T i t i K T T E E T T T T T T K p i i f T T K K K i t 5 5 * * 5 t i p b p i t 5 * & w u k P U U U U R ! M.` T.T.T.T.T.W.M.Z.Y.L.A.C.A.L.L.A.L.L.m.b.A.L.L.Y.L.Y.Y.Y.Y.m.m.b.n.l.j.) p.~ ( N N ( j.( k.( / p.k.7 ( a.j.p.v.i.i.p.~ ) ) ) ) p.j.x.v.x.x.x.x.x.x.x.x.h.h.h.h.h.h.g.D D p.h.h.h.g.h.g.p.G u.h.h.g.g.h.h.g.g.g.f.g.g.g.g.g.g.g.p.g.f.f.f.f.p.u.i.i.",
"V V V V V V S Z V V V V V C 9 O 7 D Z V S S S S S S Z Z S S D A 7 , L D D D D D D D D Z V S S S Z A C V N B 7 O < 9 x C V C V x 2 B C S C C C D C V z x C S S G G G / / u.H u.u.u.H / G u./ / u.u./ D D / / g.i.i.u.u.p.u.f.g.g.f.g.p.i.g.g.g.h.h.h.h.z.z.j.( ( j.h.G L ^ R R E E p : % # $ & : : w y f f K K K K K K L L K K K g g g g k U E ! >.1.2.2.1.1.1.! E P K g g g p g g U E ! 1.1.1.>.>.>.>.E Y U T T K p p T E E ^ _ ! ! >.>.>.>.>.>.>.>.>.>.>.>.1.1.>.>.1.>.>.>.>.>.>.>.! ! E E E E E E E E E E Y Y Y Y Y E Y Y Y Y E E ! ! ! ! ! ! Y Y ! ! ! E Y Y Y Y Y Y Y Y E ! >.! >.>.>.>.>.>.>.>.>.>.>.>.>.>.>.>.>.>.>.>.>.>.>.! ^ ^ _ _ _ ^ E E T p i i p K R T T T ^ R T T T T T p t 5 t K T T K t t i T T E ! E E R R R T K K p i K T R T R T K f i t t t t i p K K K p i t * % w t u k Y U U P U ! 2.k.Z.T.T.Y.T.!.M.Z.L.L.L.A.L.A.A.A.Y.L.n.A.L.L.Y.Y.Y.m.L.Y.L.m.n.m.b.v.k.l.~ j.j.a.( ( ) k.j.f.j./ ) 2 ( p.f.g.v.i.p.p.a.p.) ( p.p.f.h.h.x.x.x.x.x.g.x.j.) u.g.h.h.p.p.p.p.) / p.h.h.h.f.i.u.u.f.h.g.g.g.g.i.g.g.g.g.g.i.g.g.f.p.p.p.f.p.f.p.p.u.u.u.",
"V V V V V V V V V V V V V C 7 O 7 S V Z S S S S S Z V V V V A A 9 , B D D D D Z V Z Z V D D D D S S S V C B 7 O < c V C C V C x 2 B C S A A V V C V C C D G D G G / / / / u.u.u./ ) u.u.u./ G D / / / Z / S G p.i.) ) ) i.f.g.g.f.g.g.u.i.g.h.g.g.g.h.z.z.j.( ( j.p.N s ^ T R E Y u % % # $ & : : : 6 y f K K L K K K K K K K K K K P k P Y ! 1.1.1.2.1.1.1.! E P g g K P g y y g U ! 1.2.2.1.>.! ! ! E U U T T p i p U E ^ _ _ E ! >.>.>.>.>.>.>.>.>.>.>.>.1.1.1.1.1.1.>.>.>.>.>.>.! ! E E E E E E E E E E Y Y Y Y Y Y Y Y Y Y Y E ! ! ! ! ! ! Y Y Y ! E E Y Y Y Y Y Y Y Y Y E ! ! ! ! ! ! E -.>.>.>.>.>.>.>.>.>.>.>.>.>.>.>.>.>.! ^ _ _ _ _ _ ^ E R p p p K L R T T T ^ R R R T T T p 5 5 i K T T T i t t K T T E _ ^ E E E R T K g i g L R R R R L L K K i i i p K K K K K i u u * * 0 u a P P U U h Y ! L B.P.Y.Y.T.I.M.Z.A.A.A.A.A.A.C.A.A.m.A.m.L.L.L.A.n.h.n.A.n.n.b.A.m.l.l.l.l.k.) ~ ( ) ) ) v.j.p.) k.3 ( p.p.j.v.i./ ) ( p.D A i.j.p.g.h.h.h.x.x.z.h.j.h.j.j.g.g./ G u.p./ ) p.H / g.g.i.u./ p.g.z.h.h.g.g.i.i.g.g.g.g.f.g.g.g.g.p.p.f.p.i.i.i.i.u.u.",
"V V V V V V V V N V V V V B 7 O 7 D S Z Z S S S S Z V V N N V C 9 , B D D D D D S D D D D D D D D S S A V B 9 O < c C V N V V N 3 C V C V A V V C V N V D D D D / / / / / / u.u.u.u.u.u.u.u.D D G / D / G / / u.i.u.u.i.f.g.g.g.g.g.h.g.p.p.h.g.u.h.h.z.h.j.( ( g.D + 6 R R T Y Y y % # # $ $ : : : 6 y g K K K K K K K K K K L K P P P U E >.1.1.1.1.1.! ! E U g g g P P g y t p U ! 1.2.1.>.! ! ! ! E U U U T p i g Y E ! _ E E E >.>.>.>.>.>.>.>.>.>.>.>.1.1.1.1.1.1.>.>.1.1.1.>.! ! E E E E E E E E E E Y Y Y Y Y E Y Y ! ! Y E ! ! ! ! ! ! Y Y ! ! E E Y Y Y Y Y Y Y Y Y Y E E ! ! E E E E >.>.>.>.>.>.>.>.>.>.>.>.>.>.>.>.>.! ! ! ! ! ! ! ! ! T g p p K T T E E E ^ R R R T T T g i i i p K T T K i t i K T R _ _ _ _ _ E T T g i f L T R R R T T L K K K K K K T K K K p i u w * % w u k k U U h U R 8 k.Y.Y.Y.P.S.M.Z.A.A.m.m.A.m.n.m.n.m.m.n.L.L.Y.L.m.A.m.A.L.A.b.m.m.m.n.v.j.f.j./ ( a.i.j.l.f.p.) k.3 j.j.u.i.k.f.p.) ) ( p.i.) u.f.g.x.l.z.z.x.x.z.x.x.h.x.z.x.p.G / p.i.p.u.g.h.g.g.g.i.p.g.g.h.h.g.g.i.i.H i.g.f.u.f.g.g.f.i.i.p.p.i.i.i.i.i.u.u.",
"V V V V V V V V V V V V V B 7 O 7 D S Z S S S Z Z Z Z V N N C C 9 , c S D D D D D D D D D D G D D D S S C C 9 O 7 C C C N N V V 3 A C C A S V V A C C S S D D D D G G H H H u.u.u.u.u.u./ / ) / G D / / / / u.p.u.u.u.u.i.g.g.g.g.g.g.p./ g.g.g.g.h.h.h.z.j.` ( i.L 8 K ^ R T U g : # # $ % $ $ : : 6 y g K P P P P K K P P P P P k k P U E >.>.1.1.1.>.! ! R g p g P P g p y y p U >.1.1.1.! E E ! E E Y U U P p y g Y ! ! ! ! ! ! >.>.>.>.>.>.>.>.>.>.>.>.1.1.1.1.1.1.1.1.1.1.1.1.! ! ! E E E E E E E E E E E E E ! ! ! ! ! ! E E ! ! ! ! ! ! ! E E E E E E E E E E E E E E E E E E E E E E E >.>.>.>.>.>.>.>.>.>.>.>.>.>.>.>.>.>.>.! ! ! ! ! ! ! Y P p p P T E E E ^ ^ E R T T T T K p p p i p K T T p i i p K T E E ^ _ _ E T T K p p K T T R R R T T T T K K L T T K K K p i u t * % * u p P U U P U R i k.L.L.L.P.S.M.Z.A.m.m.m.A.C.b.A.L.L.m.n.m.L.L.A.L.A.m.m.m.A.n.m.m.m.x.x.l.j.k.) p.j.f.j.j.p.p.f.k.2 a.j.p.j.l.j.p.p.) D / ) u.u.f.g.h.x.h.x.x.x.z.x.x.x.z.h.h.g.u.) p.u.p.g.g.g.g.g.g.g.u.g.h.h.h.g.g.g.D H i.g.g.f.g.g.g.f.f.f.p.f.i.i.i.i.u.u.u.",
"V V V V V V V V V V V N V C 9 O 7 S S S S S S V S S S S V V V C 9 , x S F D D D D D G D D D D D D D S V V C c O 9 C V V V N V V 2 A S C V S S S C C C S A S Z D S G G H / ) ) u.u.u.u.u.u.u./ / S S / / / u.u.p.u.u.p.i.i.g.g.g.g.g.i.u.f.g.g.g.g.h.h.h.h.j.( ( ( ` ^ ^ R R T K t # . . # % $ $ * : y y g k P U P P P P k P P P k p p P E >.>.>.>.1.1.>.E Y P p i g P P g p y p g U 1.>.! ! ! ! ! ! ! E E U T g y y g E ! ! ! ! _ 1.>.>.>.>.>.>.>.>.>.>.>.>.1.1.1.1.1.1.1.1.1.1.1.>.>.! ! E Y E E E E E ! E E E E ! ! ! ! ! ! ! ! ! ! ! ! ! ! ! ! E E E Y E E E E E E E E E E E E E E E E E E E E ! >.>.>.>.1.>.>.>.1.1.>.>.>.>.>.>.>.>.>.>.>.>.>.>.Y P p u P Y E E E E E E E T T T T K K p p p i K T T K g i i K T T R E E E E E R T K p p K T T T R R T R T T T T T T K K K p p i 5 * % * t p K T T U T E _ ` A.P.L.Y.S.M.Z.A.m.L.m.L.A.m.m.A.A.b.n.m.L.L.A.A.A.A.A.m.A.m.m.m.n.n.j.p.p.j.p.p.k.l.p.j.p.) ) k.3 a.j.p.) k.p.j./ ) D / u.) u.p.g.g.j.x.x.x.z.z.x.x.x.x.l.h.u.u./ f.p.u.g.g.i.i.g.g.g.g.g.h.h.h.g.g.i.i.f.f.g.f.g.g.f.f.g.f.p.p.f.i.i.i.i.u.u.u.",
"V V V V V V V V V V V V V V 7 O 7 A Z S S S A V S S S S S V V V 9 @ 9 S D D D D D D D D D D D D D D D S B C c O 7 C A V V V A N 2 C S A A S S S D S V V V A S D S D H H / / u.u.u.u.u.u./ / / G / / D / / u.u.u.) u.p.u.f.g.g.g.i.H g.g.g.g.g.g.g.g.f.h.h.j.( L L ` ^ ^ E R T i * . . . . $ & ; : y y y g P U U U P P P k k k k p p k Y >.>.>.! >.>.>.E Y P p y p g P P g g g K T E ! ! ! E E ! ! ! ! E E U P g y y P E ! ! ! ! _ 1.>.>.>.>.>.>.>.>.>.>.>.>.>.>.>.>.>.>.>.>.>.>.>.>.>.>.! ! E E E E E E E E R E E ! ! ! ! ! ! ! ! ! ! ! ! ! ! ! E E E E Y Y E E E E E E E E E E E E E E E E E E E ! >.>.>.>.>.>.>.>.>.>.>.>.>.>.>.>.>.>.>.>.>.>.>.Y Y k p u g U Y T T T T T T T P K b p i p p p i K K L K K i i p K T R R E E E E E T K p p b K T T T T T T T T T T T T K K K p p i 5 * % & 5 t g T R T T R R ~ k.P.Y.Y.S.M.Z.A.A.A.L.L.m.b.n.n.C.b.n.n.L.L.L.L.A.m.L.m.m.m.m.m.m.b.x.g.j.l.f.i.i.x.g.j.p.) p.v.7 j.j.p.i.k.p.p.p.i.A / ) ) ) f./ g.j.j.x.x.x.x.x.x.x.g.h.h.) / ) f.i.g.g.g.g.p.g.g.h.g.g.h.g.i.G u.g.g.g.g.g.f.g.g.u.u.f.f.p.i.u.i.i.i.i.u.u.u.",
"V V V V V V V V V V V V V V 9 O 7 A S V V S S V V S S V V V V C 7 @ 9 C S D D D D D D D D D D G D D D S C B 9 O 7 A C V A C C x 2 N S A C S C D D V C S V A A S D G G G G / u.u.u.u.u./ / / D Z / / S / / u.i.) / u.i.f.f.g.p.g.g.g.g.f.g.g.g.g.g.f.f.h.z.j.~ < K ^ ^ ^ E T K 5 # . . . . & & : y i g g K U Y Y U U P P k k g g p p P E 1.1.>.E >.>.-.Y P p y y g P P P g g P U E E E E E E E E ! ! E E Y U P p t i U ! ! ! ! ! _ 1.>.>.>.>.>.>.>.>.>.>.>.>.>.>.>.>.>.>.>.>.>.>.>.>.>.>.! ! E ! E E Y E E E R E E ! ! ! ! ! ! ! ! ! ! ! ! ! ! ! E E E E Y Y E E E E E E E E E E E E E E E E R E E E E E >.>.>.>.>.>.>.>.>.>.>.>.>.>.>.>.>.>.>.>.>.Y Y k p u p P T P P P T U U P n p t t t t i i i p K K K K i i i p K L T T E E ^ ^ T T p i p b K K L T U T T T T T T T T K K K p i 5 * & & * 5 i K T T T T R L k.L.P.A.S.M.Z.m.C.n.m.L.C.n.l.b.f.m.n.n.L.L.L.A.A.m.m.m.m.m.m.m.n.b.x.x.j.g.p.p.f.l.x.j.f.p.p.k.3 ` p.i.) j.p.i.i.) D D D / D G i.f.p.g.x.x.z.x.x.x.x.h.j.i./ S / f.u.g.g.g.f.p.p.g.h.i.i.h.h.h.h.g.g.g.g.f.g.g.g.g.p.p.f.f.f.p.p.i.i.i.u.u.u.u.",
"V V V V V N M V V V N N V C 9 O 7 A Z V V S S S Z S S V N N V C 7 @ x A S D D D D D D G G D D D D D D D S C 7 @ 7 C C C C N V x , c S A C S S D D ~ D D A A D A S D G G D G u.u.u./ / / H / / G D / / H / / u.) u.u.u.p.g.g.g.g.g.g.h.g.h.h.h.g.g.g.h.h.h.j.L @ i Q R R R R i & . . . . $ : 5 y i g g g P E E E U U U P P k p u p k Y >.1.1.>.E E E E Y k p u g P U P g g k P P U U U U U U Y E E E Y U U P g y t p R ! ! ! ! ! _ 1.1.1.1.1.1.>.1.1.>.>.>.>.>.>.>.>.>.>.>.>.>.>.>.>.1.>.>.! ! ! ! ! Y Y E E E E E ! ! ! ! ! ! ! ! ! ! ! ! ! ! ! E E E E Y Y E E E E E E E E E E E E T R T U Y E Y E E E -.-.>.>.>.>.>.>.>.>.>.>.>.>.>.>.>.>.>.>.! Y Y k k p u g K p p p P T U P p i 5 5 * 5 t i i p K K T T K i t i b K T T T ! _ _ E T p i i i i p K T U T T T T T T T T T K K n p t 5 & & & * t p T T T T R R 6.C.L.P.S.V.Z.C.n.m.A.L.n.n.b.j.b.b.n.A.L.L.L.A.m.m.m.A.m.m.m.m.n.m.v.v.j.j.p.f.j.f.x.j.p.i.i.f.3 ( p.p.p.j.i.p.p.p.A ~ / ~ ) ) ) p.p.g.p.x.x.x.z.x.z.g.h.i.u.p.i.u.f.f.u./ p.p.p.g.h.g.g.h.g.g.g.g.g.g.g.g.g.g.g.g.g.f.f.f.p.p.f.p.i.i.i.i.u.u.",
"V V V V V V V V V V V N N V 9 O 9 A V V V V S S S S S V V V V C 9 @ x S V S D D G G D G G D D D D D S D D C 9 , 9 B C A C V V x 2 x V V V A A A ~ ~ S V A V A A D G G G G G u.u.u.u.u.u.H G / G G u./ u.u.) ) / / u.u.i.g.g.g.g.h.g.g.g.g.g.h.h.g.g.h.h.h.p.B W ^ ^ ! R T T y $ . . . % : t i g g K P T R ! ! E Y U U U P g u u u P E >.1.1.>.>.E E Y P p p g P R U g g g g g g g P P U U U U U U P P P k g p y y g E ! ! ! ! ! _ 1.1.1.1.1.1.1.1.1.1.>.>.>.>.>.>.>.>.>.>.>.>.>.>.>.1.1.>.! ! ! ! Y Y Y ! E E E E ! ! ! ! ! ! ! ! ! ! ! ! ! ! ! E E E E Y Y E E E E E E E E E E E E T T T U U Y U Y E E E E >.>.>.! >.>.>.>.>.>.>.>.>.>.>.>.>.>.Y Y Y k k p u p p p u i P T U P p i t 5 * * t i i p g K T T T i t i b K R T R ^ _ _ _ T K i i i i i g K U T T T T T T T T T K K b p i t * & & & 5 i T T T T T P ` k.b.Z.Z.M.Z.A.A.A.A.b.b.v.b.l.v.x.l.n.n.A.m.A.A.m.m.n.A.m.m.m.n.l.n.n.v.v.x.j.l.p.l.l.f.p.p.` 2 ` p.f.j.k.) ) p.i.p.p.) ) S ) p.g.p.g.j.g.h.x.z.z.h.g.g.f.f.i.u.f.f.g.f.p.p.i.u.g.g.g.g.h.h.g.g.g.h.g.g.g.g.g.i.p.f.f.f.p.p.p.p.p.i.i.i.i.u.u.",
"V V V V V V V N V N N N N V 7 O 7 A A V V S D S S S S Z Z V V B 9 , x C S D D D D D D G G D D D G G F D S C x , 9 B V C C N C x 2 c V V Z A V C D S D D D V A ~ D G D G D / u.u.u.u./ / H / u./ G u.u.u./ u.) / ) ) u.i.g.g.g.g.g.h.g.g.g.g.g.i.H g.h.h.h.( i ! ^ Q ! R T p * . . # $ : 5 y g g K T T U R ! ! ! E U U P P p u u p P -.>.>.1.>.>.E E Y k p p P E E U g g g g g p p p g k U Y U P P g p p g g p y i P E ! ! ! ! ! ! >.1.1.1.1.1.1.>.>.>.>.>.>.>.>.>.>.>.>.>.>.>.>.>.>.>.>.>.>.>.! ! ! Y Y Y Y E E E ! E E E E E E E E E E E E E E E E E E Y E E E E E E E E E E E E E T T T U U U Y Y Y Y E E E E E E E E >.>.>.>.>.>.>.>.>.>.>.>.Y Y Y h k p y p p p p p K T T T P n p p t t t i i p n K T T T p t i p K T T E ^ _ _ _ T K i i t t i p K R T R R T T T T T T K K K b i t 5 * & & * i K R T R T P L ( b.Z.S.M.Z.A.A.m.A.m.n.l.l.n.n.j.n.v.x.n.m.m.m.m.m.m.m.n.m.m.n.l.n.x.l.x.h.x.v.p.j.j.g./ p.) 2 ( p.f.g.j.) p.f.p.f.p.p.) f.h.p.p.f.h.x.x.x.x.h.x.h.g.g.h.h.p.i.i.f.i.f.g.p./ p.g.g.g.g.g.h.g.g.h.h.h.g.g.g.i.u.p.f.g.f.f.p.p.p.f.p.i.i.i.i.i.",
"M M V V V V V V V N N V N V 7 O 7 C V V Z S S S S S S V V V N N 9 , x A S S D D G D D G G D S D S D S S D D c , 9 C A A V V C x 3 B C V Z A A V A V S S D S D / G G D G G H u.u./ ) ) / G D / D D G u.u.u./ G u.i.u.) i.i.i.g.g.g.g.g.g.g.g.h.h.h.h.h.h.g.( _ E Q Q ! R K 5 # . # $ : : t i g g K P P T R E E E Y U P P k p u u p U >.>.>.>.>.>.>.E P p p g U E E P P P K g p y y y u p P Y U P k p u p k g u t i T E ! ! ! ! ! ! >.>.>.>.1.1.>.>.>.>.>.>.>.>.>.>.>.>.>.>.>.>.>.>.>.>.>.>.>.>.! ! ! Y Y Y Y E E E E E E E E E E E E E E E E E E Y E E E E E E E E E E E E E E E E E T T T U Y Y U Y Y Y Y E E E E E E E >.>.>.>.>.>.>.>.>.>.>.>.! >.Y Y k p y p K T U U T T E E E T T T T p i i p p p K K K T K p i i p T T E _ _ _ _ T T K i 5 5 t p K R T T T T T T T T T K K K K i t 5 * & # * t K T T T U P U ` C.Z.S.M.Z.A.C.A.n.m.L.n.f./ x.v.x.v.x.n.C.m.m.m.m.n.m.n.x.x.n.n.n.x.v.n.n.x.f.j.j.j.j.p.f.j.2 k.j.p.j.j.j.) p./ ) ) u./ f.f.f.h.f.g.j.h.x.x.j.h.h.g.p.p.u.) ) u.i.i.g.i./ u.p.f.g.g.g.g.g.g.h.h.h.h.g.f.g.g.f.f.p.p.f.p.f.p.g.p.p.p.i.i.i.u.",
"M z M V V N V V V N V N N N 9 O 9 A V V Z S S S S S S V V V V B 7 @ x S S V D D D D D D D D Z S D D D D D D x , x A A V V V N x 7 A V V V V V V D S V D D D G G G G D G G H u.u./ / / / G / / S D / / / ) / / ) u.u.u.) u.i.g.g.g.g.f.g.g.g.h.g.h.h.h.h.) ~ ! E Q R R P i * . # * : : : t t y i i g g g g g P P P P P k g u u u g Y >.>.>.>.>.E E Y k p p k U R T P P P k g p p p p p g U E Y U P k g g P P u t y T E ! ! ! ! ! ! ! >.>.>.>.>.>.>.>.>.>.>.>.>.>.>.>.>.>.>.>.>.>.>.>.>.>.>.>.>.! ! ! E Y Y Y E E E E E E E E E R E R Y Y E E E E Y Y E E E E E E E E E E E E E E E E R R R E E E U Y Y Y Y E E E E E E E >.>.>.>.>.>.>.>.>.>.>.>.Y >.Y h k p y p P T U T E E 1._ ^ E R E R T K p p p b K K K T R K i t i K R E E _ E E T K p i 5 5 t i K T T T T T T T T T T K K K K i t 5 * & $ & 5 p K T T U P U W k.Z.S.s.Z.C.m.A.m.m.A.m.n.x.b.f.l.v.m.m.m.m.m.m.m.n.m.n.x.h.x.x.v.n.n.n.x.x.j.j.l.j.u.) f.j.3 a.j.f.j.j.p.i.f.p.D / i.p.g.f.g.p.p.g.j.h.z.h.j.h.g.i.p.u.i./ / u.u.p.g.g.u.p.p.p.g.f.f.g.g.g.h.g.g.g.i.i.f.g.f.f.g.g.p.f.p.p.p.p.i.i.i.u.u.i.",
"N N V V V V V V V N N N N V 9 O 9 A V V V Z S S S Z V V V N V C 7 @ x S S S D D D D D D D S D D D D D D D D c , c A A V V V V x 3 C V V A V A A S D D D S D D G G G G G H H u.) / / / G Z D G D G G G G G / / / u.u./ D G u.i.g.g.g.g.g.g.g.g.g.h.h.h.g.D L ! E Q R U g : # . % : 5 : 5 5 5 5 5 : 5 y y y y u p p g k g p u u p P Y >.>.>.>.E E E Y k p p P U U P g P P K g g g P U U Y ! 2.1.E Y U P U Y P u t y T E ! ! ! ! ! ! ! ! ! ! ! ! >.>.>.>.>.>.>.>.>.>.>.>.>.>.>.>.>.>.>.>.>.>.>.>.! ! ! E Y Y Y E E E E E R R E R R E E Y Y E E E E Y Y E E E E E E E E E E E E E E E E E E E E E E U Y Y Y Y E E E E E E E >.>.>.>.>.>.>.>.>.>.>.>.Y -.Y h k p u p P U T T E _ 1.1.E Y T R T T L n p b b b p K T T T i t t p K T E E E R T K p i t 5 t i K T T T T T T T T T T K K K K i t 5 * & $ $ * t K T T T P k W ( Z.I.M.Z.A.A.A.m.m.n.n.x.x.b.x.x.n.m.n.m.m.m.m.m.n.m.x.x.x.x.n.n.n.n.n.n.n.x.g.l.j.g.u.f.k.7 a.j.g.f.j.p.p.p.p.u.p.p.g.f.g.g.h.h.g.z.z.x.j.j.j.h.p.u.) ) / H u.i.u.u.u.u.u.u.u.p.) u.g.g.g.g.g.g.g.f.i.f.f.f.f.f.g.f.f.p.p.i.i.i.i.i.i.i.i.",
"N V V N N V V V N N N N V V 9 O 9 A C V V V V S S Z Z Z V V V A 9 , c S S S D D D D D D S S D D D D D D D D B , c A A S A V C c 3 B V V A C A Z S D S A A S D G G / / H H H / / G G D D S D G G / / / / D D S S G ) / D ) i.i.g.g.g.g.g.g.g.g.h.g.h.h.p.x f ! ! E R P y * . # * t t 5 5 : : * & $ & ; : : : t y u p k k g p p k U E >.>.>.>.E E Y P p p g P U P g g P P K g K U E ! E ! 2.2.2.>.E Y Y E E U y t y T ! ! ! ! ! ! ! ! Y Y Y Y ! ! >.>.>.>.>.>.>.>.>.>.>.>.>.>.>.>.>.! ! ! >.>.>.! ! ! E Y Y Y E E E E E R R R R R E E E E E E Y Y E E E E E E E E E E E E E E E E E E E E E E E E Y Y Y Y Y E E E E E E E >.>.>.>.>.>.>.>.>.>.>.>.Y -.Y Y k p u p T T T T E _ 1._ E T p p L T T K K K b p p p K T T K i i i K T R E R T L K p i t 5 t i p T U T T T T T T R T K K K K i t 5 * & $ # & 5 p L T T P k U L v.I.s.B.A.A.A.A.m.m.n.v.b.x.h.l.b.x.x.m.m.m.n.m.n.n.f.l.n.x.n.n.n.n.n.n.n.x.h.j.j.g.i.p.k.3 a.p.f.f.f.) p.g.p.) i.p.p.g.g.p.j.j.h.z.x.x.h.h.g.h.p.u.u.u./ i.g.p.) i.p.u.) u.p./ p.p.p.i.g.g.g.g.g.g.p.p.f.g.f.f.f.p.p.p.p.i.i.i.i.i.i.u.i.",
"V V V V N V V V N N V N V V 9 @ 7 A V V Z A S S V V S Z V V V C x 3 V S S S D D D D D D Z N V F S D D D D D c , c A C A A V V N 3 B V C C V V S A A A S A S G G G ) / / / ) / / / D G D D / G G G / ) / / / / u.) / u.u.G u.i.g.g.g.g.g.g.g.g.h.h.h.h.D , i ! ! E Y P t % . $ - : t t 5 : $ $ $ $ $ $ $ & : t y u p g k g g g P E ! 1.1.>.! E Y Y k u p P U P k g g g g g g P T U U U Y >.1.! E E E E E E U y t y T ! ! ! ! ! ! ! ! U Y Y Y Y ! >.>.>.>.>.>.>.>.>.>.>.>.>.>.>.>.>.! >.! >.>.>.! ! ! E Y Y Y E E E E E R R R Y R E E E E E E Y Y E E E E E E E E E E E E E E E E E E E E E E ! E Y Y Y Y Y E E E E E E E >.>.>.>.>.>.>.>.>.>.>.>.E -.Y Y k p p p T T T Y E _ 1._ T K i t p T T T K K p p p i p T E T K i i g T T R T T K K p i t : 5 i p P T T T T T T T R T K K K K i t 5 * & # # # * i K R R T U U 6 k.S.s.B.A.A.m.m.m.m.m.m.m.b.b.x.b.n.n.m.n.m.m.n.x.x./ p.x.x.x.n.n.n.n.n.n.x.j.j.j.u.p.p.v.9 a.p.f.g.p.) u.p.i.) p.p.u.g.p.f.h.h.z.z.h.h.j.j.g.g.p.p.u.) ) i.i.p.) ) ) p.u.i.p.p./ u.i.i.g.g.g.g.g.g.p.p.p.g.f.u.p.p.p.p.p.i.i.i.u.u.u.u.u.",
"N V V V V V V V V V V N V V 9 @ 7 A V V V V V Z V V V V Z A V V V x V A S S D D D D S D V N V S S D D D D D B , c D C C A C V c 3 C N V V V V A A A V V V Z D G G G G ) / / / / G G G D G / D / G / / / / ) / / u.u.u.p.) ) i.g.g.p.f.g.g.g.g.h.h.h.f.L i T ! E E T g : # # % * : t t t : * & & $ % $ & & t y u u u u p g k P Y ! >.1.1.1.! E Y U p i p T U P K K P P K g P T P K g g k U E Y Y E E E E E U y t i T E ! ! _ ! ! ! Y U U U Y Y ! ! >.>.>.>.>.>.>.>.>.>.>.-.>.! ! >.! ! ! >.>.>.>.! ! E Y Y Y E E E E E E E E E E E E E E E E E E E E E E E E E E E E E E E E E E E E ! E E E E E U Y Y Y Y Y E E E E E >.>.>.>.>.>.>.1.>.1.>.>.>.! E E Y P g i p T T T R E ^ _ ^ R T p p K E _ E T K p i i i i K T E T p i i K T R T T K g g p p t t y p P T R T T T T T R T T K K K i t 5 & $ $ O # & 5 K R R U U U f ( V.s.Z.L.L.m.m.L.m.m.m.A.x.b.n.n.m.m.n.m.m.m.n.x.h.G ) l.n.x.n.n.n.n.n.n.x.x.h.h.g.p.f.k.3 a.p.g.p.p.) ) p.p.u.) p.i.g.p.h.h.h.z.z.h.g.h.g.g.g.) p.u./ u.f.f.p./ ~ ) u.u.i.i.p./ u.p.g.g.g.g.g.g.g.g.g.p.f.p.f.f.p.p.p.i.i.i.i.u.u.u.u.u.",
"V V V V V V V V V V N N V C 9 O 7 C V V V V Z V Z V Z Z V V V V V V V S D D D D G D D D S x N S D D D D D D B , c A S C C V x x 3 B N V V V C V A S S V V S G / G G H / / G D ) / G G D V / / / / ) G D V u.H / / / / u.u.i.g.g.p.i.i.g.g.g.g.h.g.g.p.2.>.1.! E ! T i & # # & * t t t t t t t t 5 : * : 5 u u u u u t t u k Y E ! E _ _ ` _ E T n u i K T K p p g K T T T T T T g p p g P E E Y Y E E E Y P i 5 i T ! ! _ _ _ E R U U U U U Y Y ! ! >.>.>.>.-.>.-.-.>.>.-.-.! ! >.! ! ! ! ! ! ! ! ! E Y Y Y E E E E E E ! ! ! ! E E E E E E E E E E E E E E E E E E E E E E E E E E ! E E U U U U U Y Y Y Y Y Y E E >.>.>.>.>.>.>.>.1.>.1.1.>.>.>.E E E Y P t i L R R R ^ ^ E R R R T E ^ _ 1.1.T T p t 5 5 t i K T E K p i i K K K K P k k k k u t t p k P T T T T T T T T T T T L g i 5 & & $ $ # $ 5 g R W R P k U Q ` M.Z.m.L.m.L.L.L.m.m.x.v.j.x.n.m.m.m.m.m.m.m.x.l.H H l.n.n.n.n.n.m.n.x.x.l.x.l.g.f.p.k.3 ( p.p.p.i./ p.p.p.p./ u.u.g.h.h.z.h.h.x.h.g.g.g.g.p.i./ / / u.g.i.p.) ) i.u.u.u.u.p.u./ u.i.i.p.g.g.g.g.g.f.p.g.f.f.p.f.p.p.u.i.i.i.u.u.u.u.u.",
"V V V V V V V V V N V V V V 9 @ 7 A V V V S S S V V V V S S V V Z S S S S S D D D D D D D D D D D D S D D D c 2 B S S C V C C V 3 B V S A V A S S Z S A D D D G G G G H / / G G G G G D D D G G / ) G D / ) / / u./ / ) / p.f.g.i.i.g.g.g.g.g.g.g.u.W 1.>.1._ ! E T t # # # & 5 t i i i i i i i u t t t i i u t t t t t u k Y >.1.1._ _ _ E T T i 5 t K K i t t i p K T T E E T g p g P U E E E Y E E E Y T i 5 i R _ _ _ ^ ^ E T T T U U U Y Y Y E ! ! E E E >.-.>.>.>.! -.! ! >.! ! ! ! ! ! ! ! ! E Y Y Y E E E E E E ! ! ! E E E E E E E E E E E E E E E E Y E E Y Y E E E E E E ! E E U U U U U Y Y Y Y Y E E E >.>.>.>.>.>.>.>.>.>.>.1.1.1.>.E E E Y P t i K R R ^ ^ ^ R R R R E ^ _ 1.2.2._ T K i 5 5 5 t i T R T p t i p p g P P P P P P p u t u g P U R T T T T T T T T T T g i 5 ; & & $ $ $ 5 f L R R L P P L T ` Z.L.m.m.L.A.A.C.v.x.v.n.n.n.m.n.m.m.m.n.m.n.n.v.l.x.n.x.x.n.n.m.n.n.x.x.l.l.g.j.i.p.3 ( a.p.p.) ) f.u.i.p.) ) p.g.g.h.h.h.x.h.g.g.g.p.g.p./ / u.u.i.i.p.p.p.p.u.u./ ) G ) ) u.i.f.g.f.f.g.g.f.g.g.g.f.f.f.f.p.p.p.p.i.i.i.i.i.u.u.u.",
"V V V V V V V V V N N V V C 9 @ 9 A V V V V Z V V Z V V Z V V N V S S D S S D D D D D D D D G G D G G D D D c , B D S Z V V V N x B V S A V V S D D S V C D G G G D G G G D G D G D G G / G G G / / / G / / / / ~ D u./ / ) p.i.g.g.g.g.g.g.g.g.g./ W 1.>.>._ _ E K < . # # * 5 i i i i p i i i i i u i i i u t t t t t u P E 1.1.1._ _ _ R T K t 5 i K p 5 * 5 t i K T E _ _ E T P P P E ! E E Y E E E Y T i 5 i R _ _ ^ E E T U T T U U U Y Y Y Y Y Y Y Y E >.>.>.>.>.-.-.! ! >.>.! ! ! ! ! ! ! ! Y Y Y Y E E E E E E ! ! E E E E E E E E E E E E E E E E E Y E E E E E E E E E E ! E E U U U U U Y Y Y Y Y E E E >.>.>.>.>.>.>.>.>.>.>.1.1.1.>.E E E Y T u i K R R ^ E R R R R T T E _ ` 1.2.1._ T K i t t t i L E T K t t i p p P P P P P P k p t t p g T T T T T T T T T R R T p i 5 5 : ; & $ $ ; t f T R U P U L L T Z.m.m.A.m.C.n.n.n.n.x.n.n.n.n.n.m.m.n.m.n.m.n.x.n.n.n.x.n.n.n.n.n.n.x.x.x.j.j.f.p.a.3 a.p.p.p.D p.p.p.) i.) u.g.g.g.p.g.h.h.h.h.h.g.j.p.u.p.u.i.u.u.g.p.p.p.f.) u./ G / ) ) H / i.i.f.f.f.g.g.g.g.g.f.f.f.p.i.i.i.f.i.i.i.u.u.u.u.u.",
"V V V V V V V V V V V V V V 9 @ 9 D Z V V V V V V V S V V V N V S S S D D D D D D D D D D D D D G G G G D D c < C D S Z V V V C 9 A V Z A A D S S V A V V S D / / / G G G D S S / D D D / / / / / / / G / / / / / ) ) / p.u.u.g.p.g.f.i.g.f.g.g.g./ L 1.>.>._ ! T p * . # & 5 t i i i i p p i i i i i i u u u u u u t t p I >.1.2.1._ _ E T K p i i p K i 5 * 5 i p T T E ` 1.` E T U U E ! E Y Y E E E Y T i 5 i R _ _ E R T T U T T U U U Y Y Y Y Y Y Y Y E ! >.>.>.>.>.>.>.! >.! ! ! ! ! ! ! ! ! Y Y Y Y E E E E E E E E E E E E E E E E E E E E E E E E E E E E E E E E E E E E ! E E U U U U U Y Y Y Y Y E E E E >.E E E E >.>.>.>.>.1.1.1.>.E E E Y T p i b T R ^ R R R R T T T T T E _ _ 1.1.^ T K b p b K T _ E T i t i p g P P P P P P P k u t y p T T T T R R K K K K K K i t 5 5 : : ; & X & 5 y P R R P T R R L B.m.A.m.C.A.C.j.g.x.l.b.m.n.n.m.m.m.m.m.m.m.n.n.n.n.x.n.x.n.m.m.n.n.x.x.l.j.g.) j.P.9 ( p.p.j.i.p./ p.i.u.) / g.g.i.g.p.g.u.i.u.p.f.p./ g.g.i.p.f.g.p.p.g.u.) j.u./ p./ ) ) p.i.i.p.f.p.f.f.p.g.f.g.f.f.f.p.i.p.i.i.i.u.u.u.u.u.u.u.",
"V V V N N V V V V V V V V C 9 @ 9 D Z V V V V S S S S S N N V Z S S S S S D D S D D D D D D D D G G G D D D c , B D S D S V C x 3 A V A A V V V V S V A S D D G G D D D ~ D z z x l S G G / D D / H / D G D / / G ) / ) u.u.u.f.f.p.f.g.g.g.g.g.g./ L 1.>.>.! E T i & . # & 5 i i i i p i p i i i i p p i p p p p u u u k E 1.2.1.1._ _ E T K p p K T P i 5 t i p R ^ _ ` 2.2.1.! Y U U E E E Y Y E E E Y T i 5 i R _ ^ E T R T T T T U U U Y E ! E Y Y Y Y ! >.>.>.>.>.>.>.>.>.>.! ! ! ! ! ! ! ! ! Y Y Y Y E E E E E E E E E E E E E E E E E E E E E E E E E E E E E E E E E E E E ! E E U U U U U Y Y Y Y Y E E E E E E E E E >.>.>.>.>.1.2.1.>.E E E Y U n i b L R R R R R R T T K K T T E ^ _ 1.` _ E T T T T T E E T i t i p P U U P U U U U k u t t y P P T T T T i t i i i i t 5 5 : : : 5 & X $ : 5 K R R P T R Q i k.m.L.A.A.A.n.n.n.n.b.n.n.n.n.n.n.x.n.m.m.m.m.n.n.n.n.n.n.n.n.n.n.x.x.x.l.h.p.p.p.v.4 ( f.f.g.i.p.) i.i.u.u.u.u.g.i.p.g.p.p.p.f.D A ~ ) g.g.p.g.i.p.p.p.i.) H u.u./ / / p.p.p.u.i.p.g.f.f.g.f.p.g.g.f.f.f.p.i.i.i.i.u.u.u.u./ H H / ",
"V V V V V V V V V V V V V C 9 @ 9 A V V V A S V V V S S V V S V V S S S S D D D D D D S D D D G G S V G D S x , B D S S C C C V 3 B S S A V V S D S S S S D D G / D D D D S V V C A D G / / G D D D / G G / / ) G / G ) u./ u.i.i.p.i.g.i.g.g.g.f.D L >.! ! E T K t & . O & 5 i i i i i i i i i i p p p i p p p p p p p P E 1.2.1.1._ _ T T p p L T T T p i i g T ^ ` 1.2.2.2.` E U U U Y Y Y U Y E E Y P g i t p T _ E R T R T T T T U R R Y E ! ! E ! Y E E >.>.>.>.>.>.! ! E E E Y Y E E ! E Y Y Y Y Y Y E E E E E E E E E E E E E E E E E E E E E E E E Y E E E E E E E E E E E E E R U U U U Y Y Y Y Y Y Y E E E E E E E E E E >.>.>.1.1.1.>.E E E E Y K i b K T T T R R T T T K L T T E E ! _ _ _ _ E T T T T T T E K i i p g U I Y Y I U Y P u t t y P P K K K p * < 5 5 5 5 5 5 5 : 5 5 5 & $ $ & 5 K R R R R T R g ( n.A.A.m.m.m.b.n.m.n.m.m.n.m.m.m.n.n.n.n.n.n.n.n.n.n.x.n.n.n.n.n.x.x.x.x.h.g.p.j.B.7 a.g.g.g.p.) p.i.p.u.u.u.p.i.p.p.h.p.u.) p.p.i.) / p.g.p.g.u.u.u.p.i.u.u.p.u.i.) ) p.u.u.u.p.f.f.f.f.f.f.f.f.f.p.p.p.p.p.i.u.u.u.i.u.u.H H u.u.",
"N V V V V V V V V V V V V C 9 @ 9 A V V V V V V V V Z Z V V V V V S Z S D D D S S D S S D D D G D D D D D D x , B D S S V V V N 7 A V S A C A S S S S S D S S G G D G D S V S D V N G D G / / G G G / / G G / / ~ ~ / / u.) u.i.g.g.i.g.g.g.i.f.i.A K ! ! E E U p 5 # . # * 5 u i i i i i i p b p i i i i u u p p a k k Y >.1.1.1.1._ E T K i p R T T T K K K R E _ ` 1.2.1.1._ T P K P P U U U U U U P p u i g T ! ! R T T T T U U T U R R Y E ! E ! ! >.>.>.>.>.>.>.>.>.! E Y Y Y U U Y Y Y Y Y Y Y Y U R E E E E E E E E E E E E ! ! ! ! ! E E E E E E E Y E E E E E Y Y E E E E R R R R E Y U Y Y Y Y Y Y Y E E E E >.>.>.>.E E >.>.>.>.>.>.E E E E E E T K b i b b K T R R T K T T T R E E ! _ E E ^ E T T T T T R R T p t i p U U Y Y I U Y P p t t u p p K p t 5 & * * * * & : 5 5 5 t 6 5 ; & $ $ & K R T T T T T R ` b.A.b.m.m.m.n.n.x.m.n.m.n.m.m.n.n.n.n.x.x.x.n.n.n.x.x.m.m.m.n.n.x.x.x.x.h.p.p.j.B.3 ` f.g.g.g.) p.p.p.u.u.p.f.u.g.g.g.p.u.) G D ( S i.u.i.i.i.u.u.u.i.i.p.u.u.u.i.) / ) u.p.i.u.i.f.f.f.f.f.f.p.p.p.p.p.p.p.p.i.u.u.u.u.u.H H u.u.",
"N V V V V V V V V V V V V C 9 @ 9 D Z V S S V V S S Z S S S S V V S S D D D D S S S S S S S D G G G G G D D x , B D D S V N V B 3 C V A V V V V S S A Z S S S D G G G D S V D / D D / H / / G G / / G / D G / D N ~ / / u.u.u.p.g.g.g.g.g.g.g.g.) B f ! ! E T T i * . . # * 5 i i i i i p p p b b p i i i u p p p k k P E >.1.1.>._ E T T b i b T T T T T T T R _ 1.1.1.1.1.1._ T P p P P P P U U k p u u i p T _ _ R T T T T T U U T U R R Y Y ! E -.-.-.-.>.>.>.>.>.>.>.! E Y Y Y U U Y Y Y Y Y Y Y Y Y R E E E E E E E E E E E E ! ! ! ! ! E E E E E E E E E E E E E Y Y E E E E R R E E E Y U Y Y Y Y Y Y Y E E >.>.>.>.>.>.E E E >.E E >.E E E >.E E E E T K p i i p K T T R T T R E E _ _ _ _ _ _ _ E R T T L K T T E K t y g P U Y Y Y Y Y P p t w t u u i i i t 5 t t t t 5 5 5 6 t i i t 5 ; & X & p L T R T U T R ! l.A.b.A.m.A.m.x.v.l.n.n.m.m.m.n.n.x.x.x.n.x.l.n.n.n.n.n.n.x.m.n.n.x.x.x.x.p.) f.v.3 ( p.j.g.p.i.p.p.) / ) u.u.u.i.i.i.p.) / ) u.p./ p.u.i.f.i.u.i.f.p.i.p.p.u./ A N G ) u.p.u.u.u.i.f.i.p.f.f.f.p.p.p.p.p.i.i.u.u.u.u.u.u.u.u.u.u.",
"V V V V V V V V V V V V V V 9 @ 9 A A Z S S V V S S S S S S Z V V S D D D D S S S S D D D S D D G G G G D D x , B D D S C C A N 2 C S S A V N V A C A A A D D D G G D D D D / / / / / / / / / G H / / D V V V D / / / / / ) u.p.g.g.g.g.g.g.g.g.G 2 f ! ! E U p t & . . # * 5 i i i i p p p p b b b p i i u p p k k k I >.1.1.>.! ! E T K p p K T T T T T T E _ 1.1.2.1.` ` 1._ E T P P P U P P g p t y p g T E _ E T T T T T T U U T U R R Y Y ! E -.-.-.-.>.>.! >.>.>.-.! E Y Y Y U Y Y Y Y Y Y Y Y Y Y Y E E E E E E ! E E E E E ! ! ! ! ! E E E E E E E E E E E E Y Y Y E E E E R R E E E Y U Y Y Y Y Y Y Y E E >.>.>.>.>.>.E E E E E E E E >.>.>.E E _ ^ E T K b p i i b K R R E ^ _ _ _ _ _ _ _ _ _ ^ R R T K K K T _ T t t p P P U Y Y Y Y P p t w t t t t t i i i p p p p i t i i f f f i 5 : & $ & i K T ^ R U P U Q f.n.b.m.A.m.n.n.b.l.m.n.m.m.m.m.n.n.n.m.n.x.x.n.n.n.m.n.n.n.n.n.x.x.x.x.l.u.) p.v.3 ( f.g.p.) / ) ) ) / ) p.u.p.p.u.f.i.u.u.i.p.g.g.g.p.i.p.p.u.i.g.g.u.u.) / D V G / u.u.u.u.u.u.i.i.p.p.p.p.p.p.p.p.p.u.i.i.u.u.u.u.u.u.u.u.u.u.",
"V V V V V V V V V V V V V C 9 , 9 C Z V S S Z Z V S S Z S S V V Z S S D D D Z Z S S D D D D D D G D F D D D x , B D D S A V V N 7 ~ S A A V C C C V S Z Z D D D D D G / D / / / / / / / / / / G G / G D S D D D / ) / / / ) u.i.f.i.g.g.g.g.g.g.A O f ! Y Y T i * # . . # * 5 i i i i p p i i b K K b p p p p p k k k Y >.>.>.! ! E R K p i p K T T K K R R E _ 1.1.2.1._ _ 1._ E U U U U U P g p p p g P T R E E T T T T T T T U U T U R R Y Y ! ! ! -.! ! >.>.-.-.-.-.-.E E Y Y Y Y Y Y Y Y Y Y Y Y Y Y Y E E E E E E ! ! ! E E E ! ! ! ! ! E E E E E E E E E Y Y Y Y E E E E E E R R E E E Y Y Y Y Y Y Y Y Y E E >.>.>.>.>.>.>.>.E E E E >.>.>.>.>.E E E E ^ E T T K K b i i K T E E E ^ ^ _ ^ ^ ^ _ _ ^ T T K K K K T E T i t p k P P Y Y Y Y P k y w t * * 5 t i p p K K K K p i i K K K K g t 5 & $ & 5 i T ^ E U g U Q ~ n.m.A.m.m.n.n.b.x.n.n.n.m.m.n.n.n.m.m.n.n.n.n.x.n.n.n.n.n.n.n.x.x.x.l.g.f.) p.k.3 ( k.j.f.) ) i.p./ / p.i.p.p.p.g.p.p.p.p.f.p.g.g.i.p.i.p.p.u.u.g.i.p./ S D / / ) u.u.) u.u.u.i.p.i.p.p.i.i.p.p.i.f.i.i.i.i.u.u.u.u.H H u.u.H u.",
"V V V V V V V N V V V V V C x @ 7 C Z Z S Z V Z V V V S S V V V V D S S S S S D D D S S D S S D D F F G D D x > c D S Z V N V N 3 A S A S V C V S S A S Z A D D D D G / / G / u./ H H G / / D D G G S / S S G D / G / / / ) ) i.i.i.g.f.f.g.g./ x W ^ Y ! E P i & . . . # * 5 i i i i p p p i p K K b p p p p g k P k Y >.>.>.! ! E T K i i p K K K K K R R E _ ` ` _ _ _ _ 1.1.E T T U U P g u u g P U Y E E T T R T T T T T T U U T U R R Y Y ! E >.-.>.! >.>.-.-.! ! -.E Y Y Y Y Y Y Y E ! E E E E E Y Y E E E E E E ! ! E E E E ! ! ! ! ! E E E E E E E E E Y Y Y Y E E E E E E R R E E E Y Y Y Y Y Y Y Y Y E E >.>.>.>.>.>.>.>.E E E E >.>.>.>.>.>.E E ^ ^ ^ E R T T K i 5 t K T T T R T R _ ! _ _ _ ^ R T K K K K T R R p i y p P P Y Y Y U U k y t * & & & 5 i K K K K K K p i K T T L K K t 5 & $ & 5 i T ^ E T k U Q 9 l.n.m.m.m.b.l.m.x.m.n.n.n.x.v.m.n.n.n.n.x.x.h.g.n.n.x.n.n.n.n.n.x.x.x.f.g.) p.j.3 ( p.p.p.i.i.) p.p.p.) i.u.i.f.g.p.p.i.g.g.g.g.g.g.g.p.g.g.u./ g.u.u.D D D / G / / / ) u./ u.i.p.p.f.p.f.f.p.p.i.i.i.i.i.u.u.u.u.H u.u.u.u.u.u.",
"V V V V N V V N V V V V V C 9 @ 7 A V S V S S V V Z S V S S V V S S D D D S S D D D D D D D D D D G G G D D x > B D S V N V V N 7 D C C S C V C S S S S S S S D D D G / / / G D G / H / u./ G V D D / D D ~ ~ G G / G G / u.u.i.i.i.f.f.f.g.i.A K ^ ! ! ! R K 5 & . . . $ & 5 i i i i i i i i p g g g g p g g g p k P Y ! ! ! ! ! E R K i p p K K K K L T R E E _ _ _ _ E E E E Y T T U P g p p k U E E E E E E E E E R T T T T R R R R Y Y Y Y E E E E -.-.>.>.! ! ! ! >.>.E E E E Y E E E ! ! E E ! E Y E E E E E E E E E E E E E ! ! ! ! ! ! E E E E E E E E E E Y E Y Y Y Y Y Y T T T U Y Y Y Y Y Y Y Y E E E E E E E E E E E E E E >.>.>.>.E E E E E E E E E E E Y T T K t t i b K T T R T R ^ _ _ _ _ E U K p p p P U U K u u p g P U Y U U U P p t 5 # $ * t p b p p p p i i i g K T T T K i t * & $ * t K T R U P U U < f.n.n.m.A.m.n.A.n.n.m.m.m.m.x.n.m.n.m.n.n.n.x.x.n.n.n.n.n.n.x.x.l.l.j.g.p.) p.k.3 ( ( p.p.) i.) f.p.) p.p.) i.f.g.u.i.i.g.g.g.i.i.g.p.p.g.p./ / p.u.u./ u.G G G / G / / u.u.u.p.f.f.p.p.f.f.p.i.u.V / i.i.i.u.u.u./ u.u.u.u.u.u.",
"V V N N N V V V V V V V V C 9 @ 7 A S S S V S V V Z S V S S S S S S D D S S S D D D D D S S S F D D D G D D x , c D S V V V C N 3 A A A A V V V V V V A S S D D D D D D G G G / u./ / / ) G D S D N G S V C / / / u.) G ) u.u.i.g.f.i.i.g.g.) ~ _ _ ! Q U R K 8 & O . . $ < 8 i i i i y y i i i i g g g g g k g p g Y ! ! ! ! ! ! E T p i p K K K K K T R T E E E ^ _ E T T T T U U U k p p p P Y E E E ! ! E E ! ! ! E E E E E E E ! E Y Y Y Y E E E E E E >.-.! E E E >.E E E E E E E E Y Y ! ! ! ! E R R E E E E E E R R R R E E ! ! ! ! ! ! E E E E E E E E E E E R U U U U U U U U U U U U Y Y Y Y Y Y E E E E E E E E E E E E E E E E E E E E E E E E E E E E E E E Y U K u t t i K L T T T E _ _ _ _ 1.Y k p u u p Y Y P p u u K T T T T T T T n i t . & 5 p K p K p i i i i i i p K K K b p i 5 & # & 5 p P T T T T L 9 p.n.m.m.m.n.n.m.m.m.m.m.m.n.m.n.m.m.n.n.x.x.x.x.n.x.x.n.n.x.x.l.l.l.j.g.p.p.f.k.3 ( a.p.f.i./ i.p.i.) p.) p.u.g.p.u.p.p.g.g.p.g.g.p.g.p.f.u.G / S D V S N G / ) ) u.u.i.p.u.i.f.g.f.f.f.f.f.p.i.i.i.i.i.i.i.u.u.u.u.H u.u.u.u.u.",
"N V V V N N V V V V V V V C 9 & 7 A C S S Z S S S Z Z S N z V Z S D D D S S D D D D D D G D D D D D D D D D x , B D S V N x V N 3 ~ S A A C V A A V V C A A A A D D ~ G / G D / u./ / / / G D S V ~ / G / / G / ) / ) / / / u.f.i.i.i.f.g.p.D L ` _ ! Q Q L K 8 $ O O O O < 8 8 i i i i i i i i i g g g g g g g p k Y ! ! ! ! ! ! E R p t p K p i i i p T R T T R E E R T T T T U U P p p p P U E E E E E ! ! ! ! ! ! ! ! ! ! ! ! ! ! ! ! ! ! ! ! E E E -.-.E -.! ! -.-.-.>.>.>.-.>.-.E E E Y ! ! ! ! E R R E E E E E E E E E E E E ! ! ! ! ! ! E E E E E E E E E E Y R U U U U U U U U U U U U Y Y Y Y Y Y E E E E E E E E E E E E E E E E E E E E E E E E E E E E E E E E U P g i * t p L T T T E _ _ ! _ 1.>.Y k u t y P E E P p u p K T T T T T T L K i & * t p K K p p i i t t i i p g K K K p i 5 & # & 5 p T T T R L T K ) n.m.m.x.f.x.m.n.n.n.n.n.m.m.n.m.m.n.n.n.n.n.n.n.n.n.n.n.v.x.x.l.l.h.f.p.) f.k.3 ( p.p.p.i.i.) i.) / ) ) p./ / i.p.u.u.g.i.g.h.g.g.g.p.f.i.u.D S i.p./ u./ / / u.u.p.u.i.u.i.i.i.i.p.i.p.p.u.i.i.p.i.i.i.i.i.u.u.u.u.u.u.u.u.u.",
"N N V V V N V V N N V V V C 9 & 8 ~ A A S S S S S S S Z V V S S S S D D S S D D D D D D D D D D D D D D D D c , c D S A V V C N 7 A C A S A V V A C V x V S S A C ~ D G G G / / u.H / H H H D V N V D D D D G / / ) u.u.) ) u.i.i.i.g.g.g.u.9 L ` ^ ! ! Q L 6 < O O O O O < 8 8 i i i i i i i i i g K K K g p p g U E E E E E E E E T i t p K i t t i p K T T T T T R T R T R T T P g p p k E E E E E E E ! ! ! ! ! ! ! ! ! ! ! ! ! ! ! ! ! ! ! ! >.>.! -.E E E E E E E E E E E E E -.E E E Y ! ! ! ! E R R E E R R E E E E E E E E E E E E E E E E E E E E E E E E Y U U U U U U U U U U U U U Y Y Y Y Y Y E E E E E E E E E E E E E E Y E E E E E E E E E E E E E E E ! E E U P g 5 5 t p K K T E _ _ ! _ 1.1.>.Y p t t k E E P p i i K T T T T T R T L g 5 5 i p K P K p i i t t i i p g K K K K i t * & % 5 u K T T R T L L ( l.m.n.m.x.n.x.n.n.m.n.m.n.n.n.n.m.n.n.n.n.x.n.n.n.n.n.n.n.x.x.h.l.j.h.p.p.f.k.3 ( p.p.p.p.p.) / ) / D / u.i.) i.i.i.u.g.h.h.h.h.f.g.f.f.p.G V D G / i.) / D G u.u.i.u.u.u.i.i.i.i.p.p.f.p.i.i.i.i.i.i.i.i.u.u.u.u.u.u.u.u.u.u.",
"V N N V V N V V N V V V V C 9 @ 8 ~ A S S S S S S S S V S S S S S S S D D S S D D D D D D D D D D D D D D D c , c A S S V V V N 3 C C A S V V V V V V x N A S V N D D D G H H / u.u./ H H G D Z D G G V V / D G G / u.u.) / u.i.i.i.f.g.g.u.9 L ` ^ ! ! R K 8 & O O O O O < 8 8 i i i i i i i i i K K K K p p p P Y ! E E E E E E E R i t b K i t t i K R E E E E E E T T R T L K g p p g U ! ! E E E E E E ! ! ! ! ! ! ! ! ! ! ! ! ! ! ! ! ! ! E E E E E Y Y Y Y Y Y Y Y Y Y Y Y E -.E E Y Y ! ! ! ! E R R R R R R R R R R E E E E E E E E E E E E E E E E E E E E Y U U U U U U U U U U U U U Y Y Y Y Y Y E E E E E E E E E E E E Y Y Y Y Y Y E E E E E E E E E E E E E E E E U U i 5 5 t p K T E _ _ ! _ 1.1.1.E P a p P E E P p y i p K R T T T T T T K i t i p K L L K p i i i i i p K T T T K p t 5 & # * i K L T T T K R L j.m.n.n.n.n.n.n.m.n.m.m.m.n.n.n.m.n.n.n.n.n.n.n.n.n.n.n.n.x.j.g.h.h.p.p.i.p.k.3 ( p.p.f.) ) ) ) ) / D / ) p.A / / D u.g.h.h.h.g.f.g.g.f.g.H D / i./ D V G ) / / u.u.u.i.u.i.p.p.i.i.f.f.f.f.u.i.g.i.i.i.i.u.u.u.u.u.u.u.u.u.u.",
"N N N V V V V V V V V V V C 9 @ 8 D A S S S S S V S S S S S S S S D D S S S S D D D D D G G D D D S S D D D c , c C Z V V V V N 3 B V V C V V V V V C V c C D S S A D D D G H / u.u./ H H H D D / G G G D D / D D ) / u.u.u.u.i.i.i.f.f.f.u.W _ _ ^ ! Q R f < O O O O O O < 8 8 i i i i i i i i i K K K K p p p P E ! E E E E E E E T i i K K i i i p T E _ _ _ _ _ _ E R T T K p p p P U E ! ! ! E E E E Y E E E E E E Y Y Y E E E E E Y Y Y Y Y Y Y Y Y Y Y Y Y Y Y Y Y Y Y Y Y E -.E E E Y ! ! ! ! E R R U U U U U U R R R Y E E E E E E E E E E E E E E E E E E Y Y Y U U U U U U U U U U U Y Y Y Y Y Y E E E E E E E E E E E E Y Y Y Y Y Y E E E E E E E E E E E E E E E E E U K i 5 5 t p T E _ _ ! _ 1.1.>.>.E Y P P Y Y P p t t i K R T T T T T T K i t t p K L T T K b i i i p K L T R T L b i 5 * # * i K K L T T T R 6 p.m.n.n.n.b.n.m.m.m.m.n.m.n.n.n.n.n.n.n.n.n.n.x.n.h.x.n.n.x.h.f.f.g.f.p.p.f.k.2 ( p.p.i.) ) ) ) / ( ) ) i.) i.D / G u.g.g.g.g.g.g.g.f.f.g.u.u.p.u.u./ / G G G / u.u.i.u.u.i.p.p.f.p.i.f.f.i.g.i.i.i.i.i.u.u.H H ) u.u.u./ ) u.",
"V V V N V V V V V V V V V V 9 @ 9 D A S S S S Z V S V S S Z S S S S S S S S S D D D D D D D F S D D D D D D x @ x C V V V V C N 7 C V S V C C V V V V V V V S D D S V D G G G / u.u./ G H H / / G G D G D S D G D / u.u.i.u.u.i.g.i.g.f.f.u.W _ _ ^ E R U i < O O O O & < 8 6 i b b i i i i i i i p K K K p u p U E E E E E E E E T p i i p p i p K L T _ _ ` ` _ _ _ E T T K p i p P P E ! ! ! ! ! E E Y U U U U U U U Y Y Y Y U U R U U R Y Y U Y Y Y Y Y Y Y Y Y Y Y Y Y Y Y Y Y E E E E E E E E E E E R U U U U U U R R R Y E E E E E E E E E E E E E E U U Y Y Y Y Y U U U U T T T T T U U Y Y Y Y Y Y E E E E E E E E E E E E Y Y Y E Y E E E E >.>.E E E E E E E E E E E E E T K i t t i K T E E E ! 1.>.>.>.>.>.E Y U P P g t t i K T T R T T T R T p t 5 i K L T T T K K p b K K T R T T T g i 5 * # & t p L T L T T L K ) m.n.n.n.n.n.m.n.m.n.n.n.n.n.n.n.n.n.n.n.x.h.h.v.x.l.n.x.x.h.g.f.p.f.p.) ) k.2 ( p.p./ / ) ) ) / / / p.u./ p.D / / u.i.g.i.g.g.g.g.i.i.i.u.g.i./ G / G S G / ) u.u.i.i.u.u.i.p.p.p.p.p.f.i.g.g.p.i.i.i.i.u./ H / ) u.) / H u.",
"V V N V V V V V V V V V V V 9 @ 8 A Z S S S S S S S V S Z Z S S Z S S D D D D D D D D D D G D D D S S D S D x @ 9 C V V N V V x 3 C V A V C V V N V V V V S S V D S S G G / G u.u.u.u.H H H u./ / G D G / D D / G G u.u.) ) u.u.i.i.f.f.i./ W ! _ E E U T i < O O O & < 8 i K L L L K i i i i i i i K L K i u p U E E E E E E E E T t t i i p p K K T T E _ _ _ _ _ E R T K i i p g U U Y E ! ! ! ! E E Y U U U U U U U U U U U U T T U P U U U U Y Y Y Y Y Y Y Y Y Y Y Y Y Y Y Y Y Y Y Y Y Y Y Y Y Y E R R U U U U U U U U U U U E ! E E E E E E E E E E E U U Y Y Y Y Y U Y P P P K P P P U U U Y Y Y Y Y E E E E E E E E E E E E Y Y Y E E E E E >.>.>.>.E E E E E E E E E E E E E T T K p i i K T T E E >.>.>.>.>.>.E Y Y P U P i 5 i K T R T T T T T R K i 5 t p K T T T U K K K L T T R T T L g i 5 * # & 5 p T T L T T U R k.n.m.n.n.n.x.n.m.n.n.n.n.n.n.n.n.n.n.n.x.x.x.x.x.j.x.x.x.x.j.p.) / p.p.) ) k.2 ( ) ) ) i.i./ A D / G ) ) G / i.) ) p.f.g.u.f.g.g.g.g.p.i.i.p.i.i./ / u./ / / / u.i.i.i.u.u.i.i.i.p.p.u.i.i.i.f.i.u.u.u.u.u.J ) ) H / H H / H ",
"V V V V V V V V V V V V V V 9 @ 8 D S V Z S S S S S S S V V V S S Z Z S D S D D D D G G D G D D G G D D D D x @ 9 V V V N C A x 3 C V V V V V V x x V N V A S S D S D G G / / H / u.u.H / G / u./ / D S G G D / / H / / G ) u.u.i.i.f.f.u.A W _ ^ E Y U P i & O O O & 8 i K L T T T L K i i i i i b K L K p p g U ! ! E E E E E E K 5 t p K K K K T T E _ _ _ _ ^ E T T K p i i K T U U Y E ! ! E E Y U U P P P P P P P P P P P P P P P P P P U U Y Y Y Y Y Y Y Y Y Y Y Y Y Y Y Y Y Y Y Y Y Y Y Y U R Y R R U U U U U U U U U U U U E E E E E E E E E E E E Y Y Y Y Y Y U U U P P P K P P P U Y Y Y Y Y Y Y E E E E E E E E E E E E Y Y Y Y Y E Y E E E E E E E E E E E E E E E E E _ E T R T K t i p T E E E E E E E E >.E Y Y Y U u t t g T T T T T T T T K i 5 t p K K T T T T T T T T R T T T L K i 5 * # & 5 i K T L T L T R k.m.n.n.n.n.x.x.n.n.n.x.n.n.n.n.n.n.n.n.x.x.x.x.x.x.x.x.h.l.h.f.i.G p.p.) ( j.2 ( ) ) ) / ) / C N ~ A ) u.u.) f.i.i.p.f.f.p.g.g.g.g.g.p.i.p.g.g.i./ D ) u./ g.u.u.i.u./ u.i.i.i.i.i.p.i.u.u.i.u.i.p.i.u.u.H J u.u.H H H / / H ",
"V V V V N N V N V V V V V C 9 & 8 D Z Z S Z S S S S S S S S S S S S D S S D D D D D D G D D D D F F D S D D x @ 9 N V V V C A N 2 c V C V V V V x x C C A D S S S S G G H H / / u./ / H / H / u.u.u.G D S D G G G / / u.H u.u.i.i.f.i.f./ x ^ _ ^ E Y U P t $ O O & 8 i K L T T T R T K K b i i b K K T K p p k Y ! ! ! ! E E Y U p 5 t K T R R R T T E E ^ E E R T T K p i i p P U U U E E E E E Y U U U P P P P P P P P P P P P P P P P P k U U Y Y Y Y Y Y Y Y Y Y Y Y Y Y Y Y Y Y Y Y Y Y Y Y U U U R U U U U U U U T U U T T U Y Y E E E E E E E E E E Y Y Y Y Y Y U U P P P P K P P P U Y E E E E E E E E E E E E E E E E E E Y Y Y Y Y Y Y Y Y E E E E E E E E E E E E E E E E E E T T T p t t p T E Y E E E E E E E Y Y E E p t t p T T E E R R R T T i 5 t i p K K T T T T R R R T T T T L g i 5 * & & * t K L L L L T R ` x.n.n.n.x.n.x.n.n.h.x.n.n.n.n.n.n.x.n.n.x.x.x.h.x.j.x.h.x.h.i.p./ p.f.) ) k.2 ( ( ) / / p.~ S D V ~ p.i./ p.f.j.p.u.i.p.g.g.g.g.g.i.i.i.i.i.g.p.u.) G u.u.i.u.u.i.i.u.u.i.i.i.i.f.f.i.u.u.u.i.i.i.i.u.u.u.H u.u.u.u./ / / / ",
"V V V V V V V V N V V V V A 9 & 8 A S S S S V V V V V Z S S S S S S D D S Z S S D D D D F D F D D D S Z A C 9 @ c V N V N V V x 2 B C A D C N V C V D S Z S S D / / G G G / / / y.u.H G / / ) u.u.H / D / u.G / ) / u.u.u.u.u.i.f.f.i.i.G 7 ^ ! ^ E Y U P 5 O O & 8 i K L T T R R R R T T T b n n K T T K p p P E >.! ! ! E Y U U p 5 i T T T T T T T T E E E E T T K p i p n P U T T U Y E E E E Y U U U P P P P P P P P P P P P P P P P k k P U Y Y Y Y Y Y Y Y Y Y Y Y Y Y Y Y Y Y Y Y Y Y Y Y U U U R U U U U U U U P P P P T U U U Y E E E E E E E E E Y Y Y Y Y Y U U P P k P K P P P U Y E E E E E E E E E E E E E E E E E E E Y Y Y Y Y U Y Y Y Y Y E E E E E E E E E E E E E R R T T R T p t t p P Y Y Y Y Y Y Y Y U Y Y E P t t i K R E E E E E R T i 5 5 i p K K K T R T R T T T T T T T K i 5 * * & & t p K K K K L L ( ) n.n.n.n.n.n.n.h.n.x.) x.x.n.n.n.x.x.n.x.x.x.l.g.f.j.g.l.p.u.) / p.p.u.) v.2 ( p.i.i.i.) / ~ ) p./ / / / ) p.f.g.i.H i.g.g.g.g.g.u.i.i.i.f.g.f.i.p.p.p.) / ) ) i.i.u.u.i.i.i.i.i.i.i.i.i.u.i.i.u.u.u.u.u.u.u.u.u./ / u./ / ",
"V V V V V V V V V V V V V C 9 & 9 A S Z S S S Z Z V V Z Z V V Z Z V V N V N N S D D D D S D F S D D D S A A 9 @ c C Z C N V V x , x A D C x A S S A Z S S S D D D G G G G G / H y.u.u.H H H H y.u.u.H D D ) G G G G u.u.u.u.i.i.f.i.f.i.D < R ! ^ E Y U T 5 $ O & 6 K L L T T T R R ^ ^ R T K n b L L T n p p P E 1.>.! ! E Y U P p 5 p T T T T T T T T T T R T T K i i i K T T U U Y Y Y Y E E E E Y U U U U U U U U U U U U U U U U U U U U U U Y Y Y Y Y U U U U U Y Y Y Y Y Y Y Y Y Y Y Y Y U U U U U U U U U U U T P P P P P P U U Y E E E E E E E E E Y Y Y Y Y Y U P P k k P K P P P U Y ! E E >.E E E E E E E E E E E E E E E E Y Y Y Y P P U Y Y Y E E E E E E E E E E E E E E R T T T R T p i i p U Y Y Y Y U P k k P U T T t 5 i K R E E E E E E T p 5 5 i i K K K K T T E E T T T T T T K i 5 : * & & 5 i K K K K K L L A n.n.n.n.n.x.n.J j.v.j.l.x.n.n.x.x.x.x.h.f.h.l.j.h.g.p.p.f.p.p.p.p.) f.) k.2 ~ p.i.) k.p./ / i.) ) ) u.p.i.f.u.g.g.i.i.g.g.g.g.g.i.i.i.i.g.g.g.u.G G p./ G / u.i.f.f.u.i.u.i.p.i.i.i.i.i.u.u.i.u.y.u.u.u.u.u.H u.H / u.u.u.",
"V V V V V N N V V V N N V C 9 O 9 A Z S S S S V V N V V V V V V V S V V N x V D D D D D D D D D D S V V V C 9 @ c C V A V V V N > 9 S D A C A D A Z A Z V V S D / / / / / / / y.u.u./ / H H H u.H / G D G D S G H ) u.i.i.i.i.i.i.i.i.i./ b R E _ E E U g : $ $ 5 i K L K L T R R R R R R T K K K K T K b p p U ! 1.>.! ! E E U k p i K T T T T T Y T R T T Y U K p i p K P U U U U E E E E E E E E Y U Y U U U U U U U U U U U U U U U U U U U U Y Y Y Y Y U R R R R R R Y Y Y E Y Y Y Y Y Y Y U U U U U P U U U U U U P P P P P P U Y E E E E U U U U U U U U U U U U U U P P P P P T T U U E ! ! ! E E E E E E E E E E E E E E E E E E E E Y U U U U P U U Y E E E E E E E E E E E E E E E E E R T p y y P U U T P P p u u u p T T i 5 t K T E ^ ^ _ ^ E R K t t i i K K K L T T E E E E E T T P K i t 5 : % # & t p g K P P L L 9 l.x.x.x.x.x.l.g.u.j.p.u.n.n.x.n.x.x.x.x.x.h.j.j.u.h.u.p.g.u.p.u.p./ ) / k.2 ~ ) p.i.p./ ) ) ) ) G D / u.p.p.p.g.g.i.i.g.g.g.g.g.i.g.g.p.g.g.f.u.u.u.H H / / u.i.i.i.i.u.i.i.i.i.i.i.i.i.i.H u.u.u.u.u.u.u.u.u.H H u.H / H ",
"V V N V V V V V V V V V V C 9 @ 9 D S S Z S V S S V V V V S V V C C S V V N V D D D D D D D D D S Z Z S V V 9 @ c C V V C V V x > 2 V A A C V C S V A Z V A D D G D / / / G H / H / / H H H / / u.u./ G D G G G / u.u.u.i.i.i.i.i.g.i.i./ ^ ^ ^ E E E U y & $ & 5 i K K K K L T T R T T R T K K K K K b i u p Y 1.1.! ! ! ! E U k p p K T T T T T Y E E Y Y Y P g p u g P P U U U E E E E E E E E E Y U U U Y Y Y Y Y Y Y Y Y Y Y Y U U P I Y Y Y Y Y Y Y Y R R R R R U R R R R E ! Y Y Y Y Y Y Y Y U U U k k P P U U U k k P U U U E E E E E R U U U U U U P P U U U U U U U U U U T U U U R E E E E E E E E E E E E E E E E E E E E E E E E E U U U U P P P U Y Y E E E E E E E E E E E E E E E E U g u y i K T K K K p p i t i K L K t 5 p T T E E _ E E E K t 5 t i b K K T T E E ! ! ! E Y U U P p y t : $ # # : y g K P P P L 6 x.x.x.x.b.f.l.x.h.p.f.l.n.n.n.x.x.x.x.x.l.j.j.h.j.g.u.p.p.p.p./ p./ ) i.k.2 L ( / ) / D ) ) ) ) ) / ) u.p.p.p.g.g.i.u.g.g.h.g.g.p.g.g.g.g.g.i.f.u.u.S / / u.u.u.i.i.i.i.i.i.i.i.i.i.i.i.u.u.u.i.u.u.u.u.H H / H H H H H H ",
"V V V V V V V V V V V V V C 9 @ 9 D S S S S V S S S V V S S S V V V V A V V A S D D D D D F S D S S S S V C 9 @ c C V C C V V x > 9 V V A A C C V S A A V V D G G D / H / / / / u.u.u.u.u.H H H u.u./ G D D D / / u.u.u.u.i.i.i.i.i.i.u.~ ^ ^ ^ E E R P y % # & 5 t p K K K K K K T T T T T K K K K K p i p g Y 1.1.! ! ! ! E P g u u p n K P P T T Y Y T T U P p p g P P U U U Y E E E E E E E E Y U U U P P U Y Y Y Y Y Y Y Y Y Y U U Y Y Y Y I Y Y Y Y Y U U R R R R U R R R E ! Y Y Y Y Y Y Y Y U U P k k k P P P P k P U U U Y E E E E E R T T U U U U P P U U U U U U U U U U T U U U R E E E E E E E E E E E E E E E E E E E E E E E E E U U U U U U U U U Y E E E E E E E E E E E E E E E E U P p i t p K K K K K K b i p K K K t t p T R T E E E E E K t 5 5 i b K T R T E E ! ! E E U U U P p u y : % # # * t p g P P P T W l.x.n.x.x.D f.h.l.G l.x.x.n.x.x.x.x.x.j.g.h.h.g.g.g.p.p.i.p.p./ p.u.) ) ( > C ( ) / ) ) ) u.) ) / / / ) u.u.i.g.g.g.g.g.g.g.g.g.g.g.f.f.i.f.i.i.p.p.) ) / u.u.i.i.i.i.i.i.i.i.i.i.u.u.u.u.u.u.u.u.u.u.u.u.u.H H H H H H H ",
"V V V V N N V V V V V V V C 9 @ 9 A A Z S Z V V V V V N V S S V V N V Z V V V S S D D D D S S D S S S S A A x , x A V C A C V x > 9 V V V A S A C V S Z V V D G / G H H H H / / H / u.u./ / / H / / / H D D D G G ) u.u.i.i.i.i.i.f.i.G ~ ^ ^ E E T P g : $ # & 5 t i i i i i i i K T T T T K n b b p i i p g Y 1.1.! ! ! ! E P p u u u p p K P T T T T T U P g p g P U U U U Y E E E E E E E E E E Y U U P P U Y Y E E Y Y Y Y Y Y Y Y Y Y Y U P P Y Y Y U U U U U U U U R R R E ! Y Y Y Y Y Y Y Y U U P k k k P P I I P U Y Y U Y E E E E E R U T U U T U P U U U U U U U U U U U T U U U R E E E E E E E E E E E E E E E E E E E E E E E E E E E Y Y U U Y Y Y Y E E E E E E E E E E E E E E E E E U P p t t i p K K T T T K p K K K i t i K T R T T T T R L i 5 5 t p K T T R E E E ! E U U U P P g p u : % # # $ t y g P P P T ^ p.x.n.n.x.l.) g.l.H h.l.x.n.x.x.x.x.x.x.x.l.g.h.h.g.g.u.) ) p./ p.i.) ~ ) > L ~ / S ) / i.) ) ) ) u./ u.u.u.i.g.g.g.g.g.g.g.g.g.p.g.f.f.f.i.p.i.i./ ) / / u.u.i.i.i.i.i.u.i.i.i.i.u.u.S H i.u.u.u.u.u./ u./ H u.H H / H H ",
"V V V V N N V V V V V V V C 9 @ 9 A C V Z S Z V V Z Z V V S Z V V V V V A V V D D S D D D S S S S S S S A C x 2 c C V C V N V 9 2 x V V V C A N C S S S S S D G G H H H H H / / / u.H H H / u.H / u.u./ G S G D H / u.u.i.i.i.i.i.i.i.S L ^ ^ ! E T P g : . # & 5 5 t t t t 5 5 5 i K T T T b p i i i t t p K Y 1.>.E ! ! ! Y P p u p p p P T T Y Y E Y T T K p p g U Y U U Y E E E E E E E E ! ! E E E Y U P U Y Y Y Y Y Y Y Y Y Y Y Y Y Y Y P k P U U Y U U U U U U U R R R Y Y ! Y Y Y Y Y Y Y Y U U P k k k P P Y Y Y Y Y Y Y Y E E E E E R U U U U T U U U U U U U Y U U U U U P U U U R E ! E E E E E E E E E E E E E E E E E E E E E E E ! E E E E Y Y E E E E E E E E E E E E E E E E E E E E E U P t t t p K T T E T T K K K K i t t i K T T T T R T T p 5 < 5 i K T T T E E E E E U P P P k g p p : : % # $ : y g g g P R ^ ( x.n.x.x.h.z.h.l.g.g./ x.x.x.x.x.x.h.l.j.h.h.g.p.g.g.p.) u.i./ u./ ) ) ) > L ( G S ) A / ) u.u.) u.u.u.p.i.g.g.g.g.g.g.g.f.g.g.f.f.p.f.i.i.i.i.u./ / ) / u.p.i.i.i.i.i.i.i.i.i.i.i.i.u.u.u.u.u.u.u.u.u./ / H H / / H H H ",
"V N V V N N N V V V V V V C 9 & 9 L C V S S V S S S V V S S Z S V N V N V S S S S S D D S D S S S S S S V V C B B C C A C N V x 2 x N V V V A N V A S D S S D G G H H H H H H / H y.y./ H H H / / / u.H / / / / G G H u.i.i.i.i.f.f.i.C K ^ ^ ! ! T P f $ . # & 5 5 5 t t t 5 5 5 t p K T K p i i t 5 5 t p P Y 1.>.E ! ! ! U k u i p n P T E ^ _ _ ^ E T P p u p g Y E Y E E E E E E E E E E ! >.! ! E E Y Y Y Y Y Y Y Y Y Y Y Y Y Y Y Y I I P k k P U Y Y U U U U U U Y Y Y Y Y E Y Y Y Y Y Y Y Y U U P k k k P U Y Y Y Y Y Y Y Y E E E E E R U U U U T T U U U U U U Y U U U U U T U U U R E ! E E E E E E E E E E E E E E E E E E E E E E E ! ! ! E E E E E E E E E E E E E E E E E E E E E E ! ! E E U p t t i K T T E E T K K K K p t 5 t K T T T T T R T L t 5 5 t p T T T T E E E Y P P k k k g p u t : * % * : y p g g P U R L h.n.n.x.x.n.n.l.i.g.h.x.x.x.x.x.x.x.h.g.h.f.g.g.g.g.f.p.p.u./ u.) / / k.2 ~ ( ) ) ) ~ / u.u.p.u.u.u./ i.g.g.g.g.g.g.g.g.f.g.p.f.f.f.i.i.i.i.i.i.u.) ) ) u.u.p.i.i.u.i.i.i.i.u.i.i.u.i.u.u.u.u.u.u.i.u.H G H H H / / H H ",
"N V V V V V V V V N N V V V c < 9 A C Z Z V S S Z V V V S Z V V V V V V V Z S S S S S S S Z S S S V N V V V V V V V V S A V V x > 9 V V C V S A V S S S D D D D H H H G / G / / H H / / H H H u./ / / / H D G G / ) u.u.u.i.i.i.i.i.i.C b ^ E ! ! R g y $ . # & * 5 t t t t t t t t i K K p t 5 5 5 5 5 5 p P E >.! ! ! ! E U g u u p K U E ^ _ _ _ ^ E U P p p g P Y E E E E E E E E E E E E ! >.>.! ! ! E Y Y Y Y Y Y U U U U U P Y Y Y Y U k k k k k k P U U U U U U U Y Y Y Y Y Y Y Y Y Y Y Y Y U U P k k k P P Y Y Y Y Y Y Y Y E E R R R R U U U U U U U U U U U U U Y Y Y Y U U U U U U R E E E E E E E E E E E E E E E E E E E E E E E E E E E E E E E E E E E E E E E E E E E E E E E E E E E E E Y K i t i K T R T E R K g K K K i 5 t p K T T T T T R T i 5 5 t p P T U T Y E E U P g p p p p p p y t * % * : y p g P P T R c f.x.n.x.h.h.z.x.l.h.c.x.x.x.x.x.x.g.g.g.g./ j.p.u.p.u.) u.i./ ) p.) ~ ( > ~ ( / / / / u./ u.p.i.i.u.u.f.g.g.g.g.g.g.g.g.g.f.p.g.f.u.f.f.u.i.u.i./ / / ) u.i.i.u.i.i.i.i.i.u.u.i.i.u.u.u.u.u.u.u.u.u.u.G H H H G / / / H ",
"N N V V V N N V N V V V V V c < 8 A C V V S V V Z V V S S S V V V V S V Z Z S S S S S S S S S S F V V N N V V C A V V C V N V x > 3 V V A S A C C Z S S D D D G G H H H / / / / / H / / u./ H u.u.u./ / / / G G / u.u.u.u.i.i.i.i.u.i.C K ^ E E E T g 6 $ . # $ * 5 t i t t t t t t i p i 5 < * * 5 5 5 t p U E ! ! ! ! ! E U p p p p K U Y E E ^ ^ E Y P g P P U E E E E E E E E E E E E E E ! ! ! ! ! E E Y Y Y Y Y Y U U U U U I Y Y Y U U k k k k k k k P P P P P P P U Y Y Y Y Y Y Y U U U U U U P k k k k k k P Y Y Y Y Y U U Y U U U U U U U U U U U U U U U U U U U Y Y Y U U U U U U U E E E E E E E E E E E E E E E E E E E E E E E E Y Y Y Y E E E E E E E E E E E E E E E E E E E E Y E Y E E E T p t t p T T T T T T K K K K i 5 t p K T R T R T T R p 5 5 t p K P T T U U U U k g u p p p g g u t * % * : y p g P P T T 8 ) n.n.n.n.n.n.n.x.x.x.x.x.x.x.x.z.h.j.j.h.g.) H u.f.) ) ) p.) ) / / ) ) 2 C / ) i./ / i.u.) / / i.p.) g.g.g.p.g.g.g.g.g.f.f.f.p.f.f.i.f.f.p.u.i.u.u.u.u.u.i.i.i.i.i.i.i.i.i.i.i.u.u.u.u.u.u.u.u.H / / u.u.u.u.H G H / / ",
"N N N V V N N V V V V V V V x & 8 A V Z Z S S Z S Z Z Z S S V V Z S V Z S S S S S S S S S S S S S S A V N N V V V V C V V V V x 2 B V A S V C V V V V S D G G G H H H H G / G / / u./ / H H / / / / H H D D S G / u.u.u.u.i.i.i.i.i.i.V i ^ E R E U g : X . # $ * 5 t t t t t t t t t t t & & & & * * * t p U E ! ! ! ! ! E P p p p n P U T Y E E E Y U K P T U E E E E E E E E E E E E E E E E E E E E Y Y Y Y Y Y Y Y Y Y I I I I I Y I I U P k k k k k k P P P P P P P Y Y Y Y E Y Y Y U U U U U P P P k k k k k P Y I Y Y Y U U Y U U U U U U U U U U U U U U U U U U U U U U U U U T U T U E E E E E E E E E E E E E E E E E E E E E E E E E Y E E E E Y Y Y Y Y Y Y Y Y Y Y Y Y Y Y Y Y Y Y Y E E E E T T i t i K K L T T T T K K K i 5 t i K T T R R T T T p 5 5 t i K L T T U U U U P k g g g g k k u t * % * : y p g P P L R 8 ~ l.n.x.x.x.x.x.x.x.x.x.x.x.x.x.x.j.g.x.h.g.f.u./ / / i.p.u./ f.) ) / j.2 ~ / u./ / / ) / / H u.i.g.g.g.g.g.g.p.g.g.f.g.g.f.p.g.f.p.f.f.u.i.i.u.G / u.u.u.u.u.i.i.i.i.i.i.i.u.i.u.u.u.u.u.u.u./ u.u.u.u.H y.u./ / u./ / ",
"N N V V N N V V V V V V V C 9 & 8 A C Z V V V Z V V V S S Z V V Z S Z V Z S S S S S S D D S S D F D S S C V N V C V V V C V V x 3 C C C V V S A A C V S D D G H H H H H / / H / H / H H H / / / / H / G G D G H / u.u.u.u.u.i.i.i.i.u.N 6 R T R T T f : X . # $ & 5 5 t t t t i i i i i t * & & & * & * t p U E ! ! ! ! E E P p p K K P T T Y Y Y T U K g P T E ! ! E E E E E E E E E E E E E E E E E Y U Y Y Y Y Y Y Y Y Y Y Y Y Y I I Y I I P k k P P P P P P P P P P P Y Y Y Y E Y Y Y U U U U P P P k k k k k k P Y I I I I U U Y U U U U U U U U U U U U U U U U U U U U U U U U U T T T U E E E E E E E E E E E E E E E E E E E E E E E E E E E E E E Y Y Y Y Y Y Y Y Y Y Y Y Y Y Y Y Y Y Y Y E E E E T T K t t i i p K T T T K K K p t t i g T T T T T T T p 5 5 5 i b L T T U U U U P k k k k k k k u t * % * : y p g P P T L i L f.n.l.f.x.x.z.x.x.x.x.x.x.x.x.x.h.h.h.h.g.g.p.p.p.u.p.p.p.) p./ / ) j.3 ~ / ) ) / / ) / / / u.u.g.g.g.g.f.g.p.g.p.p.g.g.f.g.f.p.p.f.f.u.i.i.i.G / u.u.u.u.u.i.i.i.i.i.i.i.u.i.u.u.u.u.u.u.H H u.u.u.u.u.u.u.y./ / / / ",
"N N N N N N V V V V V V V C 9 @ 8 A Z Z V V V V V V V Z Z Z Z V V S S S S S S S S S S S S S D D S S S Z A V N V V V V V V V V x 3 B V V V V V V S V Z S D G G G H H H H H / / / / H H H u./ / / / / / / G G D H / H H u.u.u.i.u.i.i.u.B b R T T U P y ; . . # $ & * 5 5 5 5 t i i p b p i 5 5 5 5 5 * * t g U E ! >.! ! E U k u p K P P P T Y E Y U P n p T E E ! ! E E E E E E E E E E E E E E E E E Y U Y Y Y Y Y Y Y Y Y Y Y Y Y Y Y Y Y Y I P P P P P P I I P I h h Y Y Y Y Y E Y Y Y Y U U P k k k k k k k k k P Y I Y Y Y U U Y R U U U R U T T T U U U U U U U U U U U U U U U U U U U U E E E E E E E E E E E E E E E E E E E E E E E E E E E E E Y Y Y U U U U U U Y Y U U U U U U Y Y Y E E E E E R T K i t t t i p K T R T K K p t t t p K T T T T T R p 5 5 5 t p L T P U U U U P k k k g g g g u t * % * : y p g P P T K L L ) x.x.x.x.x.x.x.x.x.x.x.x.x.x.x.z.h.h.h.h.g.f.p.p.u.p.u.p.u.u./ ) i.j.3 ~ / ) ) i.) / ) / u.u.i.i.p.f.g.f.g.p.f.g.f.g.f.f.f.p.p.p.p.p.u.u.u.i.u.u.p.p.i.u.u.u.i.i.i.i.i.u.u.i.u.u.u.u.u.u.u.u.u.u.u.u.u.u.u.u.u./ H H ",
"N N N V N N V V V V V V V C 9 O 7 A V S Z V V V V V V V Z S S V V Z V S S S S S S S S S S S D D S V V V V V N V V V V V V V V x 3 B V V V V V V S S S S D D G G H G H H / / / / / / H H H H / / / / / / / G H / H H H ) u.u.u.u.u.u.u.~ T T T T T P y - . . # $ & * 5 5 5 5 t i i p K K p i i i i t 5 5 y g U E ! >.! ! E U g y p P P P T T T E E T K p K U E E ! E E E E E E E E E E E E E E E E E E E Y Y Y Y Y Y Y Y Y Y Y Y Y Y Y Y Y Y Y U U U U U P I I I I I h Y Y Y Y Y Y E Y Y Y U U U k k k k k k k k k k P Y Y Y U Y U U Y R U U U R T T U T U U U U U U U U U U U U U U U U U U U U E E E E E E E E E E E E E E E E E E E E E E E E E E E E E Y Y Y U U U U U U Y Y U U U U U U Y Y E E E E E E E T T p t t t i i K L T T K K K i t t p K T T T T T R p 5 5 5 t p T T K U U U U P k g g p p p u u t * % * : y p g P P T T L L ) x.x.x.x.x.x.h.l.l.x.x.x.x.x.j.h.h.g.g.g.p.p.g.j.p.p.p.p.) ) / ) ) p.2 ~ / ) ) / / ) / ) i.u.u.i.f.f.g.p.f.p.f.g.g.g.f.g.f.p.p.p.p.u.i.i.i.i.u.u.i.i.i.i.i.u.u.i.i.i.i.u.u.u.u.u.u.u.u.u.u.u.u.u.u.H H y.H H / H H H ",
"N N V V V V V V N V V V V C 9 O 9 A Z S V V V V V V N V V V V V V V S S S S S V S S S S S S S S S A V V A Z V V V V N N N V C x 3 B N N V N V V S S S S S D D G H H H H H / / / / / / / / / H / H / u./ / H H u.H H / / u.u.u.u.u.u.G ~ T T T U U K 5 & X X $ % & : 5 5 5 t i p g K L L K n K p i i 5 5 i T E E ! ! ! ! E P p y p P P T U T T E T K p K T T E E E E E E E E E E E E E E E E E E E E E E E E Y Y Y Y Y Y Y Y Y Y Y Y Y Y Y Y Y Y Y Y Y Y Y Y Y Y Y I I I Y Y Y Y Y Y Y Y U U U P k k k g k k k k k k k k P U U U U Y Y Y Y Y Y R U U U U U U U U U U U U U U U U U U U U U U U U R R R R R R E E E E E E ! E E E E E E E E E E E Y Y Y Y Y Y U U U U U U U U U U U U U U U U U Y U Y Y Y Y E E Y U K p t t u i p K T T K K p i 5 t i K L T R T T T p t 5 5 5 t p K T T U T T T g t t t t 5 5 5 : & % % * y p g P P P T K L / x.x.h.x.x.x.l.l.j.l.x.x.x.x.c.h.g.h.g.g.f.p.j.j.p.u.) f./ / / / ) ) 2 ~ ~ / ) S / ) / / u.u.u.i.p.f.f.f.p.p.p.p.f.g.f.f.p.u.i.p.p.u.i.i.u.u.u.f.u.i.i.u.i.i.u.i.u.u.u.u.u.u.u.u.u.u.u.u.u.H H H H H / u.u.H H / H H ",
"N N V V V V V V V V V V V B 7 O 9 D S S V V V Z V V V V V V V Z Z V V Z V S S V S S S S S S S D S Z V Z S V V V V N N N N N V x 7 C N V V N V V S S S S S D D G H H H H H H / / / / / / H H H / H / / / / H H u./ H / H u.u.u.u.u.u.A W T T T T T K 5 $ $ $ & ; : 5 5 5 t y i g K K L L L L K K i t 5 5 i T ! ! ! ! ! E E k y u g P P T T E Y T P p p P T E E E E E E E E E E E E E E E E E E E E E E E E E Y Y Y Y Y Y Y Y Y Y Y Y Y Y Y Y Y Y Y Y Y Y Y Y Y Y Y Y P P Y Y Y Y Y U Y U U U P k k k k g g g k k k k k k k P U U Y Y Y Y Y Y Y Y Y Y U U U U P P T T T T P P P T T T U U U U U U U U U U U R E E E E E E E E E E E E E E E E E E U U U U U U U U U U U U U U U U U U U U U U U U U U U U U Y E Y U P g p t t y p P T K L K p t 5 t i K T T R T R T p 5 * & & * 5 i p K T T E R p * & & & & & & % $ # # # y p g K K K T T K ~ h.l.h.l.x.x.l.x.x.l.x.x.x.x.h.h.h.h.f.u.f.g.g.g.p.u.) f./ / ) ) G / 2 ~ / / ) D ~ / H G G u.u.i.i.f.g.p.f.g.g.p.f.g.f.p.p.p.p.p.p.i.u.f.u.u.u.u.i.u.u.u.u.u.u.u.u.u.i.u.u.u.u.u.u.u.u.u.u.u.y.H H / H u.H u.H u./ H ",
"V V N N N N V V V N V V V C 7 O 7 A V V V N V Z S Z V V V Z V V V S Z V Z S Z S V S S S S S S D D A Z Z S Z V V V N N N V V V x 3 B N V V x V V A C C A V D D D H H H H H H / H H / / / / / H H H u./ / / / u.u.u./ H H u.u.u.i.u.u.B R T T T U U K 5 $ $ $ ; : 6 6 6 6 6 y i f g K L L L L L K i t 5 5 i T ! ! ! ! ! E E k y u g P T E E E E T K u p T Y E E E E E E E E E E E E E E E E E E E E E E E E E Y E Y E E E Y Y Y Y Y Y Y Y Y Y E E Y Y Y Y Y Y Y Y Y U P P I I Y Y Y U Y U U U P k k k k k g g k k k k k k k P U U Y Y Y Y Y Y Y Y Y Y U U U U T T P P P P T T T T T T U U U U T T U U U U U Y E E E E E E E E E E E E E E E E E E U U U U U U U U U U U U U U U U U U U U U U U U U U U U U Y U U U U P g t w t p P U K P K p t 5 t i K T T T T E R b 5 & # # # & < 5 p K T T T p & & & * & & # # # . . # t p K P P K P T L / l.h.l.x.x.x.l.l.x.x.x.x.x.x.h.h.g.f.h.g.g.g.h.f.p.u.u.f.~ G ) / / / 2 ( ) / / ) ~ G ) / ~ ) p.u.i.i.g.f.i.f.g.f.p.g.f.f.f.f.f.f.i.u.u.u.u.u.u.u.u.u.u.i.i.u.u.u.i.u.u.i.u.u.u.u.u.u.u.H H H H H u.H H y.H H H u.H H ",
"N V V V V N N N V V V V V C 7 O 7 D V V V V V V S V V N z z N S S V S S S S Z S S S S S S S S A S Z Z Z S V V V V N N V N V V x > 9 V V N N V V V V N C S D G G H / / H H H H H H H H / / / / u./ / / / / / / u.u.H u.H u.u.u.u.i.u.x R T T T T T b : X X & : 6 6 y y 6 6 y i i f K K K K K K K i t 5 5 i T ! ! ! ! ! E E k y u g U Y E ^ E E T p p K T Y E E E E E E E E E E E E E E E E E E E E E E E E E E E Y Y Y E Y Y Y Y Y Y Y Y Y E E E Y Y Y Y Y Y Y Y Y U P P Y Y Y Y Y U Y U U U P P P P k k k k k k k k k k k P U U Y Y Y Y Y Y Y Y Y Y U U U U T T T P P P T T T T T T T U U U U T U U U U U E E E E E E E E E E E E E E E E E E E U U U U U U U U U U U U U U U U U U U U U U U U U U U U U Y U U U U U P y w t p P P K P K p t 5 t i K T T T E E T K 5 & $ # # # & * i p T T K i * * * * < : & % # . . . t i K T T P P T K V j.x.h.l.x.x.x.l.x.x.x.x.x.x.h.h.g.g.f.f.f.g.f.p.p.p.) p.) / / ) i.) 2 ~ / / / D D / ) D / ) p.i.i.i.i.f.p.i.f.g.f.f.f.p.f.p.i.f.i.u.u.u.i.i.u.G / u.u.u.u.u.u.u.u.i.u.u.u.u.u.u.u.u.u.u.u.H u.u.u.u.H / H H u.y.y.H ",
"V V V V N V V V V V V N N C 9 O 7 C V V V V N Z V Z S Z V V V z z V V V S V V S V V V S S S S S V V V Z V V N N N N N x N V V x 7 C N V N V V V V A A N S D D G G / H H H H H H H H / H / / H / / u./ / G G / / u./ H F H u.u.u.u./ 7 R T T T T T b : X . & : 6 6 y y 6 6 6 y i f f K K K K K K p t 5 5 i T ! ! ! ! ! E E k y u g U E E ^ E U K p p P E E E E E E E E E E E E E E E E E E E E E E E E E E E Y Y Y Y Y Y Y Y Y Y Y Y Y Y Y Y E Y Y Y Y Y Y Y Y Y Y U P P Y Y Y Y Y U Y U U U P P P P k k k k k k k k k k k P U U Y Y Y Y Y Y Y Y Y Y U U U U P P T T P P P P P T T T U U U U T T U U U U R E E E E E E R R R E E E E E E E E E E Y Y U U U U U U U U U U U U U U U U U U U U U U U U U U U Y U U U U Y U p t t u k P K L K p t 5 t i K T T T T T T K i < $ # # # $ & 5 t i K p i 5 5 5 t t t 5 : * % # . : y K T T P P T K ~ j.g.p.h.j.x.x.l.x.x.j.x.l.x.l.h.g.h.f.p.) p.g.f.u./ / / / ) ) u.u./ 2 A ( / / ) D ~ / / ) ) i.i.u.i.g.f.i.i.p.f.f.f.f.f.p.p.f.i.i.i.i.i.i.i.u.G G u.i.u.J u.i.u.u.i.u.u.u.u.u.u.u.H u.u.u.u.u.u.u.H H y.y.y.u.u.y.H ",
"V V V N N V V V V V V V V B 7 O 7 C V V N V V V V S V z z V V V V S S S V V S S S S S V V Z A S A V V V V V V N V V V N V C V x 3 C N V z N V V C A V N V S D D G / / H H H H H H H H H H / / H / u./ / / G G u./ / u.u.u.u.u.u.u.u.9 T T T T T K p * . . $ ; : 6 6 6 6 5 6 y f f K K K K K K K p t 5 5 i T ! ! ! ! ! E E k y u g P T E E T P p u p T E E E E E E E E E E E E E E E E E E E E E E E E E E E Y E Y Y Y Y Y Y Y Y Y Y Y Y Y Y Y Y Y Y Y Y Y Y Y Y Y U P P I I Y Y Y U Y U U U P P U P P k k k k k k k k k k P U U Y Y Y Y Y Y Y Y Y Y U U U U P P T T P P P P P P P P U U U U T U U U U U U E E E E E E R U U U R U E E E E E E E Y Y U U U U U U U U U U U U U U U U U U U U U U U U U U U Y Y U U U Y E P u t t p P K L K p t 5 t i K T T T T T T T i 5 * * * * * * 5 5 5 i i i t t i i p p p i t * & $ : y P U T P P T K ~ l.x.l.l.x.x.l.h.j.l.j.j.l.h.h.g.g.p.p.f.p.u.) p.u.) ) u.u.) i.p./ / 3 ~ / / ) V D D / / i./ i.u.u.u.f.i.i.g.p.g.g.f.p.f.i.i.f.f.i.i.u.i.u.i.u.H / u.u.u.u.u.u.u.u.i.i.u.i.u.u.u.u.u.u.H u.u.u.u.H H H H / u.u.u.H H ",
"N N N V V V N V N V V N V B 7 O 7 C V V V V V V V V V V V V V V V V Z S V V S S C S S S V V V C V V V Z V V S V N V V N V V V x 2 x x V N z N C V V V N z A D D G H H H H H G H H / / H H H / H / / u./ / / / / u./ u.u.u.u.u.u.u.) 7 T T T T T P i & . . & : : 6 6 6 5 : 6 y f f K K K K K K i i 5 5 t g E ! ! ! ! ! E Y g u u g P T E E T n p p T E E E E E E E E E E E E E E E E E E E E E E E E E E E E E E E E E Y Y Y Y Y Y Y Y Y Y Y Y Y Y Y Y Y Y Y Y Y Y Y Y Y Y U U Y Y Y U U U U U U U P P k k k k k k k k k k P U Y Y Y Y Y Y Y Y Y Y Y U U U U P P T P P P P P P P P P U U U U U U U U U U U R E E E E E E U U U U U U E E E E E E Y Y Y Y Y Y U U U U U P U U U U U U U U U U U U U U U U U U Y U U U Y Y P g y w u g K K K p t 5 5 i K T T T T T T T p 5 5 5 5 t t i t t t t t t i i p K K K K g i 5 & # 5 y P U T T U T L ~ h.x.x.l.x.x.l.h.h.l.x.x.x.h.h.h.g.p.p.g.p.p.f.f.u./ u.u.) p.u.u.) ) 4 C ~ ~ / S D ~ / D ) G ) ) ) u.i.f.p.i.p.i.g.g.f.f.i.u.i.i.f.f.i.i.u.u.i.i./ u.i.u.u.i.u.u.u.u.u.u.u.u./ u.u./ / / / u.u.u.H H u.) / u.u./ H H ",
"N N N N V V V V V V N V V B 7 O 7 C V V V V V V V V V V Z V V V V Z S V V V Z A V V V S S S S V V S S Z V V V V V V V V N V V 9 3 c x x x x N V z N V V V N V D G G G H H H H H H / / H H H H u./ / / / / / G / G u.u.u.u.u.u.u.u./ 7 T T T T T K i & . . & : : 6 6 5 : : 6 y f g K L L K K g i i 5 : t K E ! ! ! ! ! E U p t u k P T E T P p p P Y E ^ E E E E E E E E E E E E E E E E E E E E E E E E ! ! >.>.E E E E Y Y Y Y Y Y Y Y Y Y Y Y Y Y Y Y Y Y E Y Y Y Y Y Y P P P Y Y Y Y Y Y Y U U U P k k k P P k k k k k P U Y E E Y Y Y Y Y Y Y Y U U U U P P T T P P P P P P P P U U U U U U U U U U U U R R R R R R U U U U U U E E Y E E E E E E E Y Y U U U U P P U U U U U U U U U U U Y Y Y U U U U Y Y U Y Y U P P p t y p K K K p i 5 5 p T T T R T T T T p 5 5 5 t t i p p p i i i t i p K K K K K g i 5 & # 5 i K U U T T R T ( j.x.x.j.x.j.l.j.l.h.h.h.h.h.g.g.g.g.g.f.g.f.i.p.p.p.p./ p.p.u./ ) ) 4 C ~ A D A ~ D ~ ~ ) / / / / / u.i.p.p.i.f.f.f.f.i.i.u.i.i.i.i.u.i.u.) u.u.H H u.u.u.u.u.u.u.u.u.u.u.u.u.u.u.H H / / u.u.u.u./ / u.u./ u./ H y.",
"N N N N V V V V N V V V V C 9 O 7 C V V V V V V V N N N V V N V N V Z V Z Z V V V Z V S S S S V S S Z Z Z V V C V N V N N N V N 3 N x x V V C V V N V V S V V Z V D G H H H G H / H H H H G H H / / H G H G H / H u.) H u.u.u.u.u.) 7 T T T T T K i & . . & : : 6 6 6 6 6 t i f f K L L K K g i t 5 < t K E ! ! ! ! ! E U p t u k T Y Y U n p p T E ^ E E E E E E E E E E E E E E E E E E E E E E E E ! ! >.>.>.>.>.E E Y Y Y Y Y Y Y Y Y Y Y Y Y Y Y Y Y Y E Y Y Y Y Y Y P P P Y Y Y Y Y Y Y Y U U U P k k P k k k k k P U U Y E E Y Y E Y Y Y Y Y U U U U P P P P P P P P T T T T U U U U U U U U U U U U U R R U R R U U U U U U E Y Y Y E E E E E E Y Y U U U U P P U U U U U U U U Y Y E E Y Y U U U U Y Y U U U U U U g y t y p K K p i t 5 p T T T R T T T R b 5 5 5 5 t i b K K p i p p i p K K K K K g i 5 & # 5 i P T T T Y R L ~ p.x.l.g.j.l.l.z.h.z.h.h.g.g.g.g.g.g.h.g.g.g.g.i.u.p.p./ u.u.) ) ) ) 3 B C V A V ~ / ~ S D ) ) ) ) G g.i.f.f.p.i.u.f.i.p.i.i.i.i.u.u.i.i.u.G / H G H u.u.u.u.u.u.u.u.u.u.u.u.u.u.H H H / u.u.u.u.u.H H H u.u./ / H H ",
"N N N N N V V V V V N N V C 7 + 7 C V V V N V V V V V V V V V N V S V V V V V Z V Z S Z V Z S S S S S S S S Z S V V V N N N V x 2 B c N V V N x V V V S D S V S D G H H G G H H / H H H H H H H / / / / / u./ / H H H ) ) u.u.u.u./ 7 T T T T P g i $ . $ & : 6 6 y 6 y i f f K P L L L K K g i 5 * < i L ! ! ! ! ! ! E U p t u P U Y Y P p p K T E ^ E E ! ! ! ! ! ! E E E E E E E E E E E E E E ! ! ! ! >.>.>.>.>.>.E Y Y Y Y Y Y Y Y Y Y Y Y Y Y Y Y Y E E Y Y Y Y Y Y P P P Y Y Y Y Y Y Y Y Y U U U P P U P k k k k P U U Y E E Y Y Y Y Y Y Y Y U U U U P P P P P P P P T T T P U U U U U U U U U U U U U U U U U U U U U U U U E Y Y Y E E E E E E Y Y U U U U P P U U U U U U U U Y E E E Y Y U U U U Y Y U U U U U Y P p u t i p p p i t 5 p T T T E T R T T K 5 5 5 t i p K K K p p p K p K K T K K K g i 5 & # 5 i P T T T E T L C p.l.j.l.x.h.z.x.h.h.h.h.g.h.h.h.h.h.h.f.g.g.g.p.i.p.p.u.u./ / / ) ) 3 C ~ D D C ~ ) ) D S / u./ / u.i.i.i.p.p.g.f.f.f.f.p.i.i.i.i.i.i.i.u.) u.u.u.) u.u.u.u.u.u.u.u.u.u.u.u.H u.y.H / u.u.u.u.u./ H / u.H / / / H H ",
"N M N N N N V V V V N N V V 9 + 7 C V V V N V V V V V V V V V V V V Z V Z V V V Z Z S S S Z S S S S S S S V Z S V V V N N V N 9 > 9 V V N V x N V V C S D D D D S F G H H G H H / H H H / H H / / / / H H / H H H / u.u.) u.u.u.u.) 2 T T T T P g t & . $ * : 5 6 y f f f f K L L L L L K K g i 5 & * i R _ ! ! ! ! E Y P p t p P T Y U K p p T E _ _ E E ! ! ! ! ! ! ! E E E E E E E E E E E E E E E ! ! ! >.>.>.>.E E Y Y Y Y Y Y Y Y Y Y Y Y Y Y Y Y E E E E Y Y Y Y Y P P P Y Y Y Y Y Y Y Y Y Y U U U U U U P P k k k P U Y Y Y Y Y Y Y Y Y Y Y U U U U P P P P P P P P T T T T U U U U T U U U U U U U U U U U U U U U U U U U E E E E E E E E E E E Y U U U U P P U U U U P P P U Y E E E Y Y U U U U U U U U Y U U U U g u u t i p p i i 5 p T T T R R R E T K 5 5 5 t i p K K p t t p K K P T T L K K g i t & # * y K U T T T R L x ) l.j.j.j.h.h.h.h.h.h.h.g.g.g.g.g.h.g.g.g.g.i.i.g.g.f.p.) ) ) / ) p.2 B A D D A D D D ~ / ) u.u./ / F i.f.i.g.g.g.f.f.i.i.i.i.u.i.u.i.i.i.u.u.u./ / u.u.u.u.u.u.u./ H H H H H / H H / u.u.H H / H H u.H H H H / H H ",
"N N V N N N N N V V V V V C 9 @ 7 C N N V N N V V V V V V V V V V V S Z S Z V V V V V Z Z Z S S S S S S S S Z V V N V N N V C x , x l c V V x x C V A S D D G G G G G H H G G G H H H H / H H H H H H H / H G G / u.u.u.u.u.u.u.) G 2 U T T U P p t & X $ * 5 5 y f f g K P T T U T L L K K p i 5 & : i T _ ! ! ! ! E Y P p t p P Y U P p p p T _ 1._ E E ! ! ! ! ! ! ! E E E E E E E E E E E E E E E E ! ! ! ! >.E E Y Y Y Y Y Y Y U U U U U Y Y Y E Y E E E E Y Y Y Y Y P P P Y Y Y Y Y Y E Y Y Y Y U U U U U U P P P k P U Y Y Y Y Y Y Y Y Y Y Y U U U U P P T T T T P P P P T T U U U U T U U U U U U U U U U U U U U U U U U Y E E E E E E E E E E E Y U U U U P P U U U U P P P P U Y E E Y Y U U U U U U U U Y Y U U P P p y t i p i i i 5 p T T T R E E E R K t 5 5 t i p K p t 5 5 i p K T U T L K K g i 5 & # & t g T U T R R T 7 ~ l.h.h.h.h.g.h.h.g.g.j.h.g.i.g.g.g.g.g.g.g.f.g.p.g.f.p./ ) / / ) p.2 A A D D D D D D ) / u.u.u.u.u.u.i.f.i.g.g.g.f.f.g.i.i.i.i.i.u.u.i.u.u.) p.u./ u.) u.u.u.u.u.u.u.u.u.H H H u.H / u./ H / u.u.H y.u.u./ / u.H y.",
"M N M M N N V V V V N V N C 9 + 7 A V N V V N V V V Z V N N M V V V Z Z V S V V V V Z V V S Z Z S S S S S S S S V N V V x V V x 2 x x V V V N x V C V S G G D D D G H H H G H / H H H / H H H H / G H G / / S D H u.u.u.u.u.u.u.H A s T U T T K i < & $ < 5 5 t i f g K T T R R R T R L K K i t 5 & < i T ! E E E E E E P u u p P Y P p y p P Y E E E E E ! ! ! ! ! ! ! E E E E E E E E E E E E E E E E E ! ! E E E E E Y Y Y Y Y Y U U U U U U U Y Y E ! ! ! E Y Y Y Y Y I I I Y Y E E Y E E E Y Y Y Y U U U U U U U U U U U Y Y Y Y Y Y Y Y Y Y U U U U U U U U U U T T P P P P P U U U U U T U U U U U U U U U U U U U U U U U Y Y Y Y Y Y Y Y Y Y Y Y Y U U U U U U U U U U U P P P U U E E U U U U U U U U U U U U U U P P g p t t i p i t 5 i K T T E E E E E P i 5 5 t i p K p t 5 t p K U U U T P P g p u w & # & t p P U U U T K @ V l.l.j.x.h.h.h.g.g.h.h.g.g.g.g.g.g.g.g.h.g.g.g.i.g.f.p.i.p.G / ) p.3 N S D ) i./ / ) / / u.u.u.i.u.i.f.i.i.i.i.f.i.i.i.i.i.i.i.i.f.i.i.u.u./ ) / / u.u.u.u.u.u.u.u.u.u.u.H u.u.H H / / u./ / / u.H u.u.H / H H H H ",
"N V N N N N V V V N N V N V 9 @ 9 C N N V V V V V V V A N x V N V V Z S S V S V V Z S V V S S Z S V S S S S S S V V V V V N N x 3 B V V C N V V V V Z D D G D D G G G G H H H H H H H H H G H G / / H G S N V D / u.y.H u.) u.u.G L U P P T T L u < @ < 8 8 5 t i g K T R R R ^ ^ R R R L K p t * & * i T E E E E E E E k y y g P U k y y g U E E E E E E E ! ! ! ! ! ! E E E E E E E E E E E E E E E E E E E E E E E E Y Y Y Y Y Y U U U U U U U U Y E ! ! ! >.Y Y Y Y Y Y Y I Y Y E E Y E E E Y Y Y Y Y U U U U U U U U U Y Y Y Y Y Y Y Y Y Y U U U U U U U U U U U U T P P P P P U U U U U U U U U U U U U U U U U U U U U U U U U U U U U U U U U U U U U U U U U U Y U U U U P P P U U U U P P T T U U P P U U U U U U U P P g t t i p i t t i K T E E _ ! E E T p t 5 5 i p K p u t y g P U P U P P P g p u w * % * w p P U U P T K @ N f.h.l.j.h.j.h.h.g.g.g.g.g.h.g.g.g.f.g.g.g.g.i.f.p.p.u.p.) G ) ) j.3 ~ / / / / / / i./ G u.p.u.u.i.f.f.i.i.i.i.i.i.i.g.g.i.i.i.i.i.i.i.i.u.Z z D / / u.u.H u.u.u.u.u.u.u.u.H u.u./ u.u.u.u.u.u./ H u.u.y.H H H H H ",
"V N M M N V V V V V V V V C 9 @ 9 C N V V V V V V V Z V z x V V V V V V V V V S S V V V V Z Z V S S S S S S S S V N x N N N V x 2 x V V V N V N V Z Z S D G D D G H G H H H H H H H H H H H G D H / H G D D A S / / / H u./ H u.G B U P T T R K u < @ & 8 5 5 i i K K T R R R ! E _ E T L K i t * & < i U E E E E E E Y k y t p k k p t u P Y E E E E E E E ! ! ! ! ! ! E E E E E E E E E E E E E E E E E E R E Y Y Y Y Y Y Y I Y Y U U U U U U U R E E ! ! ! -.Y Y Y Y Y Y Y Y Y Y E E E E E E Y Y Y Y Y U T U U U U U U U Y Y I I Y Y Y Y Y Y U U U U T T U U U U U U T P P P P P U U U U U U U U U U U U U U U U U U U U U U U U U U U U U U U U U U U U U U U U U U Y U U U U U T T U U U U P T T T T P P P P P U U U U U P P K t t y p p i t i K T E E ^ E E R T b 5 5 t i p P P p p p P U U P P P k k k g u w * % & w p P U U P U K X C g.g.h.h.h.h.h.g.h.g.h.g.g.g.g.g.g.g.h.h.g.i.g.g.i.i.) / ) / ~ i.p.2 C ~ / D ) ) ) / ) ) u.u.u.i.f.i.g.f.i.i.i.i.f.i.i.i.i.i.i.) u.i.u.u.u./ G G G H / u.u.u.u.u.u.u.u.u.u.H u.H H H H u.u.u.u.u.H u.H H / / H H H ",
"M M M N N N N N N N N V N V 9 @ 9 D V V V V V V V V S S A Z V V V V V V V V S Z Z Z Z S V V Z S V S S S S S S S Z V N V V N N x > 9 x V V V V V A S Z D D D D D D G G H H H H G / H H H H H G G / / / G D D D / / G / H / u./ u.G L U P T T R K i < @ & 8 8 i i i K L R R R R ^ E ^ E T T K i t * & 5 p T E E E E E E Y g y t u p p y y p Y E E E E E E E E ! ! ! ! ! ! E E E E E E E E E E E E E E Y E E Y U U U U U U Y Y Y I Y Y U U U U U U U U U R E E E E Y Y Y Y Y Y Y Y Y Y E E E E E E Y Y Y Y Y U T U U U U U U U Y Y I I Y Y Y Y Y Y U U U U T T U U U U U U T P T T P T U U U U U U U U U U U U U U U U U U U U U U U U U U U U U U U U U U U Y U U U U U U Y U U U U U U U U U U U T T T T T T P P P U U P P P U U P P y t t i p p t i K T E E E E E E T n 5 5 5 i p K P k g P U Y U P U P P P k g u t * % % : p k U U P P P f B h.z.c.j.h.g.h.g.g.h.g.h.g.g.g.g.g.g.g.g.g.g.g.g.f.p./ u.) / / / ) , N D / / / / / / / u.u.i.u.u.u.i.i.i.i.i.i.i.i.i.i.i.i.i.i.u.u.u.u.u.u.) / / D G / u.u.u.u.u.u.u.u.u.u.u.u.H H H H / / / u.u./ u./ / / H H H H ",
"M N N N N N N N N N N N V C 9 @ 9 A V V V V V V V V V V S C V V V V Z V V V V Z S V V S S S Z V Z V S S S V S S V N N N N N N 9 > 7 V V V V V N A A S D D D D D D G G H H H H H G H / H H H G G H / H G D G D / / / / u.u.u.u.u.D L P P T T R K u < @ & 8 t i i K L T R R R R ! E _ E T T K i t 5 * 5 p E ! E E E E E Y g y t u u y y u P E E E E E E E E E ! ! ! ! ! ! E E E E E E E E E E E E Y Y E E E Y U U U U U U U Y Y Y Y Y U U U U U U U U U U R Y Y E Y E E E E E E E E ! Y Y Y Y E E E Y Y Y Y U T U U U U U U U Y Y Y Y Y Y Y Y Y U U U U U T T U U U U U U P P T P T T T U U U U U T T U U U U U U U U U U Y U U U Y U Y Y U U U U Y U U U Y Y U Y U U Y U Y U U U U U U U U U P P P P T T T T U U P U U P P P U U U T p y t t y i t i K T E R T R E E T K 5 5 5 t u g P P P P U U U U U P k P k g p t * % % : u k P P P P L L B p.h.h.h.h.p.g.h.g.g.g.g.g.g.g.g.g.g.g.g.g.g.i.g.p.p.) ) / / / / ) > N ~ / / / / G G / ) u.i.i.u.) i.i.i.i.i.i.i.i.i.i.i.i.i.i.u.u.u.i.u.u.G G D / / u.u.u.u.u.u.u.u.u.u.u.H H ) / H H H / u./ / / H H H H H H H H ",
"N N N N N N N N N N N N V C 9 @ 9 A V V V V V V V V V V V C V V V V S Z V V V Z S V V V Z V A V S Z S S S V S Z V N x x x x x x + 3 V V V V V V V A S S G G D D G G H H H H H H H H H H H H H G H H H / G G G G G G / H H / u.u.D L P T T R R K u < @ < 8 t i i K L R R R R R ! E _ E T T K i t 5 * 5 p E ! E E E E E Y k u t y y t t p P E E E E E E E E E ! ! ! ! ! E E E E E E E E E E E E E Y Y Y Y E U U U U U U U U Y Y Y Y U U U U U U U U U U U U U Y Y E E ! ! ! ! ! ! ! ! Y Y Y Y E E E Y Y Y Y U T U U U U U U U Y Y Y Y Y Y Y Y U U U U U U U U U U U U U U P P P P T T T U U U T T T T T U U U U U U U U U Y U U U Y Y Y Y Y U U U Y U U U Y Y Y Y U U U U Y U U U U U U R U U P P P P P T T T U U U U U P P P P U U U K i t t t y t i K T E R T T E E T n * * * 5 y p K P P P P P U U U P k k k k p t : & % : p P P P P U L L L / f.h.h.h.p.g.g.g.g.h.h.g.g.g.g.g.g.g.g.g.g.f.g.p.f.u./ G / G / ) > x D / / / ) ~ G / ) u.u.i.i.H u.i.i.i.i.i.i.i.i.i.i.i.i.i.i.u.u.u.u.) G D G / / / u.u.u./ / H ) u./ / H H H H H H H u./ / H H H H H H H H H H ",
"N N N N N N M M M N N N V V 9 @ 7 C V V V V V V Z V V V V V V Z V V V V Z V V Z S Z V V S S S V V S S S S Z Z Z V N x N N x V x + 2 N V V V C V V Z S D D G G G G H H H H H H H H H H H H H G G G H H H G G G G H / / / H G / H C K T T T R R K t < @ < 5 t i p K L T T R T R R R R T U T K i t 5 5 t K E E E E E E E U g t t t t t y g Y E E E E E E E E E E E E E E E E E E E E E E E E E E E Y Y Y Y U U P P P U U U U Y Y Y Y Y Y R R R R R R U U T U U U U Y Y Y ! ! ! ! ! ! Y Y Y Y Y Y Y E E Y Y Y Y R R R R Y Y U Y Y Y Y Y I I P P U U U U U U R U U U U U U U U U T T U U U U T T T T P P P P P U U U U U U P P U U U U U Y Y Y Y Y Y Y Y Y U U U Y Y Y U U U U U U U U U U U U U T T U U U U U U U P P P P U P U U U E E K p t t t 5 5 i K U E E R R R E R K < * & * t p K P P P P U U U U P P P P k p y : * % : u k P P P P U R L ~ p.h.h.h.h.h.h.g.g.h.g.g.g.g.g.g.g.g.g.g.g.p.p.p.p.u./ / / G / ) > x D / G / / / G / ) u.u.u.i.i.i.i.i.i.i.i.i.i.i.i.u.i.i.u.u.u.u.u.u./ / / H / / u.u.u./ H u./ u./ / / H H H H H H y./ / / H H / H / H / / H H ",
"V N N N N N M N M N V V V V 9 @ 7 C V V V V V V V V V V V V Z Z S S Z V V V V V S Z Z V S S Z V V V S S S S Z V V x z x x x N 4 + 2 V V V C V V V S S S D G G G G G G G H H H H H H G G H H G G G G H G G G G G / G / G V S / G x i R R R R R K 8 < @ < 5 t i p K L L L T R T R R T T T L K p i t 5 t K T E E E E E E U p t w t t t u P Y E E E E E Y E Y E E E E E E E E E E E E E E E E E E E Y U U U U P P P P U U U U Y Y Y Y Y Y Y Y Y E E R U P P U U P U U Y Y Y E E Y E Y Y Y Y Y Y Y Y E E E E Y E E E E Y Y Y Y Y Y Y Y Y I I I I U U U U U U R U U U U U U U U U T T U U U U T T U T P P P P P P U U P P P P P P U U U U U U Y Y U U Y Y U U U U Y U Y U U U P U U U U U U U U U U U U T U U T T U U P P P U U U U E E E K p i t 5 5 5 y K U E E E E E E R L 5 * & * t p P P k U U U U U U U U U P P p y w * % : u g P P k P U Q Q ( g.h.h.h.h.h.g.g.g.g.h.g.g.g.g.g.g.g.g.g.f.g.g.i.u./ / D / / / / > 9 D / / / / / / / / u.u.u.i.i.i.i.i.i.i.i.i.u.u.i.i.u.u.u.u.u.u.u.u.H ) / / / u./ H S Z G / u.u.u./ / u./ / G G H / / / / / H / / H H H H H H ",
"V N N N N N V N N N N N V V x , 7 C V V V V V V V V V V V V V Z S S Z V Z V V Z V V V V S Z Z V V V S V V V V V V x z l x N x 4 + 3 V N V V V A C S S D D D G G G G G G G H H H G G G G H G G G G G G G G G D G / / / D S / u.S + 6 R R R R R K t < @ & 5 t i b K L L L T T R T R T T T L K p i t 5 t K T E E E E E E U p t w t t t p P U Y E E E E E E E E E E E E E E Y Y Y Y Y E E E E E E E U U U U U P k P P U U U U U Y Y E E Y Y Y Y Y R R U P P P P P P U R R Y E E ! ! Y Y Y Y Y Y E E E E E E E ! E E E Y Y Y Y Y Y Y Y Y Y Y Y Y U U U U U U U U U U T T U T U U U U U U U U U U U T P P P P P P U U U U P P P P U U U U U U U U U U Y Y U U U U U U U U U U U U U U U U U U U U U U U U U U T U U U U U P U U U U E E E P g i t 5 5 5 y K U E E E E E E R L 5 * & * t u P P k P U U U U U P U U P P g y w * % : u g P P P P L Q Q ( g.h.h.h.g.h.h.g.g.g.h.h.g.g.g.g.g.g.g.g.g.i.i.i./ / / D D ) G ~ > 3 D / / G G ) / / / u.u.i.i.i.i.i.i.i.i.i.i.i.u.u.u.u.u.u.u./ H u.u.H / u./ / / / S D G / u.H H u.u./ / / F D / / / / / / / G / / H / H H H H ",
"N N N z N V N N N N M N N V 9 @ 8 B V V V V V V V V V V V V V V V V V V V V V Z V V V V V V V V Z S V V V V V V V x x x N N x 3 o > V V V V S S Z V V D D D D G G G G G H H G G G G G G G G G G G G G G H G G G / G G D G / u.A o i R R R R R K i & # & 5 i i b K L L L L L L T R T T R L n p i t 5 t K T E E E E E E U p t w t t y p U U U E E E E E E E E E E E E E E Y Y Y Y Y E E E E E E Y U U U U P P k P P U U Y U Y Y Y E Y E E Y Y Y R U P P P P P P P U R R ! ! ! ! ! E Y Y Y Y Y E E E E E E E ! ! E E Y Y Y Y Y Y Y Y Y Y Y Y Y Y U U U U U R U U U U T T T U U U U U U U U U U U P P P P P P P U U U U U P P P U U U U U U U U U U Y U U U U U U U U U U U P U U U U U U U T U U U U U U U U U T U U U U U U U U E E E U P p y 5 5 5 y K U E E E E E E R T 5 * & * t p P P P P U U U U U P U U P P g y w * % : u g P P k P L W W W g.g.h.h.g.g.g.g.g.h.g.h.g.g.g.g.g.g.g.g.g.i.g.i./ / D S ~ G ) ~ + 2 ~ / / / / / / G / u.u.i.i.i.i.i.i.i.i.u.i.i.i.u.u.u.u.u.u.u.u.u.u./ u.u./ / / / / / G H / ) u.H H H H H G / / / u.u./ / / H / / / H H H H H ",
"V M N N N M N M N N N N V V 9 & 8 C V N V V V V V V V V V V V V V V V V V Z V V V V V V V V V V V Z V V V V V V N x x c N V N 3 o > V V C A S C S Z V S D D G G G G G H G G G G G G G G G H H H H G G G H G G D G / G G D u.u.A o i R R R R R K i & $ & 5 i i K K K K K K K L L T R T T T K p i t 5 t K T E E E E E E U p t w y y u k U Y U Y E E E E E E E E E E E E E Y Y Y Y Y E E E E E E Y U U U P P P k P U U U Y P Y Y Y E E Y Y E E E R U P P P P P P P U U Y E E E E E E E U Y Y Y E E E E E E E ! E E E Y Y Y Y Y Y Y Y Y Y Y Y Y Y Y U U U U U U U U U U U U U U U U U U U U U U U P P P P P P P P U U U U P P P U U U U U U U U U U U U U U U U U U U U U U U U U U U U U U T U U U U U U U U U U U U U U U U U U E E E T T K i t : 5 y K U E E E E E E R T 5 < & * t p P P P U U U U P P P P P P k g u t * % : u g P k P U L W R ( p.h.g.g.f.g.g.g.g.h.i.p.g.g.g.g.g.g.g.g.g.g.i.p.) / / S D G / ~ + 2 D / ) ) / / / / / u.u.u.i.u.i.i.u.i.i.i.i.i.u.u.u.i.u.u.u.u.u.u.u./ u.u./ / / / G H u./ / u.H H / u.H H H G H / / H / / / / / / / / / / / H ",
"N N N N M M M M N N N M N V 9 & 8 B V V V V V V V V V V N V V V V V V V V V V Z V V N N N V V V V V V V V Z S V N x x x N N 4 2 o > V V V C S S S S S S D D G G G G G H G H G G G G G H G G G G H G G G G G G D G S / G / / / S L T R R R R R K i * $ & 5 i p K K K K K K K K L L T T T T K p i t 5 t K T E E E E E E U u w w y u p k P U Y U Y E E E E Y E E E E E E E Y Y Y Y Y E E E E E E Y U U U P P P k P U P U U P Y Y Y Y E Y E R R E R U P P g P P P T T R R ! ! ! ! ! ! E U Y Y Y E E E E E E E ! R R E Y Y Y E Y Y Y E Y Y Y Y Y Y Y U U U U U U U U U U U U U U U U U U U U U U U P P P P P P P P P U U U P P P U U U U U U U U Y Y U U U U U U U U Y Y U U U U U U U U U U U U T T U U U U U U U U U U U U U U U E E E E T P p t : 5 y K U E E E E E E R T 5 5 * 5 t p P P P U U U U U P P U P P k g y t * % : u g k P P U L R R W g.h.h.g.g.g.h.g.g.g.g.g.g.g.g.g.h.g.g.g.i.g.i.i.) / D / / D S A + 7 ~ / / / ) / ) G / ) u.u.u.u.i.i.i.i.i.i.u.u.u.u.i.u.u.u./ u.u.u.u.u./ u.G D / G G H G / H / u./ H / H H H / H H H H H H H / H H H H / / / H ",
"M M N N N M M M N N N N N V 9 & 7 C V V V N N V V V V N N V V V V V V V V V V V V V V V Z V V V V V V Z S S S V V N x x x x 9 2 o > V V V V V V S S V V S D G G G G G H G G G G G H G G H G G G G G / G G G / G G D G / / / ) C T R R R R R R K t * & < 8 b b K K K K K K K K K L T T T P g p t t t i K T R E E E E Y P y * 5 t y g k P U U U Y E E Y Y Y E E E E E E E Y Y Y Y Y U Y Y U U U U P P P P P P P P P P P P Y Y Y Y Y Y U U U U U U U P P P P P P U U R R E E E E E E Y Y Y Y Y Y E E E Y E Y Y E E E Y Y Y Y Y Y Y E Y Y Y Y Y Y Y Y U U U R U U U U U U U U U U U U U U U T T T T P P T T T T U U U U U P P P U U U U U U U U U U U U U U U U P P P P P P P P P P P P U U U U T U U U U U U U P P P P U U U U U Y E E E T T p t 5 5 t p T T E E E E E E U y 5 * : y p P P P P T P P P P P P P P K g u t 5 5 t p g K P P P U U U ` i.g.h.g.g.g.g.g.g.g.p.g.f.g.g.i.f.g.p.g.u.i.g.i.u./ / G ~ G / ~ > x / / / / / / / / / ) u.i.u.i.u.u.i.i.i.u.u.u.u.u.u.u.u.u.u.u.u.u./ / / u.u./ / / / G G G / u.u.u.u.u.H H / u./ H / H H H / / / H H / / / H H ",
"M M M N N N N M N N v N N V 9 & 7 A V V V V V V V V V V V V V V V V V V V V V V V V V V V V V V V V V V V S S S N N x N N x x 2 o 2 N N V V V S S S V V S D G G G D G G G G G G G H G G G G G G H G D D G G G / D / G / / / H N T R T T R R R K t 5 < 5 i n K K K K K K K K K K T T T T P K p u t i p P T T R T R T T K t * * 5 y g P P U U U Y Y Y Y U U U Y Y Y Y Y U U U U U U U U U U U U P P P P P P P U U U U U U Y Y Y Y Y Y P P U U U U U P P P T P U U U Y E Y Y Y Y Y Y Y Y Y Y Y Y Y Y Y Y Y Y Y E R Y Y Y Y Y Y Y Y E -.Y Y Y Y Y Y Y U R R R U Y Y Y Y Y Y Y Y Y Y Y U U T T T T T T T T T T T P P U U U U U U U U U U U U U U U U U U U U U P P P P P P P P P P P P P U P P P U U U U U U U U P P P P T U U U U U R R E T T p t 5 5 t i T T E Y E ! E E U p t : w y g P P P P P P P P P P P P P K g p i i i p p K P T U U T T T W f.h.h.h.h.g.g.g.g.g.g.p.i.g.f.i.p.i.g.f.i.i.i.p.u.) / G Z D D ~ > B D / / / G / / / / u.u.u.u.u.u.u.u.u.u.u.u.u.u.u.u.u.u.u.u.u.u.H / / H / / H / / H G / H H / u.u.u.H H H H / u./ u./ H H H H H H H H H G G H ",
"M M N M M N N N N N M M N V 9 & 7 C V V V V V V V V V V V V V V V V N V V V V V V Z V N N V V V V Z Z S V S S V V N N V x x x 3 + 2 N N V V V V S S S Z S D D G G G G G G G G G G G G G G G G G G / H G G G D G G G G G / H D 9 R T T T T R R K i 5 5 8 b n K K K K K K K K K K T T T T T P p u i p K T T E R R R T T K t & * 5 i g P U U U U Y Y Y U U U U U U U U U U U U U U U U U U P P P P P P P P P P U U U P P U Y Y Y Y Y Y I P P P P P U P P P T P U Y Y Y E Y Y Y Y Y Y Y E E Y Y Y Y Y Y Y Y Y Y ! R R R Y U Y Y Y Y E -.Y Y Y Y Y Y Y Y R R R U Y Y Y Y Y Y Y Y Y Y Y U U U U U U U T T T T T T P P U U U U U U U U U U U U P P P U U U U U U P P P P P P P P P P P P P P P P P U U U U U Y Y U P P P T T U E E Y Y E E E T T p t 5 5 t t U U E Y E E E Y U g y t u p g P P P P P P P P P P P P T K K g g p p g K T T T T T T T T W f.g.g.g.g.g.f.g.g.g.g.i.i.g.f.i.i.u.f.p.u.i.i.i.u./ / / D D ~ ( > c ~ ) / ) / / / / ) u.u.u.u.u.i.i.u.u.u.u.u.u.u.u.u.u.u.u.u.u./ / u.u./ G G G H / / / / / / / H H / H H H H H H y.u./ H H / H / / H / G G G G ",
"M M N M N M M N N N N N V V 9 @ 9 C V V V V V V N N V V V V V N V V V V V V V V V V V N V V V V Z Z S S V V V V V V N N N x x 3 + 3 N N N V V V V Z A Z S D D G G D D G G G G G G G G H G G G D D / / G G D G G G / / / / H V < R T T T T R R L K i i b n K K K K K K K K K K K T T U T U P P K n P T T E E R R R T R K 5 5 5 5 i g P U U U U Y U U U U U U U U U U U U U U U U U U P U P P P P P P P P P P U U U U P U Y Y Y Y Y Y I I P P P P P P P P T P U Y Y Y E Y Y Y Y Y Y Y Y Y Y Y Y E Y Y Y Y Y R R R R R Y U Y Y Y Y E -.Y Y Y Y Y Y Y U U U U U Y Y Y Y Y Y Y Y Y Y U U U U U U U U T T T T P P P P U U U U U U U U U U U U P P U U U U U U U P P P P P P P P P P P P P P P P P U U U U Y Y Y U P T U U U U E E E E E E E T T p t 5 : : t T U U U Y E E Y U P p p p g P P P P P P P P P P P P P T P P P P K K K P T U U U U T T T W f.g.g.h.g.g.g.g.g.g.g.f.g.g.g.g.f.i.p.f.i.i.i.i.u./ / ) / ) ~ ( > c / / / ) / ) / / ) ) H u.u.u.u.u.u.u.u.u.u.u.u.u.u.u.u.u.u.u.D H u.H u.G / / / / H / / / / / H H / u.H H H H H H u.D G H / H H H H H G G G G ",
"M M N N M M M M M N N N N V 9 @ 9 S V V V N z N N N V V V V V V V V V V N N N V V V V V V V V V V V V V V S S S V N x x x x 4 3 + 3 V V N V Z A V V V S D D D D G G G G D G G G G G G G G G G G G / G G G G G G G H H H / H N @ R T T T T R R T L K b K T T K K K K K K K K K K T T U T T T T T P T T Y E E R R R R R K t * 5 5 i g P U U Y U U U U U U P U U U U U U U U U U U U U U U P P P P P P P P P P P P U U P U Y Y Y Y Y Y I I P P P U U P P P T P U Y Y Y Y Y Y Y Y Y Y Y Y Y Y Y E E Y Y Y Y Y R ! R R Y Y U Y Y Y Y E -.Y Y Y Y Y Y Y R Y E R R U Y Y Y Y Y Y Y Y Y Y Y U U U U U U U U U U U U U P U U P U U U U U U U U U P P P P U U U U U P P P P P P P P P P P P P P P U U U U U U U U Y U U U U R R R E E E E E E E T T p t : * * 5 T T U U Y E Y U U U P k k k P P P P P P P T T T T T T T P P P P P K P P T U U U U T T T W f.f.g.g.g.g.g.g.g.g.i.u.g.g.g.g.g.p.p.p.i.f.i.i.u./ ) / / / D a.> B D ~ D / / / / / / / u.u.u.u.u.u.u.u.u.u.u.u.u.u.u.u.u.u.u./ / / H D / / / / / / u./ / / / u.u.H / u.u.u.H H H G u.u./ / / H H H H H G H G G ",
"N N N N M N M z M M M M N N 9 @ 9 A Z V V V V N V V N N N z M N V V V N V N N V V V V V V Z V V V V V Z V S S S V N N V N x x 3 + 9 V N V V V V V S S V S D D D G G G G G G G G G G G G G G G / / / D G G G D D H H H H H G x O T T T T T R R T T T L T T T K K K K K K K K K K T T T T T T U U T T T Y E E R R R R R K t * 5 5 i g P U U U U U U U U P P P U U U U U U U U U U U U P P P P P P P P P P P P P P U U U Y Y Y Y Y Y Y I I P P P U P P P P T P U Y Y Y Y Y Y Y Y Y Y Y Y Y Y Y Y Y Y Y Y Y Y E ! R R R Y U Y Y Y Y E -.Y Y Y Y Y Y E ! ! ! ! R U Y Y Y Y Y Y Y Y Y Y Y U U U U U U U U U U U U U U U U U U U P U U U U U U P P P P U U U U U P P P P P P P P P P P P P P P U U U U U U U U Y U U U R E R E E E E ! E E E T T p t : * * 5 T T P U U Y Y U U U U U P P P P P P P P P U U U U U U T T P K K K K P P P T T U U T T T W f.g.f.g.g.g.f.g.g.g.g.f.p.g.g.i.g.g.p.g.f.i.i.i.u./ / D / D ~ ~ > c D ~ / ) / / / / / / u.u.u.u.u.u.u.u.u.u.u.u./ u.u.u.u.u.y.u.u./ G G G / / / u./ / / / H / H H H u.u.u.H u.H H H / G H / H H / H G H H H G G ",
"N N M M M N N z M N N M N N 9 @ 9 S V V V V V V V N N V V V V V N V V V V V V V V V V V V V V V V V V V V S Z Z V N N N N x 4 2 o > x x V V V V S S S S D D D G D D D D D G G G G G G G G G G / G G D D G G D D G H H / H G 9 O T U T T R R R T T T T T T T L L L L L K K K P P L T U U T T T U T T Y Y Y E R R R R R K 5 & 5 i p K P P U U U U U U U P P P U U U U U U U U U U U U P P P P P P P P P P P P P P U U U I Y Y Y Y Y Y I Y U U U U P P P P P P U Y Y Y Y Y Y Y Y Y Y Y Y Y Y Y Y Y Y Y E Y Y E ! R R U U U U Y Y Y E E Y Y E ! ! ! >.! ! ! ! ! E E E E E Y Y Y Y Y Y Y U U U U U U U U U U U U U U U P U U U U U U U U P P P P P P P P P P P P k k k k k k P P P k k k P P P P U U U U U U U U U U R E E ! E E E E E E E R T g t : : * 5 T T T U U U Y Y Y U U U U U U U U T T T T T T T T T T P K K K K K K K K K P T P P T T T W u.g.g.g.i.g.g.g.g.g.g.f.g.g.f.i.f.g.f.g.f.i.g.p.u./ / / G ~ / ( + 3 C S G G G / / / ) u.u.u.H u.i.u.u.u.y.u.u.u./ u.u.u.u./ / u.u./ / G / / / / / / H H / / H / H u.u.H u.u.H H H / p./ G H H H H H H H G H H H ",
"M M M M N N N N M M N N N V 9 @ 9 C V V V V V V V N N M N V V V V V V V V V V V V V V Z S V V V V V V V V Z S S V N N V V N x 3 o > l l V V S A V V Z S D D D D S D D D G G D G G G G G G G G G G D D G G G G G G / H / / / 9 O T T T T T R R T R R R T T T T T T T T T T T T T T T T T T T T T T T Y Y Y E R R R R R K 5 & 5 i K P P P U U U U U U U U P P U U U U U U U U U U U U P P P P P P P P P P P P P P U U U U Y Y Y Y Y Y Y Y Y Y U U k k P P P P U U Y Y Y Y Y Y Y Y Y E Y Y Y Y Y Y Y Y E Y Y E ! R R U U U U Y Y Y E E Y E ! >.>.>.>.! ! ! ! ! E E Y Y E E Y Y Y Y Y Y U U U U U U U U U U U U U U U U U U U U U U U P P P P P P P P P P P P P k k k k k k P P P k k P k P P P P U U U U U U U U U R E E E R R U U R T E E U g t : : : 5 T T T U U U U Y E U U U U U U U U T T T T T T T T T T T P P P K K K K K P P P T U T T T W u.i.g.g.g.g.f.g.g.g.g.g.i.i.i.i.g.f.i.i.g.g.f.i.u./ G / / / D N + > C D / / / / G G / u.u.u.u.u.F H u.u.u.u.u.u.u.u.u.u.u.u.u.H / / / / H / / G / u./ u./ / H H H / u.u.y.u./ H H / / H H H H H H H H H H H G G ",
"N M M v M N N M N N N N N V 9 + 7 C V V V V V V N N V N V V V N N N N N V V V V V V V S Z V V V V Z S S Z V S Z V V N V N x x 3 o > V V V V V V V V S S S D D D G G G D D G G D D G G G G G G H D D G D G G D G G G H / / / 9 O T T P P L L L R R R R R T T T T T T T T T T T T T T T T T T T T T T T Y Y R R T R R R K 5 & 5 p K P P P P P P P P P P U U U U U U U U U U U U U U U P P P P P P P P P P P P P P U U U I Y Y Y Y Y Y I I Y Y U U k k P P P P U U Y Y Y Y Y Y Y Y Y E Y Y Y Y Y E Y Y Y Y Y E ! R R U U U U Y Y Y E -.-.E ! ! ! >.>.! ! ! ! E Y Y Y Y Y Y Y Y Y Y Y Y Y Y Y Y Y Y Y Y I I I U U U U U U U U U U U U P P P P P P P P P P P P P k k P P k k P P P P k k k P P P P U U U U U U U P T U R E E R R R R R U R R U K y 5 : : 5 T T P U U U U Y E Y U U U U U U U U U T T U U U U T T T P P P P P P P P T T T T U P T T W / i.g.p.g.g.p.f.f.g.p.i.f.i.p.f.i.f.u.i.p.i.i.i.u./ ~ / / D / N + 2 D / / / / / ) G u.u.u.u.u.u.u.u.u.u.u.u.u.u.u.u.u.u.u.u.u.u.H / H / / ) G G G / / / H H / H / u.u.u.H H H H H H / / H H H H / H H G H G G G ",
"N N N M M N M M M M N N N V 9 O 8 C V V V V V V V V V V N V V V V N V V V V V V V V V S V S V V V V Z Z V Z S Z V V V N x N N 4 + 2 x N V V V V V V S S D D D S D D D D D D G D G G D G G G G D S D D D G G G G G G H H H H x @ T T K K L L L T T T T T T T T T T T T T T T T T T T T T T T T T T T T Y E E R R R R R K 5 & 5 K L P P P P P P P P P P U U U U U U U U U U U U U U U U P U U P P P k P P P P P P U U P P Y Y Y Y Y Y Y Y Y Y U U k k P P P P U U Y Y Y Y Y Y Y Y Y E Y Y Y Y Y E Y Y Y Y Y E ! R R U U U U Y Y Y E -.-.E ! ! >.>.>.! ! ! ! E Y Y Y Y Y Y Y Y Y Y Y Y Y Y Y Y Y Y Y Y Y Y Y Y U U U U U U U U U U U P P P P P P P P P P P P P k k P k k k P P k P k k k P P P P U U U U U U U P P U U Y R U U U U U U R R U K i t : : 5 T T P U U U U Y E Y Y Y U U U U U T T T T U T T U T T P P P P P P K K K T P P P P P K P W u.i.i.p.p.p.p.H p.g.p.i.i.f.i.f.f.i.f.i.i.p.i.i.u.u./ / G G / C > 9 ~ / D D D / / G / u.u.u.u.G u.u.u.u.u.u.u.u.H H u.u.u.u.) / / / H / / G / / G H / / H / / / / / / / H H H H H H / / / H H H H H H G G G G G ",
"N N v N M M N N M N M N c N 9 O 7 C V V V V V V V V V N N N N V V V V V V V V V V V V V Z V S V V S Z V V Z Z Z V V V V N N V 9 + , V V V V V V V V S S D D D D D D D D S S G G G G G D D D G D D D D D D D G D G G G D G / C < R P K K K L L L L L K K T K K K K K K K K K K K K T T T U U U T T T T E E R R T T T R K 5 * i T T T U P P P P k k P U U U U U U U U U U U U U U U U U U U U U P P k P P P P U U U U U U Y Y Y Y Y Y Y I Y Y U U k k P P P P k k U Y Y Y Y Y Y Y Y Y Y Y Y Y Y Y Y Y Y Y Y E E R U U U U U Y Y Y E E Y E >.>.>.>.! ! ! E ! R Y Y Y Y Y Y Y Y Y Y Y Y Y Y Y Y Y Y Y Y Y Y Y Y U U U U U U U U U U P P P P P P P P P P P P P P P P P P k k k P P P P P k P P P P U U U U U U U P P T U U R U U U U U U U T U P g y : : 5 T T P U U U U Y E U U U P P P P P P P P T T T T U U T g g g g g p p p g p g g g g g K K W f.i.f.p.p.u.u.u.p.i.g.g.f.f.i.f.p.i.i.g.p.g.i.u.u.) / / G G ~ A + 2 D / / / / G / / / H u.u.u.u.u.i.i.u.u.u.u.u.u./ u.H u.H / H / G H H D G G H H H / H H / H G G H / u.H H H H H H / / H H H H H H H H H G G G ",
"N V N N M M N N N N N N N N 7 O 7 C N V V V V V V N N N N N V V V V V V V V V V V V V S Z Z V S S S Z V V S Z V V V V V V N V 9 + > N V V V V V V V S D D D D D D D D D S S G G G G D G D D D D D D D D D D D D G G G G / / G c R P g K K K L K K K K K K K K K K K K K K K K K K K P P P P P T T T T E Y R T T T T T K t 5 i T T U U U U P P P k P P U U U U U U U U U U U U U U U U U U U U U P k P P P P U U U U U U Y Y Y Y Y Y Y Y Y Y U U k k P P P P k k P U Y Y Y Y Y Y Y Y Y Y Y Y E Y Y Y Y Y Y E E R U U U U U Y Y Y E Y Y E >.>.>.>.! ! ! E E R Y Y Y Y Y Y Y Y Y Y Y Y Y Y Y Y Y Y Y Y Y Y Y Y U U U U U U U U U U P P P P P P P P P P P P P P P P P P k k k k P P k k k P P P P U U U U U U U P P P U U U U U U U U T U T U P g y : : 5 T T P U U U U Y Y g g g g p p p p p p p p p p b b n p i i i i i i t t t y i i p i i i K ~ p.g.f.f.u.i.u.p.i.f.g.i.g.i.i.i.i.i.i.g.g.i.i.i.u.u.G / H G / / > 3 ~ ) ) / ~ G / H / u.u.u.u.u.u.u.u./ H D H u.u./ u.u.u.H H H / H H H H G G G H H H H H H H H H / / H H H H H H H H H H H H H H H H H G G G G ",
"z l z N N N M N N N N N x c 7 O 7 C V V V V V N V V N N N V V V V V V V V V V V V Z V V Z Z S S S S Z V V V V V V V V N N N V 9 + > N V V V V V V Z S S S D D D D D D S V S D D G G G G D D D D S D G D D D G D G G H G / / / S 9 t f y 6 6 6 6 8 6 6 5 6 6 i i t t t t 5 5 5 5 t t t t t t t i i n U Y Y Y T T T T T K y 5 p T R E E Y U U P P k P P P P P P U P U U U U U U U U U U U U U U P P P P P P P Y Y Y U I Y U Y Y Y I P k k P P U Y U U P P P P P P U U U U Y Y Y Y Y E Y Y Y Y Y Y Y Y E ! E ! R E Y R Y Y Y Y Y Y Y Y Y Y E E ! ! ! ! E E R R U Y Y Y Y Y Y Y Y Y Y Y Y Y Y Y Y Y Y Y Y Y Y Y U U U U U U U U U U U P P P P P P P P P P P P P P P P P P P P P P P P P P P P P U P P U U U U U P T U T U U P T T T P P T U U T P K t : 5 K T T U U Y E E U y : * * : : : ; ; ; ; ; ; ; ; ; 5 5 < < < < * * & & : : : * : 5 8 8 C ) p.g.g.g.p.p.p.p.f.i.g.i.i.i.i.i.i.i.i.f.i.i.i.u.u./ G / G / / / > 9 ~ / / / / D / / H u.u.u.u.i.u.u.u.G D H / u.u.H u.u.u.u.H H / / H / G G G / / H / / H H H H H / H H H H H H H H H H H H H H H G G G G G G G ",
"N N N N N N N N N N x x x c 7 + 7 C V V V N V N N N V N V N N V V V V V N N N V C V V V Z S S S Z S S Z V V V V V V N x N N V x > 3 x V V N V V V S D D D D D D D D D D F D D D G G G D G D D D D Z D D D S D ~ G G G H / / H G C 9 6 ; = X @ @ @ @ X O O O O X X X X X X X X X $ $ $ $ # # # & & 5 p U Y Y T T U T P g i t g E E E E Y U U P P P P P P P P P U P U U U U U U U U U U U U U U U P P U U U U Y Y Y U I I I I Y Y I P k k k P U Y U U U U T T T P P P U U U Y Y Y Y Y Y Y Y Y Y Y Y R Y ! ! ! R R E Y Y Y Y Y Y Y Y Y Y Y Y Y Y E ! ! E R R R U U U U U U Y U U U U Y Y Y Y Y Y Y Y Y Y Y Y Y U U U U U U U U U U U U T T T T T P P P P P P P U U U U U U U U U U U U U U U U P P P P U U U U U U T T T U P T T T P P T T T T T P i 5 t g T T U Y E E E U t % . . # . .                     o     . . . . . . . . . O $ < 9 C / p.g.g.g.i.p.p.u.u.p.f.i.i.i.i.p.i.i.i.i.i.f.i.u.u.u.) / / G / / ) > x ~ / / / / / / / / u.u.i.u.u.u.u.H H / u./ u.u.u./ u.u.H H u.H G G / / D D / / / / / H H H H H H H H H H H H H H / H H H H H H H G G G G G G ",
"N N N N N N N N N N z z z c 7 O 7 B N N N N N N N N V V V N V V V V V V V M N Z V V V V Z S Z S Z S Z Z V V V V V V N x N V V 9 > x V V V V C A V S D D D D D D D D D D D D D D D D D D G G D D D S V Z S S N N D G G / / / H H G D B 9 2 +                                         . . . . . . . # t P Y Y T Y T U P g y u g E ! E E Y U U P P P P P P P P P U U U U U U U U Y U U U U U U U U U U U U U U I Y Y I I I I I I Y I P k k k k P U U U U U T T T T U U U U U Y Y Y Y Y Y Y Y Y Y Y R R R E ! ! Q R E Y Y Y Y Y Y Y Y Y -.Y Y Y Y Y Y E E R R U U U U U U Y Y Y U U U Y Y Y Y Y Y Y Y Y Y Y Y Y U U U U U U U U U U U U T T T T T T P P P P P P U U U U U U U P P P U U U U U U U P P P U U U U U U U U U U T P T P P T T T T T T T i 5 t g T T U Y E E E U : # . . . .                                               X & 9 A / i.p.g.g.g.i.g.u.) p.i.i.i.p.g.p.p.p.i.f.f.f.i.u.i.u./ G / / G G / ( , C ( / / / / / / / / u.u.u.u.u.i.u.u./ u.u.u.u.u.u./ / H H / / / G D S S D V V G H H H H H H / / / / H H H H H H H H H H H H G G G G G G G G G ",
"N N N N N N N N z M v z x c 8 O 7 N x N N V x x N V V N N N V V V V V V V V V Z V ~ ` ` B N V Z Z S S Z V N V V V N x N V N N 9 + 3 N N V V V V V S D S D D D D D D D G D D D D D D D D G D D G F S D S A S V A D G / / / / / H / H G D B 2 = o                                           . . . . # 5 p U U T U U U P g t t p Y E E E E U U P P P P P P P P P U U U U U U U Y Y U U Y Y Y Y Y U U U U U U U Y Y Y Y I I I I I Y Y P k k k k P U U U U U T T T P U U U U P U Y Y Y Y Y Y Y Y Y Y U U R R R Q Q R Y Y Y Y Y Y Y Y Y Y -.Y Y Y Y Y Y Y R R U U U U U U U U Y Y U U U Y Y Y Y Y Y Y Y Y Y Y Y Y U U U U U U U U U U U U T T T T T T P P P P P P U U U U U U P P P P U U U U U U U P P P U U U U U U U U U U P T T T P T T T T T T T i 5 t g T T U Y E E E U * # . . .                                             + = 2 + C / i.g.p.g.g.i.i.i.p.u.p.i.i.i.i.i.i.f.g.i.g.f.p.u.G / / / / D / G D D ) > B ( ) / / / / / / / u.u.u.u.u.u.u./ u.u.u.u.u.u.u.u.u./ / / H / G G D D / D S D G / H u.H H H H H H H H H H H H G G H G G H G G G G G G G G G ",
"N N N N z z N N N M z z x c 8 @ 7 N N N N x x x N N N N V N N V V V V V V V V N 7 J.-X-Xw & 9 Z S S S V V V V N l l N N x N V x > x V N V V V V V Z F D D D D G D D D D D D D D D D G D G D D G D D D D D S S D D D D G G H H / / / H G D N 2 = o                                         . . . . # t K U U U U U U P g t t p Y E E E E U U P P P P P P P P P U U U U U U U Y Y U U Y Y Y Y U U U U U U U U U U Y Y I I Y I U U Y P k k k P P U U U U U T T T P P P P P P P Y Y Y Y Y Y Y Y Y Y U P U U R R ! E E Y Y Y Y Y Y Y Y Y -.Y Y Y Y Y Y Y U U U U U U U U U U Y U U U U Y Y Y Y Y Y Y Y Y Y Y Y Y U U U U U U U U U U U U T T T T T T P P P P P P U U U U U U U U U U P U U U U U U P P P U U U U U U U U U U P P P P P P T T T T T T i 5 t g T T U Y E E E U * # . . . .                                           = 9 N 4 / u.u.p.f.p.p.g.p.f.i.p.i.i.i.i.i.f.g.i.f.i.i.i.i./ / u./ D S G D G Z ) / > B / / / D / D / / H u.u.u.u.u.H H u.u.u.u.u.u.u.u./ H / u.u./ / G D D G ~ D D G / H / H H H / H H H H H H H / H G H / G G G G G G G G G G G G ",
"N N N v N N N N N N N v x c 8 @ 7 c N N N z l N N N V V V N N N N N V V V V x f -X-X:X:X-X-XJ.C V Z V V V N N N N N V N N N N x > x N V V V V N V S S D D D D D G D D D D D D D D D G G D D D D D D D D D D D D D D G D G H G / / H H H D N 2 8 2 +                                         . . . # t P U U U Y U U P g t w p U Y E E E U U P P P P P P P P P U U U U U U Y Y Y U Y E E E E E Y Y Y Y Y R U U U U Y Y Y U U U U Y P k k k k P U U U U U P T T P P P U P k P U Y Y Y Y Y Y Y Y Y k P P U R R ! E E Y Y Y Y Y Y Y Y Y Y Y Y Y Y Y Y R U U T U U U U U U Y U U U U U Y Y Y Y Y Y Y Y Y Y Y Y Y U U U U U U U U U U U U T T T T T T P P P P P P U U U U U U U U U U U U U U U U U P P P U U U U U U U U U U P P P P P P T T T T T T i 5 t g T T U Y E E E U * % # % $ . . o o o O o                           X   @ + 2 x G u.u.) f.p.i.f.g.i.p.i.i.f.i.p.f.f.f.f.f.i.i.i.i.u.u.H / G / G G G D / ( > B ( G G / ~ D / G H u.u.u.u.u.u.u.u.u.u.y.u.H u./ u.u./ / u./ u./ G G G G C S G D u./ H H / / H H H H H / / H G G G G G G G G G G G G G G G G ",
"N N N N N N N N M N N N x c 7 O 2 N V N N x z 4 l V V N N N V V V V V V V x W 9.-X=X=X=X=X-X-XL V Z Z V V V V V N N V V N x V x + 4 N x N V 4 z V V S D D S S S D D D D D D D D D D D D D D D D D D D D D S S D S D G G G G G G G G / / G V 2 8 9 @                   X O X X X O O O X X X X X $ * t K U T U U U U k p t w p U Y E E Y U P P P P P P P P P P U U U U U Y Y Y U U Y E E E E E E E E E E E E Y Y Y Y I U Y Y Y Y Y P k k k P U U U P U U T T T P P U U U P P P U I Y Y Y Y Y Y U U U U U T U R R R Y Y E Y Y Y Y Y Y E E E Y Y Y U U U U T U U U U U U U U U U U U U Y Y Y Y Y Y Y Y Y Y Y Y U U U U U U U U U U U U T T T T T T T T T P P P U U U U U U U P U U U U U U U U U P P P U U U U U U U U U U U U P P P P T T T T T T y : 5 p K P U U Y Y Y P * % % * * : ; ; ; ; ; ; X X X @ @ @ O X o           o + o 2 A H u.u.u.f.i.g.p.p.f.i.p.i.g.i.g.i.g.f.i.i.f.i.i.u.) u./ / G / / / G G / ( , N ~ D D / S D G / H u.u.u.u.u.H u.u.u.u.u./ H / / u./ u.u.u.H / / / G / D V S G G H G G G / H / / H H H H H H H G G G G G G G G H G G G G G D ",
"N N N N N N N N N N N N N c 7 O 2 N V V N N x l x V N N V N N V V V V V V x 0.+X+X@X=XOX=X=X-XK V V V V V V V N N N N V x x N x > 3 9 3 x N N N V V S D D D D S S S D D D D D D D D D D D D S D D D D D D V C D D G G / G G G / / / H H H S 2 8 8 o         X o O X @ = ; ; ; ; ; ; 5 5 5 5 5 5 5 5 i K T Y U Y Y U k p t : p P U Y Y U U P k P U U U U U U U U U U U U Y Y U U U Y E E E E Y E E E E E E E Y Y Y Y P P I Y Y Y Y P k k k U U U U U U U T T T U U U U U U U U Y I Y Y Y Y Y Y U U U U U T T U U U R Y E E E E E E -.-.-.E E E Y U U U U T U U U U U U U U U U U U U Y Y Y Y Y Y Y Y Y Y Y Y U U U U U U U U U U U U T T T T T T T U T P P P U U U U P U U U U U U U U U U U U P P P U U U U R R E E E E R U P P P P T T T T T P y : : p K P U U U P P P : % * w w 5 5 6 6 6 6 6 6 6 6 8 ; ; = @ X O o     X + = = 9 / ) u.) ) u.i.i.i.i.f.f.i.i.i.i.g.g.g.g.i.i.i.i.i.i.u.u.u./ / / / D G G D ) , c A x S / ~ D / / H u.u.u.u.G u.u.u.u.u.u.u./ u.u./ / u.H H G / / G G G S V D D G / H / H / / / / H H H H G G G G G G G G G G G G G G G G D D ",
"N x 4 l N z M M N N N N N c < + 3 N V V N l l l x N N N x x V V V V V V N x 0.+X+XOXOXOXOXoX-Xp 7 V V V V V V V V V V N x x N 9 > 9 x x 4 x x V V V S S S S S D D D D D D D D D D D D D D D D D G D D D D S S S D D G G G / / G / / / / / S 2 = = o   o X = ; ; ; ; ; 8 6 6 6 6 6 6 6 6 6 6 6 6 t i i K T T U Y U U k p t : p P U Y U U P P k P P U U U U U U U U U U U U U U U U Y E E E E E E E E E E E E Y Y Y Y P P I I Y Y Y P k k P Y U U U U U U R U R U U U U U U Y Y Y I Y Y Y Y Y Y U U U U U T T T U U U Y E ! ! ! ! >.>.>.-.Y Y Y U U U U U T U U U U U U U U U U U U U Y Y Y Y Y Y Y Y Y Y Y Y U U U U U U U U U U U U T T T T T T T U T P P P U P U U P U U U U U P P U U U U U P P P U U U U E E E E E E R U P P P P P T P P T P y : : i K K U U P U U P t * : t t t 6 6 6 6 6 6 6 6 6 6 6 8 ; ; < & X X @ = = = 2 N G H u.G / p.i.i.g.g.f.i.p.i.i.i.g.f.g.f.i.i.f.i.i.i.i.u.u.u./ / ) / G S D ) , C ~ C D / D G / / / u.u.u.u./ u./ u.u.u.u.u.H / u.u.u./ H G G / / G / G D S D D D H H / / / H / H H H / / G G G G G G G G G G G G G G G G G G ",
"v x z z z v M M N N N N x Q Q f , x V V N z 4 x V N N N x z N V V V V V V x 9.+X XoXoX.X|.oXoX8.Q V V V V V N V V V V x l x x 9 + 9 l x x x x V V V S S D D S D D F D D F D F D D D D D D D D D G G G D D D D S S N D G / G / G G / / / G V 2 = = = = = = ; 8 6 6 6 6 6 6 6 6 6 6 6 6 i i 6 i i i i i K T T T Y U U k p t : p P U U U P P P P P P P P U U U U U U U U U U U U U U Y E E E E E E E E E E E E Y Y Y Y P P I I Y Y Y I k k I Y U U Y R U U R R R R U R Y Y Y Y Y Y Y Y Y Y Y Y Y U U U U U T T T U U U Y Y ! ! ! ! >.>.-.-.Y Y U U U U U U T U U U U U U U U U U U U U Y Y Y Y Y Y Y Y Y Y Y Y U U U U U U U U U U P U T T T T T T T U T P P P U P U U U U U U U U U P U U U U U P P P U U U U E E E E E E R U P P P P P T P P P P y : : p K K U U U U U P y : w t t 5 6 6 6 6 6 6 6 6 6 ; ; ; 8 8 ; < < ; ; = ; 8 8 C G / p./ / p.f.i.p.i.f.f.i.i.i.i.i.i.i.i.i.i.g.i.i.i.i.u./ u.G u./ D S V S ) , c D D D / S / / / / u.u.u.G u./ u.u.u.u.u.u./ H u.u./ / / G G / / G G G D V V S D H H / / H H H H H H / H H G G G G G G G D D G G G G G G G D ",
"v N N z z M N N N N x 8 h oX-Xt.: x V N V x 4 l N N N N N x V V V V V V V x 8.oX X X|.w.w.w.e.r.0.N V V V V N V N N N x z x x 9 @ 3 l z N N N N N V S S S S F D D F D D F S F D F D D D D D D G D D D D D D D ~ D V D D D G G / / H H / D N 8 = = = = = = ; 8 8 6 6 6 s s s s s 6 6 6 6 i 6 6 t 6 t i K T R U Y U U k p t : p P U U P P P P P P P U U U U U U U U U U U U Y U U U Y E E E E E E E E E E E E Y Y Y Y P P Y Y Y Y Y Y I I Y Y U U Y R R R R R R R R R Y Y Y Y Y Y Y Y Y Y Y Y Y U U U U U T T P P U U U Y Y Y Y Y Y Y Y Y Y Y U U U U U U T U U U U U U U U U U U U U U Y Y Y I I Y Y Y Y Y U U U U U U U U U U U U U T T T T T T T U T P P P U U U U U U U U U U U U U U U U U P P P U U U U E E E R R R R U P P K P P T T T T P t : : i K K U P U U U P t * * : : : ; ; ; ; ; ; ; ; ; ; ; & ; ; ; & & & & & ; ; ; B / p.p.u./ p.g.f.i.f.i.f.i.i.i.i.f.i.f.f.i.i.f.i.i.i.i.u.H u./ / / / S N S ~ , B C D ~ / G / G G / / u.u.u.u.u.u.u.u.u.u.u.u.u.u./ H / / H H / / / G G G D S S D D G H G H H / H H H / H H H G G G G G G G D G G G G G G G D ",
"v v v M v v v v N x < D.-X;X:X-XJ.B V V x x x x N N N N V V V V V V V V V x 8.oX X|.w.4.4.4.w.r.0.N V V V V V N N N N N V x x 9 + , l V N V V A A S D S S S S S D F F D F S F D D D D D S D D D G D D V D G G D S D D / / G G G / / H / D 9 = = = = = = ; ; ; ; 8 8 6 6 6 6 6 6 9 6 8 8 5 5 5 : : 5 i K T R U Y U U k p t : u P U P P P P P P P U U U U U U U U U U U U Y Y U U U Y E E E E E E E E E E E E Y Y Y I P P Y Y Y Y Y Y Y Y Y Y U U Y Y Y E R R R E Y Y Y Y E E E Y Y Y Y Y Y Y Y U U U U U T T P P U U U U U Y Y Y Y Y Y Y Y Y U U U U U U T U U U U U U U U U U U U U U U U U U I Y Y Y Y Y U P P P P P P P P P P P U U U U U U U U U T T P P U U U U U U U U U U U U U U U U U P P P U U U U E E E E R R R U P P K P P T T T T P t : : i K K U P U U U P w % & * * & X X O O O O = @ X X O O X O O O O O X X X X ; C u.p.p.u.p.u.f.f.f.f.i.i.i.i.u.i.i.f.f.i.i.i.i.i.i.i.i.i.H u./ / / G D A z S > 9 A ~ / / / / / G / u.u.u.u.H u.u./ u.u.H u.u.u.u./ / / / H / / D D C C A V Z S D G G H H / H H H H H H H H G G G G G G G G G G G G G G G G D ",
"z z z z N N N N z x 0.-X=X;X=X=XoX6 x N N x z x N x v N N V V V V V Z V V x 0.oX Xw.4.%.%.&.4.q.0.N V Z V V N V V N V V N x x 9 + 2 x N N V N V S A S D D F S D D F F F D F F F D D D D S D D D G G D D S D D D D S D G G H / H H H u.H S c = = = = X X = ; = = = ; ; ; ; ; ; ; ; ; & X & & & & & ; 5 g T T U U U T g u t 5 i P U U P P P P P P U U U U U U U U U U U U Y Y U U U Y Y Y Y Y Y Y E E E E E E Y Y Y Y Y U U U U U U Y Y Y U U U Y E E E E E ! E E E E E E E E E E E E Y Y Y Y U U U U U U U U U U U U U U P P P P P I P P P P U U Y U U U U U U U U U U U U U U U U P P P P P P P P P P P P P P P P P P P P P P P P P U U U U U U U U U U P P U U U U U U U U U U U U U U U U U P P U U U U U E E E E E E R R U P P P T P P P K K t : 5 i K P P P P P P P 5 % # # # . . .     . . O O O                   O . . X 8 A u.i.i.i.i.i.p.f.p.i.i.i.i.i.i.i.i.f.i.i.i.i.i.i.i.u.i.u.H u.u./ D G / A Z D > 9 D / G / S G / / / / G H H G u.u.H H / / u./ u.u.u./ H H G / ~ 0.0.3.,.3.3.3.0.W Z G H H H H H G G H H H H G G G G G G G G G G G G G G D D D ",
"z z M v M N N N z f t.+X@X=XOX=XoXy 4 x N x l z N N N N N V V N V V V V V N 0.+XoXw.&.o.+.#.#.8.0.x V V V V V V N N N N l 3 4 9 @ 3 l N N N V V A A S D F S F S Z S S F D D D S D D D D D D D G D G D D D G G D D D D D / H H H / / / H D B = = = X O X X X X @ O @ @ @ @ @ @ @ @ O O O O X O O X & 6 K L T T T T T K i 5 5 u K T U U U U U U U U U U U U U U U U U U U Y Y U U U U U U U U U Y E E E E E Y Y Y Y Y Y Y U U U U U U U U U U U E E E E E E E E E E E E E E E E E E E E Y Y U U U U U U U U U U U U U U U U U U U U U P P P P P U Y Y Y Y Y U U U U U U U U U U P P P P P P P P P P P P P P P P P P P P P P P P P P P U U U U U U U U U U U U U U U U P P U U U U U U U U U U U U U U U U U U E E R E ! E E R R U T T T P P P P K t : 5 i K P P P P P P K 5 % # . . .                                 o   o X @ = B / p.p.i.u.u.u.f.i.u.p.i.i.i.u.u.u.i.i.i.i.i.i.i.i.i.u.u.u./ u.D S D D G ~ D ~ > 9 C D G G D G ~ G G / / / H H u.H H H u.u.u./ u.u./ G / / / / W J.r.e.|.XXXX%X%X:.< S H H / / H G G H H G G G G G G G G G G G G G G G G G G G ",
"N M N N N N N N 4 y t.oXOXOX.XoXt.y 9 N V V V N N N N N V N V V V V V V V z 0.t. Xw.&.+.X.+.+.$.0.2 N V Z Z V V z N x z l l N 4 + 3 4 x N V V V N N A F S S S S S D D D D D D G D D D D G G D D D D D D D D D G D G G G H H H H / u./ / D B < X o       o                                     . . $ 6 K T R T T T T K i 5 5 u K T U U U U U U U U U U U U U U U U U U U Y Y Y Y Y Y Y Y U U U Y E E E E E Y Y U U Y Y Y E E E E E Y U U U U U E E E E E E E E E E E E E E E E E E E E Y Y U U U U Y Y U Y Y U U U U U U U U U U U P P U U U U U Y Y Y Y Y Y U U U U U U U U U U U P P P P P P P P P P P P P P P P P P K K K K K K P U U U U U U U U U U U U U U U U U U U U U U U U U U U U U U U P U U P U U R R E E E R R U U T U T P P P K g t : 5 u K P P P P P P K : # . . . .                                       X @ 7 G ) f.i.g.i.i.u.u.u.u.i.i.i.u.u.u.u.u.i.i.u.i.u.i.u.u.i.u.i.) / / G D G S ~ D / , x N D D G G G D D G / / / u./ u.u.u./ u.u./ u.u.H / H / H H / W 0.q.w.|.XXXXXXe.r.0.9 D / G H G H H H H H G G D G G G G G G G G G G G G G G G ",
"x v z M v z z z 3 y r.t.|.|.w.w.w.8.L N N N N N N N N N V N N N N V V V V x 0.t.t.q.$.o.X.X.X.@.:.@ x V V V V V x z N N N N N 9 > 7 x N N V V V N N V S S Z S S V D D D D D D D D D D D D D D D G D D D D D D D G D D / G G H H / H / H G C 2 @ O o                                               $ 6 K T R T T T P b i 5 5 i K T U Y U U U U U U U U U U U U Y U U U U Y Y Y U Y Y Y U U U U Y E E E E E Y Y Y Y Y Y Y E E E E E Y Y Y Y Y Y E E E E E E E E E E E E E E E E E E E E Y Y U U U U U Y U Y Y U U U U U U U U U U U P P U U U U U Y Y Y Y Y Y U U U U U U U U U U U P P P P P P P P P P P P P P P P P P K K K K K K P U U U U U U U U U U U U U U U U U U U U U U U U U U U U U U P U U U U P U U U R E E R U U U P P T P P P K g t : 5 u K P P P P P P K : # . . . .                                     X @ 7 A / u.u.u.i.i.u.i.i.i.u.i.u.i.i.i.u.u.u.u.i.i.u.i.i.u.i.u.u.i./ / D Z D G G D N / , 9 A G D / G / D D G / / / ) H G / u.u.u.u.u./ H H / / / / / / D f 8.q.7.4.|.|.w.w.r.:.^ ( H G H H H H H G G G D G G G G G G G G G G G G G G G ",
"v v N M M M M M 3 : 9.w.7.&.&.7.q.r.Q N N N N N N N N N N N N N N V V N V x 0.t.t.q.$.X.X.X.X.@.@.; x V V V V N N N x N N N N 4 + 2 l V N V V V V V V S S S S S S D D D D D D D G D D D D D D D G D D D D G G D D G G G H G H H H / / / H D x 7 8 ; X                                             . 5 f L R T T T T K i 5 5 y K T U T U U U U U U U U U U U Y Y Y Y U U U U U U U U U U U U U Y Y Y E E E Y Y Y Y Y Y Y E E E E E Y Y Y Y Y Y E E E E E E E E E E E E E E E E E E E E Y Y U U U U U U U U U U U U U U U U U U U U U U U U U U U Y Y Y Y Y Y U U U U U U U U U U P P P P P P P P P P P P P P P P P P P K K K K K K P P P P U U U U U U U U U P P U U U U U U U U U U U U U U U U P P U U U U P P U U U R U U U P P P T P P P P g t : 5 i K P P P P P P K : . . . . .                                   X 2 9 A G u.u.i.i.i.u.u.u.i.u.i.u.u.u.i.i.u.i.u.u.u.u.u.u.i.u.u.u.u.u.G S D D D G G G V / , 9 C G G G G G G D G / / G G / / u./ / / u.u./ / H / H / / H / / 9 @.$.$.&.&.w.w.q.q.q.r.0.G G H G G G H G G G G G G G G G G G G G G G G G G G ",
"v v v M M M M M 3 : 9.7.&.%.&.$.q.r.Q N N V V V V V V V N N N N N V V N V N 0.t.t.q.$.X.X.o.X.X.@.0.B V V N N V N N N N x x x 4 > x x V V V V V V V V S V S S D D D D D D D D D D D D D D D G G D G G D D D G D D G G G H H H H H / / G / H D A L s ; X o                                         . ; f K T T T T T K i 5 5 y K T U T U U U U U U U U U U U Y Y Y Y U U U U U U U U U U U U U Y Y Y Y E E Y Y Y Y Y Y Y U U U U U Y E E E E E E E E E E E E E E E E E E E E E E E E E Y Y U U U U U U U U U U U U U U U U U U U U U P U U U U U Y Y Y Y Y Y U U U U U U U U U U P P P P P P P P P P P P P P P P P P P K K K K K K P P P U U U U U P U U U P P P U U U U U U U U U U U P U U U U U U U U U U P P T U U U U U P P P P T P P P P g t : 5 i K P P P P P P K * . . . . .                                 o + B A ) i.u.u.i.i.i.u.u.u.u.i.u.u.u.u.i.i.i.i.i.u.u.u.u.u.u.u.u.u.u.u.S D D D D G D D N / 2 B D G G G G / / G / / / / / / / / u.u.u./ / u./ H / / H / H / / S Q @.@.$.$.$.q.q.q.q.r.9.B G G H H H G H G G G G G G G G G G G G G G G G G G ",
"z v N N N N M M 3 : $.&.&.%.o.+.#.h s M N N N N N V V N N N N N N V V V V N C U t.q.$.o.X.X.X.O.:.0.B V V V V V N N V N N x c 4 2 x z V V V Z Z V V V S V S S D D D S D D D D D D D D D D D D G G G D D G G G D G G G / H H G H H G / G / / H G D C 7 + o X X                                     X ; i K L T T T P p i 5 5 i K T T U U U Y Y U U U U U U U U Y Y U U U U U U U U U U U U U U Y Y Y E E E E U Y Y Y U U U U U U Y E E E E E E E E E E E E E E E E E E E E E E E E E Y Y Y Y Y U U U U Y Y Y U U U U U U U U U U U Y I I I I U U Y Y Y Y Y Y U U U U U U U U P P P P P K K K K P g g K K K K K K K K K K K K K K K K U U U P P P P P P P P P P P U U U U U U U P U U U U U U U P U U U U U U P T T P P T P P P P P P T P P P P K t : : i K P T T T T T P : . . . . .                           X O o + x G ) i.i.u.i.i.i.u.u.u.u.u.u.i.u.u.u.u.i.i.u.i.u.u.u.u.u.u.i.u.u.u.u.G D S D D D S S S / 2 C D D / G G / G G / / / / / / u.u.u.u.u.H / / u.u.u./ / / / H / / ~ s : d X.X.#.8.9.8.q.8.Q ~ H G G H G H G G G G G G G G G D G G G G G G G G ",
"z v v v N N N N 3 - $.&.&.o.o.+.;.* 2 N N N V V V V N N N N N N N V V V V V N 6 D.q.$.o.o.+.#.,.r.J.C V V V N N N N N N N x x 9 , x x V V V V V V V S S V S S S S D D D D D D D D D D D D G G G D D D D D G D G G G G G H H H H G H G / / / / / H G D V 4 2 @ X       o     X X O O O X X O . . . X 5 i g K T K T P p i 5 5 u K T P T U U U U U U U U U U U U U U U U U U U U U U U U U U U U Y Y Y E E Y E U U U U U P P U U Y Y E E E E E E E E E E E E E E E E E E E Y Y Y Y Y Y Y U U Y U U U U U U Y Y Y U U U U U Y Y U U Y Y Y Y Y Y Y Y Y Y Y Y Y Y U U U U U U U U U P P P g g g g g g g g g g g g K K K K K g K K K K K K U U U P P P P P P P P P P P U U U U U U U P U U U U U U P P U U U U U U T T T T P P P P P P P P T P P P P K t : : i P T T T T T T P 5 . . . . . . . . . . . .           o X @ 2 N / u.i.f.i.u.u.u.u.u.u.u.i.u.u.u.u.u.u.u.u.i.u.u.i.u.u.u.u.i.u.u.u.u.u./ ~ G G G D D A S ~ 2 B D / / G G / G G G / / / / / / H / / H / / H u.u.u./ / / H / / / G S x d d d d @.,.$.,.9.9.W G G H H G H H G G G G G G G G D D G G G G G G G ",
"z v z v v v N N 3 : 7.&.%.o.o.+.+.& 2 N N N V N N N N N N N N N N N V N N N N B N.4.%.%.%.%.4.t.-XJ.C V V N z V V N x x x x V 9 2 B x V V V V V V V Z S Z S S S D D D D D D D D D D D D D D D D G D D S D D G G D D G G G H G G H G G / H / u.H / / H G D V 7 @ X O X X X X = ; ; & & ; & & X . . X 5 f K L T T T K p i 5 5 t K T P T P U Y Y Y U U U U U U U U U U U U U U U U U Y U U U U Y Y E E E E Y Y U U U U U P P U U Y Y Y Y Y Y Y Y Y Y Y Y Y Y E E E E E E E Y Y Y Y Y U U U U U U U U U U U Y Y U U U U U U Y Y Y U Y Y Y Y Y Y Y Y Y Y Y Y Y Y U U U U U U U U P P P P g g g g g g g g g g g g K K K K g g g g K K K K U U U U U P P P P P P P P P U U U U U U U U U U U U U U U U U U U U U U P P P P P P P P P P P P T P P P K K t : : i P T T T T T T P 5 # . . . . $ $ $ $ $ X X X         o = 2 B / u.f.i.p.p.u.u.u.u.) u.u.u.u.u.u.u.u.u./ u.u.u.u.u.u.u.u.u.u.u.u.u./ / S S G D D D D A D / 2 B D D / D / / G D D G D D D S D G H / H / / / u.u.H H H H H H / / G G C g d d d d d d @.$.9.Q D G H H G H G G G G G G G G G G G G G G G G D D ",
"v v x z v v v M 3 w $.$.%.o.o.o.+.h K x N N N N N N N N N N N N N V N V N N N N f q.e..X.X.XoX%X-XJ.L N V V N x x x x x x x N 9 2 B V V V V V Z V V V Z S S S S S S D D D D D D D D D D D D D D G D D D D G D G G G G G G G G G H H H H H H / H / H H / / G B 2 ; ; ; ; ; ; 8 8 6 5 5 5 8 ; & X O X 5 f K T T T T K p i 5 5 t b T P P P U Y U Y Y U U U U U U U U U U U U U U U U U U U U U U Y E E E E Y Y U U U U U P P U U Y Y Y Y Y Y Y Y Y Y Y Y Y Y Y E E E E E Y U U U U U U U U U U U U U U U U U Y U U U U U U Y Y U U Y Y Y Y Y Y Y Y Y Y Y Y Y Y U U U U U U U U U U P P g g g g g g g g g g g g K K K K g g g g K K K K U U U U U P P P P P P P P P U U U U U U U U U U U U U U U U U U U U U U T P P P T P P P P P P P T P P P K K t : : i P T T T T T T P 5 # . . . . & & & & & & X O O X X o @ 2 V / u.p.p.i.f.i.i.u.u.u.u.u.u.u.u.u.u.u.u.u.u.u.u.u.u.u.u.u.u.u.u.u.u.u./ / G S S D S D D V A / 2 B ~ G D / / G G S S.M.0.! ! ! E Y Q W ~ H / / / / H H H H / G G / H / S 6 w e w w w e d @.9.j S G H H G G G G G G G G G G D D D G G G G D D D ",
"z x v z v N N M 3 w $.&.o.o.o.o.+.:.R 3 N V N N N N N N V V V V V V N V V N V N 2 r.%X%X%X%X%X-X-XJ.f x V Z V V V x l z l x x x 2 N x V V V V V V V V Z D S S S Z S D D S D D D D D D D D D D D G D D D D D D D D D G G G G G G G G H H H H H H / H / / u./ D x 8 8 ; ; 8 6 8 6 6 6 i i 6 ; & X X & 6 f K L T T T K g i 5 5 t b T P P P U U U U U U U U U U U U U U U U U U U U U U U U U U Y Y E E E E Y Y Y Y U U Y P P U U Y Y Y U U U U U U U U U U U U Y Y Y Y Y U U U U U U U U U U U U U U U U U U Y U U Y Y U U U U Y Y U Y Y Y Y Y Y Y Y Y Y Y Y Y U U U U U U U U U U U P g g g g g g g K g g g g K K K K K K K K K K K K P P P P U P P P P P P P U U U U U U U U P P U U U U U U U U U U P U U U T T P P P P P P P P P P T P P P P g t : : i P T T T T T T P 5 # . . . . & & & & & $ O O O .   o 2 B / u.p.i.i.g.p.p.u.i.u.u.u.u.u.u.u.u.i.u.u.u.u.u.u.u.H u.u.u.u.u.u.H H u.) H G / ~ G D G S V D ~ 2 A D D / / G G G A Q.J.r.q.4.4.4.4.,.:.P D / / / / / H / / / / G H / H G 4 s j w w w e O.#.q.j 7 D G G G G G G G G G G G G G D G G G G G D D D ",
"z v v z z N N N 3 w ,.$.o.o.o.o.o.-.Y 2 x N N V V V V N N V N N V N N V N V V N 4 0.%X=X%XoXoX%X-XH.y 4 V V V V N x z x x x x 9 , N x V V V V N V V V S S S S S S D D D D D D D D D D D D D D D D G D G G D G G D G G G G G G G G G H / H / / H D H H / / u.H A ; 8 8 8 8 8 8 6 6 6 i 6 5 ; & X X & 5 g K L T T T K g i 5 5 t b P P P P U U U U U U U U U U U U U U U U P P P P P U U U U U Y Y E E E E Y Y Y Y U U Y P P U U Y Y Y U U U U U U U U U U U U Y Y Y Y Y U U U U U U U Y U U U U U U U U U U Y U U Y Y U U U U Y Y U Y Y Y Y Y Y Y Y Y Y Y Y Y U U U U U U U U U U U P g g g g g g g K g g g g K K K K K K K K K K K K P P P P U P P P P P P P P U P U U U U U U P U U U U U U U P U U P P U U T T P P P P P P P P P P T P P P P g t : : i P T U U U U U P 5 # . . . . $ $ $ # $ $ . . .     o 4 D u.i.p.i.i.u.g.i.i.u.u.u.u.u.u.u./ u.u.u.u.u.u.u.u.u.u.u.u.u.H u./ H u.u.H / G G G G D ~ ~ A D D , A S G G D G D D C :.,.,.4.4.4.5.4.$.,.8.2.G H / / / H / / H H / H H / G B f :.j j w d @.$.7.h O V G G G H G D G G D G G G G G D D D G D D D F ",
"z z z z z v N v 3 - ,.$.o.o.o.o.o.O.@.f x x N N N N V x l x N N N N N N N V V N x 2.%XoXoX|..XoX-X-X8.W V V Z V x l 4 3 3 3 x 9 2 B x V V V V V V V V V S S S S S D D D D D D D D D D D D D D D G G D D D D D G D G G G G G G G G G G / / / / / / H / H H / / D 9 8 = = = ; ; ; < ; ; ; & & $ . . $ 5 f K L T T T K K i 5 5 i K T P U U U U U U U U U U U U U U U U U P P P P P P P U U U U U Y Y Y Y Y Y U U U U U U U U U U U U U U U U U U U U U U U U U U U U U U U U U U U U U U U U U U U U U U U U U U U Y Y U U U U U Y U U Y Y Y Y Y Y Y Y Y Y Y U U U U U U U P P P P P P P P g g g g k g g g g g g g g g g g g g g g K K P P P P P P P P P P P P U U U U U U U U U U U U U U U U U U U U U U P P U U P P U P P P P U U U T P T P P P y : : p P P U U U U U P : # . . . . . . O O . . . . . . . O B ~ i.p.f.f.f.u.i.i.i./ G H D ) / u.u.u.u.u.u.u.u.u.u.u.u.H u.u.u.u.u./ ) u.H / / G G G A D x N N ~ , A D G G G G D D S h d X.+.&.4.,.,.,.,.,.:.D H H H H H H H H H G H H / G V s @.j j d d @.,.q.q.8.1.~ D G G G G G G G G G G G D D D D G G D D D ",
"z z z v z z N N 3 - ,.$.o.o.X.o.o.+.@.Q N N N N N N V V x x N N N V N V N V V N N ` t.oX|.w.w..XoX-Xt.0.~ V V V x x x l x x c 9 > N N V V V V V V V V S S S D S S S S D D D D D D S S D D D D D G D D D D D D G D D G G G G G G G G G H H H / / G H H / H / / G N 8 = = = @ X X O X X X X X X . . $ 5 i K T T R T K K p 5 5 i K P U U U U U U U U U U U U U U U U U U U U U U U U U U U U U U Y U U U U U U U U U U U U U U U U U U U U U U U U P P T T T T U U U U U P P P T T T T T T U T T T T U U U U U U U U Y U U U U U U U U U U U U U U U U U U U U U U U U U U P P P P P P P k k k k k k k k k k g g g g g g g p p g g K K P P P P P P P U U U P P U U U U U U U U U U U U U U U U U U U U U U P U P P P P P P k P P U U U P P T T T P y : : p P U U Y Y Y U P : # . . . . . . .     . . . . . . O C / i.p.f.f.i.f.i.i.i.u./ / D G ) u./ u.u.u./ u.u.u.u.u.H u.u.u.u.u.u.u.H / u./ / / D D ~ D C V C ~ , B D G G / D G G G g e e X.O.+.O.O.O.O.:.Y A H H H H H H H H H H H H H G S 6 h j j d d @.8.q.t.-Xt.0.C G G G G G G G G G G G D D D G D D D D D ",
"N N N N z z z N 3 - $.o.o.o.o.o.o.o.@.Q 9 x V N N N x x N z z N N V V N V V V V V W t.|.w.w.4.e.oX-X-Xr.` V V N z z x 4 3 x x 9 3 A N N V V V Z V Z V S S S S S S S F D D D D D D D D D D D D D D G D D D D D G D D G G G D D G G G G / H H H H / / H H G / G G A 9 = o     . . .           . . . X 5 i K T T R T K K p 5 5 i K T U U U U U U U U U U U U U U U U U U U U U U U U U U U U U Y Y U U U U U U U U U U U U U U U U U U U U U U U U P T T T T T T U U U U T P P T T T T T T T T T P U U U U U U U U U U U U U U U U U U U U U U U U U U U U U U U U U U U U P P P P P P k k k k k k k k k k k g g g g g g g p p g g g g P P P P P P P P P P U U U U U U U U U U U U U U U U U U U U U U U U P P k k P P P P k P P U U U T T T T P P y : : p P U U Y Y Y U P : # . . . . . .       . . . . . . < G u.i.i.i.i.i.i.i.i.i.u./ G D D ) u./ u.u.u.u.) u./ u.u.u.u./ u./ u.u.u.u.H H / / / Z S D A z C V ~ , ~ D G G D / G G G A 6 d e e e a a a h k k B H H H H H H H H H G G G G G A 6 h d h d h @.,.q.oX-Xt.t.r.0.( S G G G G G G G D D D G D D D D D D ",
"N z z z z z N N 3 : $.@.o.o.X.X.o.o.#.8.Q C N N N V x z x x x N N N N N V V V V V W e.|.w.4.&.w.e.oX-Xt.0.V V V x x x 3 2 4 x 3 2 C V N N V V V V V V S S S S S S F D D D D D D D D D D D D D D G D D S D D D D D G G G G G D G D G G / H H H H / / / H H / / G D N =                             X 5 i K T T R T K K p 5 5 i K T U U U U U U U U U U U U U U U U U U U U U U U U U U U U U U Y U U U U U U U U U U U U U U U U U U U U U U U U T T T T T T U U U U U T P P T T T T T T T T P P U U U U U U U U U U U U U U U U U U U U U Y U U U U U U U U U U U U U P P P P P P P k k k k k k k k k k k g g g g g g g p p g g g g P P P P P P P P P P U U U U U U U U U U U U U U U U U U U U U U U U P P k k P P P P k P P U U U T T P T P P y : : p P U U Y Y Y U P : # . . . . . .       . . . . . O c / f.i.i.i.i.i.i.p.i.u.u.) ) G / / / / u.u.u.u.u.u./ u.u.u.u.u./ u.y.u.u.u.H / / / / D D D V x N A ~ , A / / G F G G G / G B ; w w w w w w u g k B G H H / H H H G H G D G G G A y d j j j O.@.,.&.e.=X+X+Xt.t.r.0.6.~ V Z D G G G G G D D D D D F F ",
"N M M z z z M M 4 8 @.$.$.o.X.X.o.$.$.r.r.W x N N N x N z z z N N N N N V V V V V W |.|.w.&.&.4.w.oX-X-X0.V V x z x 4 , 2 4 x 2 , B N N N V V S V S S S S D S S S D D D D D D D F D D D D D D D D S V V D D D D D G G G D D D G G D D / G / / H H / / / H H H H G N = o         .               . $ 5 i K T T R T K K p 5 5 i K T U U U U U U U U U U U U U U U P U U U U U U U U U U U U U Y Y Y U U U U U U U U U U U U U U U U U U U U U U U P P T T T T U U U U U T P P P P T P P P P P P P U U U U U U Y Y U U U U U U Y Y Y Y U U Y Y Y Y U U U U U U U U U U U P P P P P P P k k k k k k k k k k k g g g g g g g p p g g g g P P P P P P U U P P U U U U U U U U U U U U U U U U U U U U U U U U U P k k k k k k k P P U U U T T P P P P y : : p P U U Y I I U P : # . . . . . .       . . . . . & ( u.f.p.f.p.i.i.i.u.u.u.) u./ D G G / / u.u.u.u.u./ / u.u.H H u.u./ / u.y.H / / H / / D D A 4 C N A C > C D G D D G G / / G x 2 w w w w w w y p g f S H H / H G H G G H G D D G L y w j d d h @.$.$.7.oX+XoXoX X Xt.t.8.6 6 B C A A D D D D D D G D D ",
"x N N z z N N N z 9 @.$.o.o.o.o.$.4.r.-Xt.0.9 N N N N N x x z N N V V N N V V V V R |.|.w.&.%.&.w..X%X-XF.B V N x x 3 > 2 4 9 2 > N V V V V Z S S S S S S D S D S S S D D D D D D D D D D D S D D S S S S D G D D G G G D D D D G D D / G / / / H H H G / / H H G A 9 = o   . . . .           . . X 5 i K T T R T K K p 5 5 i K T U U U U U U U U U U U U U U U U P U U U U U U U U U U U U Y Y U U U U U U U U U U U U U U U U U U U U U U U U P P P T T T U U U U U T P P P P P P P P P P P P U U U U U U Y Y Y U U U U U U Y Y Y Y Y Y Y Y U U U U Y Y U U U U U U P P P P P P P k k k k k k k k k k k g g g g g g g p p g g g g P P P P P P U U U U U U U U U U U U U U U U U U U U U U U U U U U U U P k k k k k k k P P U U U T T P P P P y : : p P U U Y I I U P : # . . . . . .     .   . . . . 5 ` f.g.p.i.i.i.i.u.i.u.u.u.) / / G / / u.u.u.u.u.u./ H H H G H H H H y.y./ H / / G G / D D C x c x z A > D ~ G G G G G / / / A 2 w w w w w w w w w y B G / H H H G H G G G G G G f w w y j e h @.$.$.&.w.t.t.oX X X Xt.t.t.t.t.t.r.r.r.A D D D D G D D ",
"z M M N N M z N x N Q $.7.7.&.&.q.w.w.oX-Xr.^ N N N V N x x x N N N N N N N N V N W e.|.w.&.%.%.&.w..XoXt.i V V N 9 3 > > 3 x 2 > N N V V V V V S S S S S S D D D S S D D D D D D D D D D D D D D D D S D D D D S G D D D G G G G D D / G H / H H H / / H / H H H D N = o o O . O O . . . . .   . & 5 f K T T U T T K p 5 5 i K T T U U U U U U U U U U U U U U U U P U U U P P U U U U U U U U U U U U U U U U U U U U U U U U U U P P P P P P P P P P P P U U U U T T T P P P P P P P P P P P P P T T T U U U U U U U U U Y Y U U U U U U U U U U U U U U U U U U U U U U U P P P g g g g g g g g g g g g g K K g g g g K K K P P P P P P P P U U U U U U U U U U U U U P U U U U P U U U U U U U U U U U P P P P P P U U U U U U T U U U U T y - : p P U P P P P U P w # . . . . . .         O . . & 5 ( u.i.i.i.u.i.u.i.i.u.u./ ) / G / / ) u.u.u./ u./ / / u.J H H u.y.u.u.H / u./ u.H H G ~ N B 4 3 x N x > D D G G G G / / H H G x w w w w w w w w w f f D G G G G G G G G G G D D s w w w w w d @.#.+.&.q.e.r.r.w.w. Xw.t.t.t.r.r.r.9.9.B S D D D D D D ",
"N x z z x M z z M N ! r.r.w..Xe.w.w.w.e.t.t.r.x V N x l N N N x V V V V V V V N N W r.w.|.7.%.%.%.4.w..XoXe c V N 9 2 2 2 2 9 2 2 N N V V V V V S S S S S S S S D D D S D D D S S S D D D D D D D S S D D S D A D D G D D G G D G D S G G G / / H H H H G G H H H G A 4 = . O . O O . . . .     . & 5 g L T T T T T K p t 5 i K T T U U U U U U U U U U U U U U U U P U U U U U U U U U P P U U U U U U U U U U U U U U U U U U U U P P P P P P P P P P P P U U U U T T T P P P P P P P P P P P P P T T T U U U U U U U U U Y Y U U U U U U U U U U U U U U U U U U U U U U U U P P k k k k k k g g g g k g K K K K K g K K K K P T U U P P U U U U U U U U U U U U U U U U U U U U P P U U U U U U U U U U U U U U U U U U U U U U T U U U U U y - : p P U P P P P U P w # . . . . . .         . . O & 5 ( p.u.u.u.i.i.i.i.u.u.u.p.) D / ) / / / u.u.u.u./ / / H u.y.y.u.H / u.u.u.u.u.u.H / G G D c 9 9 3 A ~ > B D D D G G / / / H G N w w w w w w w w w y f L G G G G G G G G G G G D s w w w w w j @.#.#.$.q.r.q.$.&.7.7.7.7.q.q.9.9.9.9.:.; N D D D G D D ",
"x z x z v v z z z 4 X 8.oXOX=X=X.X.X.Xe.e.e.r.8 V N l 4 z N x x N N N N N V V N N ~ 0.t.e.w.&.%.&.w.|.oX+X-X6.x x 4 3 2 + + 2 3 > x x V N N N S S F D D S S D S S S D D S D D D D D D D D D D S D D S V N N V N D D G G G G D D G G S / G H G H / H H H H H H H G G G V = X O @ O O O O . .     . & 5 g L T T T T T K p 5 5 t K T P U P U U U U U U U U U P U U U U U U U U U U U U U U P P U P U U U U U U U U U U U U U U U U U U T P T T P P P P P P P P U U U U U T P P P P P P T P T T T T P P P T P U U U U U U U U U U Y U U U U U U U U U U U U U U U U U U U U U U U U P P k k k k k k g g g g g k K K K K K K g K K K P U U U U U U U U U U U U U U U U U U U U U U U U U U U U U U U U U U U U U U U U U U U U U U Y U U U U U U U U y - : p P U P P U U U P w # . . . O . . O O O O O O O < 8 p.i.i.f.i.i.i.i.i.u.u.u.) ~ / / / / u.H u.u.u./ H / H u.H H H H u.u.u./ H H u./ G G D S V B C 3 2 > x > N S D D D G / / / / / B d w w w w w w w w w f L G H G G G G G G G G S V s - w w w e j @.#.@.$.q.&.#.@.O.$.@.$.$.7.$.8.8.$.$.8.$ 2 V D D D D S ",
"v N z x v v v N z x k r.oX%X;X=X.X.X.X.Xe.e.r.5 x V V V N N N N V V N N N N V V V V L r.t.w.7.w.w.|.oX+X=X-XJ.W x N x 2 + 2 9 2 > c V C V V V S S S D D S S S D D D D D D D D D D D D D D S S S D D V V V V V D / G G G G G G D D G M G G H H H G G G H G H H G H H G D = X $ < < & $ $ X .     O & 5 g L T T T T T K p t 5 t K T P U P U U U U U U U P U P P U U U U U U U U U U U U U P P P P U U U U U U U U U U U U U U U U U U T P T T T P P P P P P P U U U U U T P P P P T P T T T T T T P P P P P U U U U U U U U U U U U U U U U U U U U U U U P U U U U U U U U U U U P P k k k k k k k k k k k k K K K K g K K K K K P U U U U U U U U U U U U U U U U U U U U U U U U U U U P U U U U U U U U U U U U U U U U U U Y U U U T U U U U u - : p P U P P P U U P w # . . . O O O O O O X O & & $ 8 p.i.i.p.i.i.i.i.i.u.u.u./ / ) ) / G / / / u./ G H H H u.H H y.y.H / / / / H H / G G D D D C x > 2 4 A , B D G G H G H / H / / C j e e w w w w w w w f L D / G G G G G G G D D D C - w w w w d O.#.O.@.8.#.@.j w w j j O.@.@.@.@.@.@.@.j k L S D D D D ",
"x z z x v N N N x B 0.t.oX=X=X%X.X.Xe.e.e.e.r.w 8 x N N N N x N x x N V V N V N N N N 2.r.e.w.|.|..XoX=X=X-X-XM.N N x 4 2 2 3 2 > x x N V V V S S S S S S S S D D S D D D D D D D S D D S S S S S S S S F D D Z S D G G D D D G G D D G G G G G / H G H G G G H G G G D 8 & < 8 8 5 5 & & O . . O & 5 g L R T T T T K p 5 5 i K T P U P P P U U U U U U U U U U P P U U U P U U P P U U U U P U P P U U U U U U U U U U U U U U U U T T T T T P P P P P P P U U U U U P P T T T P T T T T T P P P P T T P U U U U U U U U U Y Y Y U U U U U U U U U U U U U U U U U U U U U U U P P P P P P P P k k k k k g K K g K K K K K K K P P U U U U U U U U U U U U P P U U U U U U U U U U U U U U U U U U U U U U U U U U U U U U Y Y U U U U U T U U u : : p P U P P P P U P w # . . . O & & & & & X O & < $ 6 i.i.i.u.u.i.i.i.i.i.u./ H H / / D G / H u./ / G / / H / H H H H H u.u./ H H / / G G D S S V x 9 4 l C > C D / G G D H / / u.u.A :.h h e w w w w w y f L D G H G G G G G G D D D A : w e e d d #.$.@.O.#.8.0.` x L ! j j j j d @.@.X.d O.@.0.Z D D D D ",
"z N x z M v v N z 9 8.e.oXOX%X.Xw.w.w.w.e.e.r.r.1.x N z z z z N N x z N N N N N N N N 7 8.e. X|..X.XoXOX=X=X-XJ.B x x 3 2 2 7 2 + x V V V V V S S S S S S S D D D S D D S S D D S D D D D D S S S S S S S V V D F D D G D D D D G G S D D D D D G G G G G H H H G G G D 7 8 5 t u t 5 5 ; & . . O & 5 g L R T T T T K p 5 5 i K T P U P P P U U U U U U U U U U U U U U U U U P U U U U P P U P P P P U U U U U U U U U U P U P U U T P T T P P P P P P P P U U U U U T T T T T P P T T T U U P P P T T P U U U U U U U U U Y Y Y U U U U U U U U U U U U U U U U U U U U U U U P P P P P P P P k k k k k K K K g K g K K K K K P T U U U U U U U U U U U U P P U U U U U U U U U U U U U U U U U U U U U U U U U U U U U U Y Y U U U U U U U U u : : p P P P P P P U P : # . . . O < < < < < ; & & < $ 6 i.u.u.i.u.i.u.u.i.i.u./ u./ / D G G / / / G / / / / H H / / H H H u.u./ u.H u./ H D S S D A A 3 9 N ~ > C D G G / / / / u./ / A 0.:.O.d e w w w w y g L D H G G G G G G G D G D V f e a d h O.,.4.q.$.$.J.` V D G D D V 9 j d d X.d X.X.O.:.V S F F D ",
"z z z z z z v v L :.r.e.|..X.Xw.w.w.q.w.e.e.e.r.8.R N M v N N z N x x N N N N N N N N x :.t. X.X.X.XoXOX=X=X-X-Xf x x 2 + > 3 2 + 9 N V V V Z S S S S S D S D D S S S D S S D D S S S D D D S D S S D S S D F D F D D D D D G G G G ( ` 0.0.0.0.` ( G G G H H H G G G D 4 K n n K b i 6 5 & $ . . & 5 g L R T T T K p i 5 5 i K L T U P P U U U U U U U P U U U U U U U U U U U U U T T T T T T T T T T T U U U U U U U U U U U U U U P P P P P T T P P P P T T T T P P P P T P P P P T P P P T T T T T T U U U U U U U U U U Y Y U U U U U U U U U U U U U U U U U U U Y Y U U U P P P U P U P P P P P P P g g g g g g g P P P P T U U U U U T T T T U U U P P P T T T P P P P P P U U U U U U U U U U U U Y Y Y Y Y Y U U U Y U U U U U P P P p : : p g P P P P P P k : . . . . $ 5 5 < 5 < ; ; ; ; O 8 p.u.u.i.u.i.i.u.i.u.u.u.u.) / / / / / / / / / / / / G / / u.H H u.u./ u.H / / / G G G D D S B 3 2 4 ~ > C D / G G / / / H / H A 0.9.8.@.h a a h h k Y E D H G G G G G G D D G D S i O.O.@.:.,.q.e.w.q.q.Q A D G G G G D 7 j d d d X.X.X.O.@.x Z F D F ",
"N x z z z z x 9 :.q.w.w.w.w.w.4.4.4.q.w.w.e.e.e.r.0.x z z N N N N N N N N N N N N N N N ! r.t.t..X.XoXOX=X=X:X-XQ c 4 3 2 > 3 2 + 9 N N V V V V V S S S D S S D S S S S S S D D D D D S D S S S S S S D S S S S D D D D D G G G D ~ 0.t.%X-X-X-XF.6.G G G H H G G G G G x L T I I K K i 5 : & O . & 6 g L R T L L K i t 5 5 i K K T U P P P U U P U U U U U U U U U U U U U U U U P K K K K L L L K K K P T U U U U U U U U U U P U U U U U U U U U U U U U T T T T K K K K K K K L K K K K P T T T T T T T U U U U U U U U U U U U U U U U U U U U U U U U U U U U U U U Y U U U U U U U U U U U U U U U P k k k k k k k k k k k U T T T T T T T T T T T T L L K K K K K K K K K P P P U U U U Y Y Y U U U Y Y Y Y Y Y U U U U U U U U U P P k p w w p k P P P P P P g : X . . X & 5 5 5 5 : ; ; ; ; O 8 p.u.u.i.u.u.u.i.u.u.u.u.u./ G / / / / / / / / / / / / / H H H H u.H u./ H / G / / G G D D D V 9 4 x c > A D D G G / H G H / / A 0.r.8.,.:.O.h O.O.O.-.! D G G G G G G D D D G S S i -.#.,.,.4.e.e.t.e.r.B S D D D G G D s :.@.d d X.X.O.@.:.9 V F D F ",
"z z x N x z x Q 9.7.q.w.q.q.&.&.&.&.w.w.w.e.e.e.e.r.8 x N N x x N N N N N N N N N N N N ~ 0.r.t.oX.XoXOX=X;X:X:X-XV.l 4 2 + 2 2 + x N V V V V S V S S S S S S S S S S S S D S D S D S S D D D S S D D D D D S D D D D D G D D G D W r.t.oXoX=X-XF.B G G G H H G G G G G x W T I I P K f 6 5 ; $ . & 6 g L R T L L K i i 5 5 t K K T U U P P U U P U U U U U U U U U U U U U U U U P K K K K K K K K K K K P U U U U U U U U U U P U U U U T T T U U U U T U T T T T K K K K K K K K L L K K K T T T T T T T T Y Y U U U U U U U U U U U U U U Y U U U U U U U U U U U U U Y Y Y Y U U U U U U U U U U U P P k k k k k k k k k k k P T T T T T T T T T T T T L L T T L L K K K K K P U U U U U U U U U U U U U U U U Y Y U U U U U U U U U P P P p w : p g P P P P P P g : X . X X & : 5 5 5 5 6 6 5 ; ; 8 ( u.u.i.u.u.i.i.u.u.u.u.u./ / / / ) / / / ) ) / / G / / / / u.H / / / / / / G G G D G D D D N x 3 3 x , C S D G G H H H H G G A 0.9.8.0.,.:.O.O.O.O.-.E S G G G G G G G G D G D S K :.,.,.$.,.q.e.t.t.0.C G G G G D S L 8.8.@.@.X.X.O.O.#.:.3 N D F F ",
"z z z z z B Q 8.9.q.7.&.$.$.$.%.&.&.4.w.w.e.e.w.e.e.,.L N N N N N N N N N N N V N N N N N f r.t..X.XoXOX=X;X>X>X:XQ.L l 3 2 > + > x x V V V Z S S V Z S S S S S S S S D D D S D D S S S S D D S S S D S S D S S S D S S G D G G S Q q.e.t.oX+X-Xr.x G G H G G G H G G D 9 W T T I T T K i 6 5 $ X & 6 g L R T L L K i i 5 5 i K K T U U U U U U U U U U P P U U U U U U U U U U U P K K K K K K K K K K K P U P U U U U U U U U P U U U U U T T U U U U U U T T T T K K K K K K K K L L K L K T T T T T T T T U Y Y U U U U U U U U U U U U Y Y U U U U U U U U U U U U U U Y Y Y Y U U U U U U U U U U P P k k k k k k k k k k k P T T T T T T T T T T T T L L T L L L K K K K g P U P U U U U U U U U U U U U U U U Y U U U U U U U U U P P P p w : p g P P P P P P g : $ . X & ; 5 5 5 5 6 6 5 6 6 ; < ) u.u.i.u.u.i.u.u.u.u.u.u./ / / / u./ G u.u./ / / / H / H u.H / H H / / / H G / G G G D D D C x 9 9 9 > B D G G H H H H H G H A 0.r.8.q.8.:.@.@.@.O.-.-.S G G G G G G G G G D S D T <.,.,.#.,.q.q.r.>.A D G G D D V ` 8.q.8.,.@.d d O.@.#.-.2 N D F F ",
"z z z z 7 @.9.9.$.$.$.+.X.X.o.o.%.&.4.w.w.e.e.e.e.e.e.! x N z z N N N N N N N N N N V V V 9 r.t.e.e.oXOX=X=X:X>X8X8X0.x 2 2 +   + x x N N V V S Z V Z S S S S S S S S S S D S D S S D S S S S S S S S S A V V S Z S S D D G D G V Q q.w.e.t.oXt.8.B G G G G G G G G G D , T T T T T L g i 5 5 $ X & 6 g L R T L L K i i 5 5 i K K T U U U U U U U U U U U U U U U U U U U U U U U P K K K K K K K K K K K P U U U U U U U U U U U U U U U U U U U U U U U U T T T L K K K K K K K K L L L L L T T T T T T T T U U U U U U U Y Y Y Y U U U U U U U U U U U U U U U U U U U U U U U U U U U U U U U U U U P P k k k k k k k k k k k U T T T T T T T T T T T T K K P P L L K K K K g P U P U U U U P P P P U U U U U U Y Y U U U U U U U U U P P P p w w p g P P P P P P g : $ X & ; : 5 5 5 5 6 6 s 6 6 8 < ) u.u.i.u.u.u.u.u.i.u.u.u./ D G / ) D G / u./ / / / / / / u.H H H / H / / H / / G G G D D V x x x 3 o + C D F G H G H H H G H Z 0.9.8.8.3.:.:.@.@.O.-.-.D G G G G D D G G G D S C -.<.;.+.@.#.,.q.0.~ D D D G D C 9 r.q.q.8.8.@.d d O.O.-.<.< N D F D ",
"z z l 9 2.8.7.$.$.$.+.X.g g d +.+.&.4.4.w.e.e.e.e..Xt.t.6.N N M v N N N N N N N N N N N V x 0.t..X.XoXOX=X=X=X>X8X8XJ.B 3 2 2   o x N V V V Z S S S S S S S S S S S S S S S D D S S D S S S V S S S S S V S V D D D S D D D D D x Y q.q.q.w.t.t.8.B G G G H G G G G H D @ T T T T T L f 6 5 ; $ X & 6 g L R T L L K i i 5 5 i K K T U U U U U U U U U U U U U U U U U U U U U U U P K K K K K K K K K K K P U U U U U U U U U U U U U U U U U U U U U U U U T T T T K K K K K K K K T T L L L T T T T T T T T U U Y U U U U U Y Y U U U U U U U U U U U U U U U U U U U U U U U U U U U U U U U U U U U P P k k k k k k k k k k k U T T T T T T T T T T T T K K P P L L K K K K g P U P U U U P P P P P P P U U U U Y Y U U U U U U U U P P P P p w w p k P P P P P P g : & X & ; 5 5 5 6 6 i f s s f s < ) u.u.u.u.i.u.u.u.u./ u.u./ H G H / / / u.u.u./ G / / H G H H u.H / / H H / G H / G G G S C C x x 9 2 + A D G G G H / H H H H Z 0.r.q.,.,.:.:.#.O.-.-.-.A G G G D D D G D D D A W :.,.#.+.@.@.#.,.x Z D G D G D W t.r.q.q.8.,.O.d d O.+.-.<.< N F F D ",
"N N L Q 8.8.$.#.@.O.d d 9 x < w O.$.&.4.w.w..X.X.X.XoXoXr.B N M N N N N N V V N N N V V V N f ,.oX.XoX=X=X=X=X:X8X8X-XL 4 3 2 2 + 4 N V V V Z Z S S S S S S S S S S S S S V S S S D D D D D S S D D S S V V D D D D D D G G G A Q 8.q.q.q.q.q.r.:.x G H G H G G G G G D @ R R R R L L f t 5 & $ O & 6 g T R T K L K p i 5 5 i K K P U P U U U U U U P P U P P U P P P P P P P P P P K K K K K K K K K K K P T P P P P P P P U U U U U U U T U U T T P P P T T T T T K K p p K K n K K K K K P T T T T T T T U U U U U U U U Y Y Y Y U U U U U U U U U U U U U U U U U U U U U U U U U U U U U P P P P P P P k k k k k k k k k h U U T T T T T T T T T T T T K K P P P P K K K K g K P P P P P P P P P P P P U U U U U U U U U U U U U P P P k k p : : u g g P P P P K g 5 $ $ & ; 5 5 5 6 6 y f f f f f < ( u.u.u.i.u.u.u.u.u.) u.u.) u./ / / ) / u.u./ u./ / H / / / H / / / H / H / H G G G D D S V V C x 3 9 + B D D G H H H H H H H A 9.r.q.8.,.-.-.#.#.:.-.-.B D G G G G D G G G S N ! :.;.#.O.O.O.O.#.~ D D S D G D W t.t.r.q.,.$.O.d d O.+.+.<.O x F F D ",
"N W 0.8.8.8.$.@.O.d j s x N 7 @ g O.%.4.w.e.e..X.XoXOXoXt.g x M N N N N N V V N N N V V V V 9 :.t.oXoX=X=X=X=X:X>X8X>XU 9 l 4 3 o 3 V V V N S S Z S Z S S S S S S S S S V V S S S D D D S S S D S D S Z V V D S V Z S D G G D B 0.8.9.7.7.7.7.7.@.x G G G G G G G G G D + T R R R R L f t 5 & $ O & 6 g L R T K K K p i 5 5 i K K T U P U P U U U U U U U U U U P P P P P P P P P P K K K K K K K K K K K K P P P P k P U P U U U U U U U U U U T T P P P T T T L K K K n n K K n K K K K K K P K K K K K T U U U U U U U U Y Y Y U U U U U U U U U U U U U U U U U U U U U U U U U U U U U U P P P P P P P k k k k k k k k h h U U T T T T T T T T T T T T K K P P K P K K K K g g P P P P P P P P P P P P U U U U U U U U U U P U U P P P k k p : : u g g P P P P g g 5 $ $ & ; 5 5 5 6 6 i f f f f f ; ( u.u.u.u.u.i.u.u.u.u.u.u.u.u.H / / / / u./ / / / / / / / / / G L Q D H u./ / / G S G G D D S A N N B + N S G / G H H H H H H A r.r.r.3.,.-.-.,.;.#.-.-.i A G D D D G G G G D N 2.,.,.+.X.O.O.X.O.~ D D D G D D Q r.w.q.8.,.#.O.d d O.+.+.<.O x D D D ",
"N ! 8.8.8.#.@.O.d e f x N c 7 @ < d o.%.w..Xe..XoX%X%X%X+Xt._ z N N N N N N N N N N N N N V x Q r.t.oX+X=X=X=X:X>X8X8X8X0.x z 3 o 2 N V V V Z S S S Z Z V V S S S S S S V S V D S D D S S V S S D S S S Z Z V V V V D S D D Z 8 9.8.$.7.7.7.7.7.@.x G G G G G G G G G D 8 R R R R R L g i 5 & $ O & 6 g T R T K K K i i 5 5 i K K P U P U P U U U U U U U U U U P P P P P P P P P P K K K K K K K K K K K K P P P k k P U U U U U U U U U T T U T P P P P T T T L L K K K K K K K K K K K K K P K K K K K T U U U U U U U U U Y Y U U U U U U U U U U U U U U U U U U U U U U U U U U U U U U P P P P P P P k k k k k k k k h h U U T T T T T T T T T T T T K K K K K K K K K K g g P P P P P P P P P P P P U U U U U U U U U U P P U P P P k k p : : u g g P P P P g g 6 $ X & ; ; 5 5 5 6 6 6 f f f f ; ~ u.u.u.u.u.u.u.u.u.u.u.u.) ) / ) H / / / / / / / / / / / u./ C g ! 9 S / / H G S G G G G G S A V A A + c D G H H H H H H H G A r.r.r.q.,.-.;.,.,.#.#.-.2.~ G G D G D G D D S c 0.8.,.+.O.X.e X.X.S D D D D D D U q.4.&.,.,.$.O.d d O.+.+.:.. x D F S ",
"9 :.,.#.@.@.X.d d d f x N N 7 @ < k o.%.4..XoXoX%X%X%X%X+XoXr.W N N N N N V N N N N N N N N N W r.t.oX+X=X=X;X;X>X>X8X8XJ.W z 3 o 2 N V N V V S S Z Z Z V Z S S S S S S S S S S S S S S S S S S S S S S S N N z N S D D D D ~ Q 9.9.$.7.&.&.7.9.j x G G G G G G G G G D 7 W ^ ` ^ T K i 6 : & X O & 6 g L R T K K K i i 5 5 i K K P U U U U U U U U U U U U U U P P P P P P P P P P K K K K K K K K K K K K P k k k k k U U U U U U U U T T T T T T P P P T T T L L K K K K K K K K K K K K K P K K K K K T U U U U U U U U U U U U U U U U U U U U U U U U U U U U U U U U U U U U U U U U U P P P P P P P k k k k k k k k h h U U T T T T T T T T T T T T K K K K K K K K K K g g P P P P P P P P P P P P U U U U U U U U U U P P U P P P k k p : : u g g P P P P K g y $ X X X ; : 5 5 5 6 6 f s s s 6 L ) i.u.u.u.u.u.u./ u.u.u.u./ H H / / / / / / / / / G G H u.D W Q :.U A G G G G G G G G G D S C V C C + 9 A D G H H H H H H G A r.r.r.q.,.;.;.,.,.#.+.,.0.~ D G G G D G G D A Q r.r.4.#.X.X.e e e S D D D D D S T 4.&.&.#.$.@.O.X.X.X.O.+.-.. x S S S ",
"8 @.@.@.@.X.X.d d j K x N N 7 @ < g o.o.7..XoX%X%X%X%X%X+X+X+Xr.B N N N N N N N N N N N N N N A 0.t.+X+X=X=X;X;X:X>X8X8X8XJ.9 ,   2 N N V Z Z S S Z S S V V Z S S S S S S S S S S S S S S S D S S S S S V V A A S S D D D S W 8.9.9.$.$.&.&.&.$.j 9 G G G G G G G G G D K L L L L i i 5 : & $ . . & 6 g T R R L K K p i 5 5 i K L T U U U U U U U U U U U U U U P P P P P P P P P P K K K K K K K K K K K K P k k k k P U U U U U U U U U U T T T P P P P T T T L L K K K K K K K K K K K K K K T T L L K T U U U U U U U U U U U U U U U U U U U U U U U U U U U U U U U U U U U U U U U U P P P P P P P P k k k k k k k k k h U U T T T T T T T T T T T T P P K L L L K K K K K K P P P P P P P P P P P P P P P U U U U U U U U P U P P P k k u * * u k k P P P P K g t $ . X X & & & & ; ; ; 5 6 - - 6 s / u.u.u.u.u.u.u.u.u.u.u.H / H / / / G / / / / / / / / / u.A Q @.j Q f A H H H H G G G G D D C C C B o 7 A D G H H H H H G G V r.r.r.4.,.-.+.#.#.#.#.#.8.W D D D G G G G D L 9.r.r.q.$.O.X.e e e D D D D D D V U w.4.&.+.#.+.X.X.X.O.O.+.-.. x S D S ",
"8 @.O.O.j d d d d d g x x N 7 @ < K @.&.w.oXoX%X%X%X%X%XoXoX+X-X6 x N N N N V N N N N N N N N V ` r.+X+X;X;X;X=X;X:X>X8X8X1Xi , o > l N V V Z Z Z Z Z V V V N Z S S S S S S S S S S S S S S S S D S S V V V S Z V D D D D N j 9.9.9.$.$.$.$.$.$.j x D G G G G G G G G D B 6 8 8 8 ; ; & $ X . . . & 6 g T R R L K K p i 5 5 i K T T U U U U U U U U U U U U U U P P P P P P P P P P K K K K K K K K K K K K K k g g g P U U U U U T U U U U T T T P P P P T T T L L K K K K K K K K K K K K K K T K K L K T U U U U U U U U U U U U U U U U U U U U U U U U U U U U U U U U U U U U U U U U P P P P P P P P k k k k k k k k k h U U T T T T T T T T T T T T T T K K T L K K K K K K P P P P P P P P P P P P P P U U U U U U U U U U U P P P k k u * : u P P P P P P g g t $ . . X X . X $ $ & X X X X o = 9 ) u.u.u.u.u.u.u.u.u.u.u./ / / H / / H / G / / / / / G / / C @.@.@.j Q ( G H G G G G G G G D D A V B + 7 S D G G H H H H G G V r.r.r.4.,.+.+.#.+.#.#.#.8.U C G D G G G G A Q r.r.q.q.$.+.X.e e y D D D D D S 9 h w.4.&.#.#.+.X.X.X.O.O.+.O.. x D S S ",
"; j O.X.j d d d d @.Q x x N 7 + < c f 9.t.OXoXoX%X%X%X%XoXoX=X-Xr.2.C N N V V N N N N N N N N N C 0.+X+X@X=X=X@X=X=X;X:X8X8X-X! 2 > z V V V V V Z Z V V V V N V S S S S S S S S S S S S S S S S S F S V V S S S S S S S A W 8.9.$.$.$.$.#.#.,.,.:.x G G G G G G G G G A = X @ O O O . . . .   . . & 6 f P T T K K K p t 5 5 i K K K T P P P P P K P P P P P P P P P P P k k k k k P K K K K K K K K K K K K K K K K K K K K K K K P P P P P P P P P P P P P T T T T T T P P K K K K K K K K K K K K K K K T U P U U U U U U P U U U U U U U U U U U U U U U U U U U U U U U U U U U U U U U U P U U U U U U P P P P P P U U P P U T P T T T L L P P T P T L K K K K K K K K K K K K P P k k g g k k k k k k P P P P P P P P T T P T U U P P P P p t : u k P P P P P K K 5 . . . . . . . X X O X   o     X B ) ) u.) u.u.u./ u.u.H u./ / / H H / / / / / / / / / G G D B @.@.@.h Q Q G G H G G G G G G D V V V C > 4 C G G G G H H H H H A r.r.r.q.,.+.+.#.@.#.#.#.8.8.` G D D D G G ~ 8.t.t.r.q.4.+.O.d e y D D D D D S Q q.w.4.&.#.$.#.+.X.X.X.O.O.;.Y A D D D ",
"; j X.X.j h h @.:.0.0.N x N 7 + 2 x N Q r.oXoXoX%X%X%XoXoXoXOX+X-XH.0.N N N N N N N N N N N N N N ` t.+X@X=X=X@X=X=X=X;X:X:X>X-X>.2 N N V V V V V V V V V Z V S S S S S S S S S S S S S S S S S D S S V V Z N N S S Z S A 0.9.&.4.4.$.#.+.,.,.,.:.x G G G G G G G G D V X                       . & 6 f P T T K K p p t * * i K K K K K K K K K K K K K K P P P P P P k k k k k k P P P P K K K P P K K K K K K K K K K K K K K K g P k k P k k P P k k k P P P P P P P K P K K P K K K K K K K K K K K K T U U U U U U U U U U U U U U U U U U U U U U U U U U U U U U U U U U U U U U U U P P U U P P P P P P P P P P P P P P P P P T T T K K K P K L L K K K K K K K K K K K K K P P k k k k k k k k k P K K K K K K K K K K K P T T T T T T p t * u P P P P P P K K 5 . . . . . . . .   o         o = ~ ) u.i.u.u.u.u.G / / H / / / / H H / G / / / / / G / / G N - O.@.@.O.j Q G H G G G G G G D ~ D D S D > 9 D D D G H G G G G G A r.r.r.8.,.+.#.#.@.@.@.o.$.q.N.G G G G G S 0.+X+XoXt.e.q.#.O.d d g D D D D D S 0.e.w.q.4.,.#.#.+.o.X.X.X.O.+.>.~ D D S ",
"; j X.@.@.@.@.,.8.0.0.N x N 7 O 7 c N x 2.t. Xe.e.e.e.e.e.oX+X-X-X-XH.9 x N N N N N N M N N N M N x 0.+X+X=X=X=X=X=X=X=X=X;X:X:X-X5 x N V V V Z Z Z V Z Z V S Z S S S S S S S S S S S S S S S S D D S S S V z N S D S S D 0.9.4.4.,.#.+.+.+.,.,.:.x D G G G G G G G D x o           . .         . & 6 f P T T K K K K i < 5 i K K K K K K K K K K K K K K P P P P P P k k k k k k P K K K K P K K K K K K K K K K K K K K K K K g K P P P P k k P k P P P P K K K K P P K K K K P K K K K K K K K K K K K T U U U U U U U U U U U U U U U U U U U U U U U U U U U U U U U U U U U P P P P P P P P P P P P U P P P P P P P P P P P P K K P K K K K K K K L K K K K K K K K K K K K K P P k k k k k k k k k P K K K K K K K K K K K P T T T T T T p t 5 p n n P P P P K K 5 . . . . . . . .             = @ ~ ) u.u.u.u.u./ D G ) / H u.) / G G H G / / G / / / G G A f @.@.@.@.O.h Q D G G / G G / G / G D ~ C D 2 2 l D G G G G H H G G A r.t.r.q.,.+.#.#.@.#.$.$.$.$.0.G G G G G D r.+X+X+XoXt.r.,.#.O.h d S D D D D S 0.w.w.4.4.,.#.+.+.X.X.X.X.#.;.h A S S S ",
"; j @.@.@.@.@.,.,.:.Y B x c 7 O 7 x v N x k r.w.w.4.4.4.q..XOX-X-X-X-X8.W L N N N N N N N N N N N N _ oXOX=X=X@X+X+X+X=X@X@X;X:X:Xr.W N N V V V V V Z V V V Z S S S S S S S S S S S S S S S S S S S S S V V N V Z S S S D :.$.&.4.#.+.+.+.+.;.,.:.x D G G H G G G G ~ B O o o o X O X X . .     . X 6 f P T T T K K K i 5 5 p K T K K K K K K K K K K K K P P P P P P P k k k k k P K K P P P K K K K K K K K K K K K K K K K K g K P k P P k k k k k k k P K K K K P P K P K K P T K K K K K K K K K K K T U U U U U U U U U U U U U U U U U U U U U U U U U U U U U U P P U U U P P P P P P P P P P P P P P P P P P P P P P P P P K K P P K K K K K K L K K K K K K K K K K K K K P P k k k k k g k k k P K K K K K K K K K K K P T T T T T T p t 5 p n n P P P P K K 5 . . . . . . . .             = @ ~ ) u.u.u.u.u./ G / H H ) u.) ) G / H / / / / / / / H G Q @.@.@.@.@.O.j W G H H / G G G G D D S D S D , 3 D D G G / G G G G H A r.t.F.r.,.,.#.#.#.$.$.$.o.$.0.G G D D G G t.+X+X+X+XoXt.q.,.@.@.j D D D D D A 8.r.4.&.$.,.#.+.+.X.X.X.X.+.:.; V D D S ",
"9 Q @.+.+.@.O.+.#.+.h g B c 7 @ 7 x N N N c ! 8.q.&.#.+.&.&.|.%X%XoXt.r.9.0.f B N N N N N N N N N N _ oXOXOXOX+X+X+XOX+X+X@X;X:X:X-XJ.B N V V V V V V V V V V S S Z Z S S S S S S S S S S S S S D D S S V V V N S S V S C @.$.4.,.+.X.X.o.+.+.,.:.x G G G G G G G G D B = = X X X ; ; X X .     . X 6 f L L T T T K K i 5 5 p T T L K K K K K K K K K K K P P P P P P P k k k k k P P K P P P K K K K K K K K K K K K K K K K K K K P P P P P P k k k k P P K K K K K P P P K K K K K K K K K K K K K K K T U U U U U U U U U P U U U U U U U U U U U U U U U U U U U U P P P P P P P P P P P P k k k k P P P g g g g k P P P P P P K K P P T T T L L L L K K K K K K K K K K K K K P P k k k k k k k k k P K K K K K K K K K K K P T T T T T T p t * p n n P P P P K K 5 . . . . . . . .             = @ ( ) ) u.u.u.u.u.H / ) / ) / / / / / H H / H / / / H G f 8.$.#.+.O.O.h k ~ G G G G G G G G G D D S S A , , V D G G G G G G G G A r.H.-XH.r.,.,.,.,.,.$.$.o.8.r.G G G G G D r.+X+X+X+XoX%Xe.q.8.8.Q S D D D D A 8.w.4.%.$.#.#.+.+.o.X.X.O.@.>.x V D S S ",
"x Q @.+.O.O.O.O.+.O.O.- 9 c 7 @ 7 x N N N N x L :.#.+.O.o.o.&.e..Xt.e.w.w.r.t.t.0.B N N N N N N N N W oX XoXoXoXoX+XOXOX+X+X;X>X:X:X-XJ.C N V V V V V V V V V V S Z S S S S S S S S S S S S S S S S S V V Z V N Z S S V B @.$.4.,.+.X.X.X.+.+.,.:.x D G G G G G G G D N 8 ; ; ; ; ; ; ; & X X     X 6 f P L T T T L L p 5 5 p T T T K K K K K K K K K K K P P P P P P P k k k k k P K K P P P K K K K K K K K K K K K K K K K K K K P P P P P P P k k k P P K K K K K K P P P K K K K K K K K K K K K K K T U U U U U U U U U P U U U U U U U U U U U U U U U U U U U U P P P P P P P P P P P P k k k k P P K g g g g g P P P P K K K K P T T T T L L L L K K K K K K K K K K K g K P P k k k k k k k k k P K K K K K K K K K K K P T T T T T T p t * p n n P P P P K K 5 . . . . . . . X   o     o   = & ( ) u.u.u.u.u./ / G H / / / / / G G G H / / H / / G W 8.q.&.#.+.O.O.d 6 D G G G G S G G G D D D Z V A , 2 V D G G G G G G G G C r.-X1X1XF.q.,.,.,.8.,.$.$.$.r.S G G G D Z t.+X+X-X+XoXoXoXt.r.8.0.S S S D S C 8.4.4.%.o.+.+.+.+.+.o.O.X.O.R V S S S S ",
"z 5 O.#.O.O.O.+.+.O.O.e c c < @ 3 x N N N N N N x t h X.X.o.+.4.w.e.w.w.w.w.w. XoX0.L N N N N N M N Q  XXX X X X XoXoXoXOXoX@X:X>X:X:X-X0.~ V V V V V V V V V V S S S S S S S S S S S S S S S S S S S V V V z z S S S D U #.$.$.#.O.X.X.X.X.#.#.>.N D G G G G G D D D N 6 6 6 6 6 6 : ; ; X X   X X 6 f P T T T T K K p t 5 p T L K K K K K K K K K K K K P P P P P P g p g k k g K K P P K P K P P K K n K K K K K K K K K K K K K P P P P P P P P P P P K K K K K K K K K K K K K K K K K K K K K K K K T U U U U U U U U U P U U U U U U U U U U U U U U U U U U U U U U U U U P k k k k k k k k k k k k g g g g g g K K P P K K K T T T T L P P P K K K K K K K K K K K K K g g P g g g g g k k k k k g K K K K K K K K K K K K P P P P P P i * * u n n P P P P K K 5 # . . . X . . X X X X O o o = ; ( ) u.u.u.u.u.u.u.D / / / / / / G G G H / H H H G 2.8.q.q.4.#.O.O.d d L G G G G / S G G G D D S S V V , 3 V D G G G G G G D G C r.-X1X0X-Xt.,.,.,.8.8.$.$.$.q.:.Q 1.0.0.0.t.oX+X+X+X+X+XoXt.r.r.0.D S S S D _ r.5.4.%.o.o.+.+.#.+.X.O.X.a B Z D S S S ",
"z 2 h @.+.#.;.+.+.+.O.h f 9 < + 3 x x N N N N N x x f h X.X.+.4.q.w.e.e.w.w.w.w.w.r.Q N N N N N N N Q  XXXXX X X XoXoXoXoX XOX;X>X>X>X:X-X0.B V V V V V V V V Z S Z S S S S S S S S S S S S S S S S S S V V V V S S Z ~ :.&.$.$.+.O.X.e X.X.+.@.>.x A D G G D G G G D N 6 6 6 6 6 6 5 5 ; ; X X X X 6 f P T T P L K K g t t p K K K K K K K K K K K K K K P P P k k P g p g g k g P K P P K P K P P K K n n K K K K K K K K K K g g P k k k k k k k k k k g K K g K K K K K K K K K K K K K K K K K K K K T U U U U U U U U U U U U U U U U U U Y Y Y U U U U U U U U U U U U U U P k k k k k k k k k k k g g g g g g g g g g g g K K K K K K K K K K K K K K K K K K K n n n n g g K g g g k k k k k k g g K K K K K K K K K K K K P P P P P P u * * t p K P P P P K K 5 # . . . X X X X X X O O X o = ; ( ) ) u./ / u.u.u./ / / / ) H / H G G G / H H G L r.r.q.7.$.+.O.O.d d L G H G D S V S G G D D D S V N , 9 C D G G G G G G G G C r.-X1X0X1XF.,.,.$.$.$.$.$.$.7.q.q.r.r.t.r.t.t. XoX+X+X+XoXt.r.r.V.S S S S ~ r.e.5.4.%.+.o.o.+.#.,.+.O.h i V S D S S S ",
"z 4 P O.@.:.;.+.+.X.O.X.@.L < + 3 x x x z z N N z x x f d X.+.4.r.e.t.e.e.w.w.q.q.q.:.7 N N N N N N ! .XXXXX X X X XOXoX X|.|.OX:X8X8X>X:Xt.0.V V V V V V Z Z Z V Z S S S S S S S S S S S S S S D S S V V V V V S S V U $.$.$.,.+.O.e e e X.O.@.! x G G G G G G G G S B 6 6 s s s 6 6 6 6 ; X X X X 6 f P K K K L K K p t 5 i K K K K K K K K K K K K K K P P P k k P g g g k k g K P P P P P K P P K K P K K K K K K K K K K K g g P k k g g g k k k k k g K K g g g K K K K K K K K K K K K K K K K K K T U U U U U U U U U U U U U U U U U U U U U U U U U U U U U U P P P P P P k k k k k k k k k k k g g g g g g g g g g g g K K K K K K K K K K K K K K K K K K K n n K K g g K g g g k k k k g g g g K K K K K K K K K K K K P P P P P P i * * u p K P P P P K K 5 # . . . X $ $ X X X X O X + = ; / ) ) u./ u.u.u.u./ / / / / / / H G G G / / / ` J.r.q.q.$.#.O.O.h d j L G G G D V S S G G D D D D V V > 3 C D G G G G G D G G A r.-X-X1X1X&X,.,.$.$.,.#.#.$.$.8.q.r.r.t.t.r.w.w.oX+X+X+XoXt.t.t.J.A S A C R t.|.5.%.+.o.o.+.+.#.,.:.:.Y ~ S D D S S Z ",
"z z ; y :.<.;.+.+.+.O.X.@.! < + 3 x v x x x x x x x x 9 j O.$.q.w.t.t..X.Xw.4.&.&.7.$.@.L L C C ~ W 8. X X X X X X XOXOXOX X|. X=X:X>X>X:X8XJ.A V V V V V V Z S S S S S S S S S S S S S Z S S S S S Z V V N N N S A W :.4.&.#.#.#.O.e e e X.O.@.Q N D D D G G G D D V B f f f f f f f 6 6 5 ; X X X 6 f L K K L K K K p t 5 i K K K K K K K K K K K K K K P P P k k P k g k k k P K P P P P P K P P K K P K K K K K K K K K K K g g P k k k k k k k k k k g K g g g g K K K K K K K K K K K K K K K K K K T U U U U U P U U U U U U U U U U U U U U U U U U U U U U U P P P P P P P k k k k k k k k k k k g g g g g g g g g g g g K K K K K K K K K K K K K K K K K K n n n K K g g K g k k k k k g g g g g K K K K K K K K K K K K P P P P P P i * * u p K P P P P K K 5 # . . . X & & & X = X X @ = = < ( ) ) u.u.u.u.u.u./ / / / / / / H G G / H H H 0.t.r.q.4.$.+.X.h h d j L G G F S D D G G G D D D S S V > 9 A G G G G G G D D G C r.-X-X-X-Xr.#.#.$.$.#.#.@.$.,.q.q.r.t.t.t.t. XoXoX+X+X=X+X+Xt.t.J.r.0.0.r.t. X|.4.+.o.X.X.+.+.,.:.0.2.s S S S D S S S ",
"z z 3 < O.-.;.+.O.O.O.X.O.@.: O 3 v N v N N N N N x x x f @.q.r.t.t.t.e.e.4.&.%.%.%.&.7.9.8.8.8.9.r.t. X X XoXOXOXOXOXOXOXOX|. XOX=X:X:X:X8X-XW V V V V V V V Z Z V V S S S S S S S V S S S S S S S S V V V N V S B 1.,.4.4.,.#.#.X.e e e e O.@.W V D D D D G G G G Z B f f f f f f f f 6 6 ; X X X 6 f g P K L L T P p t 5 i b K K K K K K K K K K K K K P P P P P P k k k k P P P P P P P P K K K K K P K K K K K K K K K K K K K P k k k k k k k k k k K K K K K K K K K K K K K K K K K K K K K K K K P U U U U P P U U U U U U U U U U U U U U U U U U U U U U U P P P k k P P k k k k k k k k k k k g g g g g g g g g g g g K K K K K K K K K K K K K K K n n n K K K K K K g K k k g g g g g g g g g K K K K K K K K K K K K P P P P K K i * * u p K P P P P K K 5 # . . . X & $ & ; ; ; & = = = < ( / H H u.u.u.u.u.u./ / / / / / H / G / / / G _ r.q.q.,.#.O.d a d h j L G G G D G S G G G D D D V V V > 3 C F D G G G G D G G C r.oX%X-Xt.,.#.#.#.#.#.#.#.#.,.q.r.t.t.-X+X+X+X+X+X=X=X;X=X=X-X-X-X-X-X-X-X%X.X5.&.+.X.X.X.O.@.:.0.1.W A D S S S S S S ",
"x z z 7 h -.;.#.+.O.O.X.O.$.8.E , x N M x z z N x x x x C 8.q.r.t.t.r.e.w.&.%.o.o.%.&.&.7.w.t.t.t. X XoXoXoXOX@X@XOXOX@X+XOX|.|. X+X=X:X:X8X8X-X0.N V V V V V Z S S S S S V S S S S S C S S S S S S Z V V V N V V 6 8.q.4.4.,.#.#.X.e e e e X.@.W S D D D G D D G G V 9 f L L f f f f f f 6 5 X X X 6 f g P K K L L P p 5 * i p K K K K K K K K K K K K K T P P P P P k k k k P P P P P P P P K K K K K K K K K K K K K K K K K K K P k k k k k k k k k P K K K g K K K K K K K K K K K K K K K K K K K K P U U U U P P U U U U U U U U U U U U U U U U U U U U U U U P k k k k P k k k k k k k k k k k k g g g g g g g g g g g g K K K K K K K K K K K K K K K n n n n K K K K K K K k k g g g g g g g g K K K K K K K K K K K K K P P P P K K i * * u p K K P P P K K 5 # . . . X & ; - ; ; ; ; = = = < ( / u.u.H u.u./ u.H / / / G G G H / / G / H G ! r.q.q.,.O.d e e h h h s D H G G D D D D D S S D N N V , 3 C D G G G G G D G G A r.t.%X&Xr.+.#.#.#.#.#.#.$.$.4.q.t.oX-X-X-X+X=X=X=X;X;X:X:X:X:X:X=X;X=X;X%XOX.X5.,.O.d d d @.@.:.0.L Z D S S D D S S S ",
"z z z 4 < -.+.+.O.O.X.X.X.+.q.8.Y L C N N z z N N x x x x 8.t.t.t.t.e.w.4.%.o.$.$.&.7.w.|.oXoXoX X XOXOXOXOX=X=X;X;X@X;X@XOX|.w.|. X+X;X:X>X>X:X-X0.V V V V V V V S Z S Z Z Z S S S S C S S S S S S S Z C V V S A :.q.q.q.q.,.,.@.d e e e e O.:.~ D D D G G G G G G Z c L L L L L f f f f 6 6 X X X 6 f L P K K T P K p 5 5 i K K K K K K K K K K K K K K K K K K K K K K K K K K P P K K K K K K K K K K K K K K K K K K K K K K K K K K K K K g g K K K K g g g g g K K K K K K K g g g g g K K K K K K g P P P P U U U U U U U U U U U U U U U U U U U U U P P P P k k k k k k g g K K K K K K K K K K K g g g g g g g g g g g K K K K K K K K K K K K K K K K K K K K K K K K K K K K K K K g g g g K K K K K K K K K K K K K K K K K K K K i * * u n K K K P K K K 5 $ O O O $ ; ; ; ; ; ; ; ; ; = < ( ) u.H H H H u./ H / G G / / H H H / G / G H ` 0.8.,.@.d e w e h h h k W G G G D S D D D D D S S S N > 3 A D G G G G G D D G C r.t.t.%X4.+.+.#.$.,.$.$.$.4.q.t.oX-X-X-X=X=X=X=X:X:X:X:X>X>X:X:X;X@X=XOXOXoXe.4.$.X.e e d j @.Q s V S S S S S S S S S ",
"z z z z 2 h O.+.X.o.X.X.X.+.4.q.q.q.8.! B N z N z z x x 9 8.t.t.t.t.w.&.$.o.+.&.q.w. XoXOX=X@X@XOX@X@X=X=X;X;X:X:X;X;X:X;XOXXX|.|. X+X;X:X>X>X:X:X-XL V V V V V V V V V Z Z Z V S S S S S S S Z S S Z S V V V N L 8.q.w.q.,.,.:.@.d w w e e O.:.~ D D D G G D D G G Z B L L L L L L L f f 6 6 X X X 6 f K K L L T K K p 5 5 i K K K K K K K K K K K K K K K b K K K K K K K K K K T T K K K K K K K K n n K K K K K K K K K K K K K K K K K K K K K K K K K p p p p b K K K K K K g g g g g g g g g g g g g k P P P U U U U U U U U U U U U U U U U U U U U U P P P P k k k k k k K K K K K K K K K K K K K K K K K K K K K K K K K K K K K K K K K K K K K K K K K K K K K K K K K K K K K K K K K K K K K K K K K K K K K K K K K b n K K n b i * * i K K K K K K K K 5 $ O O # $ ; ; ; ; : : : ; ; = < ( / H u.H / u.u.u.H H / G G / H G G G G F H H ~ 1.:.@.d e e w w g j h @.,.C D G D D D G D S F S V V V > 3 A D G G G G G G G G B 9.t.t.t.4.+.+.#.#.#.+.$.4.q.e.oX-X-X-X=X=X=X=X;X:X:X:X8X8X8X>X:X;X@X=XOXOX.Xw.4.+.X.e e e j Q L S S S S S S S S S S S ",
"z z z z 4 K O.#.X.X.X.X.X.o.$.4.q.r.t.r.0.R 9 x x x x c 0.t.t.t.w.r.q.$.o.o.&.w.t.OX+X=X;X;X;X;X;X;X:X:X:X:X>X>X:X;X;X:X;X@XOXOXOX@X;X:X>X>X>X>X:X:XJ.6.V Z V V V Z Z Z Z Z S S S S S V S S S Z S S S V S Z V x h q.q.q.4.,.:.-.h e w w e e h f V D D D G G G G D D V B L L L L k g L f i y : X X X 6 f f K K K T K K p 5 * i K K K K K K K K K K K K K K K K K K K K K K K K K K T T K K K K K K K K K K K K K K K K K K K K K K K K K K K K K K K K K K K n p p b b b b n n n n p g g g g g g g g g g g g P P P P P U P P P U U U U U T T U U U U U U U U U P P P k k k k k k k K K K K K K K K K K K K K g g g K K K g g g g K K K K K K K K K K K K K K K K K K K K K K K K K K K K K K K K K K n n n n K K K K K K K K K K K K K K n n n K i * & i K K K L K L K K t $ . # # $ ; ; : : : : * ; ; = < ( ) u.H / / / / u.H H / H G / / H G G G H H G D ; @.O.d e e w w p h @.$.8.0.~ G G G D D D S S F S S V + 3 A D D G G G G G G G B r.t.w.e.&.o.X.+.$.&.&.4.e.t.%X-X-X=X=X=X=X=X;X;X:X:X:X8X8X8X8X:X;X=X=X+XoXe.q.$.X.d e w d U L V S S S S S S S S S S S ",
"z z z z z 7 w O.X.X.o.X.X.X.+.$.q.r.t.t.e.r.2._ W ^ >.3.t.t.t.w.q.&.$.o.o.o.q.oX+X=X;X:X:X:X:X:X:X:X:X>X>X>X>X>X:X:X;X:X:X:X:X;X:X;X;X:X>X>X>X>X:X>X-XJ.( V V V V Z V Z V Z S S S S S S V S S V Z S V Z Z Z V L @.q.4.4.,.:.-.h e w w w w d k C D D D G G D G G G D A B L L L k k g L f i y : X X X 6 f K K K K T K K p 5 * i K K K K K K K K K K K K K K K K K K K K L L L K K K T T K K K K K n K n K K K K K K K K K K K K K K K K K K K K K K K K K K K n p n b b b b b n n n p g g g g g g g g g g g g P P P P P U P P P U U U U U T T U U U U T T U U U P P P k k k k k k k K K K K K K K K K K K K K g g K K K K g g g g K K K K K K K K K K K K K K K K K K K K K K K K K K K K K K K K K K K K n n K K K K K K K K K K K K K K n n n K i * * t K K K L K K K K t $ . # # $ ; : : : : : * ; ; = ; ( ) / / u./ / u./ H H H / G H / H G H H H G H G B Y h d e w w w h h @.$.7.q.L D G G G D D D D D F V V + 3 C D D G G G G G G ~ 0.t.r.w.&.o.X.X.o.$.4.w.e.oXoX%X-X-X=X=X=X=X;X;X:X:X:X:X8X8X8X8X>X;X+X=XOXoXw.&.o.X.e e h k 9 V S S S S S S S S S S S S ",
"z z z z z l ; h O.X.X.X.X.X.X.X.#.q.r.r.e.t.F.F.F.F.t.t.e.e.w.q.&.$.o.o.o.&.e.+X=X=X:X:X:X:X:X:X:X:X:X:X>X>X>X>X:X:X:X;X:X>X>X:X;X;X;X;X:X:X:X:X:X;X+X-XJ.A V Z V Z V V V V Z V S S S S V V S V Z V V Z Z Z V :.7.&.4.4.,.@.O.e w e w w w d U A D D D G D G G D D D A B L L L L k g L f i y ; X X X 6 f f K K K T K K p 5 * i K K K K K K K K K K K K K K K K K K L T T T T T T T T T K K K K K n n n n K K K K K K K K K K K K K K K K K K K K n K K K K K b b K n b p p p p p p p g g p g g p p p p p p g P P P P P P P P P P U U U U T T T T U U U U U U U P P P k k k k k k k K K K K K K K K K K K K K K K K K K K K K K K K K K K K K K K K K K K K K K K K K K K K K K K K K K K K K K K K K K K K K K K K K K K K K K K K K K K n n K K i * * t K K K L L L K K 5 $ O O # $ ; : * : : : * : ; $ ; ( / ) / H / / u./ H / / H / / / G G H / H H H G A k h d e w w w h h O.@.$.7.L D D D D D D S S S D A V > 3 C D D G G G G G D 2.t.oXt.w.&.&.+.+.&.q.e.t.oXoXoXoX=X=X=X=X=X=X;X;X:X>X:X:X8X8X8X8X>X;X+XOXoXe.q.$.X.d e d g f N S S S S S Z S S S S S S S ",
"z z x z z z 9 g h X.X.X.X.X.X.X.O.+.$.4.q.e.t.t.t..X.Xt.e.w.q.7.$.o.o.o.$.q.oX=X=X=X;X:X;X:X:X:X:X:X:X:X:X:X>X>X:X:X;X;X;X:X:X;X;X;X;X;X;X;X;X;X;X@X;X:X-XL N V V V V V V V V V S S S V V V S S Z V V Z Z V 9 8.&.&.4.4.,.@.h e e w w e e k W D S S D D D D D D D D Z B L L L U L L g f y y ; X . X 6 f K K K K T K K p 5 5 i K K K K K K K K K K K K K K K K K K T T T T T T T T T T K K K K K K n n n K K K K K K K K K K K K K K K K K K K K n K K K K K b b K n n p i i i i p p g g g g g p p p p p p p P P P P P U P P P P U U U U T T T T U U U U U U U P P P k k k k k k k K K K K K K K K K K K K K K K K K K K K K K K K K K K K K K K K L L K K K L L L L L K K K K K K K K K K K K K K K K K K K K K K K K K K K K K K K K K n n K K i * * i K K K K L L K K 5 $ O O # $ ; : * * : : * * ; $ & ( / / / / / / / / H / H H / / / G G H H H H G G D k j w w w w w u a h +.$.&.g D D G G G D D D S S V C > 3 C D D D G G G D V.+X XoXoXw.w.e.w.q.q.w.e.oXoXoXoXoX%X=X=X=X=X=X;X;X:X>X>X>X8X8X8X8X>X;XOXoXt.w.&.#.X.d e g 6 x S S S S S S S S S S S S S V ",
"z z z z z z z 7 g d X.X.o.X.X.X.O.X.X.o.$.4.r.t.t.e.w.w.w.q.7.$.+.o.o.$.r.oX-X=X=X;X;X;X:X:X:X:X:X:X;X:X;X;X;X;X;X;X;X;X;X;X;X;X;X;X@X@X=X@X@X@X@X=X=X;X-Xt.0.` V V Z V V V V V S S S S S V V Z V V V V V ~ Y q.4.4.4.,.,.O.d e e e w w a K A D D D D D D G D D D D A B L L L U W L L f y 6 : X . X 5 f f K T T T K K i t 5 i K K K K K K K K K K K K K K K K L K T T T T T T T T T K K P P P K K K K K K K K K K K K K K K K K K K K K K K K K n n K K K p p p p p p i i i i i i p g g g g g p p p p g g g k k k k P P P P P P P P P P P P P P P P P P P P P P P P P P P P P P P P K K K K K K K K K K K K K K K g g K K K K K K K K K K L K K K K K K K P L L T T T T K K K K K K K K K K K K K K K K K K K K K K K K K K K K K K K K K K K K i * * i K K K K L L K K t $ . O $ & * * * : : : * * : = ; ) / u.u./ / / / / / G G / H H H G G / / / H H H G B w y w w 0 0 w e d X.$.$.$.( S D G G D D D S V S A > , C D D G D G G D H.+X+XOX XoX.X.XoXe.w.w.e.e.t. XoXoXOXOX=X=X=X=X;X;X:X:X>X8X8X8X>X>X:X;XoXoXe.q.$.O.X.e d f s C F S S S S S S S S S S S S V ",
"z z x x z z z z 9 d d X.X.X.o.o.O.O.O.#.$.q.r.r.r.r.q.q.q.7.$.$.o.X.o.q.t.-X-X:X:X:X;X:X:X:X:X:X:X;X;X;X;X;X;X@X;X;X=X;X=X@X@X;X;X;X;X@X@X@XOXOXOX+X=X=X;X-X-XJ.L V V V V V V S S S S S S A V V S V V V V R ,.4.4.4.4.,.#.O.d d e e w e g L D S D D D G D D D D G G C B L W L U U U P f 6 6 ; X X & 5 f P T T T T K K i t 5 i K K K K K K K K K K K K K K K K L K T T T T T T T T T K K P P P K K K K K K K K K K K K K K K K K K K K K K K K K n n K K K b p p p p p p i i i i i p g g p g g p p g g g K K k k P P P P P P P P P P P P P P P P P P P P P P P P P P P P P P P P P P K K K K K K K K K K K K K K K g g K K K K K K K K K L K K K K K L K K P L L L T L L K K K K K K K K K K K K K K K K K K K K K K K K K K K K K K K K K K K K i * * i K K K K L L K K 5 $ . O $ $ * * * * : : 5 : ; ; ; ( / H / / / / / G G / G / / G / G G / / H H H G G D L g e w w w w e d X.$.$.$.:.V S D G D G S V S S D , , C D D D G G D L -X+XOX X X X.XoX Xe.w.w.w.w.w.e..X.XoXoX=X=X=X=X:X:X>X>X8X8X8X>X>X>X:X=XoXoXe.q.+.X.h d f f B S S S S S S S S S S S S S Z V ",
"z z z z z z N x 4 ; d X.X.X.O.+.+.#.$.8.q.r.r.r.r.r.r.q.q.$.+.o.X.X.+.r.oX-X:X:X:X:X>X:X:X>X>X>X:X:X;X;X;X;X;X;X;X@X@X@XOXOX@X@X@X;X;X=X@XOXoXOXOXOX@X@X=X=X=X+X-X0.x V V V S Z S S S S V V V V S S V V W 8.q.&.4.4.,.#.O.O.d e e e e a 5 N S D S F D D D G G D G G V B L W L U U P P f f 6 ; & X & 5 g T T T T T K K i t 5 i K K K K K K K K K K K K K K K K L K T T T T T T T T T K P P T L K K K K K K K K K K K K K K K K K K K K K K K K K n n n K K K b b g n n p p p p p p p g g g g g p p g g g K K k k P P P P P P P P P P P P P P P P P P P P P P P P P P P P P P P P P P K K K K K K K K K K K K K K K K K K K K K K K K K K K K K K K K K K K P T T T P L T K K K K K K K K K K K K K K K K n n K K K K K K K K K K K K K K n K K K i * * i K K K L L L K K 5 $ . O $ $ & * * * : : t 5 : ; ; ( / H u./ / G H / / / G G G H G G G G G G G H H G G ~ k h e w w w a d O.$.$.$.$.9 A D F S D z S S V D 4 2 V D D G D G ~ r.+XOX X X X X X X Xe.w.w.w.w.w.w.w.w.oXoX=X=X=X=X:X>X>X8X8X8X>X>X>X;X=X=XoXoXt.$.O.X.h d y f C S S S D S S S S S S V V S V V ",
"z z z z z z z z z 4 ; j d X.X.$.$.$.q.r.t.-X-Xt.t.w.q.q.7.#.X.X.X.o.$.t.-X:X>X>X>X>X>X>X>X>X>X>X:X:X:X:X;X;X;X;X;X@XOXOXOXOXOX@X@X@X@X@XOXOX X X XOXOXOX+XOX@X+X+X+Xq.0.W S Z Z V V S Z V S S S S V V L :.7.&.&.4.$.#.+.O.X.e e e e e a 6 V D D S S S D D D G D D D V B L W L U U P P f f 6 ; & X & 5 f T T T T T K K i t 5 i K K K K K K K K K K K K K K K K T K T T T T T T T T T L P T T L K K K K K K K K K K K K K K K K K K K K K K K K K n n K K K K K K K K K K p p p p p p g g g g g p p g g g K K k k P P P P P P P P P P P P P P P P P P P P P P P P P P P P k k P P P P K K K K K K K K K K K K K K g g K K K K K K K K K K K K K K K K K K K P T T K K T L K K K K K K K K K K K K n n K K K n K K K K K K K K K K K K K K b b b K i * * i K K K L L L K K 5 $ . O $ $ & * * * : w * : : ; 8 ( / H u./ / / G G G G / G G G / H G / / / H H G H H F ; h d e a a d X.O.$.$.$.$.@.W ~ S D D S A D D V , 3 C D G G D D Q t.oXoXoX X X X X X X|.w.w.w.w.w.w.w.w.oXoX=X=X-X=X;X>X>X8X8X8X>X>X:X;X=X=XoXoXr.$.X.e e e y 8 V S S S 3 V S S D Z S S Z S S Z ",
"z z z z z z z z z z 4 f j j X.#.$.7.q.t.%X-X-Xt.e.q.&.&.$.+.X.X.O.#.q.F.-X>X>X>X>X:X>X>X>X>X>X:X:X:X:X:X:X;X;X;X;X@XOXOXOXOXOXOXOXOXOXOX X X X X X XoXOXOXOXOX@XOXOX+XoXt.r.T B C A A C S D C C x 9 Y 8.7.7.&.q.,.#.O.O.O.X.e e d d a k B S D S S D D D D D D D D F V B W L L L L L P f i 6 ; & X & 5 f P T T T T K K i t 5 i K K K K K K K K K K K K K K K K T K T T T T T T T T T K K L L L K K K K K K K K K K K K K K K K K K K K K K K K K K K K K K K K K K K K K b b b b b p g g g g g p p g g g K K k k P k P P P P P P P P P P P P P P P P P P P P P P P P P P k k k k k K K K K K K K K K K K K K K K g K K K K K K K K K K K K K K K K K K K K K L L K K K K K K K K K K K K K K K K n n n n K K K K K K K K K K K K K K K K K K K K i * * i K K K L L L K K 5 $ . O $ $ * * * * : w * : : - i ~ / / / H / / u.u.H G G G H H H H G H / / H H / H H G N h h h h h h O.+.#.$.&.&.$.8.8.B D D S D D N N + 2 V D D D D L @. X XoX.X X X X|.|. X|.w.w.w.w.w.w.w.e.oXoX%X=X=X=X=X;X>X>X8X>X>X>X:X=X=X=XoXt.q.+.X.e d e g 9 C A S A 2 x D S S V S S S S S Z ",
"z z z z z z z z z z z l 7 f j @.$.8.q.t.oXoX-Xt.w.q.&.$.+.X.X.X.O.$.r.-X-X>X>X>X>X:X>X>X>X>X>X>X:X:X:X:X:X:X;X;X;X@XOXOXOXOXOXOXOXOXOX X X X X X X X XoXOXOXOXOX+XOXOXOXOX%Xt.r.q.8.:.:.:.2.>.:.:.,.q.&.&.7.&.$.#.#.+.+.+.O.d d d d h R C D D D S S D D D G F D D G V B W L L L L L P f i 6 ; $ X & 5 f L T T T T K K i t 5 i K K K K K K K K K K K P P K K K T K T T T T T T T T T K K L T L K K K K K K K K K K K K K K K K K K K K K K K K K K K K K K K K K K K K K K K K K K g g g g g g p p g g g K K k k P k P P P P P P P P P P P P P P P P P P P P P P P P P P k k k k P K K K K K K K K K K K K K K K K K K K K K K K K K K K K K K K K K K P K K L L K K K K K K K K K K K K K K K K n n n n K K K K K K K K K K K K K K K K K K K K i * * i K K K K L L K K 5 $ . O $ $ * * * * w t t t : - i L / H / H H / / u./ H G G G H G G H G G G H H H / H G S h O.O.O.O.O.O.+.#.$.&.&.&.&.4.8.L C D D D S N + 3 N S V W 0.t. X X.X.X X|.|.|. X|. X|.w.w.w.w.w.w.e.t.oXoXoXOX%XOX=X;X:X>X>X>X>X>X:X;X=X=XoXe.q.#.X.d e e g 9 c B B C 2 x B C Z V V V S S S V ",
"z z z z z z z z l z l z z 9 < - - @.9.r.e.oX%Xt.r.q.$.$.+.X.e X.X.#.q.%X-X>X>X>X>X>X>X>X8X8X8X8X>X:X:X:X:X>X:X:X;X=XOXOXOXOXOXOXOXOXOXoX X X|. X X X X X XoXoXoXoXoX.XoXoXoX.Xe.w.q.q.4.&.q.&.q.q.7.&.&.&.4.4.,.#.#.@.@.O.O.h O.O.O.h 8 V D D D D D D D D G D D D D V B W W L L L K K f i t : $ $ & 5 g T T T T T K p i 5 5 i K K K K K K K K K K K K K K K L L K T T T T T T T T K K K P P P K K K K K K K K K K K K K K K K K K K K K K K K K K K K K K K K K K K K K K K K K K K p p p p p p p p g g g g k k k k k k P P P P P P P K P P K K K K K K K K K K K K K K K g g g K K K K K K K K K K K K K K K K K K K K g g g K K K K K K K K K K K K K K T T T T T T T K K K K K K K K K K K K K K K K K K K K K K K K K K K K K K K K K K K K i * * t p K K K K K K K 5 $ O O # & < < * * * 5 5 5 * & t W G / / / / / / / / / H G H H H G G G G G G G H H H H G Q @.O.O.O.@.@.#.#.$.&.&.&.q.q.w.q.3.:.1.1.` L O W 1.0.0.r.t. X X.X.X X|.|.w.w.|. X XoX X Xe.e.e.e.e..X.XoXoX.XoXoX=X;X;X:X>X>X>X>X>X>X:X=XoXe.q.$.X.e e h f 9 7 < < 7 o + > N A V S Z S S Z Z ",
"z z z z z z z z l z z l z x 7 O O j $.9.r.e.t.e.e.q.4.$.O.X.e X.X.#.q.t.-X>X>X8X8X8X8X8X8X8X8X8X>X:X:X>X>X>X>X:X;X=XOXOXoXoXXXoXOXOXOXoX X|. X|. X Xw.w.w. X Xe.e.w.w.e.|.e.w.w.w.4.4.4.&.&.&.&.4.q.4.4.4.4.4.,.,.@.:.@.O.O.O.O.O.O.h 9 Z D D D D D D D S D G D D D V B W W T L L K K g i 5 : & $ & 5 g T T U T P P p i 5 5 i K K K K K K K K K K K K K K K K K K K K L K P P P K K K K K K K K K K K K K K K K K K K K K K K K K K K K K K K K K K K K K T K K K K K K K K K K K K b b b b b b K K g g p g P k k k g g k k k k k K K K K K K K K K K K K K K K K K K K K K K K K K K K K K K K K K K K K g K K K K K g K g g K K K K K K K K K K K K K K K K K P K P K K K K K K K P K K K K K K K K K K K K K K K K K K K K K K K K K K K K K i * * t i K K K K K K b 5 # # # # & < < < < * * * * * & t ` D / / / / / H / / H G / / G G G G G G G G D H H H H G W ! @.@.@.@.#.#.#.$.&.&.&.w.w.|.|.e.e.w.r.r.:.y r.r.t.t.t. X X.X.X X|.e.e.e.w.w.e..XoX.X|.e.e.e.e.e.e.e..Xt.e..XoX=X;X;X:X>X>X>X>X>X>X>X:X%Xe.4.+.X.e e a 8 > + + + + o   7 B C S S S S V Z S ",
"z z z z z z z z z z l l z x 7 @ 2 s j @.8.r.t.r.q.4.$.+.X.X.e e X.X.4.t.-X-X>X>X8X8X8X8X8X8X8X8X>X:X:X>X>X:X;X;X;X=XOXOXoXoXoXoXOXOXoX.X X X|.w. Xw.w.w.w.w.w.w.w.w.w.w.w.w.w.4.4.4.4.&.4.4.&.4.4.4.q.4.4.4.4.,.,.:.:.:.@.@.O.O.-.:.! x S S D D D D S D D D D D D D V B W T T L L K K g i 5 * & $ & 5 g T T U U T P p i 5 5 i K K K K K K K K K K K K K K K K K K K K K L L P P K L K K K K K K K K K K K K K K K K K K K K K K K K K K K K K K K K K K K T K K K K K K K K K K K K b b b n n K n n n K p g P k k k k k k k k k k K K K K K K K K K K K K K K K K K K K n K K K K K K K K K K K K K K K K g g K K K K g K K K K K K K K K K K L K K K K K K K K K K K K K K K K K K K K K K K K K K n n n K K K K K K K K K K K K K K K K K K K i * * t i K K K K n K b 5 $ # # # * * * * < < < < * * & t ` D / / / / H H H H H G / G G G G G G G G G D H H H H G A f :.:.@.@.,.,.,.$.$.&.&.4.w.|.|.|.w.w.e.e.e.t.oXt.t.t..X X X.X.Xe.e.w.e.w.w.e.e.|..X.X|.e.w.w.w.w.w.w.e.e.e.oXOX=X;X;X:X>X>X>X>X>X>X>X:XoXw.$.o.X.e d y 9 V C C V C 2 + > 3 N S S S S V V S ",
"z z z z z z z z z z z l z x 7 @ 2 c x x 8 : w q.q.4.#.X.X.e e e e X.$.r.oX-X:X>X8X8X8X8X8X8X8X8X>X>X8X8X>X;X;X;X;X=XOXoXoXoXOXoXoXoXoX.X X Xw.w.w.w.w.w.w.w.w.w.w.w.w.w.w.w.4.4.4.4.4.&.4.4.&.4.4.4.q.q.4.4.4.,.,.:.:.:.:.@.@.@.:.:.>.V D S D D D S D D G D D D D D V B W T T T L K K g i 5 < & $ & 5 p T T U U T P p i 5 5 i K K K b b K b b K K K K K K K K K K K K K L L P P L L K K K K K K K K K K K K L L K K K K K K K K K K K K K K K K K K K K K L K K K K K K K K K K K K b b b b n n n b n K p g P k k k k k k k k k k K K K K K K K K K K K K K K K K K K K n K K K K K K K K K K K K K K K K g g K K K K g K K K K K K K K K K K K K K K K K K K K K K K K K K K K K K K K K K K K K K n n K K K K K K K K K K K K K K K K K K K K i * * t i K K K n n n n 5 # # # # * * * * < < * < * * & t 2.D / / / / / H / H H H H G G H G G G G G G G G H H G H D L 0.:.,.#.,.,.,.,.4.4.4.w.w.w.|.|.w.w.w.w.w.e.oX Xe.e.|.|..X.Xt.e.e.e.w.w.w.w.e..X.X.X.Xw.w.w.q.w.w.w.w.w.e.oXOX=X;X;X:X:X>X>X>X>X:X;X+Xe.q.o.o.X.d h 6 9 C F F S D 4 B 3 + B S S S S S S Z ",
"z z z z z z z z l z z l l x 2 @ 2 c v x x 4 @ 2.,.,.+.X.X.e e e e X.$.w.oX-X:X:X:X>X>X>X>X>X>X>X>X8X8X8X8X@X@X;X;X=XOXOXOXoXoXoXoXoXoX.X.X Xw.w.w.w.w.w.w.w.w.w.w.w.w.w.w.w.4.4.4.4.4.4.4.&.&.4.4.4.q.q.q.q.,.,.,.:.:.:.:.@.O.@.-.>.` V D D D D S S S D G D D D D D V B W R T T L L K g i 5 < & $ $ 5 g T T U U T P p i 5 5 i K K K b b b n K K K K K K K K K K K K K K L L T T T L K K K K K K K K K K K K K K L K K K K K K K K K K K K K K K K K K K K L K K K K K K K K K K K K n b n n K K b b b b p g P k k k k k k k k k k K K K K K K K K K K K K K K K K K K K n n K K K K K K K K K K n n K K K g K K K K g g g K K K K K K K K K K K K K K K K K K K K K K K K K K K K K K K K K K K K n n n K K K K K K K K K K K K K K K K K K K K i * * t i b K K K K n p 5 # # # # & * * * * * * 5 < * & i 2.D / / / / G H / / H / / H H G G G G / G G D G H H H H D L 0.8.8.,.,.8.q.q.q.q.q.w.w.w.w.|.w.w.w.w.w.w.oXe.e.|.|.|.|.e.e.e.e.e.w.w.w.w.w.e..X.X.Xw.w.4.4.4.4.4.q.w.w.oX=X=X;X;X;X;X:X>X>X;X;X+XoXw.&.o.o.X.d j 5 @ N S D S S x C 3 o 9 C S S S S S S ",
"z z z z z z z z z z l l x x 2 @ < x x x x x l W :.:.O.X.X.e e e e X.$.r.oX-X=X;X:X:X>X>X>X>X>X>X>X8X8X8X8X@X@X;X;X@XOXOXoXoXoXoX X.X.X.X.Xw.w.w.q.w.w.w.e..Xe.w.w.w.w.w.w.w.4.4.4.4.4.4.4.4.4.4.q.q.q.q.q.q.,.,.,.:.:.:.:.O.O.O.-.! ~ S D D S D D S S D D D S D D F Z B W T T L L L K g i 5 * & $ $ 5 g T T T U T K p i 5 5 i K K g p p p p p K K K K K K K K K K K K K L L T T T L K K K K K K K K K K K K K K K K K K K K K K K K K K K K K K K K K K K L K K K K K K K K K K K K n p p K K K b b b b p g P k k k k k k k k k k K K K K K K K K K K K K K K K K K K K n n K K K K K K K K K K n n n K K K K K K K g g g K K K K K K K K K K K K K K K K K K K K K K K K K K K K K K K K K K K K K n n K K K K K K K K K K K K K K K K K K K K i * * t i b K K K K K n 5 # # # # & * * * * * * < * * & t ` D / / / / / H H H H G G H G G G G D D G G G G G G G G D ( 0.0.8.8.q.q.r.r.r.w.e..X.Xw.w.e.w.w.w.w.w.w. Xe..Xw.|.|.|.|.e.|.e.e.w.w.r.w.w.e..X.X.Xw.q.4.&.&.&.&.4.w.w.oXOX=X=X;X;X;X;X>X:X;X=XOX Xw.&.o.o.X.O.h 6 + B c c c C x C 3 o 9 V V S S S S S ",
"z z z z z z z z z z z z z x 2 O 2 x x x x x z x 7 : d d d e e e e X.$.w.oX=X=X=X=X;X;X:X>X>X8X8X>X>X8X8X8X;X@X@X@X@XOXOXoXoX.X.X X.X.X.Xt.w.q.q.q.w.w.e..X.X.X.X|.w.w.w.4.4.4.4.4.4.4.4.4.w.4.4.4.4.q.4.4.4.,.#.:.:.@.@.@.O.O.h h s S S D D D D D S S S S D D G D G Z B L T L L L L K K i 5 5 & $ $ 5 K T T T T P P p u 5 5 i i g g p p p p p K K K K K K K K K K K K K K K K K T T K K K K L K K K K K K K K K K K K K K K K L L K K K K K K K T T T T T T K K P P P K K K K K K K K K K K K K K K K K K g P k k k k k k k k k k K K K K K K K K K K K K K K K K K K K K K K K K K K K K K K K K K K K K K K g g g g g K K K K K K K K K K K K K K K K K K K K K K K K g g g g K K K K K K K K n n n K K K K K K K K K K K K K K K K K K K K K i * * t i b K K K K K p 5 # O # # & * * * 5 < < * * * * 5 ` D / / G / / H H H H H G H G G G D D D G G G G G G G G G D f 0.8.8.8.r.r.r.r.w.e.|..X|.e..X|.|.e.w.w.w.|..X.X|.|.|.|.|.|.|..Xe.e.w.w.q.w.e.t.e.e.4.4.&.&.&.&.&.&.4.w.oXOX=X=X=X;X;X=X;X=X=X=XOX X7.&.+.o.+.@.h K > x > o o c V V 3 + 9 V V S S V V S ",
"z z z z z z z z z z z x x x 2 O 2 x x x x x x z l > y d d e e e e X.$.q.oX=X=X=X+X=X;X;X:X:X:X>X>X>X>X>X>X;X@X@XOXOXOXoXoX.X.X X|.|..X.Xe.w.q.q.q.q.w.e.e..X.X.X|.w.w.w.4.4.4.4.4.4.4.4.4.w.w.w.4.4.4.4.4.4.,.#.:.:.@.@.O.O.h h P N S S S S D S S S S S D D D D D D Z B L T L L L L K K i 5 5 $ $ $ 5 i T T P P P P p t < 5 i i g g n b n n n K n n K K K K K K K K K K K K K K T T L K K K K K K K K K K K K K K K K L K K K K K K K K K K K T T T T T T T K K P P L K K K K K K K K K K K K K K K K K K K P k k k k k k k k k k K K K K K K K K K K K K K K K K K n n n n n b b K K K K K K K K K K K K K K K g g g g K K K K g K K K K K K K K K K K K K K K K K K K g g g p b K K K K K K K n n n K K K K K K K K K n n n K K K K K K K K K i * * t i b n K K K K p 5 # # # # & : * < < * < * * * * 5 ` D / / / / G G H G H H G G G G D G D D G G G G G G G G G G C :.8.:.,.q.q.q.q.w.w.w.w.w.|..X.X.X.X.X|.|.|..X|.|.|.|.|.|.|..X.Xe.e.w.q.q.q.e.t.e.q.&.&.%.&.&.4.&.&.4.w.oX=X=X;X=X;X;X=X=X=X=X=XOXoX&.&.$.+.#.:.k c + c >   o c V V 3 o 3 V V Z V V Z Z ",
"z z z z z z z z z z z z z x 2 o , c x x x x x x z 4 6 e e e e e e X.$.q.oX=X=X=X+X=X=X;X:X:X:X>X>X>X>X>X>X;X@XOXXXOXOXoXoX.X.X Xe.e.e.t.e.r.q.q.q.r.r.w.e..X.X.Xw.w.w.w.q.4.4.4.w.4.4.4.4.w.w.4.4.4.4.&.&.4.,.#.:.:.@.@.O.h h f f Z S S S D D S D S D S D D D D D D Z B L T L L L L K K i 5 : $ $ $ 5 i L T P P P P p i < 5 t i g g n b n b b K n n K K K K K K K K K K K K K K T T K K K K K K K K K L K L K K K K K K K K K K K K K K K K K T T T T T T T K K P P T K K K K K K K K K K K K K K K K K K K P k k k k k k k k k k K K K K K K K K K K K K K K K K K n n n n n n n K K K K K K K n n n n K K K K K K K K K K g g g g K K K K K K K K K K K K K K K K K K K n n p b K K K K K K K n n K K K K K K K K K K n n K K K K K K K K K K i * * t i b b K K K K p 5 # # O # & * : * * * * * * * * 5 ` D G / / / G H H G H G G G G G G G D G G G G G G G G G G G G Q ! :.:.8.q.q.q.4.4.w.w.4.w..X.XoXXXoXXX.X.X.X|.|.|.|.|.|.|..X.Xe.w.q.4.4.4.q.e.r.4.#.+.$.&.&.4.&.4.w.|.OX=X;X;X;X;X;X=X=X@X@X=XOXoX&.&.$.+.$.:.; 7 + x 2 > B C V V 4 + 3 V V V V V V V ",
"z z z z z z l l z z z z z x 9 9 9 x x z z z z z z l 7 - e e e e e X.O.&.e.oX=X+X+X=X;X:X:X:X:X:X:X:X:X:X>X;X@XOXXXOXOXOXoXoX.Xt.e.e.e.e.e.q.q.q.q.q.r.w.w.e.e.e.w.w.w.w.4.4.4.4.4.4.5.4.4.w.w.4.4.4.&.&.$.$.,.#.,.:.@.@.h h j f B S D S S S S S D D D D D D D D D D V B L T L L L L L K i 5 : $ $ $ 5 i L T P P P P p i < 5 t i g g n b b p n K n n K K K K K K K K K K K K K K L T K K K K K K K K K K K L K K K K K K K K K K K K K K K K K T T T T T T T K K P T T K K K K K K K K K K K K K K K K K K K P k k k k k k k k k k K K K K K K K K K K K K K K K K n n n n b n n b K K K K K K K n n n n K K K K K K K K K K g g g g K K K K K K K K K K K K K K n K K K n n n b b p K K K K K K n n K K K K K K K K K K n n K K K K K K K K K K i * * t i b b K K K K p 5 # # # # & * * * * * * * * * * 5 ` D / / / / G H H G H G G G G G G D G G G G G D G G G G G G G D B 6 @.,.8.q.q.q.q.q.4.4.w.|..XoXXXOXXXoXoX.X|.w.|.|.|.|.|.e.w.w.q.4.4.4.4.4.r.q.4.#.+.+.$.&.4.4.4.w.|.OX=X;X;X;X;X;X;X@X@X+XOXoX X&.$.$.$.,.:.< > > x C C C V V V x + 3 V V V V V V V ",
"l z z z z z z z z z z z z z x x x x x z x x x x x x 4 = w e e e e e X.+.q.oXoX+X+X;X:X:X:X:X:X:X:X:X:X>X>X:X@XOX XXXOXOXoX.X.Xe.e.e.t.e.r.r.q.q.q.q.q.r.r.w.w.w.w.w.w.q.4.&.&.4.4.4.5.5.4.4.4.4.4.&.&.$.#.#.#.#.#.@.@.O.h j g s V S S S S D D S S S D D D D F D D D Z B L T T T L K L K i 5 : $ $ $ 5 i L T P P P P p i 5 5 i i g g b b b b b K n K K K K K K K K K K K K K K K L T K K K K K K K K K K K K K K K K K K K K K K K K K K K K K T T T T T T T L L L L L K K K K K K K K K K K n K K K K K K K P k k k k k k k k k k K K K K K K L K K K K K K K K K K K g p p n n b K K K K K K K K K K n n K K K K K K K K K g g K K K K K K K K K K K K K K K K n n n n b b b b b b b b b b b K K K K K K K K K K K K K K K K K K K K K K K K K i * * t p n b K K K K p 5 % # # # & * * * * : : * * * & 5 ` D / / / / G G H H G G G G G G D G G G G G G G G G D G G D D G Z 8 j :.8.8.q.q.q.w.q.4.w.w.|..XXXXXoXoXoX.X|.4.5.|.|.w.w.w.q.q.4.,.,.,.$.,.q.4.$.#.+.+.$.&.4.4.4.w..XOX=X=X;X;X;X;X;XOXOXOXOX Xw.&.$.$.,.8.:.9 N V C A V V V V V x + 3 V V V V V V V ",
"z z z z z z z z z z z z l z z z z z z z x x z x x z l 3 f e e e e e e o.4.e.oXOX+X;X:X:X:X:X:X:X:X:X:X>X>X:X@XOX X XOXOXoXoX.Xt.e.e.e.t.r.r.q.q.q.q.q.q.q.q.4.4.4.q.4.4.&.+.+.$.4.4.4.4.4.4.4.4.&.&.$.$.#.#.#.#.#.@.@.O.h j g B Z S S S S S D S N S D D D D D D D D V B T T T T T K L g i 5 : $ $ $ 5 i K T P P P P p i 5 5 i i g g p p p p p K n n K K K K K K K K K K K K K K L T K K K K K K K K K K K K K K K K K K K K K K K K K K K K K T T T T T T T L L L L L K K K K K K K K K K K n K K K K K K K P P k k k k k k k k P K K K K K L K K K K K K K K K K K K K p p b b b K K K K K K K K K n n n K K K K K g g K K g K K K K K K K K K K K K K K K K K n n n n b b b b b p p p p p p p K K K K K K K K K K K K K K K K K K K K K K K K i * * t p n n K K K K p 5 % # # # & * * * * < * * * < & 5 ` A D / D D G G H H G G D G G G D G G G G G G G G G G D G G G G D 9 j :.8.q.q.q.q.w.q.4.w.w.w.|.|..X.X.X.X|.|.4.|.|.w.w.4.4.4.,.,.,.,.#.#.,.4.,.$.#.+.$.&.4.q.4.4.w.|.OX=X=X;X;X:X:X;X X X XoX Xw.7.&.$.$.8.` C V A S A C V V V V x + 3 V V V V V V V ",
"l z z z z z z x z z l z l l z z x N x z z x z z z z l 4 2 w e w e e e e O.q.e..XoX+X=X:X:X;X;X;X=X=X;X;X;X;X@XOX X XoXoXoXoXoXt.t.w.r.r.r.r.q.q.q.q.q.q.q.4.&.4.4.4.4.4.$.+.+.+.+.$.4.4.4.4.4.4.4.#.+.#.$.,.,.,.,.@.O.O.h k f A S S S S S D S S S D D D D S D D D D V B R R R R R T T g i 5 & $ X $ 5 i K P P P P K i t 5 5 i p K K K K K K K K K K K K P K K K K K K K K K K K P P K K K K K K T T T T T T K K K K K K L L T T T P K K K K K T T T U U T T K K K K K K K K K K K K K K K K K K K K K K K K K K K K K K K K K K K K K K K K K K K K K K K K b b b b b b g n n n b K K K K K K K K K K K n n K K K K g K K K K K K K K K K K K K K K K K K K K K K K K K K K K K K K p p b b b n K K K K K K K K K K K K K K K K K K K K K K K K i * * t p p b b K K b p 5 % # # & & * * * * < 5 * * : * 5 ` D / G G G G G H H D D D G G G D D G G G D G D G G G G G G G G G A Q ,.8.q.r.r.r.q.q.4.4.w.w.w.w.w.|.|.|.|.|.|.|.|.w.4.4.$.#.#.#.#.#.@.@.#.,.,.#.+.$.$.4.4.w.4.w.w.|.OX;X>X>X>X>X>X>X X|.w.7.w.7.&.$.$.$.h 9 B B N c 3 4 V V V V x + 2 N V Z V V V V ",
"z z z z z z z z z z z z z z z v x x x x z x x z z z l l 3 6 w w w e e e X.$.q.e.t.oX=X=X=X=X=X=X@X=X;X;X=X;X@X X|.|..XoXoXoXoXt.t.r.r.r.r.r.q.8.8.q.q.8.,.,.,.$.4.4.4.&.$.$.+.+.+.$.#.#.#.,.,.q.4.,.#.#.#.,.4.,.,.,.@.O.h k B A S S S S D D S D S D S S D D D D D D Z B R R R R T R T g i 5 & $ X $ 5 i g K P P P K p t 5 5 i p K K K g k k k k k k k k P K K K K K K K K K K K P P K K K K K K T T T T R T K K K K K K K K K K K K K K K K K T T T T T T T K K K K K K K K K K K K K K K K K K K K K K K K K K K K K K K K K K K K K K K K K K K K K K K K p b b b b b g g n n b K K K K K K K K K K K K K K K K K K K K K K K K K p b K K K K K K K K K K K n K K K K K K K K K K K K n n n K K K K K K K K K K K K K K K K K K K K K K K K K i * * t p p b b b b b p 5 % # # & & * * * * < 5 * * : * * _ D / G G G G G G H G G D D G G G G G G D D D D D D D G G D G G G D Q @.8.q.r.r.r.q.q.4.4.w.w.w.w.w.w.w.|.|.|.|.|.w.4.4.$.+.+.@.@.@.@.O.@.@.#.,.#.#.$.4.q.w.w.w.w.w.oX=X>X8X>X8X>X>X>XOX|.w.&.&.&.&.$.8.@.f @ + o + 7 2 x V V V V x + 2 N V V V V V V ",
"l z z z z z z z x z z z z z z x x z N z z z z z z z z z l f d w e e e e X.+.4.q.e.e.oXOXOX=XOXOXOX=X;X;X;X@XOX X|.|.|..XoXoXoXt.t.r.q.r.r.r.8.8.8.8.8.8.,.$.#.#.#.#.$.$.#.#.#.+.+.#.#.#.#.#.,.4.4.,.,.,.,.,.4.3.8.,.:.-.h P V Z S S D S S S S S D D D S D D D D D D V B R R R R T R L K i 5 & & X $ 5 i g K P P P K p t 5 5 i g K K P k k k k k k k k k k K K K K K K K K K K K L T K K K K K K T R T T T T K K K K K K K K K K K K K K K K K L T T T T T T K K K K K K K K K K K K K K K K K K K K K K K K n n K K K K K K K K K K K K K K K K K K K K K K p b K K n n b b n n b K K K K K K K K K K n n n K K K K K K b b b b b p p p b K K K K K K K K K K n K K n n n K K K n n n n K K K K K K K K K K K K K K K K K K K K K K K K K K K K i * * t p p K b b b b p 5 # # # & & * * * * < * * < 5 * & ^ S G G G G G G / G D D G D G G G G G D G G G G G G D G G D G G G D W :.8.r.r.r.r.q.4.4.4.w.w.w.w.w.w.w.|.w.|.|.w.4.4.&.$.X.O.O.O.O.h d O.O.@.#.@.$.4.4.w.w.e.w.w.|.oX;X>X8X>X8X8X>X:XOX Xw.&.%.%.&.$.$.:.6 , o o x ~ D A A A V V c + 2 N V V V V V V ",
"l z z z z z z z z z x z z x x z z x z z z z x z z z x x z 3 ; d e e e e e X.$.4.q.w.e..XoXoXoXoXOX=X;X;X;XOXOX X|.w.|.|..XoXoXt.t.r.q.q.q.r.8.8.,.$.$.$.#.#.@.+.+.+.#.#.#.#.#.#.#.#.#.#.#.#.#.#.#.#.,.,.,.,.4.3.,.,.:.-.Y L C S S D D D D D D D S S S D G D F D D D V B R R R R T R L K i 5 & & X $ 5 i g K P P P K p t 5 5 i g K K P k k k k k k k k k k K K K K K K K K K K K K T K K K K K K T T T T T T K K K K K K K K K K K K K K K K K K K L K K L T K K K K K K K K K K K K K K K K K K K K K K K K n n K K K K K K K K K K K K K K K K K K K K K K p p K K K n b n n n b K K K K K K K K K n n n n K K K K K K b b b n b p i p p b K K K K K K K K K n K K n n K K K K n n n n K K K K K K K K K K K K K K K K K K K K K K K K K K K K i * * t p p n n b b b p 5 # # # & & * * * * 5 5 * * 5 * * ^ S G G G G G G G G G G G / / G / G G G D D G D G G G D G G G G G D V U 8.r.q.r.q.q.q.4.4.q.w.w.w.w.w.|.|.|.|.|.w.4.4.&.$.X.X.X.d d d d d O.O.O.@.,.4.q.w.w.e.e.e..X=X>X8X8X>X8X>X>X:X+XOXw.7.%.%.$.$.O.- B ~ A ~ A S D S S C C C x o c A C C V V V V ",
"z z z z z z z z z z z x z z l z z z z z l z z z z z z z x x < d w e e e e X.+.,.4.4.w..X.X.X.X.XoX=X>X>X:XOXOXoX|.|.|.|..XoX%X%Xt.r.8.8.8.8.8.8.@.@.@.@.@.@.X.X.O.O.O.#.#.$.$.$.,.#.,.#.#.#.#.#.@.@.#.,.,.,.8.3.,.:.O.-.Y L C V S S D S S S D S S S S S S D D F D D V B R R R R T R L K i 5 & & X $ 5 i g K P K P K p t 5 5 t p K K P k k g g g k k k k k K K K K K K K K K K K L T K K K K K K T T T T T P K K K K K K K K K K K K K K K K K K K K K K K K K K K K K K K K K K K K K K K K K K K K K K K K K K K K K K K K K K K K K K K K K K K K K K K K K K K n n n b b K n b g K K K K K K K K K K n K K K K K K K p p p p p p i i p p b K K K K K K K K K K n n n K K K K n n K K K K K K K K K K K K K K K K K K K K K K K K K K K K K K i * * t p p n n n n b p 5 # # # & * * * * * 5 5 * < 5 * * _ A D / G G G D G G G G G G D G G G D G G D D G G G G G G G G G G D D A U 8.8.q.q.q.$.&.4.4.q.4.4.w.w.|.|.|.|..X|.4.&.&.$.X.X.X.d d d d d O.O.O.#.4.q.w.w.e.e.e..XOX:X8XqX8X>X8X>X>X:X@X+X Xw.&.%.&.$.@.7 A A c B C C A A B c 9 +   o o + + > x V V V ",
"z z l z z z z z z z z z z z z z x z z z z x x z l z z l z l 7 g d e e e e e X.$.4.q.w.e.|.|.|..XoX=X>X8X>X=XOXoX X|.|.|..X.X%X%Xt.r.8.8.8.8.8.8.@.@.O.O.O.O.X.d X.X.O.+.#.,.,.4.,.,.,.,.#.#.#.#.@.O.@.@.#.,.,.3.,.:.h k K c V S S D S S S S D D S S D D D D D D D D V B R R R R T R L K i 5 & & X $ 5 i g K T K P P p i 5 5 i p K g P k k g k k k k k k k K K K K K K K K K K K L T K K K K K K K T T T T K K K K K K K K K K K K K K K K K K K K K K K K K K K K K K K K K K K K K K K K K K K K K K K K K K K n K K K K K K K K K K K K K K K K K K K K K K n n n b b p p K K b K K K K K K K K K K K n n K K K K K n p p i i p i i i p p p K K K K K K K K K K K n n K K K K K K K K K K K K K K K K K K K K K K K K K K K K K K K K K K K K i * * t p p K n n n b p 5 $ # # * * * * * * 5 5 * * 5 * & _ D G / G G G G G G G D G G G G G G D G G D D G D D D D G G G D D D S A B @.,.8.7.$.$.$.&.4.4.4.4.4.w.w.|.|.|.OXOXw.&.%.+.X.X.X.X.X.X.d d O.X.X.#.q.w.w.e.t..X.XoX=X>X8XqX8X>X8X>X>X:X@XOXoX|.7.&.&.$.:.B C c 9 2 + o o o o o     @ B A A A C V V V V ",
"z z z l l z z z z z z z z z z z x z z z z x x z z z z z z x 4 ; d d e e e e X.$.4.q.w.w.w.|.|.|.oX=X>XqXqX>X=XoX|.|.|..X.X.XoX%XF.r.q.8.8.,.@.@.@.@.@.@.O.d d d X.X.O.+.#.4.q.q.4.,.,.,.,.,.#.#.@.O.O.O.@.@.:.,.:.-.Y k K V V S S S S S D D D D D D D S D D D D D D V B R R R R T R T K i 5 & X X & 5 i K T T T T T p i 5 5 i i g K P k k k k k k k k k k K K K K K K K T T T T T T K K K K K K K L L T K P K K K K K K K K g g K K K K K K K K K K K K K K K K K K K K K K K K K K K K K K K K K K K K K K K K n n K K K K K K K K K K K K K K K K K K K n b n p b b p g g p K b K K K K K K K n n n K K K K K K p g b p p p p p p p p p p p p K K K K K K K K K K K K K K K K K K K K K K K K K K K K K K K K K K K K K K K K K K K K K K K K i * * t i p b n K K K p 5 # O # & & & * * * * * < * < * & R D / G G G G G G G G D G G G G G G G D D D D D G D G D D G G G D D D S A @.@.#.$.$.$.$.$.4.4.q.w.w.|.w.w.|..X=X=X.Xw.%.$.O.O.O.X.X.X.d X.O.@.$.q.q.w.e..X.X%XoXoX;X>X>X>X>X8X8X>X>X:X@XOXOX Xw.7.&.$.Q + + + + + + o o o o     o > x V A A V V Z V V ",
"z l l z z z z z z z z z z z x x z z z z z z x z z z z z z z z 2 Y @.O.X.X.X.X.+.4.q.w.w.w.w.w.w..XOX;X8XqX>X=XoX|.|..X.X.Xe.oX%X%Xr.q.8.,.@.@.@.@.@.O.O.X.X.d d d O.+.#.,.q.r.r.q.q.4.q.q.,.,.#.#.O.O.O.O.O.@.:.-.h k p L V V Z S S S S S S S S S D S S D D D D D D V B R R R T R R T K i 5 & X X & 5 i K T T T T T p i 5 5 i i g K P k k k k k k k k k k K n K K K K K T T T T T K K K K K K K K K K K K L K K K K K K b b n n n K K K K K K K K K K K K K K K K K K K K K K K K K K K K K K K K K K K K K K K n n K K K K K K K K K K K K K n K K K K n b b b n b p p p p p K b K K K K K K K n n n K K K K n p p b p p p p p p p p p p p p p K K K K n K K K K K K K K K K K K K K K K K K K K K K K K K K K n n n n g g p p b b K K K K K K i * * t i p b b K K g p 5 # O # & & & * * * * 5 5 * * & & R D G G G G H G G G G D G G G G D D G F V F D D D G G D D D D D G G D D D W h O.O.@.$.$.$.q.4.w.w.|.|.w.w.|.|..XoX|.w.&.&.$.#.@.O.X.X.X.O.@.$.q.q.r.e.e..XoX=XOXoX;X:X:X:X>X8X8X8X>X;X@XOXOX Xw.7.o.@.L x N B C A A C C B x + @ B B V V V V V Z V V V ",
"z z l z z z z z z z z z z z x z x x z z x N x x z z l l z l z 4 L ,.#.O.X.X.X.+.4.q.q.w.&.&.w.w.|.oX=X:X>X:X;XOXoX|.|..Xe.w.e.%XF.r.8.,.,.#.@.O.O.O.X.X.X.X.X.X.X.O.@.#.,.q.r.r.q.q.q.q.q.,.,.,.#.@.@.O.O.O.@.-.-.k k K A C V Z S S S S S D S S S S S D D S D D D S V B R ^ R T R R T K i 5 & $ X & 5 i K T T T T P n i 5 5 i i g K P k k k k k k k k k k K K K K K K K K K K K K K K K K K K K K K K K K L K K K K K K b b b b b K K K K K K K K K K K K K K K K K K K K K K K K K K K K K K K K K K K K K K K n n K K K K K K K K K K K n n n K K K K n b b b n n p b n p b b b K K K K K K K n n K K K K n n b b b p i i p p i p p p p p p p K K K K n K K K K K K K K K K K K K n n K K K K K K K K K K K K K K K K g g b p b b K K K K K K i * * t i p b b b b K p 5 # # % & & & * * * * 5 5 * * & $ T D G G G G G G G G G D G G D D D G G D D D D D G D D D D D D D D D G D D L j d d @.#.$.$.4.q.w.w.w.w.w.w.w.w.oXOXOXw.4.&.4.$.$.#.+.@.@.#.$.,.q.q.e.e.e.oX=X:X=X.X=X;X:X:X>X>X>X>X:X;X+XOXOX X7.7.+.g x C V S S A Z A S S A , > c C V V V V V V V V V ",
"l z l z z z z z z z z z z z z z z z z z x x x x x z l l l l z z 9 w ,.#.O.X.o.$.&.&.&.&.%.%.&.w..XoXOX=X;X:X>X=XOX.X|..Xe.w.e.t.F.t.r.8.,.#.@.@.O.O.O.O.X.O.O.O.O.@.#.#.+.,.q.q.4.4.q.q.q.,.,.,.#.#.#.@.O.@.O.O.O.k k 9 V A Z Z S S S S S S S S S S S S S S F D F F V B R ^ R R R R T K i 5 ; $ X & 5 i K T U T T T n i 5 5 i i g K P k k k k k k k k k k K n K K K K K K K K K K K K K K K K K K K K K K L K K K K K K b b b b b K K K K K K K K K K K K K K K K K K K K K K K K K K K K K K K K K K K K K K K K K K K K K K K K K K K K n n n K K K K n b b b K n n b n b b b b K K K K K K K n K K K K K n n n b b p i i p p p p p p p p p p K K K K n K K K K K K K K K K K K K n n K K K K K K K K K K K K K K K K n K b b b b K K K K K K i * * t i p b b b b n p 5 # # # & & & * * * * 5 5 * * & $ R D G G G G G G G G G G D D D S D G G G D G D D D D D D D D G D D D D G D D B - h O.@.7.&.4.4.w.w.w.5.4.4.4.w.w.oXOX|.w.q.4.4.4.$.$.$.$.$.4.q.w.e.e.e.e.OX=X>X:XoXOX;X:X:X>X>X>X:X;X@X+X+XoX X7.7.$.L V S S S S A Z A S C A 2 > c V V V V V V V V V V ",
"z l l l l l z z z z z z z z z z z z z z z x x x 4 4 x x z z z z l 5 8.,.#.+.+.$.&.&.&.%.%.%.&.|.oXOX=X=X=X;X>X:X=XoX.X.X.X5.w.e.t.r.r.q.,.#.@.@.O.O.O.O.O.O.O.O.@.@.,.,.,.q.r.r.q.4.4.q.q.4.,.,.,.,.#.@.@.@.@.-.h a g 9 N S S S V V S S S S S S S S S S S D D F F D V B R R R R R R T K i 5 ; & X & 5 i K T U T T P n i 5 5 i p K K K g k k k k k k k k P K K K K K K K K K K K K K K K K K K K K K K K K L K K K K K g b b b b b K K K K K K K K K K K K K K K K K K K K K K K K K K K K K K K K K K K K K K K K K K K K K K K K K K K K K K K K K K K K K n n K K n n b b b b b K K K K K K K K K K K K K b b b b n p i i i i i i p p p p p p K K K K K K K K K K K K K K K K K K K K K K K K K K K K K K K K K K K K b b b b b b K K K K K K i * * t i p b b b b n p 5 & O # & & & * * * * 5 5 * * & $ R D G G G G G G G G D G V D G D D D D D S D D D D D D D D D D D D D D D D D S 7 j @.$.&.&.4.4.w.w.w.4.4.4.4.4.&.w.|.w.w.w.w.w.4.4.4.&.4.4.q.w.w.e.e.e..X=X:X>X>X@XoXOX;X:X>X>X>X:X=X@X+X+XoXt.7.7.h C Z S S S Z Z S Z S S V 3 > c V V V V V V Z V V V ",
"z l z l z z z z z x z z z z z z z z z z z x x x l 4 l l z z z z z 9 0.q.,.$.$.$.$.%.%.%.%.%.w.oXOXOX=X=X=X=X;X:X=XoXoX.X.Xw.w.w.r.r.r.q.8.,.@.O.O.O.O.O.O.O.O.@.@.,.,.,.r.H.H.r.q.4.4.q.q.4.,.,.,.,.,.#.#.@.@.-.h k L N N V V S S S S S S S S S S S S S S D S F S S V B R R R R R T L K i 8 ; & X & 5 i K T T P T P p i 5 5 i p b K P g k k k k k k k k P K K K K K K K K K K K K K K K K K K K K K K K K L K K K K K g b b b b b K K K K K K K K K K K K K K K K K K K K K K K K K K K K K K K K K K K K K K K K K K K K K K K K K K K K K K K K K K K K K n n K K n n b b b b n K K K K K K K K K K K K K b b b b n p i i i i i i p p p p p p K K K K K K K K K K K K K K K K K K K K K K K K K K K K K K K K K K n K b b b b b b K K K K K K i * * t i p K K K K K p 5 & # # & & & * * * * 5 5 * * & $ R S G G D G G G G G G G D D D D D D D D D D D D S D D S D D D S S D D D D D D V k @.,.&.&.4.4.w.4.5.4.4.4.4.4.&.4.w.w.e..Xe.w.w.w.4.4.w.w.w.w.w.e.w.e..X=X>X>X>X;X.XOX:X>X>X:X:X;X@X+X+X+XoXt.q.8.; A Z S S S S Z Z Z Z S V 4 > x V V V V V Z Z V V V ",
"z z z z z z z x z x x z z z z z z z z z x x z x z z z l l l l l z l 7 :.8.$.#.$.$.$.o.o.&.w.oX=X=X=X;X=X;X=X;X>X:XOXoXoX.Xw.w.w.w.e.q.q.4.,.$.#.+.O.O.O.@.@.@.@.@.#.,.8.r.r.q.,.,.4.4.4.4.,.,.,.,.,.4.4.,.@.O.O.h k B V V S V S Z S Z S S S S S S S S S S D S S S S V B R R R R R R K f i 5 ; X X & 5 i K T T T T K K i 5 5 t b K K K K K K K K K K K K K K K K K K K K K K K K p b K K K K K K K K K K K K K K K p p p p p p p g K K K K K K K b b b b b K K K K K K K K K K K K K K K K K K K K K K K K K K K K K K K K K K K K K b b p p n n K n b b b p p p p p p p p p p p p p p p p p p p p p p p p p p p p p p p i i i i i p p p p p p p p p p p p p K K K K K K K K K K K K K K K K K K K K K K K K K K n n n n K K K K K K K K K K K K i * * t i p b b p p n p 5 & # # & & & : : : 5 5 5 * * * * K S G G D G G G G G G D G D G D D S S D D D S D S D D D D D S S D D D D D D D D j @.4.&.4.w.w.w.5.w.4.4.4.&.4.4.4.w.|.|..X.X.X.Xe.e..X.X.XoXoXw.w.|. X+X:X>X>X>X:X@XOX@X:X:X:X=X@X+X+X+X+XoXt.9.8.B Z Z S S S S Z Z Z Z Z V x , c V V V V V V Z Z V V ",
"l l l z z z z x z z z z z z z z z z z z z x z z z z z z l l 4 4 4 l l L :.@.#.#.$.o.o.o.&.e.oX=X=X;X;X;X;X;X;X:X>X;XOXOXoX.Xe.w.w.w.w.q.q.4.&.$.#.O.O.+.@.@.@.,.,.,.,.8.,.3.,.#.#.,.4.4.4.4.4.,.,.4.q.q.4.,.O.h h f x V V Z Z Z S S V S S S S S S S S S S S S S S S V B T R R R R L K i 6 5 ; X X & 5 f K T T T T K K i 5 5 t n K K K K K K K K K K K K K K K K K K K K K K K K p b K K K K K K K K K K K K K K K p p p p p p p g K K K K K K K b b b b b K K K K K K K K K K K K K K K K K K K K K K K K K K K K K K K K K K K K K b n n n n b p n b b b p p p p p p p p p p p p p p p i i i i i i i p i i i i p p p p i i i i i p p p p p p p p p p p p p K n K K K K K K K K K K K K K K K K K K K K K K K K n n n n K K K K K K K K K K K K i * * t p p n n K K K n 5 & # # & & ; : : : 5 5 5 * * * * K D G G G G G G D G D D D D G G D D D V S S D D D S S D D D D D D D D D D D D S L @.q.&.w.w.w.|.4.w.4.4.4.&.4.4.&.4.|.|..XoXoXoX.XoXoXoXOXOXoX|.w.|.XX;X>X>X>X>X>X;X=X;X;X;X;X@X+X+X+X+XoX Xt.9.0.V Z V S Z V Z S Z Z Z Z Z N > x V V V V V V V V V V ",
"l l l l l z z z z z z z z z z z z z z z l l z z z z z z z z l l l l l 3 ; 8.@.#.o.o.X.o.7. XOX=X=X;X:X:X;X;X=X=X:X>X=XOXOXoXe.4.q.w.w.w.w.q.4.&.$.#.+.+.#.#.#.#.,.,.,.,.,.,.,.#.,.#.$.,.4.4.4.4.q.q.q.q.4.,.@.h k f x V Z V Z Z V V S S S S S S S S S S S S S S S S V c T R R R R L K i 6 5 ; X X X 5 f K T T T T K K i 5 5 t n K K K K K K K K K K K K K K b b b b b K K K K K b K K K K K n K K K K K K K K K K p p i p p p p g K K K K K K K n b b b b K K K K K K K K K K K K K K K K K K K K K K K K K K K K K K K K K K K K K b b b b b b p b b b b p p p p p p p p p p p p p i i i i i i p p p p i i p p p p i i i i i i i p p p p p p p p p p p p p K K K K n n K K K K K K K K K K K K K K K K K K K K n K K K n n K K K K K K K K K K i * * t p K K K K K K b t & # # & & & : : : 5 5 5 < < * * K S G G G G G G D D G D D G G G D D D D S S S D S S F D D D D D D D D D D D D D W @.&.w.w.w.w.w.4.w.4.4.&.&.&.4.4.4.|.|..XoXOXoXoXoXoXOX=X=XOXOXXXXXOX;X>X>X>X>X>X;X;X:X;X=X=X@X+X+XoXoX+X Xr.8.` S S V S S S S Z V Z Z Z S C 2 x V V V V V V V V V V ",
"l l l l z z z z z z l l z z z z z z z l l z z z z x x z z z l 4 l z z l 2 : j #.$.o.o.$.q. XOXOX=X;X:X:X:X;X;XOX;X>X;XOXOX=XoXe.w.4.4.q.q.q.w.w.&.&.$.$.$.$.$.$.,.,.,.,.4.4.#.#.#.#.#.#.$.4.4.4.q.q.q.q.q.,.:.O.k L N V V V Z Z Z V S S S S S S S S S S S S S S S S N 6 L T T R R L K i 6 5 ; X X X 5 f K T T T T K n i 5 5 t n K K K K K K K K K K K K K K b b b b b p p p p b b K K K K K n K K K K K K K K K K p p i p p p p b K K K K K K K n b b b b K K K K K K K K K K K K K K K K K K K K K K K K K K K K K K K K K K K K K b b n n b b p n b b b p p p p p p p p p p p p p i p i i i i p p p p i i p p p p i i p i i p i p p p p p p p p p p p p p K K K K n n K K K K K K K K K K K K K K K K K K K K K K K K n n K K K K K K K K K K i * * t p K K K K K K b t & # # & & & : : : 5 5 5 < < * * K S G H G G G G G G G G G G G D D D S S D S S D S S F D D S D D D D D D D D S D A h 7.w.w.w.w.w.w.w.4.4.&.&.&.&.4.4.|.|..XoXOXoX.XoXXX=X;X;X;XOXOXOXOX;X>X>X>X>X>X;X=X=X@X+X+X+X+X+XoXt. Xt.q.U V S V V V S S S Z Z V Z Z Z C 2 c V V V V V V V V V V ",
"l l l l z z z z z l z z z z z z z z z z z z z z z z z z l l l l l z z z l 2 k ,.$.$.$.&.w. XoXoX=X;X;X:X:X;X;X=X;X>X:XOXOX;X;XOX.X&.&.&.w.w.w.w.w.&.&.&.&.$.4.4.4.4.4.4.4.4.$.#.,.#.#.#.#.,.4.4.4.q.4.q.4.,.,.O.k C N V V V Z S V V Z Z S S S S S S S S S S F S S S x 9 T T R R R L K i 6 5 ; X X O 5 f L T T T T K n i 5 5 t b K K K K K K K K K K K K K b p p p p p p i p p p b K K K K n n K K K K K K K K K K p p i p p p p b K K K K K K K n n b b p g K K n n n n K K K K K K K K K K K K K K K K K K K K K K K K K K K K K K b b p p g K K K b b b p p p p p p p p p p p p p p p p i i i i p i i i i p p i i i i p p p p i p p p p p p p p p p p p p K K K K n n K K K K K K K K K K K K K K K K K K n K K K K K n n n K K K K K K K K K i * * t p K K K K K K b t & # # & & ; : ; ; 5 5 5 < < * * K S G G G G G G G G G G D G D D D D D D S S D S S S S D D S S D D D D D D D D D S k 7.w.w.w.'.w.w.w.4.4.4.4.&.&.&.4.|..X.XoXOXoXoXOXOX;X;X;X;XOXOXOX;X:X>X>X>X:X:X=XOX+XOX+X+XoXoXoX Xt.r.r.:.C V S S V V V V S S Z Z V Z Z A 2 c C V V V V V V V V V ",
"l l l l l z z z z z l l z z z z z l l z z z z z z z z z l l l l z l l z l 3 L :.$.$.&.7.w. XoXoXOX=X;X;X:X>X;X=X;X>X;XOX;X>X>X;X=X4.%.%.&.7.w.w.w.w.q.q.q.q.r.q.q.q.4.4.4.4.$.#.#.#.#.#.#.,.4.4.4.4.4.4.4.,.#.O.P C V V V V V V V S V S Z V Z V S S Z S S S F S S S x 8 L T T R R L K i 6 5 ; X X O 5 f L T T T L K K i 5 5 t b K K K K K K K K K K K K K b i i i p p i i i p p b K K K K n n K K K K K K K K K K p p i p p p p b K K K K K K K K K p p p g K K n n n n K K K K K K K K K K K K K K K K K K K K K K K K K K K K K K b b p g g K K n n n b p p p p p p p p p p p p p p p p p p p i i i i i i p p i i i i p p p p i p p p p p p p p p p p p p K K K K n n K K K K K K K K K K K K K K K K K K n n K K K K n n n K K n K K K K K K i * * t p K K K K K K b t & # # & & ; ; ; ; 5 5 5 < < * * K S G G G G G G G G D G D G D D D D S V S S S S S S S S D D S D D S D D D D D D D P 7.4.4.'.'.5.w.q.q.4.4.4.4.&.&.4.|..XoXOXOXOXOXOX;X;X;X@XOXXXXXOX;X:X>X>X>X;X=XOXoXoXoXoX Xt.oXt.t.t.r.,.5 V V V V V V V S S S Z V V V V A 2 x C V V V V V V V V V ",
"l l l l l l z z z z z l l z z z z z z z z z z z z z z z z l l l l l l l l l 4 6 @.&.&.4.w.oXoXoXoX=X=X=X;X:X;X=X;X;XOXOX;X>X>X>X;X.X4.&.&.4.|..X|.w.w.q.w.e.e.r.q.q.q.q.q.,.$.$.,.#.#.#.#.,.,.4.4.4.4.4.,.,.,.h 6 N V V V V V V V V V V S Z S S S V A S S S S S S S x 8 T R R R R L L f 6 5 ; X X $ 5 f K L T T L K p t 5 5 t p p p K K n n K K K K K K p p p p i i i i i i i p p p K K K K K K K K K K K K K K p i i i i i i p p K K K n n K K K K n n n K K K K K K K p p p p p p K K n n n K K K K K p p p p K K K K K K n n K g p i i i p p g g g K n p p p p p p p p p p p p p i i i i i i p p p p i i i p i i p p i i i i i p p p p p p p p p p p p p p p p p p p p p p p p p K K K K K K n n n K K K K K K K K K n K K n b K K K K K K K i * * t i i b p p p p i 5 & # # $ & ; : : 5 5 5 5 * * * < i S G G H G G G G G G G D G D D D F S V V S S A S S S D D D S D S D D D D D D D S L $.4.4.5.5.5.4.4.4.4.4.4.4.4.4.w.w..XoXOXOXOXOX;X;X;X;X@X@XOXOXOX;X:X>X>X;X=XOXoXoXoXoX Xt.t.t.t.t.t.r.8.N V V V V V V Z Z Z S Z V S 4 V D , 9 C V V V V V V V V V ",
"l l l l l l z z z z z z z z z z z z z l z z z l l z z z l l l 4 l l l z z l 4 8 @.$.&.w.w..XoXoXoXOXOX=X;X;X;X=X=X@X|.oX;X>X>X>X:X=X|.w.4.w.oXoX.X.Xe.w.t.oXt.e.w.w.q.q.q.4.$.$.$.#.#.#.#.#.,.4.4.q.q.q.4.,.,.h 9 V N V V V V V V V V V Z S S Z S S V Z S S S Z S V x 8 L L L L L K L f i 6 ; X X & 8 f K L L K K K p t 5 * t p p p K K n n n K K K K b p p p i i i i i i i i i p p K K K K K K K K K K K K K K p i i i i i i i p K K K n n n K K K K K n K K K K K K K b b b b b K K K K n n K K K K b p p i p n p K K K K n n K p p i i i p p K K g g n p p p p p p p p p p p p p i i i i p i p p p p i i i i i i i p i i i i i p p p p p p p p p p p p p p p p p p p p p p p p p b b b b K K n n n n K K K K K K K K n K K n b b K K K K K K i * * t i i p i i i i i 5 & O # # & ; : : : 5 5 5 * * & < i S G G G G G G D D D G G D F F S S S V S S S S S S S S S S S S D D D S D S D D S A h &.&.4.4.4.4.4.4.4.4.4.4.q.w.w..X.XoXOXOX=X;X;X;X;X;X;X;XOXOXOX;X:X>X:X;X=XoX.Xt.t.e.t.t.r.t.r.r.r.8.! V V V Z V V V Z Z Z Z V Z C 3 x D 2 9 V V V V V V V V V V ",
"l l l l l l z z l l 4 l l z z z z z z l z l l l l l z l l l z l 4 z l l z z z 9 Q $.7.w.w..XoXoXoXOXOXOX=X=X=X=X=XOX XOX;X>X8X>X>X;X=XoX|..XoXOXOXoX.X.X.X.Xe.w.w.w.w.q.q.4.$.#.#.#.#.+.#.#.,.,.,.4.4.q.4.,.@.k N V S V V V Z Z V V V V Z Z V S Z V Z V S S S S S Z x 8 L L L L L K K f i 5 ; X X & 6 f K L K K K K p t 5 * t p p p K K n K K K K K K b p p i u i i i i i i i i i p b K K K K K K K K K K K K K p i i i i i i i p b K K n n K K K K K K K K K K K K K K b b b b b b K K K K n K K K K b p p p p p p K K K K K n K g p i i i p p n K b b b p p p p p p p p p p p p p i i p p p p p p i i i i i i i i p p i p i i i p p p p p p p p p p p p p p p p p p p p p p p p p b b p p g g n n K K K K K K K K K K n n n n b b K K K K n K i * * t i i p p i i i i 5 & . # # & ; : ; : 5 5 5 * * & < i A G G D D D G D D G D F D F D F S S S S S S S S S S S D S D S S D D D D D D D D S 8 +.$.4.4.4.4.4.4.4.4.4.4.q.w.e..XoXoXOXOX=X;X;X;X;X;X;X;X=XOX=X;X:X:X;X=X=XoXe.e.e.w.r.r.r.r.9.r.q.,.Q V V V V Z V V V Z Z V V V A 3 c D 2 x B V V V V V V V V V ",
"z l z l l l l l z l z l z z z z z z l z z z z z z l l l z z l l l z z l z z z l 2 Y 7.q.w.oXoXoXoXOXOXOXOX=XOXOX@XOX@X=X:X>X8X>X>X;X=X=XoX|.oXOXOXOXoXoX.X|.w.w.w.w.w.w.q.q.$.$.#.#.#.+.+.#.#.#.#.,.,.,.,.,.@.k V V V V V V V V V V V V V Z Z S S Z Z V S V S S V V x 6 K K K K L K K f i 5 ; $ X & 6 f K L K K K K p t 5 * t p p p K K K K K K K K K b p i i i i i i i i i i i i i p p K K K K K K K K K K K K p i i i i i i i p b K K K K K K K K K K K K K K K K K K K K K K n n K K K K n K K K K b p p p p n b K K K K n n K g p i i i p p n n b b b p p p p p p p p p p p p p i i p p p p i i i i i i i i i i p p p p i i i p p p p p p p p p p p p p p p p p p p p p p p p p b b b p p g K K K K K K K K K K K K n n p p b b K K K K K K i * * t i i p p i i i i 5 & # # # & ; : ; : 5 5 5 * * & < i S D G G D D D G D G G D D F D F S F D S S F S S S S S D D D S S D D D D D D D S S C O.#.#.,.4.4.4.4.4.4.4.q.q.e.t.oXoXoXXXOX;X;X:X;X:X:X:X;X;XOX=X;X;X;X=X=XoXe.w.w.q.q.q.q.q.9.9.q.8.h 9 V V V V V V Z Z V V V V V D , > N 2 + o c C V V V V N N V ",
"l l l l l l z l l z l l l z z z z z z z l z z z l l l l z l l l l z z z z z l l 4 L 8.q.r. XoXoXoXoXOXOXOXOXOXOX@X@X@X=X:X>X8X>X>X:X;X=XoX.XoXOXOXOXOXoXoX.X.X|.e.w.w.w.q.q.4.$.$.#.@.O.O.+.+.+.+.+.#.#.#.+.h L V V V V V V V V V V S S V S V V Z V V V V S V V S S x i K K K K K K K f i 5 ; & X & 6 f K K K K K K p t 5 * t p p p K K K K K K K K g p p i i i i t t t t i i i i i p p p K K K K K K K K K n n p i i i i i i i p b K K K K K K K K K K K K K K K K K K K K K K K K K K K K K K K K K b p p i p b b K K K K K K K b p i i i p p n b b b b p p p p p p p p p p p p p i i p i i i i i i i i i i i i i i i p p p i i p p p p p p p p p p p p p p p p p p p p p p p p p b b n b b K K K K K n n K K K K K K b p p p n n K K K K K n i * * t i p p p i i i i 5 & O # # & ; : ; ; 5 5 5 * * & 5 i S G G D G D D G G D G D D S D D F S D S S F S F S V S S S D D D D D D D D D S Z S S k h @.,.,.#.,.4.4.4.4.q.r.e.e.oXoXoXOX=X;X:X:X;X;X:X;X;X;XOXOX;X;X=XOXoXt.w.q.q.7.7.7.9.9.9.9.9.8.g N V V V S V V V V V N V V V C 2 o x 2 o   9 C V V N V V V V ",
"l l z l l l l z z z l l z l z z z l l z l z l z z l l z l l z z z z l z z z z z z B Q 8.r.t.oXoXoXoXoXOXOXOXOXOXOXOXOX@X;X>X>X>X>X>X:X=XoX.XoXOXOXOXOXOXOXOXoXoX|.e.w.w.w.q.4.4.$.#.@.O.O.O.O.O.O.O.X.X.O.X.g C V V V V V V V V V S V V S V V V V Z Z S S S V S S V x K K K K K K K f f i 5 ; $ X & 6 f K K K K K K i t 5 * t p p b K K K K K K K K g p p i i i y t t t t t y i i i i p p b K K K K K K K K K K p i i i i i i i p b K K K K K K K K K K K K K K K K K K K K K K K K K K K K K K K K K b p p i p b b K K K K K K K b p i i i p p n n b b b p p p p p p p p p p p p p i i i i i i i i i i i i i i i i p p p p p i i p p p p p p p p p p p p p p p p p p p p p p p p p n n n b b K K K K K n n K K K K K K b n p p n b K K K K n n i * * t i p p p i i i i 5 & O # # & ; : ; ; 5 5 5 * * & 5 i A D D D D D F D G D D D D D D D D S V S D S S S S S S S S S S S S D D D D S S S S Z B k h @.,.#.#.,.4.4.q.q.r.e.t.oXoXoXOX=X;X:X:X;X;X:X:X;X;XOXOX@X=XOXoXe.w.q.&.$.$.$.$.$.$.$.$.8.:.L N V V Z S V V V V V V N V V V 2 o > c 2 + 9 V V V V V N N V ",
"l l l l l l z l l l z l 4 l z z z z l l l l l z z z z z z l l 4 4 z z z z l l z z l 9 8 $.r.t. X XoXoXoXoXOXOXOXOXOXOXOX=X;X>X>X8X>X>X;XOXOXOXOX@X=X=X=X=X=X+XoX Xw.w.q.q.q.4.4.,.,.#.+.O.O.O.O.O.X.X.d d p s V V V V V V V V V V V V S V V S V V V V S S S V S S V B f K K K K K K g i t 5 ; $ O $ 5 i K K K p p p i t : * 5 i i i p p p p p K K K b p p p p i y t t y y t y y y i p p p p g K K K K K K K p p p p p i i p p p p p K K b K b b K K K K K K K K K K K K g g b b K K K K K K K K K K K K K K K K K K K K K K K K p p p p p p p p p p p p p p p p p p p p p p p p p p p p p p p p p p p p p p p p p p p p p p p p b b p p p p p p p p p p p i i i i i i i p i p p i i p p p p p p K K K K K K K K K K K K b b b b n K K K b p p p t * * t p p b b b b b p 5 & O O # & : 5 5 5 5 5 5 5 5 & 5 i A D G D D D D D G G D D D D D S S S V S S S S S S S S S S S S S S D D D S D S S S S V 9 % d O.O.#.4.q.q.r.r.e.t..XoXoX%XOX=X;X>X>X>X>X>X>X;X;X;XOXOXOXoX|.w.q.&.$.$.$.$.$.$.@.@.@.@.:.L V V V V V S V V V V V V V V V 3 > + o o 9 N V V V V V N N V ",
"4 l l l 4 l l l l 4 l l 4 l z z z z z z l l l z l l l z l 4 3 4 4 l z z z z l l l l l 4 Y 9.r.t.t.t. XoX.XoXoXoXoXoXoXoXOX=X:X>X>X>X>X;XOXOXOXOX=X=X=X=X=X=X+XOXoXe.w.q.q.q.4.4.4.,.#.+.O.X.O.O.O.X.d d w y c V V V V V V V V V V S S S S Z S S S S Z Z Z Z S S S x L f f L K K K K g i t 5 & X . X 5 i K K n p p p i t : & 5 i i i p p p p p K K n b p i p i y y y y y y y y y y i p p p p g g K K K K K p p p p p p p p p p p p p n n b b b b K K K K K K b b b b b n g p b b b K K K K K K K K K K K K K K K K K K K K K K b p p p p p p p p p p p p p p p p p p p p p p p p p p p p p p p p p p p p p p p p p p p p K K K K K b i i i i i i i i i i i i i i i i i i i i i i i i p p p p p p b b b b b b K K K K K K K K K K K K K b b p i i t * * t p p b b b b b b 5 & O O # & 5 5 5 5 5 5 5 5 5 & 5 i A D D D D D D D D G G G D D D S V V D S S S S S S S S S C S S D S D D D D D S D S S V c < d d X.#.,.q.q.r.r.e.e..X.XoX%XOX=X;X>X>X>X>X8X>X;X;X=XOXOXOX.Xw.4.&.&.$.$.$.$.@.@.@.@.@.@.U V V V S S V V V V S S V V V V V N +     3 V V V V V N V V N N ",
"l l l l l l l l l l l l z z l z z z z z l l l z z l l l l 4 4 3 3 4 l l z l l l l l z l L :.q.r.t.t.t.t.e. X X X X X X XoXOX=X:X>X>X>X:X=X=XOXOX=X;X;X;X=X=X=X+XoX Xw.w.q.q.q.4.4.,.,.#.O.O.O.X.X.h d w w 6 N V V V V V S V V V V S S V Z S S S S S Z Z V V V S V x L f f K K L K g f i 6 5 & X . X 5 i K K K p p p i t ; & 5 i i i p p p p p K K n n p i p y y y y y y y y y y y y p p p p g g g g g g g p p p p p p p p p p p p p b b b n n n b b b b n b n n n b b b n n n K g g n n n n n K K K K K K K K K K K K K K K K b p p p p p p p p p p p p p p p p p p p p p p p p p p p p p p p p p p p p p p p p p p p p K K K K K K i i i i i i i i i i i i i i i i i i i i i i i i p p p p p p b b K K g g K K K K K K n n K K K K K b n p p i t * * t i p b n n n n n 5 < . # @ < 5 5 5 5 5 5 5 5 5 & 5 i A D D D D D D S D D D D F D D S C C S V S S S S S S S S S S S F S D D S S S F S C A V V 9 y e d @.,.q.q.q.r.r.e.e..XoXoXOX=X;X:X>X>X8X8X>X;XOXOXOXOXoX|.q.&.$.$.$.$.$.#.@.@.@.@.@.:.7 V V V S V V V V V V V V V V V V C >   > x V V V V V N V V V N ",
"l l 4 l l l z l l l l l l l l l z z l z z l l z z l l x x 4 4 4 4 4 4 l l l z z z z z z l 9 @.8.r.t.r.t.e.e.|.|.w.|.w. X XoXOX=X:X>X>X:X;X=XOXOX=X;X;X=X=X=X=X+XoX Xw.q.q.q.q.4.4.,.,.#.+.X.O.X.O.a e w : 9 V V V V V V V V V V V V Z S S S V S V Z Z V V Z V V S 9 L f f K L L K g f i 6 5 & $ . $ 5 i K K p p p p i t ; & 5 i i i p p p p p K K g n p i p y y y y y y y y y y y y p p p p g g g g g g g p p p p p p p p p p p p p b b n n K K p p p p p p n K n b b b b b n K g g K K K n n K K K K K K K K K K K K K K K K b p p p p p p p p p p p p p p p p p p p p p p p p p p p p p p p p p p p p p p p p p p p p K K K K K K i i i i i i b p i p i i i i i i i i i i i i i i p p p p p p b b K n g g K K K K K K n n K K K K K b n p p i t * * t i p b n n n n n 5 < . # @ & 5 5 5 5 5 5 5 5 5 & 5 i A D D D D D G D D D D F F S D S S S A S S S S S S S S S D S S S S S S S S S S V V V V V x y w d O.#.,.q.q.q.r.r.e.e.oXoXOXOX=X;X:X>XqX8X:XOXOXOXOXoX.Xw.&.&.$.#.+.+.#.#.O.@.@.$.@.j N Z V V V V V S V V V V V V V V V V 2 2 x V V V V V V V N N V V ",
"l l l l l l l z l l l l l l l l z z l l z z z z z z l x l l 4 4 4 4 4 l z z l l z z l l z x f @.9.r.r.t.t.w.w.w.w.w.w.w.|..XoX=X=X:X:X:X;X=XOX=X:X>X:X;X=X=X=X+XoXe.w.q.q.4.4.4.4.,.,.#.+.O.O.O.a e w w 5 x V V V Z V V V V V V V V V Z V Z S S Z S Z V S S S Z Z 4 g f K K K L K f i i 6 : & X . $ 5 i K K n p p p i t : & 5 i i i p p p p p K K K K p i p y y y y y y y y y y y y p p p p g g g g g g g p p p p p p p p p p p p p b b n K g p p p p p p p K K n n p p b b b b g K K K K K K K K K K K K K K K K K K K K K K K p p p p p p p p p p p p p p p p p p p p p p p p p p p p p p p p p p p p p p p p p p p p p p p p p p i i i i p p p p p p p p i i i i i i i i i i i i p p p p p p b b b n b b K K K K K K n n n K K n K b K p p p t * * t i p b n n n n n 5 < . # & & 5 5 5 5 5 5 5 5 5 & 5 i C D S D S F F D F D D D S S S S S D S S V S S S S S C S S S S S S S S S S S S A A A V V x f y w O.@.,.,.,.q.q.q.r.e.t.oXoXoX=X=X=X:XqX>X=XOXOXoXOX.Xw.q.&.$.#.+.O.+.@.#.@.@.@.@.@.W V V Z V V V S V V V V V V V Z V V V N C V V V V V V V N V N N N ",
"l l l l 4 l l l z z l l z z l z z z z z l l z z z l l l 4 4 4 4 4 4 4 4 z z z z z z z z l l 4 f 8.r.r.r.r.r.w.w.q.q.w.w.w.e..XoX=X=X;X;X;X=X+X;X>X8X>X:X;X=X=X+XoXt.w.q.q.4.4.4.,.,.,.+.O.O.O.O.e w w - 6 x N V V Z V V V V V V V V V S S Z V V Z S V V Z V Z S V 9 g f K K K K K f i i 5 ; & X . $ 5 i K K K p p p i t : & 5 i i i p p p p p K K K K p i p y y y y y y y y y y y y p p p p g g p p p p p p p p p p p p p p p p p p b b n K g p i i i i p p K K K n n b b b b b K K K K K K K K K K K K K K K K K K K K K K K g p p p p p p p p p p p p p p p p p p p p p p p p p p p p p p p p p p p p p p p p p p p p i i i i i i i i i i i p p p p p p p i i i i i i i i i i i i p p p p p p b b b b b b K K K K K K n n K K K n K b K p p p t * * t i p b n n n n n 5 < . @ & & 5 5 5 5 5 5 5 5 5 & 5 i V D D D S S S F F S D D S S S S S D V S S V S S S S S S S S S S S S S S S S S D C V N N x s y w d O.@.,.,.,.,.q.r.r.e.t.oXoX%XOXOX=X>X>XOXoXoXoXoX|.w.&.$.+.+.+.O.+.@.@.#.#.,.@.:.W V Z Z V V V V V S V V V V V V V V V V V V V V N N N N V V N N N ",
"l l l 4 4 4 4 4 l l l l l l l l z l l z l l l l z z l l 4 l l 4 l l l l z z z z z z z z z z z 3 y r.r.r.r.r.r.w.q.q.w.w.q.w.e..XoX=X=X=X=X=X@X=X>X>X>X>X:X;X=X+XoXe.w.q.q.4.4.,.,.#.@.O.O.O.O.a a e w : 8 x V V V V V V V V V V V V V V V S S V V V Z Z V V S V V 4 g f K K K K K K i t 5 ; & $ X & 5 t i p p i i i i 5 : & 5 i i i p p p p p p b b b p p g g y y y y y y y y y y y i i i i p p p p p p p p p p p p p p p p p p p i i i i i i i i i i i i i p p p p p p p p p p p p p p b b K K K K K K K K K K K K K K b b p g b p p p p p p p p p i i i i i i i i i i p p p p p p p p p p p p K K K K K p p p p p p p i i i i i i i i i i p p i i i i p i i i i i i i i i i i i i p p p p p p K b p p p p b b b n n b K K n n b b n n K K p p i < * 5 i b n n n n n n 5 & . # & & 5 5 5 5 5 5 5 5 5 & < 5 A D S D S S F S D D S D D D S D V S S S S S S S S S D S S F S S S D S S S S V V V N N N x 9 f w d d @.:.@.,.,.,.q.q.r.e.e.t..XoXoXOX;X=XOXXX.X.X|.w.&.&.#.+.+.O.+.@.@.@.@.@.:.:.K N V V V V V V V V V V V V Z V V V N V N N V V V N V V V N N V V V ",
"l z l 4 4 4 4 l l l l z z l l l l l l z l z l l l l l l l l l 4 l l l l z l z z z z z z z z z l 8 8.r.t.r.r.r.r.q.q.q.q.q.q.w.e.oXOX=X=X=X=X=X=X:X8X8X8X>X:X=X+X Xw.w.q.q.4.,.$.,.#.@.@.O.O.h a e w : : 6 x V V V V C V V V V V V V V V Z V S S Z V Z Z V Z V V V 4 k f K K K K K K i t 5 ; & $ X & 5 t i p p i i i i 5 : & 5 i i i p p p p p p b b b p p g g y y y y y y y y y y y i i i i i p p p p p p p p p p p p p p p p p p p i i i i i i i i i i i p p p p p p p p p p p p p i p b b K K K K K K K K K K K K K K b b n p b p p p p p p p p i i i i i i i i i i p p p p p p p p p p p p p K K K K K b p p p p p p i i i i i i i i i i p p p i i i i i i i i i i i i i i i i i p p p p p p K b p p p i p p p p p p n K n n n b n n n n b p i < * 5 i b n n n n n n 5 & . # @ & 5 5 5 5 5 5 5 5 5 & 5 5 S S D D D D S S D D D D D D S S S S S S S S S S S S S D S D S S S S S S S S N N V V N N z x 8 y d d O.@.@.:.,.,.8.q.r.r.e.e.e..X.XoXXXXXXXXX.X|.w.&.&.$.+.+.O.O.+.@.@.@.#.@.:.U C V V V V V V V V V V V V V V V V V V V N V V V V N V V N V N N V V ",
"l l 4 4 4 4 4 l l l l l l l l l l l l l l l l l l l l l z l l l l l l l l l l z z z z l z z z z 9 Q 9.r.r.r.r.9.q.q.q.7.q.q.q.w.w.oXOX=X=X=X=X=X=X>X8X8X>X>X=XoX|.w.w.q.4.$.$.#.#.@.@.@.O.O.h a w : - : 6 x V V N V V C V V V V V V V V V V S S Z S Z V S Z V Z V 9 k f K K K K K K g i 5 : & $ X & 5 t i p p i i i i 5 : & 5 i i i p p p p p p p p b p p g g y y y y y y y y y y y i i p p i p p p p p p p p p p p p p p p p p p p p p p p p p p p p p p p p p p p p p p p p p p p p p p n K K K n n n K K K K K K K K b b p p b p p p p p p p p p i i i i i i i i p p p p p p p p p p p p p p K K K K K b p p p p p p p p p p p p p i i i i p p p i i i i i i i i i i i i i i i i p p p p p p b p p p p i p p i i i p n b n n p n n n n b b p i * * 5 i p n n n n n n 5 & . # @ & 5 5 5 5 5 5 5 5 5 & 5 5 C D D D D D D S D D D D D D S S S S S S S S S S S S S S S S S S S S S S S Z V V V V V x x x 9 f w d h @.@.:.:.,.,.8.q.q.r.w.w.e.|.|..X.X|.|.|.w.4.%.+.+.+.O.O.O.+.@.@.@.#.#.:.< V V V V V V V V V V V V V V V V V V V V V V V V N N N N N N N N N N ",
"l l l 4 4 4 l l l l l l l l l z z l l l l l l l l l l l l l l l l l l l z l z z z z z z z z z z 9 6 ,.r.r.r.r.9.q.q.q.7.7.q.q.q.w.e.oXOX=X=X=X=X=X;X8X8X>X:X=XoXw.w.w.q.&.$.$.#.+.@.O.O.O.h h y w w : : 6 N V V V V V V C V V V V V N V V V Z S V V V V Z Z Z V Z 9 P f K K K K K K g i 5 5 & $ X & 5 t i p p i i i i 5 : & 5 i i i p p p p p p p b K p g g g y y y y y y y y y y y i i i p i p p p p p p p p p p p p p p p p p p p p p p p p p p p p p p p p p p p p p p p p p p p p p p b K K K n n n n K K K K K K K b b p p b p p p p p p p p p i i i i i i i p p p p p p p p p p p p p p p n n K K K b p p p p p p p p p p p b p p i p i p p p i i i i i i i i i i i i i i i i p p p p p p p p p i i i p p i i i p n n n b p p n n n b b p i * * 5 i p n n n n n n 5 & . # @ & 5 5 5 5 5 5 5 5 5 & 5 5 V D D D D D D D D D D D D D D D S S S S V S S S S S S S S S S S S S S S S S S V V V V x x x x f y h j @.:.:.:.,.,.,.8.q.q.q.w.w.w.w.5.5.5.4.w.4.&.$.+.+.O.O.O.O.O.@.@.@.@.@.:.c V V V V V V V V V V V V V V V V V V V V V V V V N N V N V V N N N N ",
"l 4 l l l l l l l l l l l l l l l l l z l l l l l l l l l l l l l l l z z l z z z z z z z z z z l 2 Q 9.r.r.r.9.q.q.7.7.7.&.q.q.q.w.e.oXOX=X=X=X=X+X>X8X>X;XOX Xw.w.w.7.&.$.$.#.+.O.O.O.O.h e w w : - w 6 N N V N N V V V V V V V V V V V Z V V V S S S S V S V V 4 P g K K K K K K g i 6 5 ; $ $ & 5 t i p p i i i i 5 : ; 5 i i i p p i i i p b K K K p g g y y y y y y y y y y i p p i i i i p p p p p p p p p p p p p p p p p p b b b b b b b b b b K p p p p p p p p p p p p p i p b n K K K K K K K K n n K K K g b b b b b p p p p p p p p p i i i p p p p p K b p p p p p p p p p p p p n n n n K g p p p p p p b b b b b b i i p p p p p p i i i i i i i i i i i i i i i i p p p p p p p i i i i i i i i i i i b b b n K b b b b K K K i * * 5 i p b b b b b b 5 & O # # & 5 5 5 5 5 5 5 5 5 & 5 8 C D D D D G G D D D D F F D S S D S S S S S S S S S S S S S S S S S S S S S V V V V V V z N N 9 j j j :.:.8.,.,.,.,.,.,.4.q.q.w.q.4.4.4.4.4.4.4.%.+.o.X.O.O.O.O.@.@.@.@.@.,.E V V V V V V V V V V V V V V V V V V V V V V N N V V N V N V N V V V V ",
"l l l l l l l l l l l l l l l l l l l l l l l l l l l l l l l l l z z z z l l z z z z l z z z z z l L q.q.r.r.9.q.q.7.7.&.&.&.q.q.w.w.oXoX=X=XOXOXOX=X>X>X=XoX|.w.w.7.7.&.$.#.#.O.O.O.O.h d e w w : - w : N N N N V V V V V V V V V V V V Z Z V Z S S V V V V S V 4 P g K K K K K K g i 6 5 ; $ $ & 5 t i p p i i i i 5 : ; 5 i i i p p i i p p K K K K g g g i i y y y y y y y y i p p i i i i i i i i i i p p p p p p p p p p p p K K K K K K n n K K K g p p p p p p p p p p p p i p b b K K K K K K K K n n K K K g b b b b b p p p p p p p i p i i i p p p p p K b p p p p p p p p p p p p n n n n K g p p p p p p K K K K K K i i p p p p p p i i i i i i i i i i i i i i i i p p p p p p i i i i i i i i i i i i b n n n K b b b b K K K i * * 5 i p K K K K K K 5 & O O $ & 5 5 5 5 5 5 5 5 5 & 5 8 C D D D D D D D F D D D S S S S S S S S S S S S S S S S S S S S S S S Z S C V C V V V V z N x 9 j j @.8.8.8.,.,.,.,.,.,.,.4.4.q.4.4.&.%.%.&.&.&.$.+.X.X.X.X.O.O.@.@.@.@.#.:.W V N V V V V V V V V V V V V V V V V V N V V V V V V V V V V N V V V N ",
"l l l l 4 l l l l l l l l l l l l l l l l l l l l l l l l l l l 4 l z l z l z z z l l z z z z z l z L 0.r.r.r.q.q.q.7.$.$.$.$.$.$.q.w.t.oXoXoXoXoXoXOXOXOXoX|.w.w.w.q.7.$.#.+.+.O.O.O.h h a e e y w w y f N N V V N V V V V V V V V N V V V V V V V V V V V S V V 9 T P I P P K P K K f t 5 & $ O $ ; t i i i i i i i 5 * & 6 f g g K p i i i i i i i i p p p p p p i p p p p p p p p p i i i i i i i i i i i i i i p n K n b b b b K K K K K K K K K K K K p p g K b b b b p n b p p p p p p p p p p p i i p p K K K K p p p p p p i i p p i i i i i i i p p p p p p p p p p p p p p p p p p p p p p p p p n b b b b K K K n n K n i i p i i i p i i i p i i i i i i i i i i i i i p p p i p p p i p i i i i i i i i i p p p p p K g g g g K K i 5 & 5 i p p K K K K i 5 & O # $ & 5 5 5 5 5 5 5 5 5 5 5 5 C G D D D G G D D F D S F S S S S S S S S S S S S S S C A S S S S S V S C C V V V V V V x N x 9 Q j @.8.8.8.8.8.,.,.,.,.,.,.4.4.4.$.+.+.+.#.$.#.#.+.O.X.X.O.X.O.O.@.@.:.,.h x V V V N V V V V V V V V N V V c N N N x x c c V V V V V V N V V V N N ",
"l l l 4 4 l l l l l l l l l l l l l l l l l l l l l l l l l l l l l l z z z l z z z l l z z z z z z B Q r.r.r.r.q.q.7.$.$.#.#.$.$.4.q.w.e.t..X.X.X.X|.|.|.|.w.w.w.q.q.4.$.#.@.O.O.O.O.h e e e a w - w y L N V N N N V V V V V V V N v V V V V V V S V V V V S S V 9 T I I I P P P K K f i 5 & $ . $ ; 5 i i i i i i i t & & 6 g K K K g i i i i i i i i i i i i p p i i i i i i i i p p p i i i i i i i i i i i i i p n n n b b b K K K K K K K K K K K K K b p n K n b b b p g b p p p p p p p p i p p i i p p p K K K p p p p p p i i i i i i i i i i i p p p p p p p p p p p p p p p p p p p p p p p p p n b b b b K K n n n K n i i i i i i p i i i p i i i i i i i i i i i i i p p i i i p p p p i i i i i i i i i i i i p p g i i i i g g i 5 & 5 i p p K K K g i 5 & # # $ & 5 5 5 5 5 5 5 5 5 5 5 8 C G D D D D G G G D D F F S D F S S S S S S S V S S S S C V Z S S S S C S S V V V V V V x x x 9 Q @.@.8.8.8.8.8.,.,.,.,.,.,.,.,.#.#.+.+.+.+.+.+.+.O.X.X.X.O.O.O.O.@.:.:.,.p x V N V N N V V V V C C c 3 + + o + + + + + o + > 9 c V V N N V V N N N ",
"l l l l l l l l l l l l l l l l l z l l l l l l l l l l l l l l l l l l l l l z z z x x z z l z z x 4 7 0.r.r.r.q.q.7.$.$.$.#.#.$.$.4.q.w.w.e.e..Xe.w.w.w.w.q.q.q.4.4.,.$.#.O.O.O.O.h h d d a a w - w y U N N N x N V V V V V V V V V V V V S S S V V V V V V V V 9 T I m I P P P K K f i 5 & $ . X ; 5 i i i i i i i t < & 5 g K K g i i i i i i i i i i i i i p i p i i i i i i i i i p p p p i i i i i i i i i i p b n b b n b K K K K K n n K K K K K K p p n b b b K K K g b p p p p p p p p i i p i i i p p p p p p p p p p p i i i i i i i i i i i p p p p p p p p p p p p p p p p p p p p p p p p p b b b b K K K K n n K n p p i i i i i i i i i i i i i i i i i i i i i i p p p p i p p p i i i i i i i i i i i i i i p p g g i p p p i : & 5 i g p K K K K i 5 & O O $ & 5 5 5 5 5 5 5 5 5 5 5 5 C D G G G D D D D S D S S D S S S S S S V S S S S S S S V C A A S S Z V C A V C V V N N l 4 N 9 0.8.,.8.q.q.8.8.,.,.,.,.,.,.,.,.#.#.+.+.+.X.O.O.O.X.X.X.X.O.X.O.O.@.:.@.#.g V V V N N V V V V B 9 + o + o @ o 9 N N c x x 3 > o o 3 N N V V N N V N ",
"l l l l l l l l l l l l l l l l l l l l l l l l l l l l l l l l l l l l l z z z z l 4 4 x z l l l x l 3 & :.r.r.q.q.8.$.$.$.$.#.#.$.$.4.4.q.e.e.e.e.w.q.4.4.4.4.4.4.$.$.#.@.O.O.O.O.O.h d h d a y w w g R N N N N N N V V V V V V V V V V Z S V V Z V V V V V V V 9 T I I I P P P K K f i 5 & $ . X ; 5 i i i i i i i t < & 5 g K K K i i i i i i i i i i i i i p p p i i i i i i i p i p p p p i i i i i i i i i i p b n n b n n K K K K K n n K K n n K K b b n n b b K K K K b p p p p p p p p i i i i i i i i i p p p p p p p p p i i i i i i i i i i p p p p p p p p p p p p p p p p p p p p p p p p p b b n b K g K K n n K n p p i i i i p i i i i i i i i i i i i i i i i i p p p i i p p i i i i i i i i i i i i i i p p p p p i i p p i 5 & 5 i g i K K K K i 5 & O O $ & 5 5 5 5 5 5 5 5 5 5 5 5 V D D G D D F S F S S D S S F S S S S S A S S S S S S D A c C V S S Z V S V V V V V V x l x 4 3 0.8.8.8.q.q.q.8.,.,.,.,.,.,.,.,.,.,.#.+.X.X.O.O.X.O.X.O.O.h O.O.O.O.@.@.@.f N V N N x N V V B > o + > C A A > x N V V V Z A C c > o x B V V V N N N ",
"4 l l l 4 l 4 4 l l l l l l l l l l l l l l l l l l l l l l l l l l z l l z z z z l l l l z l l z x 4 4 2 :.r.r.q.q.q.$.$.$.#.$.$.$.$.,.4.4.q.e.e.e.w.w.4.4.4.4.4.,.$.#.#.@.O.O.@.@.h h h h h h a w y k Q N N N N V V V V V V V V Z V V V Z V V V V V V V S V V V 9 T I I I P P P K K f i 5 & $ O X ; 5 i i i i i i i t < & 5 f L K K i i i i i t i i i i i i i i i i i i i i i i i i i i i i i i i i i i i i i p p p b K K g K n K K K K n n n K n n n K K b b p p b b n K b b b p p p p p p p p i i i i i i i i i i i p p p p p p p p p i p p i p i i i p p p p p p p p p p p p p p p p p p p p p p p p p b b n p p g K K K K K b i p i i p p p p i i i i i i i i i i i i i i i i p p p i p p p i i i i i i i i i i i i i i p p p p p p i p p i 5 & 5 i g p K K K g i 5 & # O $ & 5 5 5 5 5 5 5 5 5 5 5 5 S D G D D D D D D D D D S S S S S S S S C S S S S S S A S D S S Z S V Z V C V N N N x x x x x 5 0.8.8.8.q.q.,.,.,.,.,.,.+.#.,.,.,.,.+.O.X.e d X.X.X.d h h h d O.O.O.@.@.@.f V V N N N N V B > + 9 C B V C A > > v V V V A S C V D 2 o 4 V N N V V N ",
"l l l l 4 4 4 4 4 l l l l l l l l l l l l l l l l l l 4 4 l l l l l l l z z z z l l x l l 4 4 l 4 4 l 4 2 g 8.r.q.q.7.$.$.$.$.$.,.$.$.$.$.,.4.q.r.e.w.4.4.4.4.&.$.$.$.#.#.@.O.O.@.O.h h @.:.:.h h e h h ! B V N x N V V V V V V V V V V V V V Z S V V S V V V V V 9 T I I I I P P K K f i 5 & $ O X ; 5 i i i i i i i t < & 5 f L K K i i i i i t i i i i i i i i i i i i i i i i i i i i i i i i i i i i i i i p p p n g g g p b K K K K n n n K n n n K K b b K n n b n b b b b p p p p p p p p i i i i i i i i i i i p p p p p p i p p p p p p p i i i p p p p p p p p p p p p p p p p p p p p p p p p p b b n n p g K K K K K b i i i p p p p p i p i i i i i i i i i i i i i i p p p p p g p i i i i i i i i i i i i i i i p p p p p p p p i 5 & 5 i g p K K K g i 5 & # # $ & 5 5 5 5 5 5 5 5 5 5 5 5 C D D D D D D D S F S S D S S S S S V S V S S S S C A S C C C V V V Z V C V V V V V N x x c 9 0.8.8.8.8.q.q.,.,.,.#.#.#.+.#.#.,.,.,.O.d e e e d d d d d h h O.X.O.O.@.@.@.f V V V V V N B > + x V C C C C 4 > x V V x B V B C Z V A , 3 N V V N N N ",
"l l l l l 4 4 l l l l l l l l l l l l l l l l l l l 4 4 l l l l l l l l l l l l l l l 4 4 4 l 4 4 4 4 4 2 > : q.q.q.q.$.$.$.#.#.,.$.#.$.$.$.4.q.q.q.q.4.&.&.$.$.$.#.#.#.#.O.O.O.@.@.@.@.@.:.:.:.h h k h ! c V V N N V V V V V N V V V V V V V V V V V Z V V V V V 9 T I I I U U U K K f i 5 & $ . X ; 5 i i u i i i i t : ; 5 f K K K g K i i i i i i i i i i i i i i i i i i i i i i i i i i i i i i i i i i i i i i p b n n p n n K K g g K K K K K K K p p p p p p p p p p p p p p p p p p p p i i i i i i i i i i i p p p p p p p p p p p p p p p p p p p p p p p p p p p i i i p p p p p i i i p p p p n K b b b p p p p p p i i i i i i i i i i i i i i i i i i i p p p p p p p p p p p K p p p p p p i i i i i i i i i p p p p p p p p p i 5 & 5 i g p K K K g i 5 & O # & & < 5 5 5 5 5 5 5 5 5 5 5 A D D D S S D D S D S S S Z S S S S S S V V S S V S A A A V V C V V V V V V x V V V x x x N f 0.8.8.8.8.8.8.,.#.+.#.+.O.O.@.@.,.,.,.O.d e e e e d d d d d d d d h O.@.@.@.f N V V V N x 3 o B B V V C v c B 9 9 x B 2 c 2 + x V A ~ 2 x V N N N V V ",
"l l l l l l l l l l l l l l l l l l l l l l l l l l l 4 l l 4 l l 4 4 l l l l l l l l l 4 4 4 4 z 4 4 4 2 > @ 8.8.q.q.4.$.$.$.$.,.$.$.$.$.$.$.4.q.q.4.&.$.$.$.$.#.#.#.#.#.+.O.O.@.@.j j @.:.:.:.:.O.O.Y >.B N V N N V N N V V N V V V V V V V V Z V V V V V V V V 9 T I I I U U U P K f i 5 & $ O X ; 5 y i i i i i i t : ; 5 f K K K K K i i i i i i i i i i i i i i i i i i i i i i i i i i i i i i i i i i i i i i p b b n n n b b b g g g n K n n n b p p p p p p p p p p p p p p p p p p p i i i i p p i i i i i p p p p p p p p p p p p p p p p p p p p p p p p p p i i i i i p p i i i i i i i i p K K n b b b p p p i i i i i i i i i i i i i i i i i i i i i i p p p p p p b b n n p p K n b b p p p p p p p p i p p p p p p p p p g p i : & 5 i g p K K K g i 5 & O $ & & 5 5 5 5 5 5 5 5 5 5 5 5 V D D D S S S D S S S S S Z S S S S S S S Z S S V A A V V A V C C C C V V x N V N N x N x x f 0.8.8.8.8.8.8.,.#.+.#.+.O.O.O.@.@.,.#.O.d e e e e d d d d d d d d d h O.@.@.s V N V V V c > o c x , x x , 4 V > 7 , x 2 9 7 + 9 V B 3 > x V N N V V V ",
"4 4 4 l l l l l l l l l l l l l l l l l l l l l l l l l l l l l l 4 3 4 l l 4 4 4 4 4 4 4 4 4 4 l l 4 4 3 2 2 Q 8.q.q.q.4.$.$.$.,.$.$.#.#.#.#.$.4.4.$.$.+.+.$.#.#.#.#.#.#.@.@.@.@.@.h j @.:.:.:.:.:.:.:.:.` C N N N N N N V V V V V V V V V Z Z V V V V V V V V V 9 T I I I U U U P K g i 5 & $ O X ; 5 i i i i i i i 5 : ; 5 f K K K K K K i i i i i i i i i i i i i i i i i i i i i i i i i i i i i i i i i i i i p p b b n n p n b b K n n n K n b b b p p p p p p p p p p p p p p p p p p p i i i i i i i i i p p p p p p p p p p p p p p p p p p p p p p p p p p p p i i i i i i i i i i i i i i i p g n n n n b p p p i i i p i i i i i i i i i i i i p p i i i i p p p p p p b b b n b b K n b b b p p p p p p p p p p p p p p p p p g g i 5 & 5 i g p K K K g i 5 & # $ & & 5 5 5 5 5 t 5 5 5 5 5 < V D D D D S S D S S S S S S S S S S V V V V S S A C V V V V N V C C C V V V N V N N N x l x f 8.8.8.8.8.8.,.#.#.#.#.+.O.O.O.@.@.:.:.O.d e e e e e d d d d d d d d h O.O.j s V N V V V B 7 + x 3 > 2 7 + 9 B > 2 , c x > B 9 x c > + x C V V N N N V ",
"l 4 l l l l l l l l l l l l l l l l l l l l l l l l l z z l l 4 4 4 4 l 4 l 4 4 4 4 4 4 4 3 4 4 l 4 4 4 3 > > < @.q.7.q.q.,.$.$.,.,.$.#.#.+.#.#.$.$.$.+.o.o.+.#.#.#.#.#.#.@.@.@.@.O.h O.@.@.:.:.:.:.:.:.:._ A N V N N N N N V V V V V V V V V V V V Z V V V V V V 9 T I I I U U U P K g i 5 & $ O X ; 5 i i i i i i i 5 : ; 5 f K K K K K K i i i i i i i i i i i i i i i i i i i i i i i i i i i i i i i i i i i i i p b b b K g p b b n n n n g n b b b p p p p p p p p p p p p p p p p p p p i i i i i p i p p p p g p p p p p p p p p p p p p p p p p p p p p p p p p i i i i i i i i i i i i i i p p n n b K n b p i p i i i p i i i i i i i i i i i i p p i i i i p p p p p p b b b b b n K K b b p p p p p p p p p p p p p p p p i p g g i : & 5 i g p K K K g i 5 & # $ $ & 5 5 5 5 5 t 5 5 5 5 5 < V S D D F S S S S S S S S S S S S S Z V V V S S A C C V V V V N C C V V V V V V V V N l z N f 8.8.8.8.8.8.,.#.#.#.,.#.O.O.O.O.@.:.,.O.d e e e e e d d d d d d d d d h h h s V V V V V N >   > > o o > + > l 3 > 4 V x > 2 x x > o x V V V V N V V V ",
"l 4 l l l l l l l l l l l l l l l l l z l l l l l l l l l l l l z l 4 4 4 4 4 4 4 4 4 3 4 4 4 4 l 4 4 3 3 2 , > k q.7.q.q.4.&.&.$.$.$.#.#.@.@.#.#.$.#.o.X.X.o.#.#.#.,.#.#.@.@.@.O.@.O.O.@.@.@.:.:.,.:.:.:.>.C V V N V N N V N V V V V V V V V V V V V V V V S V V 7 T I I I U U U P K g i 5 & $ O X ; 5 i i i i i i i 5 : ; 5 f K K K K K i i i i i i i i i i i i i i i i i i i i i i i i i i i i i i i i i p p p p p p b b n n g n n n b b b b p b b b b p p p p p p p p p p p p p p p p p p p p p p p i i i p p p g n p p p p p p p p p p p p p p p p p p p p p p p p p i i i i i i i i i i i i i i i p b b b K K K p i i i i i p i i i i i i i i i i i i p p p p p p p p p p p p b b b n K n K n n n p p p p p p p p p p p p i i g g i i i i i : & 5 i g p K K K g i 5 & # $ $ & 5 5 5 5 5 5 5 5 5 5 5 < C S D S S S S S S S S S S S V S S S V A V S S S A V Z V V V V V V V V V V V N N V V N x l l f 8.8.8.8.8.,.#.#.#.,.,.#.O.O.O.@.@.:.:.O.X.e e e e d d d d d d d d d d h h h 9 V V V N V N x + o 9 9 9 9 B C V V V V C V x x > o o x B V V V V V V V V ",
"l l 4 4 4 4 l 4 l l l l l l l l l l l l l l l l l l l l l l l 4 4 x 4 4 4 4 4 4 3 3 3 3 4 4 4 l 4 4 4 4 3 3 2 > 6 8.q.q.q.4.&.&.$.$.$.#.@.+.O.@.#.#.+.X.X.X.+.#.#.,.,.,.#.@.@.O.O.@.@.@.@.@.@.,.,.,.,.,.:.:.L N V N N N N V V N N v V V V V V V V V V A V V V V V 7 T T I I U U U K K g i 5 & $ O X ; 5 i i i i i i i 5 : ; 6 f K K K K K K i i i i i i i i i i i i i i i i i i i i i i i i i i i i i i i p p p p p p p b b n n g p n n b b b b p n b b b p p p p p p p p p p p p p p p p p p p i p p p i i i p p p K n p p p p p p p p p p p p p p p p p p p p p p p p p i p i i i i i i i i i i i p i p b b b K K g p i i i i p p i i i i i i i i i i i i p p p p p p p p p p p p b b n n K K p p p p p i p p p p p p p p p p i i p g i i i i i : & 5 i g g K K K p i 5 & # # $ & 5 5 5 5 5 t 5 5 5 5 5 5 C S S S S S S S S S S S S S S S V S N V C V A A V V V V N V V V V V V V V V V V N V V x l x f 8.8.8.8.,.,.#.#.$.4.,.+.O.O.@.@.:.:.:.O.X.a e h h d d d d d d d d d d d h h 9 N V V N V N x x + o + 9 B B C A C V B V B 3 o   7 3 x V N N V N V V N V ",
"l l 4 4 4 4 4 4 l l l l l l l l l l l l l z z l l l l l 4 4 4 4 l x 4 4 4 3 4 4 4 3 3 4 4 4 4 4 4 4 4 4 3 2 3 > > : q.q.4.4.&.$.$.$.$.$.@.@.@.@.#.+.O.X.X.X.+.#.$.,.,.,.#.@.O.O.O.X.X.O.@.#.,.,.#.@.,.8.:.8.L N V V v N N V N N V V V V V V V V V V V V C V V V V 9 T T T T T T T K K i 6 : & X . $ : 5 t p p i i i i t ; & 5 i i i i i K g g g p p i i p i i i i i i i i i i i i i i i i i i i i i i i i p p p p p p p p p p p p p p p p p p p p p p p p p i i i i i i i i i i i i i i i i p p p p p p p p b b b b n n K K b b g g b b b b b p p p p p p p n n b b b p p p p p p p p p p p p p i i i i i i p p p p p p p p p p p p b b n n n n n n b b b K g p g g g p p p p p p p n n n n n p p p p p p p i i i i i i i i i i i i g g g g i i i : & 5 i i g K K b i i 5 $ O O $ & 5 5 5 i 5 5 5 5 5 5 & ; C S S S S S S S S S S S V S S S S S Z A V V A A V V V V V N V V V V V V V V V V V V N V N x f $.,.,.,.,.,.#.+.#.$.#.+.O.O.@.,.,.,.:.+.O.X.X.X.X.h O.h d d e d h h h h h h 6 N V N V V V N V B x + o     o o o o o > > 7 K 2 3 c V v N N V V V N N V ",
"l 4 4 4 4 4 4 l l l l l l l l l l l l l l l l l l l 4 4 l l l l l l l 4 4 4 4 4 3 3 4 4 4 4 4 4 4 4 l 4 4 3 3 > > @ :.q.4.q.&.$.$.$.$.#.@.O.O.@.@.O.X.X.X.X.X.#.,.,.,.#.@.O.O.O.O.O.O.X.O.#.,.,.$.@.8.8.8.8.L N x N N V N N N V V V V V V V V V V V V V V V V V V 3 L T L L T T T K K i 6 : & X . & : 5 t p p i i i i t ; & 5 i i i i i g g g g g p p i p i i i i i i i i i i i i i i i i i i i i i i i i p p p p p p p p p p p p p p p p p p p p p p p p p i i i i i i i i i i i i i i i i p p p p p p p p n b b b b n n n b n K g b b b b b p p p p p p p n b n n b p p p p p p p p p p p p p i i i i i i p p p p p p p p p p p b b b n n n n K K b b b K K g g g g g g g p p g g n n n n n p i i i i i i i i i i i i i i i i i i g g g g g g i : & 5 i i p K K b i i 5 $ O O $ & 5 5 t i t 5 5 5 5 5 : ; C S S S S S S S S S S S S V S S S S S V A A A V C V V V V V V V V V V C V V V N V V N N x l f ,.,.,.,.,.,.+.+.,.,.#.+.X.+.,.,.,.,.,.@.O.X.X.X.X.O.O.h d d d h O.h h h g j 6 x V V N N N V V V N N N 9 o o , > , 7 B B , o + x V N N N N V V V N N N ",
"l l 4 4 4 4 l l l l l l l l l l l l l l l l l l l l l l 4 l l l 4 4 4 4 4 4 3 3 4 3 3 4 4 4 4 4 4 4 4 4 3 3 3 2 , > ! q.4.4.$.$.$.$.$.@.O.O.O.O.X.X.X.d d d X.+.#.#.#.#.+.O.X.X.O.@.O.O.O.#.,.,.$.#.@.@.8.8.W x N N N N V N N N V N N V V V V V V V V V V V V V V 3 L T L T T T T P g i 6 : & X . $ : 5 i p p i i i i t ; & 5 i i i f f f f i i i i i i i i i i i i i i i i i i i i i i i i i i i i i i i p p p p p p p p p p p p p p p p p p p p p p p p p i i i i i i i i i i i i i i i i i p p p p p p p b n K b b b n n n n K n b b b b b p p p p p p p b b n b b p p p p p p p p p p p p p p p i i i i p p p p p p p p p p p p b b K K K n n n b n n K g g g g g g g g p p g p g K b b b p i i i p i i i i i i i i i i i i i i p p g g g g i 5 & 5 i i i K K p i i 5 & # # $ & 5 5 t i t 5 5 5 5 5 : ; V S S S S S S S S S A S S S S S Z S V V V V V A V V V V V V V V V V V V V V V V V N N N N x f ,.$.,.,.,.#.+.+.$.,.$.O.X.#.,.8.q.8.,.,.@.X.X.X.X.O.O.h h d d O.O.O.h d e h 6 4 V V V N V x N N V V V B , c L L > o + > , o 9 C V V N N V V V N N N N ",
"4 4 l 4 4 4 l l 4 l 4 l l l l l l l l l l l l l l l l l 4 4 l 4 4 l 4 4 4 4 4 4 3 4 4 3 3 4 4 4 4 4 4 4 4 4 3 3 2 > P 8.q.4.$.$.$.$.@.@.O.X.X.X.X.X.X.d d d X.O.#.#.#.#.@.X.X.X.O.@.#.@.O.#.$.,.,.$.#.8.8.8.Q x x N N z N N V N V N N V V V V V V V V V V V V V V 3 L T L L T T T P g i 6 : & X . $ : 5 i p p i i i i t ; & 5 i i i f f f f p p i i i i g i i i i i i i i i i i i i i i i i i i i i i i i p p p p p p p p p p p p p p p p p p p p p p p p p i i i i i i i i i i i i i i i i i p p p p p p p b n n n b b n n b b n n b b b n b p p p p p p p b b n n b p p p p p p p p p p p p p p p i i i i p p p p p p p p p p p p b b K K K n n n b b n K g g g g g g g g p g g g g n b b b p i i i i i i i i i i i i i i i i i i g p i i g g i 5 & 5 i i p K K p i i 5 & # # $ * 5 5 t i t 5 5 5 5 5 : ; V S S S S S S S S S S S S S S S S V V V C V V C V V V V V V V V V V V V V V N V N V N V x N f :.,.,.,.,.#.X.+.#.$.#.O.X.#.,.8.q.q.8.,.@.O.O.X.X.O.O.O.h h h O.:.O.h d e h y 9 V N N N N N N V V V V B > + @ > > > > o o o o 3 x V N N N N V N N N N ",
"l 4 4 4 4 4 l l 4 4 4 4 l l 4 4 4 4 4 l l l l l l 4 4 4 4 4 4 4 4 4 4 4 4 4 4 4 3 4 4 3 4 4 4 4 4 4 4 4 4 3 2 2 2 2 y ,.8.&.$.$.$.#.@.O.O.d d d e e d d d d X.O.#.#.@.@.O.X.X.X.O.#.,.#.@.@.#.$.,.,.,.8.8.8.:.9 x N x z N N N N V V V V N V V V V V V V V V V V V 4 L T L L L L T K g i 6 : & X . & : 5 i p p i p p i t : & 5 i i i g f p p i p p p g g g p i i i i i i i i i i i i i i p p i i i i p p p p p p p p p p p p p p p p p p p p p p p p p p p p i i i i i i i i i i i i p p i i i p p p p p p p b b n n n n n n n n n n b b n n n p p p p p p p n n n K b p p p p p p p p p p p p p p i p i i p p p p p p p p p p p p p b b K n n n n b b b n g g g g g g g g g g g g p n n n n b p i i i i i i i i i i i i i i i i i i g p i i i p i : & 5 i i p K K g i i 5 $ O O $ & 5 5 t i t 5 5 5 5 5 : ; N S S S S S S S S Z S S S S S S S S C V V V V V V V V V V V V V V V V V V V V V N V N N x x K :.,.,.#.,.+.X.+.$.,.#.O.O.@.,.8.8.8.8.,.@.O.O.O.O.@.O.O.d h h -.:.:.O.h d g g x N M N N N N N V V N V B > > 3 x c c 9 > + o   o x V N N V N N N N N N ",
"4 4 4 4 4 4 l l 4 4 4 4 l l 4 4 4 4 4 4 l 4 l l 4 4 4 4 4 4 4 4 4 4 4 4 4 4 4 4 4 4 4 4 4 4 4 4 4 4 4 4 4 4 3 3 3 2 O Y 8.&.$.$.$.#.O.O.X.d d e e e e d d d X.O.#.,.#.@.@.O.X.X.O.$.,.,.#.@.#.,.,.8.8.8.8.8.:.Q N x x N V N V N V V V V V V V V V V V V V C V V V 4 L T L L L L T K g i 6 : & X . & : 5 i p p i p p i t ; & 5 i i i g g p p p p p p g g g i i i i i i i p p p p p p p p p p p p i p p p p p p p p p p p p p p p p p p p p p p p p p p p p p i i i i i i i i i i i i p p i i i p p p p p p p b b n g n n n n n b p n b b n n n p p p p p p p b n n K n p p p p p p p p p p p p p p p p p i p p p p p p p p p p p p p n n n n b b n n n b b g g g g g g g g g g g g p K K n n b p i i i i i i i i i i i i i i i i i i p p i i i p i : & 5 i i p K K p i i 5 $ O O $ & 5 5 t t t 5 5 5 5 5 : ; N V S S S A A S S S V S S V V V S V V V V V V V V V V V V V V N V V V V V V V N V V V N x x c 1.,.,.@.,.#.X.+.4.4.#.+.O.@.,.,.8.,.,.,.@.O.O.X.O.@.O.h d h O.:.:.:.O.h e e f B v N N V N N x N N V V C x x x N N N N c x x > + x V V V V V V V N N N ",
"4 4 4 4 4 4 4 4 4 4 4 4 4 l l 4 4 4 4 4 4 4 l l 4 4 4 4 4 4 4 4 4 4 4 3 4 4 4 4 3 3 4 4 4 4 4 4 4 4 4 4 4 3 3 3 3 2 O h $.$.$.$.$.@.O.X.X.d d d d d X.X.X.X.O.O.#.,.,.@.@.O.X.X.O.@.,.8.$.@.@.#.,.8.,.,.,.,.8.Q N x x N N V V V V V V V V V V V V V V V V V V V V 4 L W R T L L P K g i 6 : & X . & : 6 i i p i i i i t 5 ; 5 i i i g i p g g g p p p g p p i i i i i i p p p p b p p p p p p p g g g g p p p p p p p p p p p p p p K K K K K K K n n p i i i i i i i i i i i i i i i i i i p p p p p p p p p p p p p p p p p p p p p p p p p p i i i i i i p p p p p p b b K K b p p p p p p p i i i i i i p p p p p p p p p p p p n n b b b b n b b b b p p g g g g p p p p p p p p p p p p p i i i i i i i i i i i i i i i i i i p p p p p p i : & 5 i i p K K p i i 5 $ O O # & 5 5 t i t 5 5 5 5 5 & ; B V C S A A S S S S S V V Z V V V V V V N V V V V V V V V V V V V V V V V V V V V V V N V N x 8 :.@.@.,.#.o.+.4.4.#.+.+.#.,.,.,.,.,.:.@.O.X.O.@.@.O.O.h h O.@.:.:.h h e p f B N N V N N N N N N N V V N N N N N N N N V x N V V N N V N V N N N N N ",
"4 4 4 4 4 4 4 4 4 4 4 4 l l l 4 4 4 4 4 4 4 4 4 4 4 4 4 4 4 4 4 4 4 3 3 4 4 4 4 4 4 4 4 4 4 4 4 4 4 4 4 3 3 3 3 3 > o j $.$.#.#.#.@.O.X.X.X.X.O.O.O.O.O.O.O.O.@.,.,.,.,.@.@.O.X.O.#.,.8.,.#.+.#.,.8.,.,.8.,.8.! x x x v V V V N N N V V V V V V V V V V V V V V V 4 L W R T T T T K g i 6 : & X . & ; 5 i p p i i i i t 5 ; 5 i i i g i p p p g p p p p p p p i i i i i p p p p b p p p p p p p K n K K b p p p p p p p p p p p p p g K K K K K K n n p i i i i i i i i i i i i i i i i i i p p p p p p p p p p p p p p i i i i p p i i i i i i i i i i i i p p p p p p b b n n b p p p p p p p p i i i i i p p p p p p p p p p p p n n b n b b n b b b b p g g g g g p p p p p p p p p p p p i i i i i i i i i i i i i i i i i i i p p p p p p i : & 5 i i p K K K i i 5 $ O O # & 5 5 t i t 5 5 5 5 5 * ; x V V S C C Z V Z S V V S Z V V V V V V V V V V V V V N N V N V V V V V V V V N V V V V v x x 2 :.@.@.@.+.+.+.4.4.#.+.+.#.,.,.8.8.,.:.O.X.h X.O.O.O.h h h @.:.:.-.h h e y f 9 N N N N N N N V N N N N V V V V N N N N N N V V V N V V V N N N N N N ",
"4 4 4 4 4 4 4 4 4 4 4 4 4 l 4 4 4 4 4 4 4 4 4 4 4 4 4 4 4 4 4 4 4 4 4 4 4 4 4 4 4 4 4 4 4 4 4 4 4 4 4 4 4 3 4 3 2 2 + f @.#.$.#.@.O.O.X.d h O.O.O.O.O.O.O.O.O.@.#.,.,.,.,.#.O.X.O.#.,.q.q.$.@.#.$.,.,.,.,.,.,.! x x N x N V N N V N V V V V V V V V V V V V V C V 4 L W R T T T T K K i 6 : & X . $ ; 5 i p p i i i i t 5 & 5 i i i i i p p p p p p p p p p p i i i i i p p p p b p p p p p p p n n b b b p p p p p p p p p p p p p b b b b b K K n b p i i i i i i i i i i i i i i i i i p p p p p p p p p p p p p p p i i i i p p i i i i i i i i i i i i p p p p p p b b b n b p p p p p p p p p i i p i p p p p p p p p p p p b b b n n K K K K b b n p g g g g p p p p p p p p p p p p p i i i i i i i i i i i i i i i i i i i p p p p g p i 5 & 5 i i p K K p i i 5 $ O O # & 5 5 t t t 5 5 5 5 5 & ; x V S S A C V Z Z S S V V Z V V V V V V V V V V V V V V N V V N V V N V V N N V N N V N V N x > :.@.@.O.O.o.$.4.4.#.#.#.,.,.8.8.8.,.@.O.e e d d h h h h O.@.@.@.O.h h e w y 9 V N N N N N V N V V N N N N N N V N N V N N N N V V N V V N N N N N N ",
"4 4 4 4 4 4 4 4 4 4 4 4 4 4 4 4 l l 4 4 4 4 4 4 4 4 4 4 4 4 4 4 3 3 4 4 4 3 4 4 4 4 4 4 4 4 4 4 4 4 4 4 4 4 4 4 3 3 > f @.#.+.#.O.O.O.X.d h O.O.O.@.@.O.O.O.O.@.,.,.,.,.,.,.@.O.O.#.,.q.q.,.#.#.,.,.,.,.,.,.8.>.x x x N N N N N V V V N N V V V V V V V V V V V V 3 L W R T T T T K K i 6 : & X . & : 6 i p p i i i i t 5 ; 5 i i i i i i p p p p p p p p p p i i i i i i p p p b p p p p p p p b b b b b p p p p p p p p p p p p p p p b b b K K b b p i i i i i i i i i i i i i i i i p p p p p p p p p p p p p p p p i i i i p p i i i i i i i i i i i i p p p p p p b b n n b p p p p p p p p p i i i i p p p p p p p p p p p p b b n K K K K n n n n p g g g g p p p p p p p p p p p p p i i i i i i i i i i i i i i i i i i i p p p p g g i : & 5 i i p K K p i i 5 $ O O # & 5 5 t t t 5 5 5 5 5 & ; 9 V S S C V V V V Z V V V Z S S V V S V N N V V V V V V V N V N N N V V V N V N V V V x V x x 2 >.:.@.O.O.o.$.4.4.,.#.#.,.8.q.8.,.,.@.d e e e d d d h O.@.@.:.@.O.h d w y y 7 N N N v N N N N N x N N N N N N N N V V V V V V V V V V N V N N N N N ",
"4 4 4 4 4 4 4 l 4 4 4 4 4 4 4 4 4 4 4 4 4 4 4 4 4 4 4 4 4 4 3 3 3 4 4 4 4 4 4 4 4 4 l 4 3 4 4 4 4 4 4 4 4 3 4 3 , , > y @.@.O.#.@.O.O.X.X.O.O.O.@.@.@.+.O.O.O.@.,.8.8.8.8.,.@.@.O.#.,.q.q.,.#.#.,.,.,.,.,.,.,.:.x x x x N N N V N V V V V V V V V V V V V N V V N 3 L W R T T T T K K i 6 : & X . & : 6 y i p i i i i t : ; 5 i i i g g g g g g g g g g g p i i i i i i p p p p K K p p p p p p b b b b b p p p p p p p p p p p p p p p p p p p K b b p p i i i i i i i i i i i i i p i i i i p p p p p p p p p p p p p i i i i i i i i i i i i i i i i i i p p p p p p b b b b b p p p p p p p p p i i i i p p p p p p p p p p p b K K b b b b b b n n n p g g p p p p p p p p p p p p p p p i i i i i i i i i i i i i i i i i i i i i g g g g i : & 5 i i p K K p i i 5 & O O # & 5 5 t t t 5 5 5 5 5 ; ; 9 N S S V A V V V S V V N V V V V N N V V V V V C V V V V V N N V V V V V V N V V N V N N x l 2 >.:.@.X.X.X.$.4.4.,.#.#.,.,.,.8.,.,.@.h e e e e e d d h @.@.:.:.@.h d w y 6 3 z N N N N x v N N N N N V N N N N N N N N N N N N V V N N N N N N N N ",
"4 4 4 4 4 4 4 4 4 4 4 4 4 4 4 4 4 l l 4 4 4 4 4 4 4 4 4 3 3 3 3 4 4 4 4 4 4 4 4 4 4 4 4 4 4 4 4 4 4 4 4 3 4 3 3 , 2 3 f @.@.@.@.@.O.O.O.O.O.@.@.@.#.#.@.@.O.O.@.,.8.8.q.8.8.,.@.@.#.,.q.q.4.#.#.#.,.,.,.,.,.,.:.x x x N N N V V V V V V N V N V V V V N V V V V V 3 T W R T T T P K K i 6 : & X . & : 6 y i i i i i i t : ; 5 i i i g g g g g g g g g g i p i i i i i i p p p p b p p p p p p p b b b b n p p p p p p p p p p p p p i i i i i p K b b p p i i i i i i i i i i i i i p i i i i p p p p p p p p p p p p p p p p p p i i i i i i i i i i i i i p p p p p p b b b b b p p p p p p p p p i i i i p p p p p p p p p p p b K K n n b b n n K K n p g g p p p p p p p p p p p p p p p i i i i i i i i i i i i i i i i i i i i i g g g g i : & 5 i i p K K p p i t & # # # * 5 5 t t t 5 5 5 5 5 ; ; 7 N V S S A Z Z Z V V V V V V V V N N N V V V N V V V N V N V V V N V N V V N N N N N N N x x 3 >.@.O.X.X.X.,.4.4.,.#.#.,.,.,.,.,.@.@.O.d d e e e d d h @.:.:.:.@.h d w y ; l x N N N N N x x x x v N N N N V N N N N N V N N N V V V V N N N M N v ",
"3 4 4 4 4 4 4 4 4 4 4 4 4 4 4 4 4 4 4 4 4 4 4 4 4 4 4 4 3 3 4 3 3 4 4 4 3 4 4 4 4 4 4 4 4 4 4 4 4 4 4 4 4 4 3 2 , , 2 6 j @.O.O.@.@.@.O.O.O.@.,.,.,.,.,.,.#.@.O.,.q.r.r.r.q.,.,.#.,.4.q.q.4.,.$.$.$.,.,.$.$.,.:.9 x x x v v N N N V N N V V N V V V V V V V V V V 7 L L L K K K g g p y 5 : & X X & : 6 y i i i i i i 5 & ; 5 i f i i i i i i i g g p p i i i i i p i i p p i i p p p p p p p p p p p p p p p p p p p p p p p p i i i i i i i i p p i i i i i i i i i i i i i i i i i i i i i i i i i i i i g g g p g i y y y y y y i i i i i i i i i i p p p p p p p p p p p p p p i i i i i i i i i i i i i i i i i i i i i i i i i i p p p p p p p p i i i i u i i i i i i i i i i i i i i i i i i i i i i i i i i i i i i i i i i i i i p p i : & 5 i i n K K n p i t & # # & * 5 5 t t t 5 5 5 5 5 : ; 9 V Z Z S Z S S V V V V V V N V V V N V V V V V V V V V V x N N N N N N N N x V V V N N x x z 2 >.@.O.X.X.X.$.,.,.,.#.#.,.,.,.,.,.@.O.O.d d e e e d d @.@.:.,.:.O.h w e f 8 z z x N v V v v x x v x N N N N V N M N N V V N N N V N N N N N N M M N ",
"4 4 4 4 4 4 4 4 4 4 4 4 4 4 4 4 4 4 4 4 4 4 4 4 4 4 4 4 4 4 4 4 3 3 4 4 4 4 4 4 l l l 4 4 4 4 4 4 4 4 4 4 4 3 2 2 2 > ; j @.O.@.@.@.@.@.@.@.@.,.,.q.q.8.,.,.,.+.#.q.r.r.r.r.q.,.,.,.4.4.q.q.4.$.#.+.#.$.$.$.$.@.f x x x N V N N N V V V V N V N V V N N V V V V V 7 L L K K K g g p p y t : & X X & : 6 y i i i i i i 6 ; ; 6 i g i i i i i i i i i i i i i i i i p p i p g p i i i p p p p p p p p p p p p p p p p p p p p p p i i i i i i i i p i i i i i i i i i i i i i i i i i i i i i i i i i i i i i p u u u g y y y y y y y i i i i i i i i i i p p p p p p p p p p p p p p i i i i i i i i i i i i i i i i i i i i i i i i i i i i i i i i p p i i i i i i i i i i i i i i i i i i i i i i i i i i i i i i i i i i i i i i i i i i p p i : & 5 i p n K P K p u t & # # & * 5 5 t t t 5 5 5 5 5 : : 9 N Z A Z V Z S Z V V V V V V V V V V N V V V V V V V N V N x N N V N V V V N V N N N x x x x 2 :.@.O.X.X.+.,.4.,.#.#.,.,.,.,.,.#.+.O.O.X.e e e e e d O.@.,.,.:.O.d d d y 9 N N V V N x x N x v x x N N N N N N N N N N N N N N V N N N N N N N N N ",
"4 4 4 4 4 3 3 3 4 4 4 4 4 4 4 4 4 4 4 4 4 4 4 4 4 4 4 4 4 4 4 4 3 3 4 4 4 4 4 4 l 4 4 4 4 l 4 4 4 4 4 4 4 4 4 3 3 > + O $ O.O.@.@.@.,.,.,.,.,.,.q.q.q.q.8.q.,.+.@.8.r.r.r.r.q.q.4.4.q.q.q.q.4.,.+.o.O.#.$.$.,.@.U B z x x N V N N N N V V N N V V N V V V V V N V 7 L L L K K K g g p i t : & X X X ; 6 f i i i i i i 6 & & 6 i g i p p i i i i i i i i i i i i i i p p p p i i i i p p p p p p p p p p p p p p p p p p i i i i i i i i i i i p p i i i i i i i i i i i i i i i i i i i i i i i i i i i i i u u u f u y y y y y y y i i i i i i i i i i p p p p p p p p p p p p p p i i i i i i i i i i i i i i i i i i i i i i i i i i i i i i i i i i i i i i i i i i i i u u i i i i i i i i i i i i i i i i i i i i i i i i i i i i i i i i i : & 5 i p n K P K p u t & # # & * 5 5 t t t 5 5 5 5 5 5 : 6 N S S Z Z A S A V V V Z V V V V V V V N V V V V V V V N N N N N N N V V x x V N V N N x x l > ! @.O.O.X.#.,.,.,.#.,.,.,.,.,.,.,.+.O.@.O.d e e e e d O.@.:.:.@.O.d d w y 9 v x N N v x x V x z v z N N N V V N N N v N N N N N N N N N N N N v N N ",
"4 3 3 4 4 4 3 3 4 4 3 4 4 4 4 4 4 4 4 4 4 4 4 4 4 4 4 4 4 4 4 4 3 3 4 4 4 4 l 4 l 4 4 4 4 4 4 l 4 4 4 4 4 4 4 3 3 > > + & O.O.+.@.,.8.q.8.,.8.q.q.q.q.q.q.q.,.@.@.,.r.r.r.r.r.q.q.q.q.q.q.q.q.4.#.X.X.+.$.$.$.@.! C x x x v N N N N N N N N V V V V V V V V V V V 3 L L L K K K g p p y t : & X X X ; 6 i i i i i i i 6 & & 6 i g i p p i i i i i i i i i i i i i i p i p p i i i i p p p p p p p p p p p p p p p p p p i i i i p i i i i i i p p i i i i i i i i i i i i i i i i i i i i i i i i i i i i p u u u u f y y y y y y y i i i i i i i i i i p p p p p p p p p p p p p p i i i i i i i i i i i i i i i i i i i i i i i i i i i i i i i i i i i i i i i i i i i u u u i i i i i i i i i i i i i i i i i i i i i i i i i i i i i i i i i : & 5 i p n K K K p u t & # # & * 5 5 t t t 5 5 5 5 5 5 : 6 N A A A A A A V V V N V V V V V V V N V V V V V V V V V N N V V V V V V z x V V V N V x z x 2 Y @.O.X.X.#.,.4.,.,.,.,.4.,.,.,.#.+.+.@.O.X.e e e e h O.@.:.:.@.O.d d d y 9 x x v N x x V V v z x N N N N N V N N N N v v N N N N N N N N N N N v v ",
"4 4 4 4 3 4 4 4 3 4 4 4 4 4 4 4 4 4 4 4 4 4 4 4 4 4 4 4 4 4 3 3 3 3 4 4 4 4 4 4 4 4 4 l l 4 4 l l 4 4 4 4 4 4 4 3 > > + X @.O.O.@.,.q.r.r.q.r.q.q.q.q.q.q.8.,.O.@.,.q.r.r.r.r.r.r.r.q.r.r.r.q.q.$.+.+.#.$.$.#.$.Q L x x x x x N N N V V N N N N N x V V N V V V N 3 L L L K K K g p p i t : & X X & ; 6 i i i i i i i 6 ; & 5 i g i i p i i i i i i i i i i i i i i p i i i i i i i p p p p p p p p p p p p p p p p p p i i i i p p i i i i i p p i i i i i i i i i i i i i i i i i i i i i i i i i i i i p f f g f f y y y y y y y i i i i i i i i i i p p p p p p p p p p p p p p i i i i i i i i i i i i i i i i i i i i i i i i i i i i i i i i i i i i i i i i i i i i u u i i i i i i i i i i i i i i i i i i i i i i i i i i i i i i i i i : & 5 i p n K K n p u t & # # & * 5 5 t t t 5 5 5 5 5 5 : 6 c Z A A V A V V V V V N V V V V V V x N V V V V V V V V V N V V N V N V N V V V N N N x x l 3 h @.O.X.X.#.$.4.,.#.,.,.,.,.,.,.#.#.+.#.+.X.e e e e h @.@.@.O.O.h d d w y x z z x N x x V V N x N N N N N N N N N N z z N N N N N N N N N N N v x x ",
"4 4 4 4 3 4 4 4 4 4 4 4 4 4 4 4 4 4 4 4 4 3 3 3 4 4 4 3 3 3 3 4 4 4 3 4 4 4 4 4 4 4 4 4 4 4 4 4 l 4 4 4 4 4 4 4 3 > > > @ h O.O.@.,.q.r.r.r.r.q.q.4.q.4.,.,.@.O.@.8.q.r.r.r.r.r.r.r.q.r.r.r.r.r.q.,.#.$.$.$.$.$.@.L x x x l N N N V V V V N N N V V V V N N V V V 7 L L L K K K g p p y t : & X X & ; 6 i i i i i i i 6 & & 5 i g i i i i i i i i i i i i i i i p i i i i i i i i i p p p p p p p p p p p p p p p p p p i i i i i i i i i i i p p i i i i i i i i i i i i i i i i i i i i i i i i i i i i p u f g f f y y y y y y y i i i i i i i i i i p p p p p p p p p p p p p p i i i i i i i i i i i i i i i i i i p p i i i i i i i i i i i i i i i i i i i i i i i i u u i i i i i i i i i i i i i i i i i i i i i i i i i i i i i i i i i : & 5 i p n K K n p u t & # # & * 5 5 t t t 5 5 5 5 5 5 : 6 c A V V V C C V V V V V V V V V V C N N N V V V V V V V N V V N N V N V N V x V V N v z l l 2 h O.O.X.X.#.$.4.#.#.#.#.,.,.,.,.,.#.#.,.#.X.e e e e O.@.@.O.X.X.d d d w 6 4 x x x N N x x V x x N N N N N N N N N z N N N N N N N N v N v v N N N x ",
"4 4 4 4 4 4 4 4 4 3 4 4 4 4 4 4 4 4 4 4 4 3 3 4 4 4 4 3 4 4 4 4 3 3 3 4 4 4 4 4 4 4 4 4 4 4 4 4 4 4 4 4 4 4 4 4 3 2 > 2 + k O.O.+.#.8.r.r.r.r.q.4.,.,.,.#.#.O.X.O.,.q.r.r.r.r.r.r.r.r.r.r.r.r.r.r.4.$.$.$.,.$.$.@.Q l x N x N N N N V N V V V V V x N N V V V V V 7 L L K K K g g g p i t : & X X & ; 6 f i i i i i i 6 ; ; 5 i i i i i i i i i i i i i i i p i i i i i p p i i i i p p p i i i i i i i i i i i i i i i i i p p i p p p p p p p p i i i i i i i i i i i i i i i i i i i i i i i i i i i i y y y y y y y y y y y y t y i i i i i i i i i i i p p p p p p p p p p p p i i i i i i i i i i i i i i i i i i i i i i i i i i i i i i i i i i i i i i i i i i i i u u i i t t t t t t i i i i i i i i i i i i i i i i i i i i i p p i i : & 5 i p n n n n n p t & # # & * 5 t t t t 5 5 5 5 5 5 : 6 x C V V C C V N V V V C V V V V V N x V V V V V V N N V V N N N V V V N N V V V V V x z x 4 2 h O.O.X.X.#.$.#.#.#.#.#.,.,.,.,.#.,.#.#.#.+.X.e e X.@.@.@.@.X.X.d d d g ; l x z x x x x x x N x x v N N N N N N N N N N N N N N N x v N N v v x v N ",
"4 3 3 4 4 4 4 4 4 4 3 4 4 4 4 4 4 4 3 4 3 4 4 4 3 4 4 4 4 3 3 3 3 4 4 4 4 4 3 4 4 4 l l l 4 4 4 4 4 4 4 4 4 4 4 3 2 , > + h h O.O.#.,.q.r.r.t.r.q.,.,.,.#.+.O.X.O.8.q.r.r.r.r.r.r.r.r.r.r.r.r.r.r.q.$.$.$.$.$.$.@.U 4 x z N N N N N N N N N N N N V V N N V V V V 7 L L L K K g g g p i t : & X X & ; 6 f i i i y t i 6 ; ; 5 6 i i i i i i i i i i i i i i p i i i i i p p p i i i p p p i i i i i i i i i i i i i i i i i p p i p p p p p p p p i i i i i i i i i i i i i i i i i i i i i i i i i i i i y y y y y y y y y y y y t y i i i i i i i i i i i i i i i i i i p i i i i i i i i i i i i i i i i i i i i i i i i i i i i i i i i i i i i i i i i i i i i i i i i i i i i t t t t t t i i i i i i i i i i i i i i i i i i i i i p i i i : & 5 i p n n n n n p t & # # & * 5 t t t t 5 5 5 5 5 5 : 8 c V V V V C V N N V V V V C V N V x N V V V N N V V V V N V N V N N V V V x N V N N x N z x 3 h O.O.X.O.$.#.#.#.#.#.,.,.,.4.,.#.,.,.#.#.#.+.X.X.X.+.@.O.O.X.X.d d d y 2 l v z l x x x x N x x N N N N N N v N N N N N N v N N N V N x x x x z x v ",
"3 3 3 4 3 3 4 4 3 3 4 4 4 4 4 4 4 4 4 4 3 3 4 4 4 4 4 4 4 4 4 3 3 4 4 4 4 4 4 4 4 4 4 4 4 4 4 l 4 4 4 4 4 4 4 3 3 3 , > + k h O.O.@.,.q.r.r.t.r.q.4.,.,.#.+.X.X.+.q.r.r.r.r.r.r.r.r.r.r.r.r.r.r.r.q.4.$.$.,.#.$.$.! 4 x z N N N N N N V N V V N N V V V V N N N V 7 L L L K K g g g p y t : & X X & ; 6 y i i i t t t 5 ; & 5 6 i i i i i i i i i i i i i i i i i i i i p p i i i i p p i i i i i i i i i i i i i i i i i i p p i p p p p p p p p i i i i i i i i i i i i i i i i i i i i i i i i i i i i y y y y y y y y y y y y t y i u u u u i i i i i i i i i i i i i i i i i i i i i i i i i i i i i i i i i i i i i i i i i i i i i i i i i i i i i i i i i i i i i i i i i i i i i i i i i i i i i i i i i i i i i i i i i i p i p p i p i : & 5 i i n n n n n p t & # # & * 5 5 t t t 5 5 5 5 5 : : 6 x V V V V V V V C V V V V V V V N x x N V N V V N V V V N V V V N N V V V x N N V N x x x 9 3 h O.O.X.+.#.#.#.#.#.,.,.4.4.4.,.#.,.4.,.,.#.#.+.} e X.O.O.O.d X.h d d f 4 x x N x x x x x N x x N N N N N N N N N v N N v x N x v N N x x z v x x x ",
"3 3 4 3 3 3 4 4 4 3 3 4 4 4 4 4 4 4 4 3 3 4 4 4 4 4 3 4 4 4 4 4 3 3 4 4 4 4 4 4 4 4 4 4 4 4 4 4 3 4 4 3 4 4 4 4 3 2 > 2 , f d h O.@.,.8.r.t.t.t.r.q.,.,.#.O.X.X.+.q.r.r.r.r.r.t.r.e.r.r.r.r.r.r.r.r.q.$.$.,.,.#.$.:.4 N N N N N N V N N N N N N N V v N V z x N V 7 L L L K K g g g p y t : & X X & ; 6 6 i i i t t t 5 ; & 5 6 i i i i i i i i i i i i i i i i i i i p p p i i i i p p i i i i i i i i i i i i i i i i i i p p i p p p p p p p p i i i i i i i i i i i i i i i i i i i i i i i i i i i i y y y y y y y y y y y y t y i u u u u i i i i i i i i i i i i i i i i i i i i i i i i i i i i i i i i i i i i i i i i i i i i i i i i i i i i i i i i i i i i i i i i i i i i i i i i i i i i i i i i i i i i i i i i i i p i i p p p i 5 & 5 i i n n n n n p t & # # & * 5 5 t t t 5 5 5 5 5 : : 8 x C V V V V C C V V V V V V V V V N x N V V V V V V N V N V V N V N N N v x x N N N l x x l 3 j O.O.X.+.#.#.#.+.#.,.4.4.4.4.4.#.,.4.4.4.4.4.$.X.e X.X.+.O.O.O.O.d j k x z z z x x x x z x x N x z N N N N N N z v v x x x x x x N N x v x x x z x ",
"3 3 3 3 3 3 4 4 3 4 4 4 4 4 4 4 4 3 3 3 4 4 4 4 4 4 4 4 4 4 4 4 4 3 4 4 4 4 4 4 4 4 4 4 4 4 4 4 4 4 4 4 3 3 4 3 3 2 > 2 > y h h h O.,.8.r.r.t.t.r.q.4.,.#.X.X.X.+.q.r.r.r.r.t.t.r.t.t.t.t.t.r.r.r.r.q.$.$.$.,.$.,.>.4 N x x v v v N N N x N N N N N x x 4 x z N V 3 L L L K K K g g p y t : & X X & ; 6 6 i y y i i i 6 ; & 5 6 i i i i i i i i i i i i i i i i p p p p i i i i p p i p i p p i i i i i i i i i i i i i i i i p i p p p p p p p p i i i i i i i i i i i i i i i i i i i i i i i i i i i i y y y y y y y y y y y y t y y u u t i i i i i i i i i i i i i i i i i i i i i i i i i i i i i i i i i i i i i i i i i i i i i i i i i i i i i i i i i i i i i i i i i i i i i i i i i i i i i i i i i i i i i i i i i i i i i i i i i i : & 5 i p n n n n n p t & # # & * 5 5 t t t 5 5 5 5 5 : : 5 B C V V V V A C V V V V C V C V V x N V N V V V V N V N N V N N N N N N N N x N V N x x x x 3 Y @.O.X.+.#.#.#.O.#.,.4.4.4.4.4.#.$.4.4.4.4.4.&.X.X.] X.X.O.O.O.O.h h k l x z x x x x x z x x N N x v N N N N x z N x x c x x l l x N N x x x x z x ",
"3 3 3 3 3 3 4 4 3 4 4 4 4 4 4 4 4 3 3 3 4 4 4 4 4 4 4 4 4 4 4 4 4 4 4 3 4 3 4 4 4 4 3 4 4 4 4 4 4 3 3 3 3 3 3 3 3 2 2 > > ; g h h @.:.8.r.r.t.t.t.r.4.,.#.X.X.X.+.q.q.r.r.r.t.t.t.t.t.t.t.t.t.r.r.e.r.4.$.$.$.,.,.:.3 N v x v x v N N V N N N v N x N x 4 x x N N 3 K L K K K g g g p y t : & X X & ; 6 y y y y i i i 6 ; & 5 6 i i i i i i i i i i i i i i i i g p p p i i i i p p i i p p p i i i i i i i i i i i i i i i i p i p p p p p p p i i i i i i i i i i i i i i i i i i i i i i i i i i i i i y y y y y y y y y y y t t y i u u i i i i i i i i i i i i i i i i i i i i i i i i i i i i i i i i i i i i i i i i i i i i i i i i i i i i i i i i p p p p p p u i i i i i i i i i i i i i i i i i i i i i i i i i i i i i i p i i i i i : & 5 i p n n n n n p t & # # & * 5 5 t t t 5 5 5 5 5 : ; 6 x V V V V V V V V V V V C V C V V V V V V V V V V N N N V N V V V V x x x x x v N N x x x x 3 Q @.O.X.+.#.#.#.X.#.,.4.4.q.q.&.+.&.4.4.4.5.4.%.o.X.X.] X.X.+.O.O.h h f x x z x x x v v z z z N x v z x v N N N N x x x N x 4 4 x v N N x z z z z x ",
"3 3 3 3 4 4 4 4 4 4 3 3 4 4 4 4 3 3 3 3 3 4 4 4 4 4 4 4 3 4 4 4 4 4 4 4 4 4 4 4 4 4 4 4 4 4 4 4 4 4 3 3 3 3 3 3 3 2 > > > @ O $ Y @.@.,.q.r.t.t.t.r.q.,.+.X.X.X.$.q.r.r.r.r.t.t.t.t.t.t.t.t.t.t.t.e.q.4.4.$.$.,.,.:.B x x x x N N N N N N N N x x x x N l x N N V 3 L P k g g g g p y y : : $ $ $ $ : y y y t i i i i 5 & & 5 6 i i i i i i i i i i i i i i i i i i i i p p p p p p i i i i i i i i i i i i i i i i i i i i i i i i i i p i i i i i i i p i i i i i i i i i i i i i i i i i i i i i i i i i i i i i i i i i p p i i i i i i i t t t y y i i i i i i i i i i p p i i i i i i i i i i i i i i i i i i i i i i i i i i i i i i i i i i i i i p b n b n n p p p i i i i i i i i i i i i i i i i i i i i i i p p p i i i i i i i i i t * $ 5 i p K K K b p p t & # # $ & 5 5 5 5 t 5 5 5 5 5 5 : ; x V V V V C V V V V V V V V V V V x V N V V V N N V V V N N N N N N V x N x x v v x x x x x 3 :.@.@.#.#.$.+.o.o.$.4.q.q.q.q.4.o.%.4.w.4.4.4.&.+.} ] ] } X.#.+.O.h h L l x z z x x x x x x x x x N v x x N x x x z x x z x 4 4 x x N x z z z x x x ",
"4 4 3 4 4 4 4 4 3 4 4 4 3 4 4 3 3 4 3 3 3 4 4 4 4 4 4 4 4 4 4 3 3 3 4 3 4 4 4 4 4 4 4 4 4 4 4 4 4 4 3 3 3 3 3 3 3 , > > > o   X U @.@.,.q.r.t.t.t.r.q.,.+.X.X.X.$.q.r.r.t.t.t.t.t.t.t.t.t.t.t.t.t.e.q.4.4.&.$.,.,.:.L N z z x x N v N v N v N v x z x x 4 x N x V 3 g k k g g g g u y y : : $ $ $ $ : y y y i i i i i 5 & & 5 t i i i i i i i i i i i i i i i i i i i p p p p p p p i i i i p i i i i i i i i i i i i i i i i i i i i i p p i i i i i i p i i i i i i i i i i i i i i i i i i i i i i i i i p i i i i i i i p p i i i i i i i t t t y y i i i i i i i i i i i i i i i i i i i i i i i i i i i i i i i i i i i i i i i i i i i i i i i i i p n n b n n p p p i i i i i i i i i i i i i i i i i i i i i i p p p i i i i i i i i i t & $ 5 i K K K K K K p 5 & # # # & 5 5 5 5 5 t 5 5 5 5 5 ; ; 9 V V V V C V V V V V V V V V V V x V V N N N V v V V V N N N V N v x x x v x x N x x l 9 3 3 :.@.#.,.4.4.$.+.+.&.4.q.q.q.w.4.+.+.4.w.w.4.4.&.+.} ] ] } X.#.+.O.h j 9 l x z z x x x v x N z z x x x x x x x x x x x z x z 4 4 x x N N z z z z x x ",
"3 3 3 4 4 3 4 4 3 4 4 4 4 4 4 3 3 4 3 4 4 4 4 4 4 4 4 4 4 4 4 4 4 4 4 4 3 4 4 4 4 4 4 4 3 3 3 3 3 3 3 3 3 3 3 3 3 , > , + o   . k j @.$.q.r.r.t.t.r.q.4.$.X.X.X.$.w.e.t.t.t.t.r.t.t.t.t.t.t.t.t.w.w.r.q.4.&.$.$.,.8.Q x z N N N N x N x N N N v v v x l x x N N V 3 g g g k g f g f y y : : $ $ $ $ : y y y i i i i i 5 & & 5 t i i i i i i i i i i i i i i i i i i i p p p p p p p i i i i i i i i i i i i i i i i i i p p p i p p i i i i i i p p p i i i i i i i i i i i i i i i i i i i i i i i i i i i i i i i i i i i i p i i i i i i i t t t y y i i i i i i i i i i p p p p i i i i i i i i i i i i i i i i i i i i i i i i i i i i i i i i i i i p n n b b b p p p i i i i i i i i i i i i i i i i i i i i i i i i i i i i i i i i i i i & $ 5 i K K K K K K p 5 & O # # & 5 5 5 5 5 t 5 5 5 5 : : ; x V V V V V V V V V V V C V V V V V V V V V N V N V N V N x N N x c x l x x x x x 4 9 9 4 4 2 :.:.$.,.q.q.4.$.#.4.q.e.w.w.w.4.+.%.w.e.w.4.4.%.+.} ] e } o.#.+.+.h y 4 z x N N x x v x x v z x v v x x x x x x v x x z x z x x x x x x x z z z z z ",
"3 4 4 4 4 3 3 3 3 3 4 3 4 4 3 3 3 3 4 4 4 4 4 4 3 3 4 4 4 4 4 4 3 3 4 4 4 4 4 4 4 4 4 4 4 3 3 3 3 2 3 3 3 3 3 3 2 2 2 > + + o . k j @.$.8.q.r.r.t.t.r.4.$.o.X.o.&.w.t.t.t.t.t.t.t.t.t.t.t.t.t.w.q.w.r.q.4.4.4.$.,.,.0.s x x x x v v x x N N N x v x x x x l N x N 2 g g g f g f g f y y : : $ $ $ $ : y y y i t i i i 5 & & 5 t i i i i i i i i i i i i i i i i i i i p p p p p p p i i i i i i i i i i i i i i i i i i p p p p p p p i i i i i p p p i i i i i i i i i i i i i i i i i i i i i i i i i i i p i i i i i i i p p i i i i i i i t t t y y i i i i i i i i i i i i p p i i i i i i i i i i i i i i i i i i i i i i i i i i i i i i i i i i i p n n b b n p p p i p i i i i i i i i i i i i i i i i i i i i i i i i i i i i i i i i i & $ 5 i K K K K K p i 5 & O O $ & 5 5 5 5 5 t 5 5 5 5 : ; ; 9 V V V V V V V V V V V V V V V C x V V V V V V N V V v V N x x x x x l x x c x x 4 9 9 9 3 2 :.:.#.,.q.q.q.,.4.q.e.e.e.e.e.4.%.4.e.e.w.4.4.%.+.} ] e } o.#.#.O.h i l x x x x x x x x x x x z x x v x x x x x x z x x x l x x z x z z z z z z z z ",
"3 4 3 3 4 3 3 4 3 4 4 4 3 4 3 3 3 4 4 3 3 3 3 3 3 3 4 3 3 3 4 3 4 4 3 4 4 4 4 4 4 4 3 3 3 3 3 3 3 3 3 3 3 3 3 3 2 > > > > > + o P @.@.$.$.q.r.r.r.r.r.q.&.o.o.o.q.t.t.t.t.t.t.t.t.t.t.t.t.t.w.q.q.q.q.q.q.q.4.4.,.#.:.6 x x x N v x v N N v x z x x x V l x x x N 2 f k g k g g g g y y : : $ & $ $ : y y y t t t t i 5 & & 5 6 i i i i i i i i i i i i i i i i p p p p p p p p p p i i p p p i i i i i i i i i i i i i p p i i p p i i i i i i p p i i i i i i i i i i i i i i i i i i i i i i i i i i i i p p p p i i i i i i i i i y i i i t t t y y i i i i i i i i i i i i i i i i i i i i i i i i i i i i i i i i i i i i i i i i i i i i i i i i i i n n b b n p p p p p p p i i i i i i i i i i i i i i i i i i i i i i i i i i i i i i i & $ 5 i K K K K K K i 5 $ O O $ & 5 5 5 5 5 5 5 5 5 5 5 ; ; x V V V V V V V V V V V V V V V N x V V N V V v N V V x x x x x x c x x x x x x 9 x 9 3 4 4 2 :.@.$.,.q.q.q.4.4.q.e.e.e.e.e.w.&.4.e.e.w.4.&.%.+.} ] ] X.+.#.+.O.O.i x z x z x x z z z x z z x x x x z z x x N x z x z x x l z z z z z z z x z z z ",
"3 3 3 3 4 3 4 4 3 3 3 4 3 3 3 3 3 3 3 3 4 4 3 3 3 3 3 3 4 3 4 4 4 3 4 4 3 4 4 4 4 4 4 2 3 3 3 2 2 3 , , 3 2 2 , , > > > + > + o f j @.$.$.q.q.q.q.q.r.w.4.+.o.%.w..XoXt.t.t.t.t.t.t.t.t.t.t.r.7.&.q.q.r.q.q.q.q.,.$.:.s l x x x v x N x x v N N x x x x x l x x x 2 f k g f g g g g y t : : $ & $ $ : t y y t t y y i 5 & & 5 6 i i i i i i i i i i i i i i i i i p p p p p p p p p i i p p p i i i i i i i i i i i i i p i i i p p i i i i i i p p i i i i i i i i i i i i i i i i i i i i i i i i i i i i i p p p p i i i i i p i y y i i i y t t y y i i i i i i i i i i i i i i i i i i i i i i i i i i i i i i i i i i i i i i i i i i i i i i i i i i b b n n n p p p p p p i i i i i i i i i i i i i i i i i i i i i i i i i i i i i i i i : & 5 i K K K K K K i 5 $ O O $ & 5 5 5 5 5 5 5 5 5 5 5 : ; x V V V V C C V V V V V V V V V V V V N N v V V V N V N l x x x 4 x l 3 4 4 x l 4 3 2 3 4 4 2 8.@.$.8.q.q.q.q.q.r.e.e.e.e.e.w.4.w.e.w.w.4.&.%.o.} ] ] X.+.,.,.-.O.i z x x x z z x x x x z x z x x x x x x x z z x x x x z x l z x z z x z l x z z ",
"3 4 4 3 3 3 3 4 3 3 3 3 3 3 3 4 4 4 4 3 3 3 3 4 3 3 3 3 4 4 3 3 3 3 3 4 4 4 4 4 4 4 3 4 4 4 4 3 3 2 2 2 2 2 , , 2 , , > > > + o   h @.$.,.q.q.q.q.r.e.e.4.+.+.4.e.oXoXoXt.t.e.r.t.t.oXt.t.t.t.7.$.&.q.r.w.q.q.4.,.,.8.E B x x x x N x x v x x N x x v l x x x x x 2 f U g g f g g i t t : : : & $ $ : t t t t t y y i 5 & & 5 6 i i i i i i i i i i i i i i i i i i i p p p p p p p g g g g g i i i i i i i i i i i i i p p i i p p g g g g g g g g g g p i i i i i i i i i i i i i i i i i i i i i i i i i i i p p i i i i i i i i i i y y y u t t y y y i i i i i i i i i i i i i i i i i i i i i i i i i i i i i i i i i i i i i i i i i i i i i i i i i p p p p p p i i i i i i i i i i i i i i i i i i t u u u u i i i i i i i i i i i i i i 5 & 5 i K K K K p b i 5 & . O $ $ & < 5 5 5 5 5 5 5 5 : ; ; x V V V V V V V V V V N V V V V v V v N V V V v v V V V N V N N N x x 4 4 4 4 4 4 3 3 4 9 4 2 :.@.#.,.q.q.q.q.r.e.e.e.e.e.e.w.w.w.|..X|.4.&.%.o.} ] ] o.+.,.,.#.@.f l l x x l x x x x v z x z x x N x x x N x x x z z x l l l x z z x x x l l l z ",
"4 3 3 4 3 4 4 4 3 3 3 3 3 3 3 4 4 4 3 3 3 3 3 3 3 3 3 3 4 4 3 3 3 3 3 3 4 4 4 4 4 4 3 4 4 4 4 3 3 2 2 2 3 2 , , > > , > > > + +   j 8.8.,.4.q.q.q.q.e.e.4.+.+.4.e.oX%XoXt.e.w.w.t.t.oXoXt.t.r.7.$.$.q.r.w.q.q.q.,.,.,.:.L x x x x x x x v N x x x x N z x v x x N 2 f U g g K K g i t t 5 : : & $ $ : 5 t t t i i i i 5 & & : 6 i i i i i i i i i i i i i i i i i i i i p p p p p p g g g g g i i i i i i i i i i i i i p p i i p p p p g g g g g g i p p i i i i i i i i i i i i i i i i i i i i i i i i i i i p p i i i i p p i i i i y y y t t t y y y i i i i i i i i i i i i i i i i i i i i i i i i i i i i i i i i i i i i i i i i i i i i i i i i i p p i i i p i i i i i i i i i i i i i i i i i i u u u u u i i i i i i i i i i i i i i 5 & 5 i K K i p i i i 5 $ . O $ $ & < 5 5 5 5 5 5 5 5 : & ; x V V V V V V V V V V V V V V V v V x x N V N N v v N x N x N x x x l x x x x 4 4 3 3 3 4 3 ; :.@.#.,.q.q.q.r.e.e.e.e.t.e.e.e.w.w.|.|.w.&.%.%.o.} ] ] o.#.,.,.#.@.i l x z z l z z x x x z x x x x x x x x x x z z z x x z z x x z l x x l l l l x ",
"3 3 4 4 4 3 3 3 3 3 3 3 4 4 4 4 4 4 3 4 3 3 4 3 3 3 3 3 4 4 4 3 3 3 3 4 4 4 4 4 4 3 3 3 4 4 3 3 2 2 2 3 3 2 , > > > > > > > > @   f 8.8.,.4.q.q.q.q.r.w.4.+.%.4..X%X%X%XoXt.r.w.e.t.oXoXt.t.t.7.$.$.q.w.w.q.q.q.q.,.,.8.Q x x x x x x v N v x x z x x N x x x x N 2 f P L L K K g i i t 5 5 : & $ $ : 5 t t i i i i i 5 & & 5 6 t i i i i i i i i i i i i i i i i i i i p p p p p p p p i i g i i i i i i i i i i i i i p i i i i p p p g g i i i i i i g i i i i i i i i i i i i i i i i i i i i i i i i i i i p i i i i p p p i i i i y y y t t t y y i i i i i i i i i i i i i i i i i i i i i i i i i i i i i i i i i i i i i i i i i i i i i i i i i i p p i i i i i i i i i i i i i i i i i i i i i i i i i i u i i i i i i i i i i i i i i 5 & 5 i K K i p p i i 5 $ . O $ $ & < 5 5 5 5 5 5 5 5 : & ; 9 V V V V V V V V V V V V V V V V V V x N v N V V N x x V N N N x x x l l x x 9 4 4 3 3 9 9 Q @.@.$.,.q.q.q.r.e.e.e.e..X.X.X.Xw.w.|.|.4.%.%.%.%.} [ X.+.#.,.,.,.@.y 4 x z z l z x x x z z z z z x x x x x z x z x l l l l l z x x z x 3 4 l l l l ",
"3 3 4 4 3 3 3 3 4 3 3 3 4 4 4 4 4 3 3 3 3 4 3 3 3 4 3 3 3 3 4 3 3 3 3 3 4 4 4 4 4 4 4 3 4 4 4 3 2 2 3 2 2 3 2 > > > > > > > > +   : 8.8.8.q.q.q.q.q.q.4.&.o.%.4..X%X%X%X%Xt.e.w.w.t.oXoXoXt.t.q.$.$.q.w.r.r.q.q.q.$.,.8.Q N x x x x v x v v x x x x z x v x x x N 2 f U L L K K g i i i 5 5 5 & $ $ : 6 i i t i i i i 5 & & 5 6 t i i i i i i i i i i i i i i i i i i i p p p p p p i i i i i i i i i i i i i i i i i i p i i i i p p p g g g i i i i i g i i i i i i i i i i i i i i i i i i i i i i i i i i i p i i i p p p p i i i i y y y t t t y y i i i i i i i i i i i i i i i i i i i i i i i i i i i i i i i i i i i i i i i i i i i i i i i i i i p p i i i i i i i i i i i i i i i i i i i i i i i i i u u i i i i i i i i i i i i i i 5 & 5 i K K i p i i i 5 $ . O $ $ & < 5 5 5 5 5 5 5 5 : & ; x V V V V V V V V V V V N N V V V V V x N V V N V N x x V N N x x x x x l x 4 4 4 3 3 3 4 9 ! @.@.@.,.q.q.r.r.e.t.t..XoX.X.X.Xw.w.|.w.4.&.&.&.%.o.[ X.+.#.#.,.#.@.k x z z x l x x z x z x x z x x z x x z z x z z x x l l l z z l x x 4 3 3 4 l 4 ",
"3 3 3 4 4 4 3 3 4 4 3 3 3 3 3 4 4 3 3 3 3 3 3 3 3 3 4 3 3 3 3 3 3 3 3 3 4 4 4 4 4 4 4 3 3 3 4 3 3 3 3 3 3 2 2 > > , , > , > + o   & 8.8.q.q.q.q.w.w.4.&.+.o.%.5.oX%X%X%X=XoXe.w.w.e.t.oXoXoXt.t.q.q.r.t.t.w.r.q.8.$.8.8.:.L x z x z x v v v x x N N x N x x N v N 2 f P K K K K K i i i 5 5 5 & $ $ < t i i i i i i i 5 & & 5 t t i i i i i i i i i i i i i i i i i i i p p p p p p p p p p p i i i i i i i i i i i i i i p p p i p p p p p p p p p p p p p i i i i i i i i i i i i i i i i i i i i i i i i i i i i i i i i i i i i i i y y t t t t y y i i i i i i i i i i i i i i i i i i i i i i i i i i i i i i i i i i i i i i i i i i i i i i i i i i p p i i i i i i i i i i i i i i i i i i i i i i u u u u u i i i i i i i i i p g g g i 5 & 5 i K K p g g i i 5 $ . O $ $ & < 5 5 5 5 5 5 5 5 : & ; x V V V V N V V V V V V V V V V V V x c x V V V N N N z N V V N x x x x x l 4 3 3 3 3 3 3 8 ! @.@.@.,.q.q.r.e.t.t.oXoXoXoX.X.Xw.w.|.|.w.w.w.4.%.o.] } o.+.+.#.#.@.h B x x z l z z z z x x x x x x z z x x x x z z x x x l z x z l x x x 3 3 4 4 4 ",
"4 3 3 4 4 4 3 3 4 3 3 4 3 4 4 4 4 3 3 3 3 3 4 4 3 3 3 3 3 3 3 3 3 3 3 4 4 4 4 4 4 4 4 4 4 3 3 3 3 3 2 2 2 3 3 , , > , , , > + +   X k 8.q.q.r.r.w.w.&.$.o.o.%.5.oXOX%X=X=XoX.Xw.q.e.t.oXoXoXoXt.t.t.t.t.t.w.r.q.8.$.$.8.:.U x z x z x x v x x N N x x l x N N N N 2 K P K K K K K i i i 5 5 5 & $ $ < t i i i i i i i 5 & & 5 t i i i i i i i i i i i i i i i i i i i i p p p p i i p p p p p i i i i i i i i i i i i i i p p p i p b p b b b b p b p p p p i i i i i i i i i i i i i i i i i i i i i i i i i i i i i i i i i i i i i i i y t t t t y y i i i i i i i i i i i i i i i i i i i i i i i i i i i i i i i i i i i i i i i i i i i i i i i i i i p p i i i i i i i i i i i i i i i i i i i i i i u u u u u i i i i i i i g i i g g p i * & 5 i p K p g i i i 5 $ . O $ $ & < 5 5 5 5 5 5 5 5 : & ; x V V V V V V V V V V V V V N v V V x x N N V V N N N N x x x x x c x x 4 x 4 4 3 3 3 2 2 i :.@.@.@.$.q.q.r.e.t.t..XoX.XoXoX.X.Xw.|.|.|.|.|.w.&.%.} ] o.o.#.$.#.@.h B x x x x l l z z z x z z z z z x x x x x z z z l l l z x x l x x l 4 3 4 l 4 ",
"4 4 3 3 3 3 3 3 4 3 4 4 3 3 3 3 4 4 3 3 3 3 4 3 3 3 3 3 3 4 3 3 4 4 3 3 3 4 4 3 4 4 4 3 3 3 3 3 4 3 2 3 3 3 3 2 , > > > > > + +     o O @.q.r.q.w.w.&.o.o.o.%.5..XXXOX%X=X=XoX.Xe.e.oXoXoXoXoXoXt.t.t.t.t.r.r.q.8.$.$.$.@.k x z x x x x v x v N x N x x N l x N x 3 K L K K K g g p i i 5 5 5 & $ $ < t i i i i i i i 5 & & 5 6 i i i i i i i i i i i i i i i i i i i i i i i i i i i i i i i i i i i i i i K b b b b b i i i i i i i i i i i i b b b b p i i i i i i i i i i i i i i i i i i i i i i i i i i i i i i i i i i i i i i i i t t t 5 5 t t t i i i i i i i i i i i i i i i i i i i i i i i i i i i i i i i i i i i i i i i i i i i i i i i i i i i i i i i i i i i i i i i i i i i i i i i i i u u u u u i i i i i i p i i i i g g i 5 & 5 i p i i p i i i 5 $ . O $ $ & < 5 5 5 5 5 5 5 : : & < x V N V V C V V V V V N V V V V V V V x x x V N N N V N x x x x x x x 4 4 x 3 4 9 3 2 2 3 i -.@.@.@.$.q.r.q.r.e.e.e.t.oXoXoXoX.X.X.X.X.X.X.X|.4.%.} } o.o.+.#.#.@.y 4 4 x x x z x x x x z z z z z z z z z z x l x z z x z l l z l l l l l 4 4 4 4 ",
"3 3 3 3 3 3 4 3 3 3 3 3 4 4 3 4 4 4 3 4 3 3 3 3 3 3 3 3 3 4 4 4 3 3 3 4 3 3 4 4 4 4 4 4 4 3 3 3 3 3 3 2 2 , > > , > > > > > + +       o Y q.q.q.e.w.&.o.o.%.%.5.|.XXOX%X=X%XOXoXe.e.oXoXoXoXoX+X+XoXt.t.t.e.r.q.8.$.$.$.:.E x z x N x x x N v v N z z x z v x v N 3 K T K K K g g p i i 5 5 5 & $ $ < t i i i i i i i 5 & & 5 6 i i i i i i i i i i i i i i i i i i i i i i i i i i i i i i i i i i i i i i b p p p b i i i i i i i i i i i i i b b b p p i i i i i i i i i i i i i i i i i i i i i i i i i i i i i i i i i i i i i i i i t t t 5 5 t t t i i i i i i i i i i i i i i i i i i i i i i i i i i i i i i i i i i i i i i i i i i i i i i i i i i i i i i i i i i i i i i i i i i i i i i i i i i i i i i i i i i i p p i i i i g p i & & 5 i i i i p p i i 5 & O O $ $ & < 5 5 5 5 5 5 5 : : & < x V V V V V V V V N x V V V N V V V x V x V V N N N V V N N v v x x 9 9 x 4 4 9 3 3 3 3 3 i :.@.O.@.$.q.q.r.r.r.e.e.e.oX XoXoX.X.XoXoXoXoXoX.X4.%.o.} X.o.$.,.#.@.i 4 x x z x x z z z l z z z z x x x x z z z z z z l z x x l x x x l l l l 4 4 4 ",
"3 4 4 4 3 3 3 3 3 3 3 4 3 3 3 3 3 3 3 4 3 4 4 4 3 3 4 4 4 4 4 3 3 3 3 3 3 4 4 4 3 3 4 4 4 3 3 3 2 2 2 > > > > , > > > > > > + o o   + o j q.q.q.t.w.7.o.o.o.%.%.'..XXXOX%X%X%XoX.X|.oXoXoXoXoX-X+XoXoXt.t.t.w.q.q.$.$.$.:.E 9 x x x x N N x z x N x N x N v x x x 3 K T P K K g g p i i 5 5 5 & $ $ : t i t i i y i y 5 & & 5 6 i i i i i i i i i i i i i i i i i i i i i i i i i i i i i i i i i i i i i i i i p p p p i i i i i i i i i i i p p p p p b i i i i i i i i i i i i i i i i i i i i i i i i i i i i i i i i i i i i i i i i t t 5 5 5 t t t i i i i i i i i i i i i i i i i i i i i i i i i i i i i i i i i i i i i i i i i i i i i i i i i i i i i i i i i i i i i i i i i i i i i i i i i i i i i i i i i i i i p p g g i p p p i 5 & 5 i i i i p p i i 5 & O # $ $ & < 5 5 5 5 5 5 5 5 : & < 9 V V V V C V V V V V V V V V V x V x V V N v V v c N x x x x x l x l 9 3 3 3 3 3 3 3 2 3 i -.O.O.#.8.q.q.r.r.w.w.e.e. X XoXoXoXoXoXoXOXoXoX.Xw.%.o.] X.o.4.4.#.O.i z z l z x x x z z z z z z z z z z x x l z x l l l l x x z l l l x l x 4 4 4 l ",
"3 3 4 3 3 3 3 3 3 3 3 3 3 3 3 3 3 3 3 3 3 3 4 3 3 3 3 4 4 4 3 3 3 3 3 3 3 3 4 4 3 4 3 3 4 3 3 3 2 , > > > > > > > > > > > > > +     + > k 8.7.7.w.w.q.+.o.o.%.%.5.'..XXX%X%X=X%XoX.XoXoXoXoXoX-X+XoXoXoXt.t.r.q.8.$.$.$.:.Y L x x l x x x x x x x v x N x x x x x 7 K T P P K g g p i i 5 5 5 & $ $ 5 t i i i i y y 6 5 & & 5 6 i i i i i i i i i i i i i i i i i i i i i i i i i i i i i i i i i i i i i i i i p p p p i i i i i i i i i i i p p p p p b i i i i i i i i i i i i i i i i i i i i i i i i i i i i i i i i i i i i i i i i t t 5 5 5 t t t i i i i i i i i i i i i i i i i i i i i i i i i i i i i i i i i i i i i i i i i i i i i i i i i i i i i i i i i i i i i i i i i i i i i i i i i i i i i i i i i i i i p p p p i i p p i * & 5 i i i i p p i i 5 & O # $ $ & < 5 5 5 5 5 5 5 5 : & < x V V V V V V V V V N N V V N V x N N x x N N v v x x x x x x x x l 4 3 4 2 3 2 3 2 3 2 2 i <.@.+.$.q.q.q.q.q.q.w.w.e. X XoXoXoXoXOXOXOXOXOX.X|.%.o.] X.+.4.4.#.@.i l l z z z z x z z x z z z l z z x z x z l z z l l l x x x x l l l x x l 4 4 l ",
"3 3 3 3 4 4 3 3 3 3 3 3 3 3 3 3 3 3 3 3 3 3 3 3 3 3 3 3 4 4 3 3 3 3 3 3 3 4 4 4 4 4 3 3 3 3 3 3 2 2 2 > + > > > > + > > > > > o     + 2 k 8.7.7.w.w.q.&.o.o.o.%.%.'.|..XXX%X=X=XOX.X.XoXoXoXoX-XoXoXoXoXt.t.r.q.,.$.#.@.@.@.U N x x x x x x x x v v x x z x x x x 7 K T P P K g g p i i 5 5 5 & $ $ : t i t i i i i t 5 & & 5 6 i i i i i i i i i i i i i i i i i i i i i i i i i i i i i i i i i i i i i i i i i i i i i i i i i i i i i i i p p p p b b i i i i i i i i i i i i i i i i i i i i i i i i i i i i i i i i i i i i i i i i t t t 5 t t t t i i i i i i i i i i i i i i i i i i i i i i i i i i i i i i i i i i i i i i i i i i i i i i i i i i i i i i i i i i i i i i i i i i i i i i i i i i i i i i i i i i i i p p p p i p p i & & 5 i i i i p p i i 5 & O # $ $ & < 5 5 5 5 5 5 5 5 : * < x V B V V V V V V N N N z x N V V V x N x v N N x N x V x z x x x x x 4 3 3 3 3 2 , , 3 7 k -.+.#.,.q.r.q.q.q.q.q.w.e. X.XoXoXoXOXOXoXoXoXOX.X|.%.o.] X.$.4.4.#.O.i l z z l z z z z z z z l l z l x x x z z l z z l l l x x x l l 4 4 4 4 x 4 4 l ",
"3 3 3 3 3 3 3 3 3 3 3 3 3 3 3 3 3 3 3 3 3 3 3 3 3 3 3 3 4 3 3 3 3 3 3 3 4 4 4 4 3 3 3 3 3 3 3 3 3 2 2 > > > > + + + + > > > + o     + , L 8.7.7.7.w.w.4.o.o.} o.%.5.|..XoX%X=X=X=X.X.XoXoXOXoX-XoXoXoXt.t.w.r.q.$.$.#.@.@.@.Y B x x x z x x v v x x x z x x x v x 3 K T P P K g g p i i 5 5 5 & $ $ : 5 i t i i i i t 5 & & 5 6 i i i i i i i i i i i i i i i i i i i i i i i i i i i i i i i i i i i i i i i i i i i i i i i i i i i i i i i p p p p b b i i i i i i i i i i i i i i i i i i i i i i i i i i i i i i i i i i i i i i y y t t t 5 t t t t y i i i i i i i i i i i i i i i i i i i i i i i i i i i i i i i i i i i i i i i i i i i i i i i i i i i i i i i i i i i i i i i i i i i i i i i i i i i i i i i i i i i p p p p p p p i & & 5 i i i i p p i i 5 & O O $ $ & < 5 5 5 5 5 5 5 5 : * < x V V V V V V V V V V N z N N N N V x N x V N N v N N x x x x x l x x 4 2 3 3 3 3 , , 2 P :.O.+.#.,.q.r.q.q.q.q.q.w.e. XoXoXoXoXoXoXoXOXoXoX|.w.%.o.} o.&.4.4.#.O.6 l l z z z z z l z l z l l z l x l x z l l l z l l l x z l l x 4 4 4 4 4 l 4 4 ",
"3 3 3 3 3 3 3 3 3 3 3 3 3 3 3 3 3 3 3 3 3 3 3 3 3 3 4 3 3 3 3 3 3 3 3 3 4 3 3 3 3 3 3 3 2 3 3 2 2 > > > > > > > + + + > > > > o     + , 2 w 9.7.q.w.w.w.%.o.o.o.%.'.|.|..XOX=X=XOXoX.X.XoXOXOXoXoXoXoXt.t.w.w.q.$.#.@.@.@.@.Y K x x z z x x x x x x v x x x x x x 3 T T P P K g g p p i 5 5 * & $ $ < t i t i i i i 6 5 & & : 6 i i i i i i i i i i i i i i i i i i i i i i i i i i i i i i i i i i i i i i i i i i i i i i i i i i i i i i i b b b b b b p i i i i i i i i i i i i i i i i i i i i i i i i i i i i i i i i i i i i i i i i i y t u y y y y i i i i i i i i y i i i i i i i i i i i i i i i i i i i i i i i p p i i i i i i i p p p p p i i i i i i i i i i i i i i i i i i i i u i i i i i i i i i i i i i i p i i g g g p i i i : & 5 i i i i g p i i 5 & O O $ $ & : 5 5 5 5 5 5 5 * & & < x V V V V V V V V V N N N N N N N N v v x x v v v x x x x x x 4 l 4 4 3 3 3 3 2 2 2 , 2 U :.-.O.#.8.q.r.q.q.q.q.w.w.e. XoXoXoXoXoXoXoXoXoXoX.X4.%.o.o.+.4.4.4.#.O.6 l l l z z z x z z l l z l l x l l z z l z z z z l x x z l l l l 4 4 4 4 l l 4 ",
"3 3 3 3 3 3 3 3 3 3 3 3 3 3 3 3 3 3 3 3 3 3 3 3 3 3 3 3 4 3 3 3 3 3 3 3 4 3 4 3 3 3 3 3 2 2 2 , , , , , , 2 2 > > > , 2 , > > +   o + > > ; 9.7.q.w.w.w.&.o.o.o.%.'.|.|..X.X%X%XoXoX.X.XoXOXOXoXoXoXoXt.t.w.r.q.$.$.@.@.@.@.@.k 9 z l x x x x x x x x x x v x x x 2 T T P P K g g p p i 5 5 * & $ $ < t i t i i y i 6 5 & & : 6 i i i i i i i i i i i i i i i i i i i i i i i i i i i i i i i i i i i i i i i i i i i i i i i i i i i i i i i p b b p p p i i i i i i i i i i i i i i i i i i i i i i i i i i i i i i i i i i i i i i y y y y y y y y y y y i i i i i i y y y y y i i i i i i i i i i i i i i i i i i i i i p p i i i i p p p p p p p p i i i i i i i i i i i i i i i i i i i i i i i i p p p i i i i p p p i i i p g g p p i i i 5 & 5 i i i i p p i i 5 & O O $ & * : 5 5 5 5 5 5 5 * & & < 9 V V V V N V V V V V N V N N N N V v x x c x v x x z z x x 9 4 4 4 4 3 4 4 4 2 2 2 3 3 Y @.O.O.#.8.r.r.q.q.q.w.w.e.e. XoXoXoXoXoXoXoXoXoXoX|.&.o.o.o.&.4.4.4.,.O.6 l l z z z z z z z z x z l z l l z z z l l z z z z z z l l l 4 l 4 4 4 4 x l l ",
"3 3 3 3 3 3 3 3 3 3 3 3 3 3 3 3 3 3 3 3 3 3 3 3 3 3 3 3 3 3 3 3 3 3 3 3 3 4 4 4 4 3 3 2 2 2 2 2 , 2 2 2 , , , , , , , 2 2 , > +   o 2 2 3 ; 9.9.7.w.w.w.4.%.o.%.%.'..X'.5.|..XoXoX.X.X.XoX=X+XOXoXoXoXt.e.w.r.q.7.$.+.O.O.@.@.j f l l x x x x x x x x x x z z x z 2 T T K K K g g p p i 5 5 * & $ $ < t i t t t i i i 5 & & : 6 i i i i i i i i i i i i i i i i i i i i i i i i i i i i i i i i i i i i i i i i i i i i i i i i i i i i i i i i p p p p p i i i i i i i i i i i i i i i i i i i i i i i i i i i i i i i i i i i i i y y y y y y y y y y y y y y y y y y y y y y y y i i i i i i i i i i i i i i i i i i i i i i i i b b b b p p p p i i i i i i i i i i i i i i i i i i i i i i i i i i i p i i i i i p i p i i i i p p p p p i i 5 & 5 i i i i p p i i 5 & O O $ & < 5 5 5 5 5 5 5 5 * & & < 9 V V V V V V V v N x N v V N N x v x x x x v v v x z x x x 9 3 4 4 4 3 l 4 4 3 3 3 3 2 j @.+.O.#.8.r.r.q.q.q.w.w.e.t.t.oXoXoXoX.X.X.XoXoXoX|.%.o.} o.4.4.4.4.,.O.6 l z z z z l l l z l x z z z z x z l l l l l l z l l z l l x l 4 4 4 4 4 l 4 4 ",
"3 3 3 3 3 3 3 3 3 3 3 3 3 3 3 3 3 3 3 3 3 3 3 3 3 3 3 3 3 3 3 3 3 3 3 3 4 3 4 4 3 3 3 2 2 2 > > 2 2 2 2 2 , > , , > , 2 > > > @   o > 2 3 ; 9.q.q.4.w.w.w.%.o.%.%.'.|.|.|..X.X.XoXoX.X.XoXOXOXOXoXoXoXoXt.e.w.q.q.$.+.X.X.@.@.j f 4 x z 4 x x x x x x x z x z x x 2 T T K K K g g p p i 5 5 * & $ $ < t i i i t i i y 5 & & : t i i i i i i i i i i i i i i i i i i i i i i i i i i i i i i i i i i i i i i i i i i i i i i i i i i i i i i i i p p p p p i i i i i i i i i i i i i i i i i i i i i i i i i i i i i i i i i i i i y y y y y y y y y y y y y y y y y y y y y y y y y i i i i i i i i i i i i i i i i i i i i i i i i b b b b b b i i i i i i i i i i i i i i i i i i i i i i i i i i i p p p i i i i i p i i i i p i g i p p p p i 5 & 5 i i i i i p i i 5 & O O $ & * 5 5 5 5 5 5 5 5 * ; & < 7 x N V V N V V N N x v v V V N N x v x v x v x x x x l x 4 4 4 9 4 3 4 4 4 4 3 3 2 3 2 j @.+.+.,.q.q.q.q.q.q.w.e.t. Xt.oX.XoXoX|.|..XoXoXoX|.%.} o.%.4.4.4.4.,.O.6 l l l l z x z z l l l l l z l z l l 4 4 l l z l l l z l l l l l 4 4 4 4 4 4 4 ",
"3 3 3 3 3 3 3 3 3 3 3 3 3 3 3 3 3 3 3 3 4 3 3 3 3 3 3 3 3 3 4 3 3 3 3 3 4 3 3 3 3 3 2 2 2 , 2 , 2 2 2 2 2 2 , , > , 2 2 > > > +     + > 2 2 j 8.q.q.w.w.w.%.o.%.%.5..X.X.X.XXXoXoXoX.XoXoXOXOXOXoXoX XoXt.e.w.q.q.q.$.O.X.X.@.@.Y 9 x x x x x x x x x x x x x z x 3 T T K K K g g p p i 5 5 : & $ $ : t i i i i i i i 5 & & : t i i i i i i i i i i i i i i i i i i i i i i i i i i i i i i i i i i i i i i i i i i i i i i i i i i i i i i i i i i i i i i i i i i i i i i i i i i i i i i i i i i i i i i i i i i i i i i i i i y y y y y y y y y y y y y y y y y y y y y y y t t i i i i i i i i i i i i i i i i i i i i i i p b b n b n b b i i i i i i i i i i i i i i i i i i i i i i i i i i i p p p i i p i i i i p p p i i i i i i i i i < & 5 i i i i p p i i 5 & . # $ & * : 5 5 5 5 5 5 5 * ; & < 3 x V V N N V N N v x N v N v x x x v x x v x x x x l l x 3 4 4 4 9 3 3 4 4 4 3 3 2 2 2 j @.#.#.,.q.q.q.q.w.q.w.e. X X XoX.XoXoXw.w.|.oXoX.X|.%.o.o.%.4.5.4.4.$.O.y x 4 4 l z z z l l x l l l l l l l x l 4 l l l l l z x x l l l x l l l l 4 4 4 ",
"3 3 3 3 3 3 3 3 3 3 3 3 3 3 3 3 3 3 3 3 3 3 3 3 3 3 3 3 3 3 3 3 3 3 3 3 3 3 3 3 3 3 3 , , , , , , , 2 2 2 2 2 2 > > 2 2 > > > +     + 2 2 > O :.q.q.w.w.4.%.o.o.%.5..XXXXXXXOXOXOXoXoXoXOXOXOXoXoXoX XoXt.e.e.q.q.q.$.+.O.O.@.@.j L x x x x x x x x l x l l l x l 2 L T K K K g g p i i 5 5 : & $ $ : t i i i i i i i 5 & & : t i i i i i i i i i i i i i i i i i i i i i i i i i i i i i i i i i i i i i i i i i i i i i i i i i i i i i i i i i i i i i i i i i i i i i i i i i i i i i i i i i i i i i i i i i i i i i i i i i i y y y y y y y y y y y y y y y y y y y y y y t t i i i i i i i i i i i i i i i i i i i i i i p b K K K K K K i i i i i p i i i i i i i i i i i i i i i i i i i i i p g g i i p i i i i i p p i i i i i i i i i < & 5 8 i i i p p i i 5 & O # & & * : 5 5 5 5 5 5 5 : * & < 2 x v N N N x x N N x v N N v x N v v x l x x x x x x 4 4 9 4 3 3 4 4 3 4 4 4 4 3 3 2 & @.@.O.#.,.q.q.q.q.w.w.w.e..X X XoX.XoX.Xw.w.w..XoX.X|.%.o.o.%.4.w.4.4.,.@.y 9 x l l l l z z l l l x x l l l l l l l l l l l l l l 4 4 4 l x x l l l l 4 4 ",
"3 3 2 3 2 3 3 3 3 3 3 3 3 2 2 3 3 2 2 3 3 3 3 3 3 3 3 3 3 3 3 3 3 3 3 3 3 3 3 3 4 3 2 2 , > > , , > > , , 2 2 , > , , , > > > +   o 2 2 2 2 > :.q.w.w.4.&.%.o.o.%.%.'..XXXOXOXoXOXoXoXoXoXOXOXOXoXoXt.e.e.e.r.r.r.q.q.$.O.O.@.O.O.j B x x x x x x x x x x z x l c L R R R R R T T L L K f t : & $ $ ; 5 6 t i i i i i 5 & & : t i i i i i i g K i i i i i i i i i i i i i i i i i i i i i i t i t t i t i i i i i i i i i i i i i i i i i i i i i i i i i i i i i i i i i i i i i i i i i i i i i i i i i i i i i i i i i i i i i i i i i i y y y y y y y y y y y y y y y y y y y t i i i i i i i i i i i i i i i i g K K K K K K b n n n n n n p p p p b b p p p p i i i i i i i i p p i i g g p p p p p p i i p p i i i i p p i p K K K K K p i * $ 5 5 i i i i i i i 5 & # & 5 5 5 5 5 i i i i i i i i i K 6 x N N v N N N x x x x x v v N x v v x x x x x x c x 4 9 3 3 3 3 4 3 4 3 4 4 4 3 3 9 Q @.@.X.O.8.q.q.q.r.w.w.w.w.e..X|..X.X.X|.q.w.w.e. X|.e.%.o.o.+.4.w.4.4.,.@.j s 4 4 l l l l l l z 4 l z l l l l l z l l z l l l l 4 l l 4 x x l l 4 l 4 4 4 ",
"3 3 3 3 3 3 3 3 3 3 3 3 3 3 2 2 2 2 2 3 3 3 3 3 3 3 3 3 3 3 3 3 3 2 3 3 3 3 3 3 3 3 3 2 > > , , > > > , > > , 2 , , , , > > > +     2 2 2 2 2 :.q.w.w.4.&.%.o.o.%.%.|..XoXOXOXOXOXOXoXoXoXOXOX+XoXoXt.r.r.r.r.w.q.q.q.$.O.O.O.O.@.j g 4 x x x x x x x x x l x x B ` ` ` ` ` _ _ _ E R R K i 5 ; & & 5 i i i i i i i i 5 & & : t i i i i i i g K i i i i i i i i i i i i i i i i i i i i i i t t t t i i i i i i i i i i i i i i i i i i i i i i i i i i i i i i i i i i i i i i i i i i i i i i i i i i i i i i i i i i i i i i i i i i i i y y y y y y y y y y y y y y y y y y y y i i i i i i i i i i i i i i i i K K K K K K K b b n n n n n p p p p p p p p p p i i i i i i i i b i i i g g p p p p p p i i p p i i i i i p i p K K K K K g i & $ 5 5 i i i i i i i 5 & $ & 5 5 i p K K K K K K K K K K L s 9 V N N x x x N x x x x x v N N x x x x x x x x x x 4 3 3 3 3 4 3 3 3 3 2 , 2 3 3 s :.@.@.d @.,.q.r.r.w.w.w.w.w.e. X X.X.X.Xw.&.&.w.w.w.e.e.%.o.} +.4.4.4.4.,.#.@.f 4 l l l l l l x x l z z z l l l l l l l l l l l 4 4 4 4 4 4 l l l 4 4 4 4 4 ",
"3 3 3 2 2 3 3 3 3 3 3 3 3 3 2 2 3 3 2 3 3 3 3 3 3 3 3 3 3 3 3 3 3 3 3 3 3 3 4 3 3 3 3 2 , > > > > > > > , > > , , , , , , > > +     > 2 , 3 > @.r.w.e.w.w.%.o.o.%.%.|..XoXoXoXOXoXoXoXoXOXOXOXOXoXoXe.r.r.r.r.w.r.q.q.q.#.O.O.O.@.@.j 7 x x x x x x x x x x x x L M.M.M.2.2.2.2.2.2.` ` W K i 6 ; ; 5 i i i i i y y i 5 & & : t i i i i i i g K i i i i i i i i i i i i i i i i i i i i i i i i t i i i i i i i t 5 5 t i i i i i i i i i i i i i i i i i i i i i i i i i i i i i i p p i i i i i i i i i i i i i i i i i i i i i i i i i i y y y y y y y y y y y y y y y y y y y y i i i i i i i i i i i i i i i i K K K K K K K b n n n n K K p p p p b b p p i i i i i i i i i p b p i i i g g p g g i g i i p p i i i p p p i p K K K K K g i < $ 5 5 i i i i i i i t & $ & 5 5 L L T R R T R R R R T R W L B N V N v v v x N x x v v x x x v v x x x x x x x x 4 4 3 3 3 4 3 3 3 3 3 3 3 4 3 f ,.@.@.X.@.,.q.r.r.w.w.w.e.w.w.|..X.X Xe.w.&.&.w.w.w..Xe.&.o.X.+.4.q.4.4.,.#.@.j 4 l l l l l l l 4 4 l l l l l l l l l x l l l 4 4 4 l l 4 4 l l l 4 4 4 4 4 ",
"3 3 3 2 2 3 3 2 3 3 3 3 3 3 3 3 2 3 2 2 3 3 3 3 3 3 3 3 3 3 3 3 3 3 2 2 3 3 4 3 3 3 2 , > > > > > > > > > > 2 2 , , , , > > > +     > 2 3 2 , Y q.r.e.w.w.&.o.o.%.%.'..XoXoXoXoXoXoXoXoXOXOXOXOXoXoXt.w.r.r.w.r.w.r.q.r.8.O.X.O.O.O.j s x x x x x x x x l x x x L ` 0.2.2.2.2.2.2.2.` ` ^ L f 6 ; ; 5 i i i i i i y i 5 & & : t i i i i i i g g i i i i i i i i i i i i i i i i i i i i i i i i i i i i i i i i t i 5 t i i i i i i i i i i i i i i i i i i i i i i i i i i i i i i p p i i i i i i i i i i i i i i i i i i i i i i i i i i y y y y y y y y y y y y y y y y y y y y i i i i i i i i i i i i i i i i K K K K K K K b b n n n K K p p p p b b p p i i i i i i i i i p b p i i g g p i p g i g i i p p i i i i p p i p K K K K K g i < $ 5 5 i i i i i i i 5 & O # & 5 p K K L L L L L L L K K L f B N N x x v x x x x N v v x x x x v x l x x x x x x 4 x 4 3 3 3 2 3 3 3 3 3 3 3 2 f 8.@.O.d #.8.q.r.r.w.w.w.e.e.e.|..X.X|.w.w.&.&.q.w.w.e.e.&.o.X.o.$.4.4.,.,.$.@.j 4 4 4 4 l l 4 4 4 4 x x l l l l l l l l l l l 4 4 4 4 4 4 4 l 4 4 4 4 4 4 4 ",
"2 2 3 2 2 2 2 2 3 2 3 3 3 3 3 3 3 3 2 2 3 3 3 3 3 3 3 3 3 3 3 3 3 3 3 3 3 3 3 3 3 2 2 2 > , , > > > > , 2 2 2 , , , , > > > > +   o 2 3 3 2 > R 8.r.e.e.e.&.o.o.o.%.|..XoXoXoXoXoXoXoXoXoXOXOXOX+XoXt.t.e.e.e.w.r.r.r.r.q.#.O.O.O.@.@.k 9 x x x x x x x l x x x B W R R R R R R T R T T K f 6 5 ; & 5 6 i 6 i i y 6 t 5 & & : 6 i i i i i i f g i i i i i i i i i i i i i i i i i i i i i i i i i i i i i i t i i i t t i i i i i i i i i i i i i i i i i i i i i i i i i i i i i i p p i i i i p p i i i i i i i i i i i i i i i i i i i i y y y y y y y y y y y y y y y y y y y y i i i i i i i i i i i i i i i i K K i i K K K b b b n n n b b p p p b b i i i i i i i i p p p p b p i i p p i i g g i p i i i i i i i i p p i K K K K K K K i * $ 5 5 i i i i i i i 5 $ . . $ & 5 5 5 5 5 t 5 5 5 5 5 6 6 6 9 N v x v v x x x x x v v x x x x x x x x x x x x 4 4 4 4 3 3 3 3 3 3 3 4 4 4 3 7 j @.@.O.d #.8.q.q.r.w.w.w.e.|.|.|..X|.w.w.7.&.%.&.w.w.e.w.&.o.X.o.$.4.,.,.,.,.@.j 9 x 4 4 l 4 4 4 4 4 l x l l l x l l 4 l l 4 l 4 4 4 4 4 l 4 l 4 4 4 4 4 4 4 ",
"3 3 3 2 3 2 2 3 3 2 2 3 3 3 2 2 3 3 2 2 2 2 3 3 3 2 2 2 3 3 3 3 3 3 2 3 3 3 3 2 3 2 2 , , > , , , > > 2 2 2 2 , , , , > > > > +   o , 2 3 2 2 L 8.q.w.e.e.4.o.o.o.%.|..X.XoXoXoXoXoXoXoXoXOXOX+X+XoXoXt.t.t.e.e.e.w.w.r.q.$.O.X.O.@.@.j 9 x x x x x x x 4 x l l 7 9 6 i i i i i t 5 5 6 5 ; ; & X O ; 6 6 6 i i y 6 t 5 & & : 6 i i i i i i g g i i i i i i i i i i i i i i i i i i i i i i i i t i i i i i t i i i i t i i i i i i i i i i i i i i i i i i i i i i i i i i i i i i p p p p i i p p p i i i i i i i i i i i i i i i i i i i y y y y y y y y y y y y y y y y y y y y i i i i i i i i i i i i i i i i K g p i K K K b b b n b b b b p p p b b i i p i i i i i i p p p b p i i i p i i g g g g i p i i i i i i p p i p i i i i i i i * $ 5 5 i i i i i i i * . . . . O . . . O # $ $ $ $ $ $ X X ; 9 c c x v v x x v x z z x x x x x x x x x x x x 4 4 4 9 4 3 3 3 3 , , 4 4 4 4 4 L 8.@.O.d d ,.8.q.q.r.w.e.e. X.X|.|. Xe.w.q.&.$.&.&.w.w.e.w.&.X.X.X.#.$.,.,.,.,.:.U 4 4 4 l l 4 4 4 4 4 4 x l x x l l l l l l 4 l 4 4 4 4 4 4 l l l 4 4 4 4 4 3 ",
"3 2 , , 2 2 3 3 2 2 2 3 2 2 , 2 3 2 3 2 2 3 3 3 2 2 2 2 2 3 3 2 3 3 2 3 3 3 3 3 3 2 2 , , > , , > > 2 , , 3 2 , , , , > > > > +     2 2 2 2 2 2 ; q.q.e.w.w.%.o.o.%.%.|..XoXoXoXoXoXoXoXoXoXOXoXOXoX Xt.t.e.w.e.e.w.r.r.q.,.@.X.X.O.@.@.U B x x x x l x l x l l 7 < O O . O O # # O O X O . . . . X ; 6 6 6 t i i i i 5 & & 5 6 t i i i i i i i i i i i i i i i i i i i i i i i i i p p i i i i i i i i i 5 t t i i t t i i i i i i i i i i i i i i i i i i i i i i i i i i i i i i i i i i i i i i i i i i i i i i i i i i i i i i i i i i t t t y y y y y y y y y y y y y y y y y i i i i i i i i i i i i K K K K K K p p g K K b i i p p b b b b p p p p i i p p i i i i p p i i b p p p g p i i i p i g g g g g g i i i i i i i i i i i i i i & $ 5 5 i i i i i i i & O . . . . . . . . . . . . . . . . X ; 9 x x x x N x x x x x z x x x c l x x c x x x x x x 4 3 3 3 3 3 3 3 3 3 4 4 4 3 Q 0.:.@.d d 8.8.q.q.r.w.e.t..X.X|.|.|.e.w.w.&.%.&.&.q.w.e.w.4.X.X.X.o.$.$.,.#.@.@.f 4 4 l l l 4 l 4 4 4 4 l l l x x x l l 4 4 4 4 4 4 4 4 4 4 l 4 4 4 4 4 4 3 3 ",
"2 , 2 3 2 2 3 2 , 2 3 3 3 2 2 3 2 2 2 2 2 3 3 3 2 3 2 2 , 3 3 3 3 3 2 2 2 3 3 , 2 2 , > , , > > 2 2 2 2 2 , 2 2 2 2 , > > > + o   o 2 3 2 2 2 3 ; 8.q.w.w.|.4.%.o.%.%.4..XoXoX.XoXoX.X XoXoXoXoXOXoXoXt.e.e.e.e.e.e.r.r.q.q.#.X.X.O.@.@.Y B x x x 4 l 3 x x x x 7 6 & $ $ $ $ & & $ X X O . . . O X ; 8 6 6 i i i i i 5 & & 5 6 t i i i i i i i i i i i i i i i i i i i i i i i i i p p i i i i i i i i i i t t i i 5 5 i i i i i i i i i i i i i i i i i i i i i i i i i i i i i i i i i i i i i i i i i i i i i i i i i i i i i i i i i i t t t y y y y y y y y y y y y y y y y y i i i i i i i i i i i i K K K K K K p p K K K K p p i i b b b b p p p p i i p p i i i i p p i i b p p p g g i i g g i i g g g g g i i i i i i i i i i i i i i & $ 5 5 i i i i i i i 5 O . . . . . . . O O O O O # O # O X ; 9 x x x x v l x v v v v x x x x x x c x x c x l x x x 3 3 4 4 4 l 4 3 4 4 3 4 2 0.8.:.O.d d 8.8.q.q.r.e.e..X.X.X.X.X|.e.w.w.&.$.%.&.q.e.w.w.&.X.X.X.X.+.#.$.$.:.j 7 4 4 4 4 l 4 4 4 4 4 4 x l 4 x l l x x 4 4 4 4 4 4 3 3 4 4 4 4 4 4 4 4 3 3 3 ",
", 2 , , , , 2 3 2 , , 2 2 2 2 2 2 2 , 2 2 2 2 3 3 2 , 3 3 , 2 2 3 2 , 2 2 3 2 2 3 2 2 , , 2 2 3 2 , , , , 2 2 2 2 2 , , > > > +   o 2 , 2 2 , , , 8.q.q.w..Xw.%.%.%.%.%.|..XoX.XoX.X Xw. XoXoXoXOXoXoX Xt.e.e.e.e.e.r.r.q.q.$.X.X.X.O.$.@.g 9 x x 4 4 4 4 3 4 4 2 6 6 6 8 5 5 5 5 5 ; & & X X X X & ; 6 6 6 y y i i i 5 & & 5 6 t i i i i i i i i i i i i i i i i i i i i i i i i i i i i p p i i i i i i i i t i i i 5 i i i i i i i i i i i i i i i i i i i i i i i i i i i i i i i i i i i i i i i i i i i i i i i i i i i i i i i i i i t t t y y y y y y y y y y y y y y y y y i i i i i i i i i i i i i p K K K K p p K K K K p p p p b b b p p p p b i i p p p i i i p p p p g p p p g g g g g g i i i i g p g i i i i i i i i i i i i i i & $ 5 5 i i i i i i i 5 O . . . O # $ $ & & & & & & & & & ; 6 6 x c x v v v x x x x x x x l x x x x x x x x x x x l x l 4 4 l 4 4 3 4 3 4 4 3 Q :.@.O.X.d 8.8.q.q.w.e.e..X.X.X X.X|.e.w.w.&.%.&.&.q.w.w.w.&.X.] e X.X.#.$.,.:.f 4 4 4 4 l l l l 4 4 3 4 9 l 4 4 l x l 4 4 4 4 4 4 4 4 4 3 3 4 3 3 3 4 4 3 3 3 ",
"2 2 3 3 , 2 2 3 2 , , , 2 2 2 , 2 2 2 2 2 2 2 2 2 2 2 2 2 2 2 2 2 2 , 2 2 2 2 2 2 2 3 3 3 3 2 , , > , 2 2 2 2 , > > > > > > > +   o > 2 2 , , 2 2 Q 8.q.w..X|.4.%.o.o.%.&.|..XoXoX.Xe.w.w..XoXoXoXoXoX X X Xe.e.e.e.r.r.r.q.,.@.X.X.O.$.@.Q B x x l 4 4 x 4 2 , o o L L L K g p i i i 6 5 ; ; & & & 5 6 6 6 i i i i i 5 & & 5 6 t i i i i i i i i i i i i i i i i i i i i i i i i i i i i p i i i i i i i i i i i i i t i i i i i i i i i i i i i i i i i i i i i i i i i i i i i i i i i i i i i i i i i i i i i i i i i i i i i i i i i i t t t y y y y y y y y y y y y y y y y y i i i i i i i i i i i i i i K K K K b b K K K K p p p p b b b b p p p p i i p p i i i i b p i i b p p p g g g g g g i i p i p p g i i i i i i i i i i i i i i & $ 5 5 i i i i i i i 5 # . O # & 5 5 5 5 5 5 5 t 5 5 5 5 6 6 5 8 x x c l x x x x x x x x x x x x x x x x x l x 4 x l 4 l l 4 4 3 3 4 4 3 4 2 Q :.@.O.X.O.8.8.q.r.r.e.e..X.X.X.X.Xe.|.w.w.&.$.&.&.q.q.q.q.&.X.e e X.o.+.#.#.:.f 4 4 4 4 4 l l 4 4 3 4 4 4 4 4 l l 4 4 4 4 4 4 l 4 4 4 4 2 > o 2 3 3 3 4 4 3 3 ",
"2 2 2 3 2 2 2 2 2 2 , 2 2 2 2 2 2 2 2 2 2 2 2 2 2 2 2 2 , 2 2 2 2 2 2 2 2 3 3 2 2 3 3 3 3 3 , , > > , , , > , , , > > > > > + +   o , 2 2 , > 2 2 6 :.q.w.e.|.w.&.%.o.o.%.w..XoXoX.Xw.w.w.|.oXoXoXoXoX X X Xe.e.e.e.w.w.r.q.q.#.X.d X.#.$.@.k 9 l x x x 4 x 9 3 7 6 ` _ ^ ^ R T L L K f i 6 5 ; & ; 5 6 6 t t y i i i 5 & & 5 6 t i i i i i i t 5 5 5 5 t t i i i i i i i i i i i i i i i i i i i i i i i i i i t t t t i i i i i i i i i i i i i i i i i i i i i i i i i i i i i i i i i i i i i i i i i i i i i i i i i i i i i i i i i i t t t t y y y y y y y y y y y y y y y y i i i i i i i i i i i i K K K K K K K K K K K b p p b b b b p p p p b b p p p p p b i i i i i i p p p p p p g i i i p p p p p p i i i i i i i i i i i i i i i * $ 5 5 i i i i i i i 5 $ O $ & 5 t i i i i i i i i i i i f f t * 8 x x x x x x x x l 4 x x x x x x x x x x x x x x l l l l l 4 4 4 3 3 3 3 2 ! @.O.X.X.@.q.q.q.r.e.e.t.oXoX.X.X|.|.|.w.w.&.$.%.&.q.q.q.q.%.X.e e X.+.$.$.,.:.f 4 4 4 l 4 4 4 3 3 4 4 4 4 4 4 4 4 4 4 4 4 3 4 4 4 4 4 3 3 3 , > > , 3 4 4 4 3 ",
"2 2 2 2 2 2 2 2 2 2 2 2 3 2 2 , 2 2 2 2 3 2 2 2 2 2 2 , , 2 3 3 2 2 , , 2 2 2 2 2 2 2 3 3 3 3 , , , , , , , 2 , , > > > > > + o   o , , 2 2 , 2 2 + h q.w.w.w.|.|.%.o.o.%.w.|..XoX.Xw.w.7.w.oXoXoXoXoX X X Xe.w.e.e.w.w.w.q.q.#.X.X.X.+.$.,.@.7 4 x l 4 4 9 4 4 L ` ` ` ` ` _ ! R R P K i 6 5 ; ; ; 5 6 6 t t y i i i 6 & & 5 6 t t i i i i t 5 5 5 5 5 t i i i i i i i i i i i i i i i i i i i p i i i i i i i t t t t i i i i i i i i i i i i i i i i i i i i i i i i i i i i i i i i i i i i i i i i i i i i i i i i i i i i i i i i i i t t t t y y t t t y y y y y y y y y y i i i i i i i i i i i i i K K K K K K K K K K K b p p b b b b p p p p b b p p p p p p i i i p i i p p p p p p g g i i p p p p p p g i i i i i i i i i i i i i i * $ * 5 i i i i i i i 5 & O $ * 5 i i p K K K K K K K K g f f t % < 9 x x x x x x l x x x x x x x x l x x x l l x x l x x x 4 3 3 4 4 3 3 3 3 ! @.X.d X.@.q.q.q.r.e.e.t..X.X.X|.|.|.w.w.7.%.$.&.&.q.q.w.4.&.o.e X.O.#.$.$.,.:.f 4 4 4 4 4 l 4 4 4 3 4 4 4 4 4 4 4 4 4 4 4 3 3 4 4 4 4 3 3 3 3 3 2 3 3 4 3 4 3 ",
"2 2 2 2 , , 2 2 2 2 2 , 2 2 2 , 2 2 , 2 2 2 2 2 2 2 2 , , 2 3 2 2 2 2 2 2 2 2 2 2 2 2 2 3 3 3 2 2 , , , > > > , , > > > > > > o   o , 2 2 2 2 2 2 + k q.q.w.w..X|.%.o.o.%.w.|..XoX X|.w.&.w.|. XoXoXoX X X X Xe.w.w.w.w.w.q.q.$.$.X.d X.$.8.@.k x l 4 4 4 9 4 3 L M.0.0.0.2.` ` ` ^ R L f i 6 5 ; ; ; 6 i i i i i 6 6 5 & $ ; 6 t i i i i i i i i i i i i i i i i i i i i i i i i i i i i i i i i i i i i i i i i i i t i i i i t i i i i i i i i i i i i i i i i i i i i i i i i i i i i i i i i i i i i i i i i i i p b b b b p p i i i i y y i y y y y y y y y y y y y y y i i i i i i i i i i i i i i p K K g K g g K K K K K K b b b b b b b b b b b b i p p p i i i i p p i i p p p p p p i i i i p p p p p g g p i i i i i i i i i i i i i 5 & * 5 i i i i i i u * & # $ * 5 p K K L T R T T L T L L P g u % * 9 x x x x x x x l x x x x l x x l x x x x x x 4 4 4 4 x x 3 4 3 3 3 3 3 2 Y j X.X.O.$.8.q.q.r.t.e.t. XoX.X|.|.|.|.w.&.&.$.%.&.q.w.4.4.%.o.e X.+.#.#.#.@.@.i 4 4 4 4 4 4 4 4 4 3 4 4 4 4 4 4 4 4 3 3 4 3 4 4 4 4 4 4 4 3 3 3 3 3 3 3 3 3 3 ",
"2 2 , , , 2 2 2 2 , , , , , , , , , 2 2 2 2 2 2 2 2 2 2 2 2 2 2 2 2 2 2 2 2 3 2 2 2 3 3 3 3 2 2 2 2 , , > > > > , > > > > > > o     > , , 2 2 2 2 > f q.q.r.e.e.|.%.o.o.o.&.|..XoX X|.w.7.7.w. X X XoX X X X X Xw.w.w.w.w.q.q.&.$.X.X.X.#.$.$.@.f 4 4 4 4 4 3 2 W M.M.M.M.0.0.6.` ` ^ R K f 6 6 < ; ; 5 6 i i i i 6 6 5 & $ ; 6 t i i i i i i i i i i i i i i i i i i i i i i i i i i i i i i i i i i i i i i i i i i i i i i i i i i i i i i i i i i i i i i i i i i i i i i i i i i i i i i i i i i i i i i i i i i p K n n n b p i i i i i y y y i i i i y y y y y y i i i i i i i i i i i i i i i i i p b b b b b p p p p p p p p p p p b b p p b b b b i i i p i i i i p p i i p p p p p p i i i i p p p p p g g p i i i i i i i i i i i i i 5 & * 5 i i i i i i i * & # & 5 t g K L R T R R R R R R R U U p # % 9 x x x x x x x l x x l l x x l l x x x x x l l 4 x 4 x 4 4 4 4 3 3 3 3 2 j h d X.@.8.8.q.q.w.e.e.t..X.X.X|.|.|.w.w.w.%.$.%.&.4.q.4.4.&.o.e X.@.#.@.@.O.h 6 4 4 4 4 4 4 3 4 3 2 3 4 4 4 4 4 4 4 3 3 4 4 4 4 4 4 4 4 3 3 3 3 3 3 , , 2 3 3 ",
"2 , , , , , , 2 , , , , , , , , , , , 2 2 2 2 2 2 2 , 2 3 2 2 2 2 2 2 2 , 2 3 2 2 2 3 3 3 3 2 2 , 2 , , , > > > , , > > > > > o     > , , 2 , > > > y 8.q.r.e. X|.%.o.o.o.4.|..XoX X|.w.7.&.w.w.|. X X X X X X Xw.w.w.e.w.q.q.7.$.o.X.d X.#.$.$.k 2 4 4 4 4 3 + W V.V.M.M.0.0.0.0.` ` ^ W K f 6 5 ; ; 5 6 6 i i i 6 5 5 & $ ; 6 i i i i i i i i i i i i i i i i i i i i i i i i i i i i i i i i i i i i i i i i i i i i i i i i i i i i i i i i i i i i i i i i i i i i i i i i i i i i i i i i i i i i i i i i i i i i n n n n b p i i i i i y i i y i i i y y y y i i i y i i i i i i i i i i i i i i i p p p i i p p p p p p p p i i p p i i p p i i i i i i i i i i i p p p i i p p p p p p p p p p p p p p g g g p i i i i i i i i i i i i i 5 $ & 5 i i i i i i i 5 & & * t i K L T R _ _ _ _ _ _ ! ! E E U . % 5 x x x x x x x x x x x x l l 4 l l l l x x x x x x l x 4 4 4 4 4 3 3 3 @ j h d X.@.8.,.q.q.w.e.e..X.X.X|.|.w.w.w.w.w.%.+.%.&.4.4.4.4.,.X.e X.@.,.@.@.O.h 6 3 3 3 4 4 4 4 4 3 3 3 4 4 4 4 4 4 4 4 4 4 4 4 4 4 4 4 4 4 4 3 3 3 3 > , 2 3 3 ",
", , , , , 2 , , 2 , , , , , , , 2 2 2 2 2 , 2 2 2 2 2 2 2 2 2 2 2 , 2 , , 3 2 2 2 2 3 3 3 3 3 2 2 3 2 2 , , , , , , > > + > > o     > , > , 2 > > 2 6 9.q.w.e.e.|.&.o.o.o.4.|..X.X X Xw.7.&.7.w.w.|. X X X X X Xe.w.e.w.w.q.q.q.$.+.X.d X.+.#.$.:.L 4 4 4 4 7 M.M.M.M.M.M.M.M.M.M.0.2.` ^ R L f 6 5 5 5 6 6 i i i 6 5 5 & $ ; 6 i i i i i i i i i i i i i i i i i i i i i i i i i i i i i i i i i i i i i i i i i i i i i i i i i i i i i i i i p i i i i i i i i i i i i i i i i i i i i i i i i i i i i i i i i i i i n n n n b p i i i y i y i i i i i i y y i i i i y y i i i i i i i i i i i i i i i p p p i i p p i i i i i p i i p p i i p p i i i i i i i i i i i i p p i i p p p p p p p p p p p p p p g g g p i i i i i i i i i i i i i 5 $ & 5 i i i i i i i 5 < * t i K T R R E _ _ _ _ _ _ _ ! ! ! T . % 8 x l l x x x x l l x x l x l l l 4 l x l l 4 x x x x x x 9 4 4 4 4 9 3 p h d d O.$.8.$.q.q.w.e.e..X.X.X|.|.w.w.w.w.w.%.+.%.&.q.4.4.4.,.X.e h @.,.@.@.O.h 6 3 3 4 4 4 4 4 4 3 3 3 4 3 4 4 4 4 4 4 4 4 3 4 4 4 4 3 4 4 4 4 3 3 3 , 2 , > , ",
", , , , , 2 2 , , , , , , , , 2 2 2 , , 2 , 2 2 2 , , 2 2 2 , 2 , , 2 2 2 2 2 2 2 2 3 3 2 2 , 3 2 3 3 2 2 , , , 2 , > > + > + o   o > > > , > > > > 8 8.q.q.w.e.e.&.o.o.o.&.|..XoX X Xw.7.&.7.w.w.w. X X X X X Xe.e.e.w.w.q.q.q.7.$.X.d X.X.#.$.:.L 9 3 2 9 L V.M.M.M.M.M.M.M.M.M.M.M.2.` ^ R L f 6 6 6 6 i i i i 6 5 5 & $ ; 6 i i i i i i i i i i i i i i i i i i i i i i i i i i i i i i i i i i i i i i i i i i i i i i i i i i i i i i i i p p i i p i i i i i i i i i i i i i i i i i i i i i i i i i i i i i i i n n n b K p i p i y y y i i i i i i i i i i i i y y y y i i i i i i i i i i i i i p i i i i i p i i i i i i i i i i i i i i i i i i p p p i i i i i i i i i p p p p p p p p p p p p p p p p g p i i i i i i i i i i i i i 5 $ & 5 i i i i i i i 5 5 5 t K T R E _ _ _ ` _ _ _ _ _ ! ! ! R 5 < 8 x x l x l x l l l x x l l l l l l 4 l 4 l 4 9 x 4 4 4 4 4 x 4 4 3 3 8 h h X.X.O.$.$.$.q.q.r.w.e.e.|.|.|.|.w.w.w.w.4.%.+.$.4.q.4.4.4.,.X.e d @.@.@.O.O.h 6 3 4 3 4 4 4 3 3 3 3 3 3 4 4 4 4 4 4 4 4 3 3 4 4 4 4 4 3 3 4 3 4 2 , , > + + > ",
"2 , , , 2 2 , , , 2 , , , , , , , , , , , , , 2 2 , , 2 2 2 2 2 2 2 , , 2 3 2 , , 2 2 2 3 3 2 2 2 2 3 2 2 2 , , > > > + + + + o     > > > > > > > > 8 9.q.q.w.e.e.&.o.X.o.&.|..XoX X Xw.7.&.&.w.w.w. X X X X X X Xe.e.w.w.q.q.q.q.$.X.X.X.X.+.#.,.Y 8 2 B ` M.V.M.M.M.M.M.M.M.M.M.M.M.0.2._ ^ R K i 6 6 6 i i i i 6 5 5 & $ ; 6 i i i i i i i i i i i i i i i i i i i i i i i i i i i i t t t i i i i i i i i i i i i i i i i i i i i i i i i i p p i i i i i i i i i i i i i i i i i i i i i i i i i i i i i i i i i i n n n b K p p p i y y y y i i i i i i i i i i i y y y y i i i i i i i i i i i i i p i i i i i i i i i i i i i i i i i i i i i i i i p p p i i i i i i i i p p p p p p p p p p p p i p p i p g p i i i i i i i i i i i i i 5 $ & 5 i i i i i i i t 5 5 i L T _ _ _ _ _ _ ` ` ` ` _ _ ! ! ! E R c x x x x x x l l l l l l x l 4 l 4 4 l 4 x x 3 x l l 4 4 4 4 4 4 3 3 5 h h X.X.O.$.$.$.4.q.r.w.e.w.e.e.w.w.w.w.w.w.w.%.+.$.4.q.4.4.4.#.X.e d O.@.@.O.O.h 6 3 3 4 4 4 4 3 4 4 3 4 4 4 4 4 4 3 3 4 4 3 3 4 3 4 3 3 4 4 4 3 2 2 2 > > + + > ",
", , , , , , 2 , , , , , 2 , , , , , 2 2 2 , 2 2 2 , 2 2 2 2 2 2 2 2 2 2 2 2 2 2 , , , , 3 2 3 3 3 2 2 2 2 2 , , , > > + > > + o     o o + > > , , , ; $.9.q.q.q.q.4.o.X.X.o.w..XoXoX Xw.w.&.&.7.w.w. X X X XoX X Xe.e.e.w.q.r.q.q.$.O.X.e X.X.O.@.:.! Q ! 0.M.M.M.M.M.M.M.M.M.M.M.M.M.M.0.` _ R K f 6 6 i i i i i 6 5 5 & $ : 6 i i i i i i i i i i i i i i i i i i i u t t t t t t i i i i i i i i i i i i p p i i i i i i i i i i i i i i i i i i i i i i i i i i i i i i i i i i i i i i i i p i i i i i i i i p p p p p b K K g i i i i i y i i i i i y i i y y y y i i i i y y i i i i i i i i i i i i i u i t t t t t t t t t i i i i i i i i i i i i i i i i i i i i i i i i p p p i i i p p p p p i i p i i g p p p i i i i i i i i i i i 5 & 5 t i i i i i i u 5 5 t K E _ ` ` ` ` 1.` ` ` 1.` _ _ ! ! ! Q R L x x l x l x l 4 l l 4 4 4 x l 4 4 4 l 4 4 4 x 4 l l l 4 9 4 4 4 3 9 f j d d O.@.@.@.#.4.q.e.e.w.w.w.w.w.w.w.w.w.w.&.%.o.$.4.4.q.4.4.#.X.e h O.O.O.O.O.j 6 3 4 4 4 4 4 3 4 3 3 3 3 3 4 4 4 3 3 4 3 4 4 4 4 4 3 3 3 4 4 3 3 , > + + + > > ",
"2 , , , , , 2 , , , , , , , 2 3 2 2 2 2 2 , 2 2 2 2 , , , 2 , 2 2 2 , , , 2 , 2 2 2 2 , 3 2 2 2 2 2 2 2 2 2 3 3 , > > > > > + o       o o + > > 2 2 7 @.9.q.q.q.q.&.$.X.X.o.&.w.t.oX Xe.w.7.&.7.7.w.t. XoXoXoXoX X X Xe.w.w.r.q.q.$.#.X.d d X.O.@.:.:.>.>.0.0.0.0.0.0.0.0.M.0.0.0.0.M.M.0.` _ R K f 6 6 i i t i i 6 5 5 & $ : 6 i i i i i i i i i i i i i i i i i i i u t t t t t t i i i i i i i i i i i i p p i i i i i i i i i i i i i i i i i i i i i i i i i i i i i i i i i i i i i i i i p i i i p i i i i i p p p p p b K p i i i i i y i i i i i y i y y y y y i i i i y y i i i i i i i i i i i i i u i t t t 5 t t t t t t i i i i i i i i i i i i i i i i i i i i i i i p p i i i i p p p i i i i p i i g p p p i i i i i i i i i i i 5 & 5 t i i i i i i u 5 5 t n T E ` ` ` ` 1.1.1.1.1.` _ _ ! ! ! Q R L 9 x x l l l 4 4 l l l l x l 4 4 4 4 4 l 4 4 l 4 4 l l 4 4 4 4 4 3 f g j d d X.O.@.O.#.4.e.r.e.w.w.w.w.w.w.w.w.w.w.&.+.o.+.&.4.4.4.4.#.X.e d O.O.O.O.O.h 6 3 3 4 3 4 3 3 3 3 2 3 3 3 4 4 3 3 4 4 4 4 3 3 3 4 3 3 3 4 3 3 2 2 > + > > > > ",
"2 , , , , , , , , , , , , , , , 2 , , , 2 , , , 2 2 , , 2 2 2 , 2 , 2 2 2 2 2 2 2 , , , 2 2 2 2 3 2 2 , , , , , > > > + > > + o     o o o o + > 2 2 7 j 8.q.q.q.q.&.$.X.X.o.&.w.t.t.t.e.q.7.&.&.7.q.w. XoX XOXoXoX X Xt.e.w.r.r.q.q.,.+.X.d e X.@.@.:.:.:.2.0.0.0.0.0.0.0.0.0.0.0.2.0.0.2.` _ R K f 6 6 i i i i i 6 5 5 & $ : 6 i i i i i i i i i i i i i i i i i i i u t t t t t t i i i i i i i i i i i i g g i i g g i p i i i i i i i i i i i i i i i i i i i i i i i i i i i i i i i i i i i p i i p p i i i i i i i p p p p p i i i i i y i i i i i y y y y i i y i i y y y y i i i i i i i i i i i i i u i t t t 5 t t t t t t t u i i i i i i i i i i i i i i i i i i i i i i i i i i i p p i i i i i p i i i p i i i i i i i i i i i i i 5 & 5 t i i i i i i u 5 5 t p R E _ _ _ _ _ _ ` _ _ _ _ _ E R R U L K 9 4 l x 4 l 4 4 4 4 4 4 4 x 4 4 l 4 4 4 4 4 4 4 l l 4 4 4 4 3 4 2 f f d d e d O.@.O.+.4.q.r.e.r.w.w.q.q.w.w.w.w.q.&.$.o.+.4.4.q.4.4.#.O.h h O.O.O.@.O.h 6 3 4 4 3 4 3 3 4 3 3 3 3 4 4 4 4 3 3 3 3 4 3 3 3 4 3 3 3 3 3 3 2 2 > > > , > > ",
", , , , , , , , , , , , , , , , , , , , 2 , , 2 2 , , , , , , , 2 , 2 2 2 2 2 2 2 2 , , 2 2 2 2 2 2 2 2 , , , , , > > > > > + o     + + + @ > > 2 2 > - 8.q.q.q.q.&.+.X.X.X.$.w.e.t.t.e.w.7.&.&.&.7.w.|. X XoXoXoXoXoXt.e.w.w.r.q.q.4.#.O.d e X.O.@.@.Q ! >._ _ _ _ _ _ _ _ _ _ _ _ ` ` ` _ Q U L f 6 6 6 i i i i 6 5 5 & $ : 6 i i i i i i i i i i i i i i i i i i i i t t t t t t i i i i i i i i i i i i g g p g g K K K p i i i i i i i i i i i i i p i i i i i i i i i i i i i i i i i i i p i i i i p p p p p i i i i i i i i i i i i i y i i i i i y y y i i i i i i y y y y i i i i i i i i i i i i i u i t t t t t t t t t t t t i i i i i i i i i i i i i i i i i i i i i p i i i i i p p i i i i i p i i i p i i i i i i i i i i i i i 5 & 5 t i i i i i i u 5 5 5 p T T R R R R R R R R R T T R T L K f g f 6 3 l x 4 l 4 4 4 4 4 4 4 4 4 4 4 4 4 4 4 4 3 4 4 4 4 4 4 4 4 2 s f y w e e d O.@.O.+.,.q.e.e.w.w.w.q.q.w.w.w.w.q.&.%.o.+.&.4.q.4.4.$.O.O.@.@.O.O.O.O.j 6 3 3 4 3 4 3 3 3 3 3 3 3 3 4 4 4 3 4 3 3 3 3 3 3 3 3 3 3 3 3 3 2 > > > > , > > ",
", , , , , , , , , , , , , , , 2 , , , , , 2 , 2 2 , , , , , > , , , , , , , , , , , , , 2 2 , 2 2 2 2 , , , 2 2 , > > > + + + o     + + + + > > 2 2 > X ,.8.q.q.q.q.+.X.X.X.$.w.e.e.t.e.w.q.&.&.&.7.w.w. X XoXoXoX XoXoXe.e.w.w.q.q.q.$.+.X.e d X.h h h h Y R R R R R R E Q Q R Q Q ^ ^ ^ R W L K f 6 6 i i i i i 6 5 5 & $ : 6 i i i i i i i i i i i i i i i i i i i i t t t t t t i i i i i i i i i i i i i i g g g K K K p i i i i i i i i i i i i i p i i i i i i i i i i i i i i i i i i i i i i i i p K p p p i i i i i i i i i i i y i y i i i i i i i i i i i i i i i y i i i i i i i i i i i i i i i u i t t t t t t t 5 5 5 5 t t i i i i i i i i i i i i i i i i i i i i i i i i i i i i i i i i i p g g g p i p p p i i i i i i i i i 5 & 5 t i i i i i i i 5 5 5 i K T T T L L L L K K K K g g g i i y 6 6 6 2 x l 4 l 4 4 4 4 4 4 3 3 4 4 l 4 4 4 4 4 3 4 4 4 4 4 4 4 3 2 s 6 w w w e h O.@.@.+.,.q.q.q.q.q.q.q.q.q.q.q.q.q.4.%.o.+.4.4.q.4.4.,.+.O.O.@.h O.O.O.j 6 3 3 3 3 4 4 3 3 3 , 3 3 3 3 3 3 3 3 3 3 3 3 3 3 4 3 2 2 3 3 2 2 2 2 , , 2 , > ",
", > , > , , > , , , , , , , , , , , , , , 2 2 , , , , , , 2 , , , , , , , , , , , , , , , 2 2 3 2 2 , 3 , , , , 2 > > + > + +       o o + + > + > > , > j $.q.q.q.q.$.X.X.X.$.w.e.e.e.e.w.q.&.&.&.7.w.w.w. XoXoX X XoXt.t.e.e.w.r.q.4.$.+.O.O.X.d h h h h h k k k k k k P P P T T T L R R L L L L f 6 6 i i i i i 6 5 5 $ $ : 6 i i i i i i i i i i i i i i i i i i i i t t t t t t i i i i i i i i i i i i i i g p g K K K p p i i i i i i i i i i i i i i i i i i i i i i i i i i i i i i i i i i i i i p K K p p i i i i i i i i i i i i y y i i i i i i y y y y y y y y y y y i i i i i i i i i i i i i i u i t t t t t t t 5 5 5 5 t t t i i i i i i i i i i i i i i i i i i i i i i i i i i i i i i i i p p g g p i i p p i i i i i i i i i 5 & 5 t i i i i i i i 5 < 5 i K K K K K K K K i i i i i t t t 5 5 : ; ; 2 4 4 4 l 4 l 4 4 4 4 4 4 4 4 4 4 4 4 4 3 3 4 4 4 4 4 4 4 2 = 6 f w w w e d O.@.@.#.,.q.q.q.4.q.4.4.q.q.q.q.q.q.&.$.o.$.4.4.q.q.4.,.+.O.@.O.j O.O.O.j 6 3 3 4 3 3 3 3 3 3 3 3 3 3 3 3 3 3 3 3 3 3 3 3 3 3 3 2 2 3 2 , 3 3 3 , , 2 2 > ",
"> > > > > > , , , , , , , , , , , , , , , 2 2 , , , , , , , , , > , , , , 2 2 , , , , , , , , , 2 2 , , , , , , 2 > > > + + o         o + + + + + > 2 > Q ,.$.q.q.q.q.o.X.X.#.w.e.t.t.e.e.w.&.&.&.w.w.w.e.e..X.X.X XoX.Xt.e.e.w.q.q.4.$.+.+.O.X.d h h h h h k k g f f y f i f f i L K K L L L L f 6 6 6 6 6 t t i t i 5 & $ 5 t i i i i i i i i i i i i i i i i i i i i i i i t 5 t i i i i i i i i i i i i i i i i i i i i p p g i i i i i i i i i i i i i i i i i i i i i i i i i i i i i i p p p p p p p K p p i i i i i i i i i i i i i i i i i i i i y y y y y y y t y t y t y i i i i i i i i i i i i i i i i i i t t t t t t i i i i i i i i i i i i i i i i i i i i i i i i i i i i i i i i i i i i i i i i i i i i i i i i i i i i i i i 5 & 5 t i i i i i i i 5 : * 5 t i 6 6 6 6 6 6 ; ; ; ; ; ; ; ; ; ; ; ; < 2 4 4 9 x x 9 4 4 4 4 9 9 3 4 4 4 4 4 4 4 3 4 3 4 4 4 4 3 2 6 6 w w w w e d O.@.,.,.,.4.4.4.4.4.4.4.4.4.4.q.q.&.&.+.o.$.$.&.q.4.$.+.O.O.@.O.h h j d j 6 3 3 3 2 3 3 3 3 3 3 , 3 3 3 3 3 3 3 3 3 3 3 3 3 3 , 2 , 2 2 3 3 3 2 2 3 3 2 2 ",
"> > > , > > > > , > > , , , , , , , , , , , , , , , , , > , > > > > , > , , , , , , , , , 2 2 , , , , , , , > , > > > > + o             + + > > + > > 2 Y $.7.q.q.w.q.$.X.X.+.r.e.t.t.e.t.w.&.&.&.q.w.w.e.e.e..Xt.t.t.t.t.t.e.w.q.q.$.#.+.#.+.O.d d h h h h k g g f y y f f f f i f f f f f f f f 9 6 6 6 6 t t i i i 5 & $ 5 i i i i i i i i i i i i i i i i i i i i i i i i t 5 t i i i i i i i i i i i i i i i i i i i i g g g i i i i i i i i i i i i i i i i i i i i i i i i i i i i i i i p p p p p p p p i i i i i i i i i i i i i i i i i i i i i y y y y y y y y y y t t t i i i i i i i i i i i i i i u i i t t t t t t t i i i i i i i i i i i i i i i i i i i i i i i i i i i i i i i i i i i i i i i i i i i i i i i i i i i i i i i 5 & 5 t i i i i i i i 5 : & : 5 6 5 5 ; ; ; ; ; ; ; ; ; ; & & & & & & < 2 x 4 4 4 9 4 4 4 4 4 3 3 4 4 4 4 3 4 3 4 4 4 4 4 4 4 3 3 = = - - w w w e d O.@.,.,.,.,.,.,.,.4.4.4.4.4.4.4.4.4.$.+.+.#.$.&.q.$.$.+.O.O.@.@.h j d d j 8 2 3 3 2 3 3 3 3 3 3 3 3 3 3 3 3 3 3 3 3 3 3 3 3 3 3 2 , 3 , 2 2 2 2 2 2 2 2 3 ",
"> > > > , , > > > > , , > > > > > , , , 2 2 2 , , , > , , > , > > > > > > > > > , , , > , , , , , , , , , > , , , , > + o o           o @ + > + + + + > Q ,.8.q.q.q.q.q.X.e +.q.e.e.e.t.e.w.q.&.&.w.w.w.w.w.e.|.e.e.t. X Xt.e.e.w.q.$.+.O.#.#.O.X.d d h h h j g f y y y y y y i i i s 6 6 i i 6 6 8 ; ; 6 6 t i i i i 5 & $ 5 t i i i i i i i i i i i i i i i i i i i i i u i t t t i i i i i i i i i i i i i i i i p p g g g g i i i i i i i i i i i i i i i i i i i i i i i i i i i i i i i i i i i i i i p i i i i i i i i i i i i i i i i i i i i i i y y y y y y y y y y y y t i i i i i i i i i i i i u i i i u i t t t t t t i i i i i i i i i i i i i i i i i i i i i i i i i i i i i i i i i i i i i i i i i i i i i i i i i i i i i i i 5 & 5 i i i i i i i i 5 ; & & ; ; ; ; ; ; ; ; X X X X X X X X X X X O = 3 4 4 4 4 4 3 4 4 4 4 3 2 2 3 3 3 3 4 3 4 4 4 4 3 3 4 3 2 = $ - w w w e e j O.@.:.,.,.,.,.,.,.$.$.4.4.4.4.4.4.&.$.+.+.#.$.$.4.$.$.+.+.O.@.h j j d d j 5 3 3 3 3 3 3 3 3 3 3 3 3 3 3 3 3 3 3 3 3 3 3 3 3 3 3 > > , , , 2 3 3 , > , 2 2 ",
"> > > > > > > , , > , > , , , , > , , , , , , , , > > , , > > , > > > , > > > > > > , , > , 2 , , , , , 2 , , , , > > + + o           o + + + + o + + > X h $.q.q.q.q.q.$.X.X.4.w.e.e.e.e.w.q.&.&.w.w.w.e.e.e.w.w.e.e.e.t.e.e.e.w.q.$.O.X.#.#.@.X.d d h h j g g y w w : : 5 5 5 5 6 6 6 6 6 6 5 ; ; ; ; 6 t t i i i i 5 & $ 5 t i i i i i t t t t i t t t i i i i i i i i u i t t t i i i i i i i i i i i i i i i i p p g g g g p i i i i i i i i i i i i i i i i i i i i i i i i i i i i i i i i i i i i i i i i i i i i i i i i i i i i i i i i i i i i y y y y y y y y y y y y t i i i i i i i i i i i i i i i i u t t t t t t t i i i i i i i i i i i i i i i i i i i i i i i i i i i i i i i i i i i i i i i i i i i i i i i i i i i i i i i 5 & 5 t i i i i i i i 5 & X $ $ & X X X X X X O O O O O O O O O O O O 2 3 3 4 l 4 4 3 3 4 4 4 3 , 3 3 3 3 3 3 3 4 3 4 4 3 4 4 3 + = - - w w w w e d h O.:.@.,.,.,.,.#.#.$.$.$.$.&.4.$.$.#.+.+.+.$.$.$.$.#.O.+.O.O.h j j j d j 6 2 3 2 3 3 3 3 3 3 3 3 2 3 3 3 3 3 3 3 3 3 3 3 3 3 3 3 2 2 3 2 2 2 2 2 2 3 2 2 ",
"> > > > > > , , > > > , > > > > > , > > > , , , > > > , , > > , , > > > , > > > > > , , , > , , 2 2 2 2 , , , , > + + o + + o           o o o + + + > > O h $.q.q.q.q.q.&.X.X.$.r.e.e.e.w.q.q.&.&.w.w.w.w.e.e.w.w.w.w.w.w.e.e.w.w.q.$.+.X.+.#.@.O.d d d h h y y w w w : $ & & & ; ; ; ; ; ; ; & X X & 5 6 t t t i i i 5 & $ 5 i i i i i t 5 5 5 t 5 5 5 5 i i i i i i i i u u t t t i i i i i i i i i i i i i i i i i p i i g g i i i i i i i i i i i i i i i i i i i i i i i i i i i i i i i i i i i i i i i i i i i i i i i i i i i i i i i i i i i i y y y y y y y y y y y y y y i i i i i i i i i i i i t i t u t t t t t t t t i i i i i i i i i i i i i i i i i i i i i i i i i i i i i i i i i i i i i i i i i i i i i i i i i i i i i i i 5 & 5 i i i i i i i i 5 & . . . . O O . . . .             O O O O O @ 9 9 4 x 4 4 3 3 3 4 3 3 3 3 4 4 3 3 3 3 4 3 4 3 3 4 4 4 3 X - - w w w w w e d h O.:.@.#.@.+.#.#.#.#.$.$.$.$.$.$.$.#.+.O.+.#.$.$.#.+.O.O.O.O.h j j d d j 6 2 2 , 3 3 3 3 3 2 2 3 3 3 3 3 3 3 3 3 2 3 3 3 3 3 2 2 , 2 2 3 2 2 3 2 2 2 2 2 ",
"> > > > > > > > > > > > > > > > , , > > > , , , > > > > > > , , , > > > > > > > > > > > > > > , , , , , , , > , , > + + + + o         o + + + > > + > > o h $.$.7.q.q.q.q.o.X.+.q.w.w.e.e.q.4.&.&.w.w.w.w.w.e.w.w.w.w.w.w.w.w.w.q.q.&.+.X.O.#.@.O.d d d j g y w w w w % $ $ $ $ $ $ X X X X X X X X & : 6 i t t t i i 5 & & 5 i i i i i 5 5 5 5 5 5 5 5 5 t i i i i i i i u u t t t i i i i i i i i i i i i i i i i i p i i i i i i i i i i i i i i i i i i i i i i i i i i i i i i i i i i i i i i i i i i i i i i i i i i i i i i i i i i i i i i i i y y y y y y y y y y y y y y i i i i i i i i i i i i t i t t t t t t t t t t i i i i i i i i i i i i i i i i i i i i i i i i i i i i i i i i i i i i i i i i p p i i i i i i i i i i i i i : & 5 5 i i i i i i i 5 & . . .                           O O O O O @ 9 9 4 l 4 3 3 3 3 4 3 3 3 3 3 3 3 3 3 3 3 4 3 3 3 3 3 3 2 ; - - w w w w w e d O.@.@.@.@.@.+.@.+.+.#.#.$.$.$.$.$.$.+.+.+.+.#.#.#.+.+.O.O.O.O.h h d d d j 6 2 2 2 2 3 3 3 2 3 2 , 3 3 3 3 3 2 3 2 2 2 3 3 3 2 3 3 , , 2 3 3 2 2 3 2 , , 2 ",
"> > > > > > > > > , > > > > , , , > > > , , , > > > > > > > > > > > > > > > > , , > , , > > , , , , , , > > > > > > > @ + o           o o + + + + + + + o h $.$.$.7.q.r.q.+.o.+.4.w.e.e.e.w.4.&.&.7.w.w.w.e.e.w.w.w.w.w.w.w.w.w.w.q.4.+.X.X.#.@.O.d e e h h y w w w : $ $ . . . . . . . O . . .   . & 5 6 6 t t t t i 5 & & 5 i i i i t t t i 5 5 5 5 5 5 t i i i i i i i i i t t t i i i i i i i i i i i i i i i i i i i i i i i i i i i i i i i i i i i p i i i i i i i i i i i i i i i i i i i i i i u u i i i i i i i i i i i i i i i i i i i i i i i y y y y y y y y y y y y y i i i i i i i i t t t t i i i i i i i i i i i i i i i i i i i i i i i p i i p p i i b b b b p p i i i i i i i i i i i i i i i i i i i i i i i i i i i 5 5 5 5 & $ * 5 i i i i i i t 5 $ .                                       @ 8 > 3 4 4 4 2 > 3 3 4 4 3 3 3 3 3 3 3 3 3 3 3 3 3 3 3 3 2 + ; - w w w w w w w d O.@.@.@.@.O.O.O.O.O.+.+.#.#.#.#.#.#.+.O.O.+.#.#.+.+.+.O.O.O.h d d d d d d ; > 2 2 2 3 3 2 3 2 3 3 3 3 3 3 3 2 2 , 2 3 3 2 2 2 2 3 2 2 2 2 3 2 2 2 2 , , 2 ",
"> > > > > + > > > > > > > > > > > > > > > > , > > + > > > , , > + > > > > > > > > > > , > > > > , , > > > > > > > > > + > o o         o o + o + o + + + + j $.$.$.7.q.r.q.$.o.o.$.q.r.e.e.w.q.&.&.&.w.w.w.w.w.e.w.w.w.w.w.w.w.w.r.q.q.$.O.O.#.@.O.d e e h h p y w w - % $ $ . . . . . .           . & 5 6 6 i i i i i 5 & & 5 i i i i i i i i 5 5 t t t t i i i i i i i i i i i i i i i i i i i i i i i i i i i i i i i i i i i i i i i i i i i i i i i i p p i i i i i i i i i i i i i i i i i i i i i u u i i i i i i i i i i i i i i i i i i i i i i i y y y y y y y y y y y y y i i i i i i i i i i i i i i i i i i i i i i i i i i i i i i i i i i p p i i p p i i i i p p i i i i i i i i i i i i i i i i i i i i i i i i i i i i i i 5 5 5 & $ : t i i i i i i t 5 O .                                     o < L > 3 4 4 3 2 2 3 4 4 4 3 4 , 3 3 3 , 2 3 3 3 2 2 3 3 3 2 = = - - w w w w w e d O.O.O.O.O.O.X.X.X.O.O.O.O.O.+.+.+.+.O.X.X.+.+.X.o.O.+.O.X.O.h d d d d d w ; , , , 2 2 3 2 , , 3 3 3 3 2 , 2 2 2 3 2 2 2 2 2 , 2 , 2 2 2 3 2 2 2 2 2 , , 2 ",
"> > > > > > > > > > > > > > > > > > > > > > > > > + > > > > > > + > > > > > > > > > > > > , 2 > , , > > > > > > > > > > + o o       o o o + o + + o + + + g $.$.$.7.q.q.q.$.o.X.+.4.q.r.e.w.q.4.&.&.7.w.w.w.w.w.w.w.w.w.w.q.q.q.q.q.q.4.#.#.,.@.O.d d e h h p y w w - % % $ # . . .               . & 5 6 6 i i i i i 5 & & 5 i i i i i i i i i i i t t i i i i i i i i i i i i i i i i i i i i i i i i i i i i i i i i i i i i i i i i i i i i i i i i i i p i i i i i i i i i i i i i i i i i i i u u u u i i i i i i i i i i i i i i i i i i i i i i i y y y y y y y y y y y y t i i i i i i i i i i i i i i i i i i u i i i i i i i i i i i i i i i g b i i p i i i i i i i i i i i i i i i u u i i i i i i i i i i i i i i i i i i i t 5 5 5 & $ : 5 i i i i i t t < O                                       @ = W > 3 4 4 3 2 , 3 4 4 4 4 3 , , 2 3 2 3 3 3 3 2 2 2 3 2 = = - $ - w w w w w e h h O.O.O.O.X.h X.X.O.X.O.O.O.O.+.O.O.X.X.X.O.X.X.X.O.O.O.O.O.h d d d d d w ; > , 2 , 2 2 , , , , 2 , 2 2 , , 2 2 2 , 2 2 , 2 , > > 2 2 2 2 2 2 2 2 , , , , ",
"> > + + > > > > > + > > > > > > > > > > > > > > > > > > > > > > > > > > > > > > > > > > > 2 3 > > > > > > > > > > > > > + o o         o o o + + o + + + + f $.$.$.7.q.q.q.$.o.X.+.4.q.r.e.w.q.q.&.&.&.7.w.w.w.w.w.w.w.q.q.q.q.q.q.q.q.q.,.,.,.@.O.d d e a a p u w w - * % % # . . .               . & 5 i i i i i i i 5 & & 5 i i i i i i i i t i i i i i i i i i i i i i i p b i i i i i i i i i i i i i i i i i i i i i i i i i i i i i i i i i i i i i i p i i i i i i i i i i i i i i i i i i i u u u u i i i i i i i i i i i i i i i i i i i i i i i y y y y y y y y y y y y t i i i i i i i i i i i i i i i i i i u i i i i i i i i i i i i i i i K b i i p i i i i i i i i i i u u i t u u i i i i t i i i i i i i i i i i i i i t t 5 5 5 & $ : t i i i t t t t < O                                       O 8 W > 4 4 4 3 3 3 3 4 4 3 3 3 2 2 , 3 2 2 3 2 3 2 2 3 2 + = = - - $ - w w w e e h h O.h O.h d d d X.X.X.X.X.O.O.O.O.O.X.X.X.X.X.X.X.X.O.O.O.h d d d d j w w ; > , , 2 2 , , , , , , 2 3 , , , , , , 2 2 , , 2 2 , 2 2 2 2 2 2 , 2 , , , , , ",
"> > > + + + > > > > + + > > + > > > > > > > > > > > + > > > > > > + + > > > > > > > > > > > > , > > > > > > > > > > > > > +           o o + + + + + + + + f @.$.$.&.q.q.q.$.o.X.o.4.q.w.e.e.w.q.&.&.&.7.w.w.w.w.w.w.q.q.q.q.q.q.q.q.q.q.q.,.,.@.O.d d e e e p u w w - - * % % . . .               . & 5 i i t t t i i 5 & & 5 t i i i i i i i i i i i i i i i i i i i i i i b b b b p K i i i i i i i i i i i i i i i i i i i i i i i i i i i i i i i i i i i i i i i i i i i i i i i i i i i i t t i t t t i i i i i i i i i i i i i i i i i i i i i i y y y y y y y y y y y y y y i i i i i i i i i i i i i i i i i i u i i i i i i i i i i i i i i p b b i i i i i i i i i i i i i t t t t t i i i i i i i i i i i i i i i i i i i i 6 5 5 5 5 & $ : 6 i i i i i i i < O                                       @ = 9 2 3 3 4 3 3 3 3 3 3 4 3 4 2 , 3 2 3 3 2 2 2 2 2 3 2 = = = $ - $ - w w w e e h h O.h O.d d d d d d X.X.X.X.X.O.O.O.X.X.X.X.X.e e X.X.O.X.h d d d d d w w ; > , , , , , 2 , , , , , 2 2 , 2 2 , 2 2 , , , 2 , 2 2 2 2 2 , 2 , , , 2 , , , ",
"+ + > > + + + + + + + + + > + + > + > > > > > > > > > > > > > > + + + + > > > > > > > > > > > > > > > > > > + > > > > + + o o       o o o o + o + + + + o i :.$.$.7.q.q.q.$.+.o.$.4.q.r.e.e.w.q.&.$.$.&.7.q.w.w.w.q.q.q.q.q.q.q.q.q.q.q.q.q.,.+.X.d d e e e p y y w - - * % % . . .               . & 5 i 6 5 5 t t i 5 & & : t i i i i i i i i i i i i i i i i p p p i i i b K K K K K K K K i i i i i i i i i i i i i i i i i i i i i i i i i 5 i i i i i p i i i i i i i i i i i i i i i i i t t i t i i i i i i i i i i i i i i i i i i i i i i i i y y y y y y y y y y y y y t i i i i i i i i i i i i i i i i i i t i i i i i i i i i i i i i i p b b i i i i i i i i i i i i t t t t 5 5 i i i t t t 5 5 t 5 6 i i i i i i i 6 6 6 5 5 5 5 & X ; 5 t i i i i i t & O                                     X O = ; > 3 4 3 3 3 3 3 3 3 3 3 3 2 , 3 2 3 2 2 2 , 2 2 2 = = = - - - $ - w w w w e h h O.h h d d d d d d X.X.X.X.X.X.X.X.X.X.X.X.d e e d X.X.X.d d d e w w w - ; > > , , > , , , , , > , , 2 , , 2 2 2 , 2 2 , , , > , 2 2 , 2 , 2 , , 2 , , , ",
"+ + + + + + + + + + + + + + + > > + > > > > > > + + > > > > > > + + + + > > > > > > > > > > > > > > > > + + + + > > + + + + o         o o o + + + + + + o o $ @.8.q.q.7.7.7.7.$.$.$.q.q.q.w.q.q.&.&.o.$.&.q.q.q.q.q.q.q.q.q.q.q.q.7.q.q.q.4.,.#.X.d d e e w w w w w w - - * $ $ . . .           . X ; 6 i K K K g g i t ; & 5 i 6 5 i i i i i i i i i i i i i b n K K K K K K K K K L L K K K p i i i i i i i i i i i i i i i i i i i i i i i i i i i i i i i i i i i t t i i i p b K p i i i i i i i i i i i i i i i i i i i i i i i i i i i i i i i i i y y y y y y y y y y y y y i i i i i i i i i i i i i i i i i i i i i i i i i i i i i i i i i i i i i i i i i i i i i i i i i i i t 5 5 t t t t t 5 5 5 5 5 5 5 t t i i i 6 6 6 6 6 6 6 8 & X & 5 6 6 6 6 6 6 5 5 ; & X O . X X X X X X $ $ & & ; ; 6 s f f f s o 2 4 4 3 3 3 3 3 3 3 3 2 , , 2 2 2 2 2 2 2 2 2 = = = - $ - $ $ - w w e e d h h O.O.h d d e d d d d X.X.X.X.d X.X.X.X.X.e e e e e e X.d d e e w w w - - ; > , > > , , , , , , , , , , , , 2 2 , , 2 , , , , , , , , 2 , 2 , , , 2 , , , ",
"+ + + + + + + > + + + + + + + + + + > > > > > > > + + > > > > > > + + + > > > > > > > > > > > > > > > + + + + + + + > > + o           o + + o + + + + + + o $ @.$.8.8.9.7.q.7.$.$.$.q.q.r.r.q.q.&.&.o.$.&.q.q.q.q.q.q.q.q.7.q.7.7.&.&.q.q.,.,.#.O.X.d e e w w w w w : - * % $ ; : 5 5 5 5 ; 5 5 5 6 6 f K K g K g f i t ; & 5 6 6 t i i i i i i i i i i i i i b b K K K K K K K K K L K K K K g i i i i i i i i i i i i i i i i i i i i i i i i i i i i i i i i i i i i t i i i p b K b p i i i i i i i i i i i i i i i i i i i i i i i i i i i i i i i i y y y y y y y y y y y y y i i i i i i i i i i i i i i i i i i i i i i i i i i i i i i i i i i i i i i i i i i i i i i i i i i i t 5 5 5 5 5 5 5 5 5 5 5 5 5 6 6 t t i 6 6 6 6 6 6 6 6 8 & X & 5 6 6 6 6 6 6 6 i i t t t t 5 5 5 5 5 6 i i i i f f L R Q Q Q W L 2 3 3 3 3 3 3 3 3 3 3 3 , 2 2 2 2 2 2 2 2 2 2 = = - $ $ $ $ $ - w w e e d h O.h h d d e e d d d d d d d d d d d d d d e e e e e e e e e e w w w - - - @ > , , > , , , , , , , , , , , , , , , , , , , , , , , , , , , , , , , , > , , ",
"+ + + + + + + + + + + + + + + + + + + > > > > > > + > + > > > > > > + + + > > > > + > > > + > > + + + + + + + + + + o o o o           o + + o o + o o o o o X @.,.8.8.8.7.q.7.7.$.&.q.q.q.q.r.q.q.&.+.o.&.&.q.q.q.q.q.q.q.7.7.7.7.$.$.&.4.,.,.#.O.X.d e e w w w w w - - % $ $ : i f f P P P L U L L L L L K f f f i i 6 ; & 5 6 6 t i i i i i i i i i i i i i b b n K K K K K K K K K K K K K i i i i i i i i i i i i i i i i i i t i i i i i i i i i i i i i i i i i t t i i i p K K K p i i i i i i i i i i i i i i i i i i i i i i i i i i i i i i i i y y y y y y y y y y y y y i i i i i i i i i i i i i i i i i i i i i i i i i i i i i i i i i i i i i i i i i i i i i i i i i i i i 5 5 5 5 5 5 5 5 5 5 5 5 5 5 6 6 6 6 6 6 6 6 6 6 6 6 5 & X & 5 6 6 6 6 6 6 6 i f g K L L K K L L L L T R R R R ^ _ 2.0.0.0.0.0.6 2 3 3 3 3 3 3 3 3 3 3 , , , , 2 2 2 , , , > = - - $ $ % $ $ - w w e e h O.O.X.d d d e d d X.d d d d d d d d d d e d e e e e e e e e e e w w w - - 6 + > > > > , , , , > > , , , , , , , , , , , , , , , , , , , , , , , , , , , , > ",
"+ + + + + + + + + + + + + + + + + + + + + + + + + + + + + > > + + + + + + + + + > + + + + + + + + + + + + + + + + o o o o o         o o o + o o o + + + o o X :.,.,.8.8.q.q.q.7.$.,.q.q.q.q.q.q.q.&.$.o.$.&.&.q.q.q.q.q.q.7.7.7.&.$.$.$.$.$.,.#.+.O.X.d e w w w w - : % $ $ * : i f P U Q ! ! _ _ ^ R L K f f f f i t 5 ; & 5 6 6 t i i i i i i i i i i i i i p b b b K K K K K K K K K K K K i i i i i i i i i i i i i i i i i t t i i i i i i i i i i i i i i i i i t t i i i i K K K K p i i i i i i i i i i i i i i i i i i i i i i i i i i i i i i i y y y y y y y y y y y y y i i i i i i i i i i i i i i i i i i i i i i i i i i i i i i i i i i i i i i i i i i i i i i i i i i i i t 5 5 5 5 5 5 5 5 5 5 5 5 5 5 6 6 6 6 6 6 6 6 6 6 6 5 & X & 5 6 6 6 6 6 6 t i f K L R R T T R R R R R R R ^ ^ _ _ 2.0.0.0.0.0.0.W 3 3 3 3 3 3 3 3 3 3 2 > , 2 2 , 3 , 2 > + - - $ $ - - - - w w e e d h O.X.d d e e e d d X.d d d d d d e e e e e e e e e e e e e e e e w w w - - 6 + > > > , , > > , > > , , , , , , , , , , , , , , , , , , , , , , , , , , > > > ",
"+ + + + + + + + + + + + o + + + + + + + + + + + + + + + + + > + + + + + + + + + + + + + + + + + + + + o + + + + + o o o o o           o o + + o o o + o o o O :.:.,.8.8.8.q.q.8.$.$.q.q.q.q.q.q.4.&.$.o.+.$.&.&.7.q.q.q.&.&.&.$.$.$.$.$.$.$.$.,.@.O.O.d e w w - % % % % % % * : y y f P W Q Q ^ Q R L K f f g f i y t 5 ; & 5 6 i i i i i i i i i i i i i i i i i b b b b b b b b K K K b g i i i i i i i i i i i i i i i i i t 5 t i i i i i i i i i i i i i i i i i i t i i i p K L K K p p i i i i i i i i i i i i i i i i i i i i i i i i i i i i i i y y y y y y y y y y y y y i i i i i i i i i i i i i i i i i i i i i i i i i i i i i i t t i i i i i i i i i i i i i i i i i i i 5 t 5 5 5 5 5 5 5 5 5 5 5 5 5 5 5 5 5 6 6 6 6 6 6 6 6 5 X X & 5 6 6 6 6 6 6 t i f g K K L K K K K K K K K L L T R R ^ ! ! Q Q Q _ ^ 2 3 3 3 3 3 3 3 , 2 2 > , , , 2 , , , + = - $ % - w w w w w w e e h X.X.X.d e e e d d d d d d d d d d e e e e e e e e e e e e e e e e w w w w w 5 > > , > , , > > > > > > , , , , , , , , , , , , , > > , > > , , , , , > > > > > ",
"+ + + + + + + + + + + + o o + + + + + + + + + + + + + + + + + + + + + + + + + + + + + + + + + + + + + o o + + + + o o o o             o o o o o o o o + o o O h @.:.,.8.$.8.q.8.8.7.8.8.8.8.q.4.4.&.$.+.+.$.$.&.&.7.q.&.$.$.$.$.$.$.+.#.#.#.#.#.#.O.O.d e w w - $ $ % % - % % : : : y f k U U P g K g f f f f i i t t 5 ; & 5 6 i i i i i i i i i i i i i i i i i i p i i i i i i b K K p p i i i i i i i i i i i i i i i i i i 5 5 i i i i i i i i i i i i i i i i i i t i i i p K L K K K g i i i i i i i i i i i i i i i i i i i i i i i i i i i i i i y y y y y y y y y y y y y i i i i i i i i i i i i i i i i i i i i i i i i i i i i i i t t i i i i i i i i i i i i i i i i i i i 5 5 5 5 5 5 5 5 5 5 5 5 5 5 5 5 5 5 5 6 6 6 6 6 6 6 6 5 & X & 5 6 6 6 6 6 6 6 i i i i i i f f f f f i i f f g K K g K L K f f f f f 7 3 3 3 3 , 3 3 3 3 , , , , , 2 , , > = = - - 0 w w w w w w w e d h X.X.X.e e e e e d X.d d d d d d d e e e e e e e e e e e e e e e w w w w - w ; > , > , > > > > > > > > , , , , > , , , > , , , , > > , , , , , , , , , > > > > ",
"+ + + + + + + + + + + + + o o o + + + + + + + + + + + + + + > + + + + + + + + + + + + + + + + + o o o + + + + + + + o   o             o o o o o o o o o o o   O k :.,.,.8.8.7.$.8.8.8.8.8.7.7.$.&.$.$.+.+.o.$.$.$.$.$.$.$.$.$.$.$.$.+.+.+.+.#.#.#.+.O.d e w w - - - - - - - % - % - w y g g f f f y f f f f y 6 6 6 5 5 & & < 5 6 i i i i i i i i i i i i i i i i i i i i i i i i i i i i i i i i i i i t 5 i i i i i i i i i i i i i i i i i i i i i i i i i i i i i i t i p K K K K K K p i i i i i i i i i i i i i i i i i i i i i i i i i i i i i i i y y y y y y y y y y y y y t i i i i i i i i i i i i i i i i i i i i i i i i i i i i i i i i i i i i i i i i i i i i i i i i t i i 5 5 5 5 5 5 5 5 5 5 5 5 5 : : 5 5 5 5 6 6 6 5 5 5 5 6 & X & 5 6 5 6 i i t i t t t y i t 6 6 6 6 6 6 6 6 6 i i i f f f y 6 6 - - 6 2 2 3 3 2 , 3 3 3 3 , , 2 > , , , > + = - - - w w w w w w w e e d X.O.X.X.e e e e d d d d e e e d d d e e e e e e e e e e e e e e w w w w w - - O > > > > > > > + > + > > > > > > , > , , > > , > > > , > > , > , , , > > > > > > ",
"+ + + + + + + + + + + + + + + o o + + + + + + + + + + + + + + + + + + + + + + + + + + + + + + + + o o + + + + o o o                   o o o + + o o o o o o o   g :.,.,.$.$.$.$.$.$.$.$.$.8.$.$.$.$.$.+.o.+.+.$.$.$.$.$.$.$.$.$.$.+.+.+.O.O.#.#.#.@.O.O.d e w w - - - - - - - - - - : w y y f f y y y y y y y 6 6 6 5 : & & < 5 i i i i i i i i i i i i i i i i i i i i i i i i i i i i i i i i i i i i t t i i i i i i i i i i i i i i i i i i i i i i i i i i i i i u i i i p K K K K K p i i i i i i i i i i i i i i i i i i i i i i i i i i i i i i i y y y y y y y y y y y y y t i i i i i i i i i i i i i i i i i i i i i i i i i i i i i i i i i i i i i i i i i t t t t t t i i i i t 5 5 5 5 5 5 5 5 5 5 5 5 : 5 5 5 5 5 6 6 6 5 5 5 5 6 & X ; 6 6 5 6 i i i i t t y y i t 6 6 6 6 6 t 6 6 6 i i i f f s 6 6 6 - - - = 2 3 2 2 3 3 3 3 , , , , > , 2 , > = = - - - w w w w w w w e e h O.O.X.X.e e e e d X.d d e e e e e e e e e e e e e e e e e e e e e w w w w - $ @ , > > > > > + + > > + > > > > > > > , , > > > > > > > > > > > > , > , > > > > > ",
"+ + + + + + + + + + + + + + + + + + + + + + + + + + + + + + + + + + + + + + + + + + + + + + + + + + + + + + + + o o o                 o o o o o o o     o o + o g :.,.,.$.$.$.$.$.$.$.$.$.$.$.$.$.$.$.+.o.o.+.#.$.#.$.#.#.#.$.$.+.+.+.+.O.O.+.#.#.#.@.O.X.d e w w - - - - - - - - - - - : w y y y y w w : y y 6 6 6 5 5 & & < 5 i i i i i i i i i i i i i i i i i i i i i i i i i i i i i i i i g i i i i 5 t t t 5 5 t i i i i i i i i i i i i i i i i i i p p p i i i i i p p K K K K p i i i i i i i i i i i i i i i i i i i i i i i i i i i i i i i i y y y y y y y y y y y y y i i i i i i i i i i i i i i i i i i i i i i i i i i i i i i i i i i i i t t i i i i t t t t t t i i i i i 5 5 5 5 5 5 5 5 5 5 5 5 5 5 5 5 5 5 6 6 6 6 6 5 5 6 & X ; 6 6 5 6 i i i i i i i i i t 6 6 6 6 6 6 6 5 6 i i i y i 6 6 6 6 - - - = 2 2 2 2 2 , 3 , , > , , , , , > + = - - $ - w w w w w w e e d X.O.O.X.X.e e e e X.X.X.d e e e e e e e e e e e e e e e e e e e e w w w - w w $ @ > > > > > > > > + > > > > > > > > > > , > , > > > > > > > > , , > > > > > + + + ",
"+ + + + + + + + + + + + + + + + + + + + + + + + + + + + + + + + + + + + + + + + + + + + + + + + o o + + + + o o                         o o   o o o   o o   o o f :.,.#.#.$.$.$.$.$.$.$.$.$.$.$.$.$.#.+.o.o.+.+.#.#.#.#.#.#.#.#.@.+.+.O.X.X.O.+.#.#.@.@.O.h d e w w - - - - - - - - - - - - w w w w w w : y t 6 6 6 5 5 & & < 5 i i i i i i i i i i i i i i i i i i i i i i i i i i i i i i i i K K i i i i i i i i i i i i i i i i i i i i i i i i i i i p K K b p p i i i p p p b K p i i i i i i i i i i i i i i i i i i i i i i i i i i i i i i i i i y y y y y y y y y y y y y i i i i i i i i i i i i i i i i i i i i i i i i i i i i i i i i i i i i t t i i i i t t t t t t i i i i t 5 5 5 5 5 5 5 5 5 5 5 5 5 5 5 5 5 5 6 6 6 6 5 5 5 6 & X ; 5 6 5 6 i i i i i i i i i t 6 6 6 6 6 6 6 5 6 i i i y y 6 6 6 - - - - = 2 2 2 2 , , 2 , , , > > > , > + o = - - - - w w w w w e e e X.X.X.O.X.X.X.e e e X.X.d e e e e e e e e e e e e e e e e e e e e w w w w - w w - @ > > > + > > > > > + + + > > > > > > > > , > > > > > , , > > > , > > + + + + + + ",
"+ + + + + + + + + + + + o + + o o + + + + + + + + + + + + + + + + + + + + + + + + + + o o + + + o o o + + o o o                               o o o o   o   o o 6 :.@.@.#.$.$.$.#.#.$.$.$.$.#.$.#.#.+.o.X.X.O.+.+.#.#.#.#.#.#.+.+.+.+.+.X.X.O.+.+.#.#.@.O.h d e w w - - w - - - - - - - - - : : w w w w 6 y y t 6 6 5 5 & & < 5 i i i i i i i i i i i i i i i i i i i i i i i i i i i i i i i i K K p i i i i i i i i i i i i i i i i i i i i i i i i i p p K K K K K p i i i p p p p i i i i i i i i i i i i i i i i i i i i i i i i i i i i i i i i i i y y y y y y y y y y y y t i i i i i i i i i i i i i i i i i i i i i i i i i i i i i i i i i i i i i i i i i i t t t t t t i i i i i t 5 5 5 5 5 5 5 5 6 5 5 5 ; 5 5 6 5 6 6 6 6 6 6 5 6 & X ; 5 6 5 6 i i i i i i i 6 i t 6 6 6 6 6 6 6 6 6 i i i y y 6 5 : - - - - $ , , , , , , 2 , , > > 2 , > + + = = - - $ - - w w w w e a d h h X.X.X.X.e e e d d d e e e e e e e e e e e e e e e e e e e e e w w w w - - - : @ > > + > > > > > + + > + + > > > > > > > > > > > > > > , > > > > > > > + + > + + ",
"+ + + + + + + + + + + o o o + + + + + + + + + + + + + + + + + + o o + + + + + + + + + o + + + o o + + + + o                               o o       o o o o + + = k @.@.@.@.@.@.#.#.#.#.$.#.#.+.+.+.o.o.X.o.X.+.+.+.#.#.#.#.#.+.+.+.+.+.X.X.X.O.O.#.#.#.O.X.d e e w w w w w w w w w w - - - - - : : w y y y y t 6 6 5 5 & & < 5 i i i i i i i i i i i i i i i i i i i i i i i i i i i i i i i i K K g i i i i i i i i i i i i i i i i i i i i i i i i p p K K K K K K b p i i i i i p i i i i i i i i i i i i i i i i i i i i i i i i i i i i i i i i i i y y y y y y y y y y y y t i i i i i i i i i i i i i i i i i i i i i i i i i i t t t t i i i i i i i i i i i i t t t t t t t t t t t t 5 5 5 5 5 5 5 6 6 6 5 5 ; 5 5 5 5 6 6 6 6 6 6 5 6 & X & 5 6 5 6 i i i i i i 6 6 i t 6 6 6 6 6 6 6 6 6 i i i y y 6 6 : : - - - = > 2 , , > , , , > > > , > > o = = - $ - $ - - w w w e a d h h d d h e e e e e d d e e e e e e e e e e e e e e e e e e e e e w w w w w - - - : + > > + > > > > + + > + + + + > > + + > > > > > > > > > > > > > > > > > > + + + + ",
"+ + + + + o o o + o + + + o + + + o + + + + + + + + + + + + + + o o + + + + + + o o o o + + + + o o o o o o                                   o o     o @   o + o X h @.@.O.@.@.@.#.#.#.#.#.#.+.X.X.X.o.+.X.o.X.O.+.+.+.+.+.+.+.+.+.+.+.O.X.X.X.o.+.+.+.O.O.X.e e e w w w w w w w w w w : : - - w : : y y t t t t 5 5 5 & & 5 5 t t i i i i i i i i i i i i i i i i i i i i i i i i 5 5 t t t i i i i p K p i i i K K i i i i i i i i i i i i i i i p K K L T L K K K b i i i i i i i i i i i i i i i i i i i i i i i i i i i i i i i i i i i i i i i i i y y y y y y y y y y y t t t t i i i i i i i i i i i i i i i i i i i i i i i i i i t t 6 6 t t t t t t t t t t t i t t t t t t t 6 t 6 6 t 6 6 6 6 6 6 6 6 6 5 5 5 5 5 5 5 5 5 5 5 6 5 6 & $ & 5 5 6 6 6 6 t i i y 6 6 i t 6 6 5 5 5 5 5 5 6 i y y y y 6 6 5 : : - : ; > , 2 , > , , , > > > > + o = $ $ $ $ $ $ - w w w w e e d h h h d d e e e e d d e e e e e e e e e e e e e e e e e e e e e e w w w w w - - - ; + > > + + + + > + + + + + + + + + + + + > > > > > > > > > + + + > + + + + + + o o ",
"o o + + o o o o + + o o + + o o o o + + + + + + + + + + + + + + + + + + + + + + o o o + o o o o o o o o o                                   o o o o         o + + O : h O.O.O.O.@.#.#.#.#.#.+.+.X.X.X.X.+.o.o.o.X.+.+.+.+.+.+.+.+.+.+.+.+.o.o.X.X.o.+.+.O.X.X.X.e e e w w w w w w w w w w w - w : : : w y t t i i 5 5 5 & & 5 t t t i i i i i i i i i i i i i i i i i i i i i i i i 5 t t t t t i i i i i i i i i g K i i i i i i i i i i i i i i p K K L T T K K K b b i i i i i i i i i i i i i i i i i i i i i i i i i i i i i i i i i i i i i i i i i y y y y y y y y y y y y t t t i i i i i i i i i i i i i i i i i i i i i i i i i i t t 6 5 6 6 6 6 6 6 t t t t t t t t t 6 6 6 6 6 t t t t 6 6 6 t 6 6 6 5 6 5 5 5 5 5 5 5 5 5 5 5 5 5 5 & $ & 5 5 6 6 6 6 t i i y y 6 i t 6 5 5 5 5 5 5 5 6 i i y y 6 6 6 5 : - - : ; > , , , , , , , > > > + + = = $ $ - $ $ $ - - w w w e a d d d d e e e e e e d e e e e e w w w w e w w w w w e e e e e e e e w w w w - - - - = + > > > + + + + o o o o o + + + + + + + + > > > > + + + + + + o o + + + o + o o o ",
"o o o o o o o o o o o o o o o o o + + + + + + + + + + + + + + + + + + + + + o + o o + o o + o o o o o o o     o                                           o o + o o O d d X.O.O.O.@.+.@.#.#.+.o.X.X.X.X.o.o.o.o.X.+.+.+.+.+.+.+.+.+.+.+.+.o.X.X.X.X.o.o.+.O.X.X.d e e e w w w w w w w w w w w w w : : y y t t i t 5 5 5 & & : t t i i i i i i i i i i i i i i i i i i i i i i i i t 5 5 t t t 5 5 5 t i i i i i p K K b i i i i i i i i i i i i K K K K K L K K K b b i i i i i i i i i i i i i i i i i i i i i i i i i i i i i i i i i i i i i i i i i i y y y y y y y y y y y y t t i i i i i i i i i i i i i i i i i i i i i i i t i i i i i 6 6 6 6 6 t t t 6 6 5 6 6 t 6 t t 6 6 6 6 6 6 t t 6 6 6 6 6 6 6 6 5 5 5 5 5 5 5 5 5 5 5 5 5 5 6 6 ; $ & 5 5 6 6 6 6 t t i i i t t t 5 5 5 5 5 5 5 5 6 i i i i y 6 6 5 : : * : ; > > > , > > > > > > + = = = X X $ $ $ $ $ $ - - w w e h d d e e e w w w w e e e e e w w w w w w w w w w e e e e e e e e e e w w w w - - - : + + + + + + o o o o o o       o o o o o + + + + + + + + + + + + o o o + o o o o o o ",
"o o o + + + + + o o o o o o o o o + + + o o + + + + + o + + o o o o o o o + o o o + o o o o o o o o o o                                               o     o o o o o y d X.X.X.O.O.@.+.+.+.+.o.X.X.X.X.o.o.o.o.o.+.+.+.+.O.+.+.O.O.O.+.+.+.o.X.X.X.o.o.+.O.o.X.X.e e e e w w w w w w w w w w w w - : : w t t i t 5 5 : & & : t t t i i i i i i i i i i i i i i i i i i i i i i i 5 5 5 t t t 5 5 5 5 5 5 t i i i i i p i i i i i i i i i i i i K K K K K K K b p p i i i i i i i i i i i i i i i i i i i i i i i i i i i i i i i i i i i i i i i i i i i y y y y y y y y y y y y t t t i i i i i i i i i i i i i i i i i i i i i i i i i i i i 6 6 6 6 6 6 t t 6 6 6 6 6 6 6 6 t t 6 6 6 6 t t 6 6 6 6 6 6 6 6 6 5 5 5 5 5 5 5 5 5 5 5 5 5 6 6 6 ; $ & 5 5 6 6 6 6 t t i i t t t t 5 5 5 5 5 5 5 5 6 i i i i y 6 6 5 : : * : ; > > > > > > > > + @ = = = + X $ $ $ $ $ $ $ % % - w w y y y w w w w - - w w e e e w w w w w w w w w w w e e e e e e w w w w w w w w - - - 5 o o + + o o + o                 o o o o o o + + + + + + + + + o o o o o o o   o o o ",
"o o o o o o o o o o o o o o o o o o o + o o o o o o o o o o o o o o + + o o o o o + + o o o o o   o                                                     o       o o o y d d d d O.O.O.O.O.O.X.X.X.X.X.X.X.o.o.o.o.+.+.O.O.O.O.O.X.O.O.+.+.+.o.o.X.X.o.o.+.+.O.o.X.X.d e e e w w w w w w w w w w w w w : w y y y t 5 5 : & & : t t t i i i i i i i i i i i i i i i i i i i i i i i i 5 5 5 5 5 5 5 5 5 5 5 5 5 t i i i i i i i i t t i i i i i i i i i i i b b b i i i i i i i i i i i i i i i i i i i i i i i i i i i i i i i i i i i i i i i i i i i i i y y y y y y y y y y y y t t t i i i i i i i i i i i i i i i i i i i i i i i i i i t i 6 6 6 6 6 6 6 6 6 6 6 6 6 6 6 6 6 6 6 6 6 6 6 6 6 6 6 6 6 6 6 6 6 5 5 5 5 5 5 5 5 5 6 6 5 5 5 5 5 & $ & 5 5 5 6 6 6 t i i i i i i i 5 5 5 5 5 5 5 5 6 i i i y 6 6 6 6 : : * : ; @ + > + + + + o + = = ; = @ X $ $ $ X $ # $ % % - - : w w w w - $ $ % % $ w w w w w w w w w w w w w w w w w w w w w w w w w w w w - - w - 5 o + + + o                       o o o o o o + + + + o o o + + o o o o o o o   o o o ",
"o o o o o o o o o o o o o + o o o + o o + + o o o o o o o o o o o o o o o o + o o o o o o o o o                 o                                                     w d d d d X.O.O.O.X.X.X.X.X.X.e X.X.+.+.o.o.+.O.O.X.X.X.X.X.X.O.O.+.+.+.o.X.X.o.o.o.+.+.O.X.X.d e e e w w w w w w w w w w w w w w w y y y t 5 : : & & : y t t i i i i i i i i i i i i i i i i i i i i i i i i 5 5 5 5 5 5 5 5 5 5 5 5 5 5 5 i i i i i i i t t i i i i i i i i i i i i p i i i i i i i i i i i i i i i i i i i i i i i i i i i i i i i i i i i i i i i i i i i i i i t y y y y y y t t t t t t t t i i i i i i i i i i i i i i i i i i i i i i t t t i t 6 5 5 5 5 5 6 6 6 6 6 6 6 6 6 6 6 6 6 6 6 6 6 6 6 6 6 6 6 6 6 6 6 6 5 5 5 5 5 5 5 5 5 6 6 5 5 5 5 5 & $ & 5 5 5 6 6 6 t i i i i i i t 5 5 5 5 : : 5 5 6 i i y y 6 6 6 6 : : : : ; + + + o + o o @ ; ; ; X X O & $ $ X X . . $ % & * * % : - - $ $ $ $ $ $ % - w w w w w w w w w w w w w w w w w w w w w w w w w w - - - y $ 5 O o o o                                 o o o o o o + + o o o o o o o o o o o o o   ",
"        o o     o o     o o o o o o o o o o o o o       o o o o o o o o o o o o o o o o                                                                               y e d d d d X.O.O.O.X.X.X.X.X.e ] X.o.o.o.o.o.O.X.X.X.o.o.o.X.O.+.+.+.+.o.X.X.o.o.o.o.o.O.X.X.X.e e e w w e w w w w w w w w w - - - - : 5 5 y t 5 : $ : y t i t i i i i i i i i i i i i i i i i i i i i i i i t t t t i 5 5 5 5 5 5 5 5 5 t i i i i i i i i i i i i i i i i i i i i i i i i p p i i i p p p i i i i i i i i i i i i i i i i i i i i i i i i i i i i i i i i i i t t t t t t t t t t t y t t t i i i i i t i i t t t t i i i i i i i i i i i i t t t t i 6 5 5 5 5 5 6 6 6 6 6 6 6 6 6 t 6 6 6 6 6 6 6 6 6 6 t 6 6 6 6 6 6 6 6 5 5 5 5 5 5 5 5 5 5 6 6 6 i 5 & & & 5 5 5 5 6 i i i 6 6 6 6 6 6 5 5 5 5 5 5 5 5 6 i i i y 6 6 6 5 : ; ; & ; @ o + + + o = ; = ; ; & & & $ X $ $ X X X # $ $ & & ; - - $ $ $ $ $ $ $ $ % - - 0 0 w w w w w w w w w w w w w w w w w w w w w w - - - - - ; O o o o                                   o   o o o o o o   o       o o o o o o o   ",
"                                                                                                                                                                      - d e e e e X.X.O.X.X.X.X.X.X.e ] X.o.o.X.X.o.O.O.O.X.o.o.X.X.X.+.+.+.+.o.X.X.X.o.o.o.o.X.O.O.X.d e e e w w w w w w w w w w w - - - : : : 5 y y y : : : : 6 t t i i i i i i i i i i i i i i i i i i i i i i i t t i i i 5 5 5 5 5 5 5 5 5 t i i i i i i i i i i i i i i i i i i i i i i i i i i i i i i i i i i i i i i i i i i i i i i i i i i i i i i i i i i i i i i i i i i t t t t t t t t t t t y y t t i i i i i t i i t t i i i i i i i i i i i i i i t t i i i 6 5 5 5 5 5 6 6 6 6 6 t 6 6 6 6 6 t 6 6 6 6 6 6 t t t 6 6 6 6 6 6 6 6 5 5 5 5 5 5 5 5 5 5 6 6 6 i 5 & & & 5 5 5 5 6 i i i 6 6 6 6 6 6 5 5 5 5 5 5 5 5 6 i i i y 6 6 6 5 : ; ; : ; O         X ; ; ; ; < ; & & & $ $ $ X X X X & & & ; ; ; ; ; $ & & $ & $ $ $ % % % % % % w w w w w w w w w w w w - w w w w 0 % - - - - - - :                                                                                     ",
"                                                                                                                                                                      $ w w w e e e e X.X.X.X.X.X.] e } X.+.o.X.X.o.X.X.X.o.o.o.X.X.X.X.o.o.o.o.X.X.X.X.o.o.o.o.X.X.X.X.e e e w w w w w w w w w w w - - % % - : : : : y : : : : : 5 t i i i i i i i i i i i i i i i i i i i i i i i i i i i i 5 5 5 5 5 5 5 5 t i i i i i i i i i i i i t t t i i i i i i i i i i i i i i i i i i i i i i i i i i i i i i i i i i i i i i i i i i i i i i i i i i i i i i t t t t t t t t t t i t t i i i i i t i t t t i i i i i i i i i i i i i i i i i i i 6 5 5 5 5 5 6 6 6 6 6 6 6 6 6 6 6 t t 6 6 6 6 t t t 6 6 6 6 t 6 6 6 6 6 5 5 5 5 5 5 5 5 5 6 6 6 i 5 ; & & 5 5 5 5 6 i i i 6 6 6 6 6 6 6 5 5 5 5 5 5 5 6 i i i y 6 6 6 5 : & : 5 : < o   o @ 6 ; 5 < < < ; ; & $ X $ $ X X X $ & & ; ; ; ; ; ; & & & & & & & $ $ % % % % % - - - - - - - - - - - $ $ - - - - % % % - $ - - - 5 X                                                                             o     ",
"o o o o o o o o o o   o o + o o o o o o o o o + o o o o + + + + + o o o o o + o o o o o o o o o o o o o o                                                   o     o o ; j w w e e e e e X.X.X.+.X.} ] } X.+.X.X.o.o.X.o.o.o.X.X.X.X.X.X.o.o.o.o.X.X.X.X.X.o.o.X.X.X.X.X.h e e e e w w w w w w w w w - - - % * * : : : : : : y y y 6 t i i i i i i i i i i i i i i i i i i i i i i i i i i t i 5 5 5 5 5 5 t i i i i i i i i i i i i i i t t t 5 t t i i i i i i i i i i i i i i i i i i i i i i i i i i i i i i i i i i i i i i i i i i i i i i i i i i i i i i i i i i i i i i i i i i i i i t i i t t i i i i i i i i i i i i i i t i i t 6 6 5 5 5 5 5 6 t t t t t t t t t t t t 6 6 6 6 t t t t 6 6 6 6 6 6 6 6 6 6 5 5 5 5 5 5 5 5 6 6 6 i 5 ; & & 5 5 5 5 6 i i i 6 6 6 6 6 6 6 5 5 5 5 5 5 5 6 i i i y 6 6 6 5 : & : 5 5 6 = ; 6 8 ; & ; < & < & & & $ $ X X X X X $ & ; ; ; ; ; ; ; ; & X X X & & $ $ $ $ # # $ % % % % % % % $ $ $ $ $ $ $ $ % % % % % % $ - - - - ; o o o + + + + + + + + + o + + o + o o o o o + + + o o o + + + + + + + + + + + + + "
};
