/* XPM */
static const char *_[] = {
/* columns rows colors chars-per-pixel */
"512 512 256 2 ",
"   c #030203",
".  c #0C0303",
"X  c #0D0905",
"o  c #03060A",
"O  c #0B0609",
"+  c #05090D",
"@  c #0C0B0C",
"#  c #120405",
"$  c #130A05",
"%  c #170806",
"&  c #140C0B",
"*  c #190E0D",
"=  c #0C1309",
"-  c #191506",
";  c #15110D",
":  c #1B120D",
">  c #070C12",
",  c #090E14",
"<  c #140D12",
"1  c #0A1116",
"2  c #091216",
"3  c #0C151B",
"4  c #0D181E",
"5  c #131314",
"6  c #1C1413",
"7  c #1E1915",
"8  c #13151B",
"9  c #13191D",
"0  c #1A181B",
"q  c #29070A",
"w  c #34050C",
"e  c #3C040B",
"r  c #271608",
"t  c #361B07",
"y  c #300A12",
"u  c #211615",
"i  c #231A15",
"p  c #261718",
"a  c #251B1B",
"s  c #291E1D",
"d  c #38181A",
"f  c #1B211A",
"g  c #39230B",
"h  c #27231B",
"j  c #2C211E",
"k  c #352D15",
"l  c #392816",
"z  c #31231E",
"x  c #0D1720",
"c  c #0E1B22",
"v  c #121D24",
"b  c #181D24",
"n  c #261C22",
"m  c #2B1F20",
"M  c #371E23",
"N  c #0F2028",
"B  c #132026",
"V  c #1B2225",
"C  c #14242B",
"Z  c #1A252C",
"A  c #16282F",
"S  c #1A292E",
"D  c #172930",
"F  c #1A2B35",
"G  c #1A2C34",
"H  c #1D3037",
"J  c #1E323A",
"K  c #1E383E",
"L  c #2D2222",
"P  c #292828",
"I  c #332623",
"U  c #3A2426",
"Y  c #352925",
"T  c #392B26",
"R  c #332629",
"E  c #352A2A",
"W  c #3B2E2A",
"Q  c #2C322C",
"!  c #37332A",
"~  c #3D312C",
"^  c #242D33",
"/  c #382D32",
"(  c #21353D",
")  c #293439",
"_  c #24383F",
"`  c #3C3232",
"'  c #383739",
"]  c #43040B",
"[  c #470408",
"{  c #4B040B",
"}  c #57060C",
"|  c #4D1411",
" . c #6A0E13",
".. c #680B15",
"X. c #770B15",
"o. c #47250C",
"O. c #54280C",
"+. c #482B15",
"@. c #542C15",
"#. c #4A341A",
"$. c #53331C",
"%. c #58371A",
"&. c #6A3017",
"*. c #66391B",
"=. c #4E1D22",
"-. c #701C22",
";. c #462928",
":. c #582729",
">. c #483824",
",. c #41322C",
"<. c #593A23",
"1. c #4E2D32",
"2. c #423432",
"3. c #463938",
"4. c #573638",
"5. c #67272A",
"6. c #673B24",
"7. c #763D25",
"8. c #6F3134",
"9. c #3C413C",
"0. c #6A431E",
"q. c #5A4426",
"w. c #4D4535",
"e. c #604C24",
"r. c #694528",
"t. c #774729",
"y. c #6F502F",
"u. c #784B32",
"i. c #795535",
"p. c #1F3740",
"a. c #253B43",
"s. c #253A44",
"d. c #2A3D44",
"f. c #363D43",
"g. c #4A3D42",
"h. c #6C3E42",
"j. c #2B4047",
"k. c #2C434B",
"l. c #2C454C",
"z. c #32454C",
"x. c #39454A",
"c. c #33494E",
"v. c #2F4850",
"b. c #334B52",
"n. c #344852",
"m. c #3B4D53",
"M. c #3B5156",
"N. c #375158",
"B. c #3C535A",
"V. c #474649",
"C. c #574648",
"Z. c #454D53",
"A. c #554E51",
"S. c #43545B",
"D. c #495559",
"F. c #43595E",
"G. c #56575A",
"H. c #674748",
"J. c #754B4B",
"K. c #665859",
"L. c #785758",
"P. c #6B6455",
"I. c #495660",
"U. c #455C62",
"Y. c #4B5D62",
"T. c #555D62",
"R. c #6C5D62",
"E. c #4B6366",
"W. c #576769",
"Q. c #5B6E70",
"!. c #5C7373",
"~. c #676869",
"^. c #776868",
"/. c #6F706F",
"(. c #677977",
"). c #767977",
"_. c #880B15",
"`. c #8C0E15",
"'. c #980B15",
"]. c #A70D16",
"[. c #B3111A",
"{. c #8C3033",
"}. c #A22127",
"|. c #C9131C",
" X c #D31922",
".X c #CB2B2F",
"XX c #82492C",
"oX c #85532D",
"OX c #854C33",
"+X c #885636",
"@X c #925331",
"#X c #945B39",
"$X c #8A643A",
"%X c #98633C",
"&X c #A1683E",
"*X c #913D42",
"=X c #D13E43",
"-X c #90514C",
";X c #875859",
":X c #AC5353",
">X c #8F6B4C",
",X c #9A6644",
"<X c #A46B47",
"1X c #A9754A",
"2X c #B07854",
"3X c #905D62",
"4X c #866868",
"5X c #877776",
"6X c #957271",
"7X c #AC7371",
"8X c #CD6868",
"9X c #6B817E",
"0X c #76827E",
"qX c #B68357",
"wX c #8D827D",
"eX c #AF8278",
"rX c #C68773",
"tX c #BB7D81",
"yX c #6D8380",
"uX c #788783",
"iX c #868A86",
"pX c #988985",
"aX c #8A928C",
"sX c #97938C",
"dX c #8D9791",
"fX c #989B94",
"gX c #A78985",
"hX c #B2938D",
"jX c #A79B94",
"kX c #9CA19A",
"lX c #A7A39B",
"zX c #B6A59C",
"xX c #ADACA3",
"cX c #B7ADA3",
"vX c #BAB4AA",
"bX c #CC9590",
"nX c #E69894",
"mX c #CEA49C",
"MX c #C9ACA4",
"NX c #D7ACA4",
"BX c #C7B6AB",
"VX c #D8B5AB",
"CX c #C9BCB2",
"ZX c #D8BCB2",
"AX c #E8B3AB",
"SX c #E6BDB3",
"DX c #CDC1B5",
"FX c #D7C3B8",
"GX c #E7C5B9",
"HX c #F2C7BC",
"JX c #DFD4C8",
"KX c #F3D4C8",
"LX c #F6D6CA",
"PX c #ECE4D7",
"IX c #FAE6D8",
"UX c #FBF4E7",
/* pixels */
"4 4 4 4 4 3 3 4 4 4 , o   . . . . . . . . . . . . . . . . . . . . . . . . . . . . . # # # . . . # . . # # # # # # # # # # 5 v v 2 o , v v v v v v v v v v B C D G G G G G G G G G G H H J H J ( ( J H H H G G H H ( ( ( ( ( ( ( ( ( a.a.a.a.a.a.a.^ < % q q q q q q q q y w w w w w w w w w w e e e w e e e e e e e ] ] ] ] ] ] ] { { { { { } } } } } } } } } } } } :.J.R.W.W.W.!.Q.!.!.D.W.W.W.W.W.T.Z.D.~.(.(.(.uXuXuXuXuXuXiXuXuXuXuXiXiX0XiX/.iXiXaXsXaXaX).~ pXsXfXjXfXjXsXjXlXlXlXzXzXzXgXw.H.MXMXMXVXNXmXgXhX7X:.:.gXbXbXhXhXhXbXeXeXbXmXmXGXGXGXGXGXGXGXGXGXKXKXKXLXLXLXLXIXIXLXLXLXPXPXPXKXIXIXIXIXIXIXPXPXPXIXUXUXUXUXUXPX-X:X7XUXUXUXUXUXUXUXUXUXUXUXUXUXUXUXUXUXUXUXIXIXUXUXIXIXIXLXHXKXzXLXKX8X=X=X.X.X=XrXSXGXAXnXAX:X7XnXnX:X*XbXbX:X.X X X X X X X X X X X|.|.|.|.|.[.[.[.[.[.[.[.[.[.].].].].].'.'.'.'.'.'.'.`.`.`.`.`._._._.X.X.X.X.X.X.X.X.X..... ...............} ....} | =.4.K.G.G.A.Z.V.P < / V.Z.V.g.g.V.f.Z.f.x.Z.Z.Z.m.f.f.^ ^ 0 2 v f.m.m.n.n.n.m.b.b.z.z.z.f.n y y y w y y w q q q y y y q q q q 0 f.x._ _ d.d.s.s.s.s.s.a.a.a.a._ _ ",
"x 4 4 4 4 x 4 4 4 4 2 +   . . . . . . . . . . . . . . . . . . . . . . . # # . # . . # # # . . . # # # # # # # # # # # # # 8 v v 2 o , b v v v B v v v v v B D G G G G D D G G G G G H H J J J J J J H H ( H H H ( a.( ( _ a.a.a.( ( a.s.a.a.a.a.d.^ < q q q q q q q q y d q w w w w w w w w w w w w w e e e e e ] ] ] ] ] ] ] ] { { { { { { } } } } } } } } ..} } | :.h.~.W.W.Q.W.Q.(.(.Q.W.W.W.Q.Q.(.G.x.~.(.(.(.uXuXuXuXiXiXiXiXuXiXuXaXaXiXaXiXiX0XwXfXsXiXP.3.sXsXpXlXjXjXjXlXlXlXlXzXzXjXgXJ.4.6XhXBXVXmXhXeXbX6X:.5.hXbXhXhXeXbXbXhXhXmXNXNXGXGXGXGXGXGXGXGXGXZXGXLXLXLXLXIXLXIXIXLXLXIXIXIXIXIXIXIXIXIXIXIXLXIXUXUXUXUXUXUXLX-X:X6XUXUXUXUXUXUXUXUXUXUXUXUXUXUXUXUXUXUXUXPXPXIXIXIXPXIXGXGXKXMXLXKX8X8X=X=X.X=XnXSXSXbXbXbX:X8XbXbXbX:XnXnX:X.X X X X X X X X X X X X|.|.|.|.|.[.[.[.[.[.[.[.[.[.].].].].'.'.'.'.'.'.'.`.`.`.`._._._._._.X.X.X.X.X.X.X.X.X.................} } ....} } | 4.K.T.T.D.A.Z./ < / Z.Z.V.V.f.f.f.x.Z.Z.Z.Z.Z.Z.V.b 8 2 0 ^ ) f.d.n.n.b.m.m.m.m.z.z.z.f.n y y w w y y w w w w w y y y y q q n ^ S Z d.k.d.d.s.d.s.s.a.a.( ( _ _ ",
"x x 4 4 4 x x x 4 4 3 >   . . . . . . . . . . . . . . . . . . . . . . # # # . # # # # . # # # # # # # # # # # # # # # # # 5 b v 2 o , v v v v B v B B B B B D F G H G G G D G G G G H H H ( ( J J H H H H ( G D ( ( ( ( ( ( ( ( H G ( a.a.s.a.a.d.^ u q q q q q q q y d U y w w w w w w w w w w w w e e e e e ] ] ] ] ] ] ] ] { { { { { { { } } { } } } } } } } } | =.g.~.W.Q.(.!.!.!.Q.W.E.Q.D.W.W.(.(.G.x.(.~.(.uXuX9XuXiXuXuXiXiXaXiXiXiXaXaXiXaXwXfXkXfXfX5XI fXfXjXlXjXjXjXjXjXlXzXcXzXjXgX6X;.;X4.zXMXhX6XmXbX3X=.:.bXhXhXbXbXbXhXmXbXbXVXNXGXGXGXGXGXGXGXGXKXGXZXLXLXLXLXIXLXLXLXLXIXIXKXMXLXIXIXIXIXIXIXIXIXIXIXUXUXUXUXUXLX-X-XKXUXUXUXUXUXUXUXUXUXUXUXUXUXUXUXUXUXUXUXUXUXUXIXIXIXIXLXHXGXVXLXKXbXAXnX=X8X:XAXSXSXSXHXAX:XnXSXbXbX7XbXnX:X.X X X X X X X X X X X|.|.|.|.|.[.[.[.[.[.[.[.[.[.[.].].].].].'.'.'.'.'.'.`.`.`.`.`._._._._._.X.X.X.X.X.X.X.X... ...............} } ..} } =.4.K.T.T.G.A.V.R < P V.Z.V.V.V.V.V.Z.f.x.f.Z.Z.Z.f.b ^ P f.x.x.f._ x.m.m.m.m.n.n.c.c.c.f.` d y y y M y w w w w w y w y y q y m ^ S ) d.d.d.a.s.d.d.a.a.a.a.( ( a.",
"x x x x 4 4 x x x x 3 > . . . . . . . . . . . . . . . . . . . . . . . # # # . # # O & . # # # # # # # # # # # # # # # # # 8 b v , o , b B B B B v B B B B C D G G H G G G G H ( G G H H J ( ( K K H H H H H G ( ( H ( ( a.a.a.a._ a.a.a.a.s.s.a._ ^ p q q q q q q q q M ;.y w w w w w w w w e w w e e e e e e ] ] ] ] ] ] { { { { { { { { { } } } } } } } } } } } =.1.C./.Q.(.(.!.!.Q.!.Q.(.(.(.Q.Q.Q.~.W.f.G.G.D.!.uXuXuXiXiXuXiXuXuXiXiX).aXaXaXiXaXfXfXfXsX5X` jXlXlXlXjXsXjXjXjXlXlXcXzXzXhXgX4.4.H.L.bXhX7XhXgX3X=.:.mXbXbXmXmXmXbXmXNXmXVXGXGXGXGXGXKXKXGXKXKXKXKXLXLXLXLXIXLXLXLXLXLXKXGXZXLXLXLXIXIXIXIXIXIXIXPXIXIXIXUXIXGX:X7XIXUXUXUXUXUXUXUXUXPXUXUXUXUXUXUXUXUXUXUXUXUXUXUXIXIXKXLXHXGXNXLXKXbXHXHXnXnX8XAXHXGXHXHXAX:XnX3X7XnX8XnXAX:X.X X X X X X X X X X X|.|.|.|.|.[.[.[.[.[.[.[.[.[.[.[.].].].].].'.'.'.'.'.'.'.'.`.`.`._._._._._.X.X.X.X.X.X.X.X.................} ..} ..} =.h.K.T.T.A.A.V./ < / Z.A.Z.Z.A.g.Z.Z.x.f.x.Z.Z.Z.^ b f.Z.Z.Z.Z.m.m.m.m.m.m.m.m.m.b.c.z.x.g.d y y y d y w w w w w w w y y q y n b ^ a.d.d.d.a.s.s.d.d.d.s.a.a.a.s.",
"x x x 4 x x 4 x x x 3 > . . . . . . . . . . . . . . . . . . . . # # # . . O # O @ < O . # # # # # # # # # # # # # # # # # 5 b v 2 o , b v B B B v v B B B B C D F G G G G G G G H H H H J J J J J H H H H H ( ( ^ ( ( ( a.a.a.a.a.d.a.a.a.s.s.a._ P u q q q q q q q q d M q q w w w w w w w w w e e e e e e e ] ] ] ] ] ] { { { { { { { { { } } } } } } } } } } | :.C.C./.Q.!.(.(.!.Q.(.(.(.(.(.(.(.W.m.G.f., P A.W.(.uXuXuXiXaXiXuXuXiXiXiXaXaXsXaXiXfXfXfXpXP.K.jXjXjXjXjXjXjXjXjXlXzXcXjXjXgXL.4XgXL.:.J.hXbXhX3X;X:.:.mXbXmXmXmXhXeXNXNXmXVXSXGXGXGXGXKXGXKXGXKXKXLXLXLXLXLXIXLXLXLXLXLXLXKXIXLXIXIXIXIXIXIXIXIXIXIXIXIXIXUXIXbX:X3XPXUXUXUXUXUXUXUXUXUXUXUXUXUXUXUXUXUXUXUXUXUXUXUXIXJXFXKXHXHXVXLXKXbXHXKXAXAX8XAXSXZXHXmXAX:XnXAX3XbX7XnX8X=X.X X X X X X X X X X X X X|.|.|.|.[.[.[.[.[.[.[.[.[.[.].].].].].'.'.'.'.'.'.`.'.`.`._._._._._._._.X.X.X.X.X.X.X.X.X.....................} | h.K.T.T.G.A.Z./ < Q V.A.Z.G.D.V.V.Z.Z.D.D.Z.Z.Z.b ' V.x.m.Z.Z.m.m.S.B.B.M.n.b.b.c.c.x.f./ d y e y y d y w w w w q y y y y q m ' d.d.d.d.s.d.d.d.d.d.( ( d.a.a.a.",
"x x x x 4 x 4 4 4 x 4 , . . . . . . . . . . . . . . . . . . . # # . . . 5 8 , 8 b 0 < O . # # # # # # # # # # # # # # # # 5 b v 3 o , b B B B B v B B B B v C D D G G G G G H H H ( J H J J J ( ( J J J H G G ( ^ Z G ( a.a.a.a.a.a.( ( ( a.s.s._ P 6 u ' ' u q q q q q q w w w w w w w w w w e e e e e e e e ] ] ] ] ] ] { { { { { { { } } } } } } } } } } ..} =.4.4.C.).(.(.(.Q.W.Q.(.(.(.W.Q.!.(.(.G.x.G.V.V P ~.uXuXuXuXiXuXiXiXuXaXaXaXaXaXaXiXsXfXfXfX5X~ jXjXjXlXjXjXjXwXsXzXlXzXzXjXhXhXhXzXzXmX3X:.J.hXhX7XJ.:.:.bXbXmXmXhX7XbXmXmXbXeXNXVXGXGXSXGXGXKXKXLXLXLXLXLXLXLXIXLXLXLXLXLXVXZXZXVXLXIXIXIXIXIXIXIXIXIXGXKXIXIXKX7X:XNXUXUXUXUXUXUXUXUXUXUXUXUXUXUXUXUXUXUXUXUXUXUXUXIXIXIXLXGXSXHXHXLXHXbXKXLXAXAXrXAXHXKXGXmXAX8XbXAXAXAX7XnXAX8X=X.X X X X X X X X X X X X|.|.|.[.[.[.[.[.[.}.}.].].[.].].].].].'.'.'.'.'.'.`.'.`.`._._._._._._.X.X.-. .X.X.X.X.X.X...................} } | h.K.G.T.G.D.Z./ < / Z.A.A.A.V.f.V.V.V.x.f.V.V.P 5 f.x.Z.x.S.S.Z.M.S.S.B.m.n.m.b.m.n.z.z.g.M y y y ;.;.y w y w y w y q y y y s Q f.( s.j.d.d.d.d.d.d.d.d.d._ ( _ ",
"x x x x x x 4 4 4 4 4 , O . . . . . . . . . . . . . . . # . . # . . . @ 0 v 5 0 C v 5 & . . # # # # # # # # # # # # # # # 5 v 9 2 o , v B C B v v v v B B v B C A G G G H H G H H H H H H J K ( ( ( ( J H G G Z 8 , v _ ( a.a.a.a.a.( ( a.d.a.a.d.^ n / f.f.M y q q w w w w w w w w w w w w e e e e e e ] ] ] ] ] ] ] ] ] { { { { { { { { { } } } } } } ..} ....=.4.4.C.).(.(.(.(.(.(.(.(.(.(.(.(.(.(.(.(.W.!.~.V.x.).).iXiXaXuXiXaXaXaXaXwXaXaXfXaXfXfXfX5XC.5XjXjXjXlXjXjXjXpXjXlXzXzXjXhXjXhXhXzXMXmXgXJ.:.8.3X3X3X:.:.mXbXmXmXbXeXhXhXNXmXmXbXNXVXZXVXVXHXKXKXLXLXLXLXLXLXLXIXIXLXIXLXLXLXLXGXFXGXMXLXIXIXIXLXIXPXLXGXKXGXbX-X-X:XSXUXUXUXUXUXUXUXUXUXUXUXUXUXUXUXUXUXUXUXUXUXUXUXIXPXIXIXKXSXKXGXLXKXbXHXSXAXAXbXAXSXKXHXHXAX:XnXSXAXAXbXAXAX8X=X.X X X X X X X X X X|.|.|.|.|.|.|.|.[.[.}.:X8X{.}.[.].].].].].].'.'.'.'.'.`.'.`.`._._._._._._.X.8.-X5.X.X.X.X.X.........................=.H.K.T.T.T.Z.Z.' < g.A.G.A.G.Z.V.f.x.f.f.f.' ^ b ' x.f.f.f.Z.S.S.S.S.S.m.m.m.m.n.n.n.c.x.Z.U y y y ;.M y y y w w w q q y y q n ' d.k.k.k.d.d.d.d.d.d.d.d.a.d.d.j.",
"x x x x x x 4 x x 4 4 , O . . . . . . . . . . . . . . . . . . # . . . < 8 8 5 8 b v v 8 @ . # # # # # # # # # # # # # # & 8 v 9 2 o , v B C B B B B B v v B B S G G G G G H H H ( H H H J ( J ( ( a.( J ( ( ( Z 2 2 v _ _ a.a.a.a.a.a.a.d.d.d.d._ C P ' d.f.R q q q w w w w w w w w w w w w w e e e e ] ] ] ] ] ] ] ] ] ] { { { { { { { } } } } } } } } } } ....5.h.1.C.).(.(.(.(.!.!.(.(.(.(.(.(.yX(.(.yX(.(.!.G.x.V.).).iXiXuXaXaXaXdXaX0XdXaXiXsXsXsX).3.A.jXjXlXjXjXlXjXjXzXzXcXzXzXzXjXhXhXhXzXMXMXgXeX6X:.5.h.8.:.:.mXmXmXmXbXhXhXbXbXbXNXNXSXGXGXGXKXKXKXKXLXLXLXLXLXLXLXLXIXIXIXLXIXIXLXLXKXhXMXLXIXIXIXLXIXIXKXSXmX3X;XeXNX:XbXUXUXUXUXUXUXUXUXUXUXUXUXUXUXUXUXUXUXUXIXUXUXUXIXIXIXLXLXSXHXSXLXKXbXHXSXAXAX7XSXHXKXGXHXAX7XbXSXAXAXbXAXAX:X=X=X X X X X X X X X X|.|.|.=X.X|.|.|.|.[.}.7X7X{.}.[.].].].].].'.'.'.'.'.'.`.`.`.`.`._._._._._.X.-XJ.5.X.X.X.X. . .......................| h.K.T.T.T.A.A.g.n g.A.A.A.A.A.V.g.V.f.f.f.' n 8 5 ^ ^ ^ V.D.S.S.S.Z.Z.m.M.m.m.m.n.n.b.x.Z.R y y y 3.;.y y y y w y y q q y q a ) d.d.k.d.d.d.d.d.d.s.d.a.a._ _ _ ",
"x x x x x x x x x 4 4 2 O . . . . . . . . . . . . . O O . . # # . . . 5 v 8 5 0 v v b b 8 8 < # # # # # # # # # # # # # 8 b v v 2 o , v B B B v v B B C Z C Z Z D G G G G G G H ( ( H H H H J ( ( ( ( ( ( ( ( ) ) ^ ^ ( ( a.a.a.a.a.s.a.s.d.G B ) ^ P ' d.f./ q q q w w w w w w w w e e w w e e e e e e e ] ] ] ] ] ] ] { { | 5.{ { { } } } } } } } } } } } }  .8.4.4.H.).(.(.(.(.(.(.(.(.(.(.!.(.(.(.Q.9X(.Q.~.D.G.' 9.G.~.aXaXiXaXaXaXiX0XdX0XfXfXsX).~ 3.sXsXjXlXlXjXlXlXlXlXjXzXjXjXgXzXgXgXzXzXMXzXMXmXbX7X5.=.5.:.5.mXbXbXmXmXmXmXmXmXVXVXVXZXSXGXSXGXGXSXKXKXLXLXLXLXLXLXIXIXIXIXIXLXIXLXIXLXGXKXLXIXIXIXIXKXSX7X-X7XSXKXLXKX7X7XIXUXUXUXUXPXUXUXUXUXUXUXUXUXUXUXUXUXUXUXIXUXIXIXIXIXIXJXSXGXSXLXKXbXHXKXAXAX8XAXGXHXGXSXSX7XAXHXAXAXbXAXAX8X=X8X.X X X X X X X X X X|.[.8X=X.X|.|.|.[.}.7XgX:X}.].].].].].].'.'.'.'.'.'.'.`.`.`.`._._._._._.X.*X;Xh.-.X.X.X.X...X..... .-. ...........=.h.K.G.T.T.Z.V.3.0 ' A.A.Z.Z.A.A.V.V.Z.V.R 5 , ' ' f.Z.V.Z.S.S.S.S.Z.S.M.M.M.M.m.m.m.n.n.Z./ d y y g.U y y y y y y y y y y q n ) d.a.d.d.d.F a.d.k.s.d.d._ ^ G ( ",
"x x x x x x x x 4 x 4 2 O . . . . . . . . . . . . < 8 , . . # # # # . 5 b 8 8 0 v x v b , 5 < # # # # # # # # # # % # < b v v v , o , v B B B B v B C C Z C B C D G G F F G H H H H H H H H J J H ( ( ( ( a._ ( _ _ ( _ a.a.( a.a.a.a.a.s.d.d.( _ ) Q f.d.x./ m M q w w w w w w w w e e w w e e e ] ] ] e e ] ] ] ] { ] { ] =.5.{ { { } } } } } } } } } } ......| =.4.C.).(.(.(.(.(.(.(.(.(.(.(.(.(.(.(.uX9X(.(.(.).W.Q P V.iXuXiXiXiXaXaXiXaXwXiXsXiXK.w.pXsXpXfXlXlXlXlXlXlXzXjXjXjXjXjXjXzXMXzXzXMXzXMXmXhXhX7XJ.J.5.8.mXhXmXmXmXmXbXmXNXZXNXmXZXGXSXGXVXSXGXKXKXKXKXLXLXLXIXLXLXLXLXLXLXIXLXIXIXIXLXLXLXLXKXVX3X-X;XAXLXIXIXIXIXSX-XbXPXUXUXUXPXUXUXUXUXUXUXUXUXUXIXIXUXUXIXIXIXIXIXIXIXIXLXHXKXKXLXKXbXHXLXAXAX7XAXHXGXGXHXSX7XAXAXAXAXbXAXAX8X=X8X.X X X X X X X X X X|.|.=X.X|.|.|.|.[.}.7XhX8X}.].].].].].].'.'.'.'.'.'.'.'.`.`.`._._._._._.X.5.3X5. .X.X.X.X.X.X...X. ...............=.h.K.R.~.T.G.V.g.a ' A.A.A.A.A.Z.f.f.' n 0 5 b V.Z.Z.Z.m.Z.Z.S.Z.Z.Z.Z.M.M.m.m.n.n.m.n.n.x./ y y y 2./ d y y y y R / d y y q p ^ d.d.H ) _ ( a.d.d.d.s.d.G C Z Z ",
"x x x x x x x x x 3 4 2 O . . . . . . # O . . . . 5 v v , . . # # # . 5 v 8 8 b v 3 v b , 8 8 O # # # # # # # # # # # 0 P C v 3 o   , v v B B B B C C S S S S D G G G G D D G G G G H H H H H H H ( ( ( ( ( _ _ _ ( ( _ a.a.a.( _ a.a.a.s.d.j.d.d.) ) f.d.f.R M / q q w w w w w w e e e w w e e ] ] ] e ] ] ] ] ] ] { { { { { | { { { { } } } } } } } } | ..} ....=.;.C.).(.!.(.(.(.(.(.Q.Q.(.Q.(.D.~.(.uX9X(.(.(.(.).~.Z.' 0X0XuXiXuXiXaXiX0X/.).iXR.2.pXpXsXsXjXlXjXlXjXjXjXzXjXjXjXjXzXzXzXgXhXMXhXzXMXhXmX6X7X;X-X:.8.bXbXmXmXmXhXmXmXmXVXmXmXZXGXGXKXGXGXZXGXKXLXLXLXLXLXLXLXLXLXLXLXLXLXLXIXIXLXLXLXLXGX;X-X-XhXKXIXIXIXIXIXIXIXNX-XKXUXUXUXUXIXUXUXUXUXUXUXUXUXUXIXIXUXIXIXIXIXIXIXIXIXIXKXKXKXLXKXbXHXKXAXAX7XAXHXGXGXGXGXbXAXAXVXAXbXAXAX8X:XnX.X.X X X X X X X X|.|.|. X|.|.|.|.|.[.}.7XhX8X}.].].].].].].'.'.'.'.'.'.'.'.'.`.`.`._.`._._._.X.{.-.X.X.X.X.X.X.X..... ...-...........| h.R.T.T.G.G.' R < n V.A.f./ f.f.f.b b b ' V.Z.D.D.D.S.Z.m.m.m.Z.B.M.Z.B.S.M.m.n.n.n.n.n.x./ d y y g.C.U y w y y R / p y q q u b ) d.F a.d.d.d.s.d.s.a.G C v 3 2 ",
"x x x c c c c x x x 4 3 @ . . . . . . < < O . . O 5 v v , O # # # # . 5 b 8 0 v v 3 v b , 8 b & # # # # # # # # # # # < b C v 2 o   @ 9 B C C Z B B C S S D D D D G H H H H H H H H H H H H ( J H ( ( _ _ _ _ a._ a._ _ a.a.a.a.a.a.a.a.( ( a.a.z.f.^ ' a.f./ R 3.y w w w w w w w w e e w w e e e e ] e =.:.] ] { { { { { { { { { { { } } } } } } } } :.-Xh... .5.=.;.C.).(.!.(.(.!.(.Q.S.W.(.(.(.Q.9XyXyX9X).0X~.~.9X(.(.G.L Q G.G.` ' w.G.~.` P I p W ^.5XsXsXsXjXfXpX^.K.sXlXjXgX4XjXzXhXgXhXhXzX4XzXMXMXhX;XbXhX-X5.5.bXhXmXmXNXmXmXVXVXVXNXSXZXZXGXKXKXKXKXKXKXLXLXLXLXLXLXLXLXLXLXLXIXLXLXLXIXIXIXLXKXNX-X3XKXLXIXLXLXIXIXIXLXIXKX8.hXIXUXUXJXFXUXUXUXUXUXIXIXIXUXUXIXIXIXIXIXIXIXIXIXIXLXLXHXKXIXKXbXHXHXAXHX8XAXGXNXGXHXSXbXSXNXVXAXnXAXnX:X:XnX=X=X X X X X X X X|. X|.|.|.|.|.|.|.[..X7XhX:X}.].].].].].].].'.'.'.'.'.'.'.'.`.`.`.`.`._._._.X.X.X.X.X.X.X.X.X.X.......-.8. .........| h.R.~.T.G.A.3.m < u n R 0 < 5 5 5 n g.Z.D.D.D.D.S.D.D.S.S.S.S.S.B.S.S.S.S.S.m.n.n.n.n.m.x./ 1.;.p f.g.R y y y y n / d y w q * P ) d.d.d.a.G H H d.d.s.G Z S 9 V ",
"x x x x x x x x x x x 8 , . . . . . O 5 8 , O O O 2 v v , . # # # # . 5 v 2 8 v v 3 v b , 8 V 5 # # # # # # # % # # # < b v v 2 o   , v B B B B B Z S D Z D D G G G H H H ( H H H H H H H H ( ( ( ( a.a.( ( ( ( ( ( a.a.a.a.a.a.a.a.a.a.s.s.( ( _ ^ Q f.f.f./ R ' u w w w w w w w e w e e e e e ] ] ] e ] | ] ] { { { { { { { { } } } } } } } } } } } 5.3X-X . .8.:.=.4.).(.(.(.!.(.(.(.(.(.(.(.(.D.(.yXuXyX(.' Z.(.).(.).).~.' ' V.P Q ' ` V.P.5X^.w.R.2.p s s 2.^.sX^.K.H.wXjXzXpXL.hXjXgXzXzXhXhXgXMXVXMXbX3XhXbX6X:.5.bXmXmXbXbXNXVXVXZXZXNXGXGXGXGXKXKXKXKXKXKXKXLXLXLXLXLXLXLXLXLXKXLXLXKXLXLXIXIXLXGX-X7XKXIXIXIXIXPXPXPXLXIXBXFXVX-XKXIXPXcXCXUXUXUXUXIXIXIXIXUXUXIXIXIXIXIXIXIXIXIXIXIXKXHXKXLXKXmXHXHXSXAX8XAXHXGXVXGXSXbXSXAXSXAXnXAXAX:X8XnXnX=X X X X X X X X|.|.|.|.|.[..X[.[.[.[.@X7X:X}.].].].].].].].].'.'.'.'.'.'.'.`.`.`._._._._._._.X.X.X.X.X.X.X.X.X. . . .-. .........} | h.K.T.T.A.A./ a 6 u u u < / n R g.Z.A.D.D.D.I.S.D.D.S.S.D.Z.S.S.S.S.S.m.S.m.m.n.m.n.n.n.x.R 1.1.n Q ' R y e y d / ' d y w w y P _ d.d.k.d.s.H G a.d.a.a.) V 9 4 ",
"x x x x x x x x x x x x , . . . . . @ 2 x 9 , o + 2 x x , . . # # # O 5 v 2 , 2 3 4 v b , 8 V 5 @ # # # # # # % % # # 5 b C v 2 o   @ 9 B C C C C C Z D D G D G G G G H H H J ( H H H K ( a.( ( ( ( ( J ( ( ( ( a._ ( a.a.a.( a.s.a.d.d.a.a.d.d.d.^ P f.d.f./ R ' q w w q y w w w e w e e e e ] ] ] ] ] ] ] ] ] { { { { { { { } } } } } } } } } } } } } |  .}  .8.:.4.L.).(.(.(.(.(.(.(.(.(.(.yX(.(.(.yXyXuXuXuX0XuX).).0X).uXiX0X0XiXiXwXiXwXaXfXR.~.pXwXwXwX^.E C.5XU C.M 3.jXpXgX5XzXzXzXzXzXhXzXVXMXMXBXbX5.J.5.J.:.5.bXmXmXNXmXNXVXVXZXZXGXGXGXGXGXKXKXKXKXGXKXKXLXKXLXIXIXKXKXKXZXKXLXLXKXKXIXLXIXKXhX-XGXLXIXIXIXIXLXIXIXIXIXIXIXIX7X7XLXUXUXPXUXUXUXUXUXIXIXUXUXIXIXIXIXIXKXIXIXLXIXIXLXKXKXHXLXKXbXHXNXHXHX7XAXHXVXGXGXSXbXAXSXSXAXnXAXAX:X:XnXAX.X X X X X X X X|.|.|.|.[.[.[.[.[.[.[.:XeX:X}.].].].].].].].].'.'.'.'.'.'.'.`._._.`.`._.`._._.X.X.X.X.X.X.X.X.X.X. .X.............} =.H.K.~.T.G.g.g.R u 6 6 R V.A.A.A.G.G.G.D.A.D.I.D.I.Y.Y.Y.I.Y.S.S.S.S.S.m.n.n.S.n.n.n.c.c.x.E 3.3.m ^ V.' d y y M f.g.m y w q p ^ ^ d.k.k.k.d.a.d.d.s.s.d._ B S ) ",
"x c x x x x x x x x x x < . . . . . @ 3 v x v 9 v v v x 5 . # # # # @ 5 v 8 , , 3 3 9 b 5 8 C 8 0 8 # # # # # % # # # 5 b v v 2 + o 2 b B C Z Z D S C D D D D D D G G H H H H H H H H H ( H H ( H H _ ( ( ( ( a.a.a.a.a.a.s.a.a.s.a.a.d.a.d.k.d.d.) ^ f.d.f./ P / q w w M 1.y y w w w w e e e ] ] ] ] ] ] ] ] ] { { { { { { { } } } } } } } } } } } ..} .. .} -.h.:.;.K.).(.(.(.(.(.(.(.(.(.(.(.(.~.Q.(.yXuX9X(.).uXuX).~.0XiX)./.).iX).iX0XaXfX/.C.sXfXlXsXfXjXjXjXsX5X1.4.,.H.jXwXpXgXwXhXhXhXgXBXVXMXBXmXhX6X5.J.3X5.5.mXmXmXNXNXNXNXVXZXGXGXGXGXGXGXGXKXKXKXKXKXKXGXKXLXFXeXHXKXLXGXKXLXLXKXLXLXIXLXAX-X3XKXIXIXIXIXIXIXIXIXIXIXGXzXLXKX-XGXUXUXUXUXUXUXUXIXIXIXIXIXIXIXIXIXIXIXIXIXIXIXIXLXHXKXHXLXKXbXSXAXHXHX7XAXSXGXZXVXSXbXAXSXSXAXbXAXAX:X:XnXAX.X X X X X X X|.|.|.|.[..X.X|.[.[.[.}.8XbX8X}.].].].].].].].].].].'.'.'.'.'.`.:X{.`.`._._._._.X.X.X.X.X.X.X.X.X.X.X.X...............:.H.R.G.G.G.g.g.n u 6 / C.A.G.G.A.D.G.G.G.D.D.T.T.I.I.D.S.S.I.I.S.S.S.M.m.) d.m.m.m.m.m.m.x.R 4.3.m ^ x.V.M y y / f.' n u q q m ) d.d.d.d.d.a.a.d.d.d.d.s.G C ^ _ ",
"x x x x c x x x x 4 x x , . . . . . @ 3 x x x x x c c v 5 . . # # # @ 5 v 8 , > 3 9 9 V 5 8 C 8 0 0 O # # # # % # # # 5 b v x , o o 2 v B C Z A S D D D S D D D D G H ( ( ( H H ( H G H H ( ( H D G G G ( ( _ a.( a.a.a.a.a.a.a.a.d.d.s.d.j.d.d.( Z Q f.d.f./ P / q w w q m 3.;.q w w w e e e ] ] ] ] ] ] ] ] { { { { { { { { } } } } } } } } } } } } ..} ....-.8.:.4.2.).(.(.(.!.Q.(.(.(.(.(.(.(.Q.W.~.9XyXuXuXuX0X0X(.uXiXuX0XiXiX).uXaX0X0XK.K.~.fXlXfXfXjXfXjXsXwX5X^.4.K.L.C.gXgXgXzXgXgXgXhXMXMXzXmXhXeXu.7X3X;X=.8.mXmXNXNXNXNXVXZXZXGXGXGXGXGXVXGXKXKXKXKXKXGXVXZXKXKXGXGXmXZXSXSXZXLXLXLXLXLXbX-X{.*XSXIXIXIXIXIXIXIXIXIXIXFXhXFXLX7X;XKXIXUXUXUXUXIXIXIXIXUXIXIXIXIXIXIXKXIXIXIXIXIXLXSXKXAXKXGXbXHXKXbXAXrXAXHXGXGXGXSXbXAXSXSXAXnXAXAX:X:XnXAX=X.X X X X X X X|.|.|..X=X.X|.[.[.[.}.8XrX8X}.].].].].].].].].].].'.'.'.'.`.{.7X{._._._._._.X.X.X.X.X.X.X.X.X.X.X.X.X...............=.K.R.T.G.G.g.' u p n V.G.Z.Z.G.A.D.A.D.G.D.G.T.T.Z.D.I.D.D.S.S.S.Z.m.m.m.m.Z.m.d.) d.d.j.f.E 3.3.R ' V.g.M y y R ' ^ ' ' n u / ^ d.d.d.d.s.a.a.a.d.d.d.d.( ( _ ( ",
"x x x x x x x x x x x v , . . . . . @ 3 c c c x x v x v < . # # # # O 5 v 8 5 > x v v V 0 x C 8 0 b < # # # # # # # < b b v v , o   @ 9 B Z Z S D C D D F F D G G H ( H H H H ( ( H G H ( ( ( J ( ( ( ( ( H ( ( a.a.a.a.a.a.a.s.s.a.a.a.d.d.j.j.d.) ^ f.z.f./ P / q w w y U g.1.y w w w e e e ] ] ] ] ] ] ] ] ] { { { { { { { } } } } } } } } } } } } } ......-.8.:.4.K./.(.Q.(.Q.W.(.(.(.Q.(.W.E.G.Z.D.(.9XuXuXuXuX(.(.iX).aXiX0XiXiXiXaX).Q 7 ` 5XfXlXjXfXfXsXjXpX5XwX5X4XK.;.4.^.pXgXhXzXhXzXhXzXMXgXeXgXL.eX7X-X8.:.8.NXmXNXNXNXNXMXVXGXSXGXKXGXZXGXGXGXFXKXGXKXKXVXNXHXKXKXKXKXKXKXKXKXGXHXKXKXbX8.8.8.8.GXIXIXIXIXIXIXIXIXIXIXKXGXLXIXNX-XSXIXUXUXUXUXPXIXIXUXIXIXIXIXIXIXIXKXIXIXLXLXIXLXSXKXSXLXSXbXHXLXmXSX7XAXHXHXGXSXSXbXAXSXSXAXnXAXAX:X:XnXAX8X.X X X X X X|.|.|.|.|.|.|. X|.|.[.}.8X:X}.].[.[.].].].].].].'.'.'.'.'.'.`.*X7X{.`.`._._.{.X.X.{.X.X.X.X.X.X.X.X.X.X.X.X...........=.J.R.R.K.A.g.g.m p m g.G.G.G.G.D.D.G.T.G.G.D.D.D.D.S.D.I.S.S.S.S.x.d.n.m.M.n.m.n.m.n.c.c.x.R 3.3.R ' Z.f.m y y M ' ^ ) f.) / f.d.d.d.d.k.d.d.d.d.d.d.d.a.a.d._ ( ",
"x x x x x x x c x x x 8 , O O . . . @ 8 c c c v x c c 8 < . # # # # O 5 v 8 5 , 9 b b V v v v 2 8 b < # # # # # # # < b 9 8 9 , o   o 3 B C Z S D D F D D G F G G H H H H H H ( ( G G H ( ( K ( ( ( ( ( ( ( a.a.( a.a.s.s.s.s.s.s.s.s.s.j.j.j.k.j.) ^ f.d.f./ R / q w w w y d d w w w w e e e ] ] ] ] ] ] ] ] { { { { { { { } } } } } } } } } } } } ....-.-...-.8.| =.H./.(.(.(.(.(.(.(.W.W.(.(.(.(.(.(.(.9XuXuXuXiXiXiXaXuXaXaXiXiXiXiXaX).` L A.pXfXkXkXfXfXsXsXsXsXsXsXpXwX6X4X4.4.^.6XgXhXzXhXhXzXhX6XJ.;X7X;X8.8.:.8.mXbXNXVXZXZXZXZXZXZXGXGXGXGXGXGXKXGXGXGXKXKXSXNXSXKXKXLXLXKXLXLXLXGXKXHXbXOX8.7X7XeXHXLXLXIXIXIXIXIXIXIXIXLXIXIXIXSX7X7XKXIXUXIXIXIXIXIXUXIXIXIXIXIXLXIXIXIXIXIXLXLXLXHXKXHXKXSXbXHXLXmXHX7XAXHXGXZXGXAXnXAXSXSXAXnXAXbX:X:XnXAX:X8X.X X X X X|.|.|.|.|.|.|.|.[.[.[.[.}.}.].[.[.[.].].].].].].].'.'.}.`.`.`.-X7X{._.`._._._._.X.X.X.X.X.X.X.X.X.X.X.X.X.X..... .....| L.R.K.G.A.g.3.n p n g.G.G.G.T.T.T.G.G.T.T.D.Y.Y.D.D.D.D.D.D.S.S.S.x.n.Z.M.M.m.M.Z.m.m.n.x./ 4.g.R ' Z.f.m w y p ' ^ ) d.f.' f.d.d.d.d.d.s.d.d.d.d.d.d.d.d.d.a._ ",
"x x x 4 x x x x x x x v , 5 5 O . . , 8 c c v v v v v x < # # # # # O 8 v 8 5 5 v v b b b C b 3 8 8 O # # # # # # # 5 0 8 , + o o   o 3 v B Z D D G G G F F G D D H H H H G G ( ( G D G ( ( a.a.a.( ( ( a.a.a.a.a.a.s.s.s.s.s.s.s.s.s.d.s.d.j.k.k._ ) f.d.f./ R ` y w w w y w w w w e e e e ] ] ] ] ] ] ] ] ] { { { { { } } } } } } } } } } } } } } ..8.8...}  .-. ...5.^./.(.(.(.(.(.(.Q.(.(.(.(.(.(.).(.(.).uXuXiXuXiXaXaXiXaXaXiXaXaXiXiX)./.wXsXfXfXfXfXsXsXsXjXjXsXsXpXgXgXgX6XL.4.;.L.6XhXhXgXhXhX;X4.h.8.5.5.8.:.8.mXbXNXVXZXGXGXZXGXGXGXVXmXGXHXKXGXGXNXGXGXGXVXNXHXKXKXLXLXLXLXLXLXZXHXbX8.8.hXGXGXKXLXIXIXIXIXIXIXIXIXIXIXIXIXIXIXLXNX-XbXLXIXIXIXIXIXIXIXIXIXIXIXLXLXIXIXIXIXIXLXLXLXSXHXSXSXAXbXHXLXNXHX7XAXGXGXVXGXAXAXAXSXSXAXnXAXnX:X:XnXAX{.8X8X.X X X X|.|.|.|.|.|.|.|.|.[.[.[.[.[.[.[.[.[.].].].].].].].'.`.7X{.{.`.-X3X{._.`._._._._.X.X.X.X.X.X.X.X.X.X.X.X.X.X.X... . .....J.^.R.G.g./ / a p n 3.Z.G.T.T.T.T.T.T.T.T.T.Z.D.D.T.D.S.Z.D.D.S.m.n.S.S.S.Z.M.m.M.B.m.n.x./ g.g.R ' Z.f.R y w p ' ^ ) f.f.f.f.d.d.d.d.d.d.a.d.k.d.d.d.a.a.s.a.a.",
"x x x x x x x x x x x v , 5 0 & . . , 3 c c c v v v v v < # # # # # & 8 v 5 @ 5 b B V v x B C 8 5 8 O # # # # # # # 5 8 5 2 + o     o 3 B Z D D D G G G G G G G D G H H G G D G H ( ( ( ( ( a.a.a.( ( ( a.a.a.a.a.a.s.s.s.s.s.s.s.s.s.s.d.j.j.j.j.d.) f.d.f.R R 2.y w w w w w e e e e e e ] ] ] ] ] ] ] ] { ] { { { { { { { } } } } } } } } } } } } 5.;XJ.-.}  . . . ...4./.(.(.(.(.(.(.(.(.(.(.(.(.(.(.).uXuXuXuX0X/.iXdXdXaXaXaXaXdXaXiXdXsXiXfXfXfXfXlXfXsXsXjXsXjXjXjXsXgXjXjXjXpX5X^.H.;.1.4.4.h.u.8.:.:.8.=.5.8.:.8.mXmXNXVXZXZXGXGXGXGXFXZXmXGXGXGXGXGXNXmXNXSXVXSXKXLXLXLXLXLXLXLXKXHXmX-X8.mXHXKXKXLXKXIXIXIXIXIXIXIXIXIXIXLXIXIXIXIXKX7X3XHXIXIXIXIXIXIXIXIXIXIXIXIXIXIXIXIXIXLXIXLXLXNXHXKXKXHXbXHXKXAXHX7XAXHXGXZXSXSXAXAXAXAXAXnXAXrX:X:XnXAX{.8X8X=X X X X|.|.|.|.|.|.|.|.|.[.[.[.[.[.[.[.].].].].].].].].].'.`.7X8.:X`.-X6X{.`.`._._._.X.X.X._.X.X.X.X.X.X.X.X. .X.X.X. ... .....L.^.R.G.g.3./ n p n 3.A.G.T.T.T.T.T.T.T.T.T.G.D.Y.D.D.D.Z.x.Z.Z.m.m.S.S.S.S.S.M.M.m.n.n.x./ g.g.R ' V.f./ y y E f.) ) x.f.' f.d.d.d.k.s.s.s.d.d.d.j.k.d.s.d.d.d.",
"x x x x x x x x x x x v , 2 0 & . O 2 x c v c c v v v b 8 O # # # # < 8 v 8 + 5 V B B B B B C 8 8 8 O # # # % % # # < 5 2 , + + o   + 8 v S G D D G G G G G G H G G G H ( ( G F D G H ( ( a.a.a.a.( a.a.a.a.a.a.a.s.s.s.s.d.s.s.s.s.s.j.d.j.j.j.k.) ) x.d.f.E R 2.y w w w e w e e e e e e ] ] ] ] ] ] ] ] ] { { { { { { { | { } } } } } } } } } } } :.L.H.8.}  . . .X. .5.K.).(.Q.(.(.(.Q.(.(.(.(.(.Q.9X(.uXuXuXuXuXuXiXaXaXdXdXaXiXiXiXdXfXfXaXfXfXlXfXlXjXsXfXjXjXjXjXjXjXjXjXjXjXhXgXwX6X6XJ.4.r.L.;X7X7X6X3X5.h.8.5.8.mXmXNXVXZXZXFXFXGXFXGXGXZXZXVXZXZXGXmXGXNXNXGXZXKXKXLXKXLXLXLXLXHXNX-X-XAXSXLXLXKXKXKXLXLXLXLXLXIXIXIXIXIXLXIXIXIXIXLXmX:XeXLXIXIXIXIXIXIXIXIXIXIXIXIXIXLXIXLXLXLXLXLXNXKXKXKXGXbXHXKXHXHX7XAXGXFXMXGXHXAXnXNXAXAXnXnXnX8X:XnXAX:XrX8X=X X X|.|.|.|.|.|.|.|.[.[.[.[.[.[.[.[.[.].].[.].].].].].].'.`.7XJ.7X{.{.6X{._._.`.`._.{.{.X.X.X.X.X.X.X.X. . . .X.X.X.X.......=.J.R.K.A.3.2./ a p m g.A.G.T.T.T.W.T.Y.T.T.T.G.D.D.D.D.S.x.f.x.x.Z.m.m.S.S.S.S.M.B.m.n.n.x.R g.g.R ' V.x./ y y 2.x.) ) x.f.) f.d.d.d.d.d.d.s.d.k.d.j.k.d.s.d.d.a.",
"x x x x x x x c x x x v , 2 0 & . O 2 c c c c c v v v v 8 & # # # # & 8 v 8 @ 5 V B v v C C Z 8 5 8 O # # # % # # # < 8 5 > + @ o   + 5 v B Z D G G G G G G H H H ( H H H H H H H H H H ( ( a.a.( ( a.a.a.a.a.a.a.a.a.s.s.d.s.s.s.d.s.s.s.j.j.j.k.d.) z.d.f.R p d w w w e e e e e e e e e ] ] ] ] ] ] { { { { { { { { | :.8.] } } } } } } } } } } } :.L.H.8.}  . . . . ...:.^.(.(.(.(.(.(.(.(.9X9X(.~.9X0X0X(.uXuXuXaXiXaXdXdXdXaXdXaXiXdXfXfXfXfXfXsXfXlXlXfXlXjXjXjXjXjXjXzXjXgXjXjX6XgXgXgXgXgXhXhXhXgXgXhXJ.=.8.u.5.8.bXhXmXmXVXGXFXFXZXGXGXGXGXGXGXGXSXSXGXSXSXSXSXVXGXKXKXKXKXKXKXKXbX8.8.bXHXKXKXKXKXHXAXmXNXHXKXKXKXLXIXIXIXLXIXIXIXIXIXKXrX-XSXIXIXIXIXIXIXIXIXIXIXLXIXIXIXLXLXLXLXKXKXAXKXKXKXHXbXSXKXAXHX7XAXGXGXVXGXHXSXnXAXSXAXbXNXbX7X:XnXAX:XnX8X=X X X|..X[.|.|.|.|.|.[.[.=X[.[.[.[.[.[.[.].].].].].].].].'.{.7X-X8X{.8.7X8._.`._.`._.{.3X8.X.X.X.X.X.X.X.X. . .X.X...........5.h.R.A.C.g./ 2.n p m g.C.G.T.G.T.W.T.T.T.T.T.T.T.T.D.D.Z.S.D.Z.S.m.m.S.m.S.S.B.m.m.n.n.n.V.R 3.g.R f.f.f./ d y 3.V.) d.d.f.' f.d.d.d.d.k.a.a.d.j.k.k.d.d.d.d.d.d.",
"x x x x x x x x x x x v , , 0 < . O 2 c c N c c c c v v v 5 O # # # O 2 v v , 8 Z B v v C C C 3 8 8 # # # # # # # # < 5 , + + o     O 2 9 C Z D G G G G H H H H H G G H ( H ( H D G H ( ( ( a.a.a.a.a.( ( ( a.a.a.a.a.a.s.d.d.d.d.j.d.d.j.j.j.j.d._ ) z.x.' d q w w w w e w w e e w e e e ] ] ] ] ] ] ] { ] { { { { { | 4.h.| } } } } } } } } } } } :.6X6X|  . ... . . . .5.^.(.(.(.W.Q.(.(.(.9X0XuXuX).0XuXiXaXiXaXiXuXuXaXaXdXaXaX0XiXsXdXfXfXfXkXfXfXsXsXjXlXjXjXjXsXsXgXpXjXgXzXzXhXgXhXgXgXgX6XhXhXhX7X;X5.=.:.=.5.8.bXhXbXmXZXZXZXZXGXGXGXGXGXGXGXZXVXZXGXVXGXGXVXSXSXHXKXKXKXKXKXmX8.8.bXmXKXKXLXKXKXSXbX-X-X3XLXLXLXLXIXIXIXIXLXIXIXIXIXIXHX7X7XKXGXLXIXIXIXIXIXIXIXLXIXLXIXLXLXLXGXKXGXbXKXKXKXSXbXNXHXbXHX7XAXSXVXFXGXGXAXnXSXSXAXbXNXnX7X:XnXAX:XnX8X=X.X|..XnX.X|.|.|.|.|.[.[.8X}.[.[.}.[.[.[.].].].].].].].].'.{.7XJ.8X{.{.:X{._._.`._._.-.-X{.X.X.X.X.X.X.X.X.X.X.X.X...........J.H.A.A.g.` R R p n n M ` A.G.T.T.T.T.T.T.T.T.T.T.D.Z.S.D.S.S.S.S.Z.m.x.Z.S.S.S.m.n.b.m.n.x.R 3.g.R f.f.f./ d y 2.V.) d.c.x.f.d.d.d.k.k.d.s.d.d.j.d.d.a.d.d.s.s.s.",
"x x x x x x x x x x x v , , b < . O 2 c c c B v v v v v v b < # # # @ 8 v v , 8 Z B v B B C B 8 8 8 # # # # # # # # & 5 , + > +     o , 9 B Z D G G G H H H H H G H H H G H H H G G G G G ( a.a.a.a.a.( ( a.a.a.s.s.s.s.s.a.s.d.d.s.d.d.j.j.j.j.d.) ) x./ p q w w w w w e e w w w e e e e ] ] ] ] ] ] { { { { { { { { { =.4.{ } } } } } } } } } } } =.8.:...8.-X8. .X. . .5.^.(.(.(.(.(.(.(.(.(.9X9X(.(.uX(.uXaXiXaXuXaXaXiXuXaXdXdXfXsXfXfXaXfXfXsXfXaXiXiXfXfXjXjXjXjXjXjXjXzXpXpXjXzX4XgXgXhXhXhXgXmXhX7XJ.:.5.8.8.8.5.eXeXmXNXZXFXZXGXGXGXGXKXGXGXZXSXGXSXHXSXVXVXmXbXVXZXKXLXKXKX7X8.8.bXGXKXKXKXLXHXKXAX{.{.*X-XLXLXLXLXIXIXIXLXIXIXIXIXIXIXLXbX-X7XVXIXIXIXIXIXIXIXIXIXIXLXLXLXKXLXLXLXLXKXKXKXSXHXbXSXKXKXHX7XAXGXGXGXGXGXAXbXAXSXAXnXNXNX8X:XnXAX:XnX8X=X.X X}.nX}.|.|.|.|.|.[.[.8X}.[.*X8X}.[.[.].].].].].}.'.'.'.{.7XJ.8X{.`.`.`._._.{.X.X.X.-.X.X.X.X.X.X.X.X.X.X.X.X.X..... ...:.L.R.K.C.C.2./ / m n R R ` V.G.T.T.W.T.T.T.T.T.T.Y.D.D.D.S.S.Z.S.m.m.Z.Z.Z.S.S.F.S.B.m.m.m.V.E g.C.R ' x.x.' d y / f.^ ) d.f.' f.z.d.z.d.d.d.k.k.j.d.d.d.d.d.s.s.s.",
"x x x x x x x x x x 4 v , , b < . @ 3 c c c B B B B B v v v 5 # # # , 8 v 8 , 8 Z B v B B B B x 9 8 # # # # # # # # < , + + > + o   o o 2 B Z D G H H G H H H H G G ( H G ( ( H H G G G G ( a.a.a.( H ( a.( a.s.s.s.a.s.a.a.a.s.s.s.d.s.d.d.j.j.j.) ' ' p q w w w w w w w w w w w w e e ] ] ] ] ] ] ] ] { { { { { { { { { { } } } } } } } } } } } } } .. ...} 5.-. .X. ...:.^.(.(.Q.(.Q.Q.(.(.(.yXuX0XuXuXuXuXiXiXuX0XuXiXaXaXaXaXdXdXdXfXsXsXaXfXfXsXfXsXpXsXsXsXjXjXlXjXpXpXpXjXgXgXgXgXhXhXgX6XzXhXbX7X7X8.=.:.8.8.5.8.bX6XbXMXZXGXGXGXGXGXGXGXGXVXSXSXVXHXGXGXZXmXVXVXNXNXKXKXGX7X8.6.;XVXLXKXKXLXKXKXKXAX{.{.-X7XKXHXKXLXLXLXLXIXIXIXIXIXIXIXLXSX-X3XLXIXIXIXIXIXIXIXIXLXIXLXLXLXLXLXLXKXKXLXKXGXKXHXbXAXHXHXHX7XAXGXGXGXSXSXAXnXAXAXAXbXNXNX7X:XnXAX:XnX8X=X.X|.}.nX.X[.|.|.|.|.[.[.[.].}.8X8X}.].[.].].].].'.:X{.'.`.{.6XJ.8X}.`.`.`._.{.7X-X`._.X.X.X.X._.X.X.X.X.X.X.X.X.X.X.....5.J.K.K.K.C.C.g./ / m n R R R g.G.T.T.W.W.T.T.T.T.T.D.D.D.D.D.Z.S.S.m.Z.Z.Z.Z.S.S.S.S.m.n.m.n.Z./ g.C.R f.Z.f.' M y / f.^ _ d.f.' f.z.d.d.d.d.d.k.d.d.d.d.d.d.d.s.s.s.",
"x x x x x x x x c c x v , 5 b < O @ 3 c c c v B B B c c v v 5 . # # < v v 8 , @ 9 Z B B C C C v v 8 # # # # # # # # < 5 , > , + o   o + 3 B C S F G G G G H H H G G H H ( H ( H ( H ( ) ( ( ( ( ( ( ( ( ( ( a.a.a.s.a.a.a.a.a.d.s.s.a._ j.j.j.j.f.' R p q w w w w w w e w w =.1.w w e e ] ] ] ] ] ] ] ] { { { { { { { } } } } } } } } } } } } } } ..} } ...... . .X. ...:.H./.(.(.(.Q.(.(.(.(.0XuXuXuXuXuXuXuXuXuXuXuXiXaXaXaXdXaXdXaXdXsXiX).sXfXkXsXaXwX/.5XjXsXlXjXsX5XwXjXgXjXwXgXhXgXeXhXhXgXgXhXgX7X3X8.8.8.8.5.5.8.3XeXmXNXZXGXGXFXGXGXGXGXGXZXSXZXZXZXVXGXZXmXSXGXGXVXKXGX7X8.J.NXVXGXKXHXKXKXKXKXKXGXbX:X:XbXHXKXLXKXKXAXSXLXIXLXIXIXIXIXIXHX-X8.KXLXLXIXIXLXLXKXKXLXLXLXLXKXKXKXKXKXKXKXKXHXGXSXbXSXHXSXHX7XAXGXGXGXGXSXSXbXSXSXAXbXNXNX8X:XnXAX:X8X8X=X.X|.}.nX:X[.|.|.|.[.[.[.[.[.}.8X7X}.].].].].].].{.7X7X}.`.*X6XJ.8X{.`.`._.X.:X:X{.`._._._.X.X._.X.X.X.X. .X. .X.X.X.X...J.R.K.K.K.A.g./ / R n p a R R g.A.T.T.W.W.W.T.T.T.Y.D.Y.D.D.D.D.S.S.S.Z.m.m.m.S.B.B.S.m.n.n.c.x.R g.C.R f.x.x.' U s 3.f.^ ) d.f.' d.d.d.d.( a.j.j.k.d.d.d.d.d.s.s.a.a.",
"x x x x x x x 4 x c x v > , b < O , 3 c c c v B c c c c v B 5 . # # < v v 8 @ 5 v B B C C C B v v 8 # # # # # # # # < 0 5 , 2 , o o o + 3 v C G G G G G H G H ( G H ( ( ( ( H ( H G ( ( G H ( ( ( ( a._ ( ( ( _ a.a.a.a.a.a.a.a.s.a.a.s.d.j.j.d.) n q q w w w w w w w e w w ;.;.y e e e ] ] ] ] ] ] { { { { { { { { { } } } } } } } } } } } } } } } } ........ .-.X...-.J././.(.(.).(.(.(.(.(.).uXuXuXuXuXuX0XuXuX)./.uXiXiXaXdXaXdXdXdXsXaXwXwXkXfXfXiX5XK.5XsXsXjXjXsXwXjXgXwXjXgXgXeXeXeXgX6XeXgXhXhX7X6X;X:.8.8.5.5.8.eX7XbXNXZXZXZXZXGXGXGXGXSXVXVXGXGXGXHXGXVXmXHXGXVX7XAX;X8.-XNXHXGXGXHXKXKXGXKXGXKXKXAX7X:XHXSXHXHXHXSX7X7XbXKXmXGXLXIXLXLXKX-X@.HXIXLXLXLXZXZXmXKXLXLXKXLXKXKXKXKXKXKXHXKXHXKXGXmXSXGXSXHX7XAXGXGXGXGXSXSXbXSXSXnXbXNXNXbX:XnXnX:X8X:X=X X|.}.nX:X[.|.[.[.}.=X}.[.[.}.rXbX}.].[.].].].'.:X7X:X{.`.-X6XJ.7X}.`.`.`._.`.:X{._._._._._._._._.X.X.-. .{.-...X.X.X...J.K.K.K.A.C.A./ g.3.n p p M R V.G.T.T.W.T.W.T.T.T.T.D.D.T.Y.D.D.S.S.m.m.x.n.S.S.m.S.S.m.m.n.n.V.R 3.C.R g.m.x.f./ m g.x.^ ) d.f.' f.d.d.d.a.d.d.d.d.d.s.s.a.d.a.d.a.( ",
"x c x x 4 4 4 4 4 x x v , , b 5 O , v c c c v B B B c c c v 5 # # # < v v 8 < 5 b B B B B B B v v 5 . # # # # # # # & 8 8 , , + o   o 2 9 v C D D D G H H ( G D G H H ( H ( ( H G D G G H ( a.a.( ( a._ a._ a.a.s.s.s.a.( a.a.d.a.a.a.a.d.d.d.d.^ u q w w w w w w d w w e y ;.;.=.e e e ] ] ] ] ] ] ] { { { { { { { } ..} } } } } } } } } } } } } ..} .......... . ...5.5X/.~.(.(.(.~.~.(.Q.(.(.uXuXuXuXuXuX/.0X).iX0X0XiXdXdXdXdXdXdXfXdXsXwXaXfXfXfXsX).H.C.4XjXjXsXjXjXjXwXwXjXgXgXgXgXgXgX6X6X6XhX6X7X7X;X5.h.5.5.5.8.7X7XmXMXZXVXVXZXFXFXGXGXmXmXSXGXGXGXGXVXNXSXSXGXNX-X7X5.J.AXHXKXGXGXHXKXKXLXKXKXKXKXVXNXbXSXHXSXNXbXAX-X{.*XAXKXKXLXIXLXLXKX7X5.NXLXLXLXLXKXmXmXZXLXKXLXKXKXKXGXKXKXGXGXKXKXKXHXNXSXSXGXSX7XAXGXGXSXGXSXSXbXGXAXNXbXmXbXrX-XnXnX:X8X=X=X|.|.}.nX:X[.|.[..X8X8X*X[.[.}.rXbX{.].[.].].].`.7X7X3X{.`.:X6XJ.8X`._.`.`._._.{.X.X._._._._._._._.X.X.:X-.8.8. .X.X.X.5.H.A.K.A.A.A.C./ g.g.m p p R 2.C.A.G.T.T.T.T.T.T.T.D.G.D.D.Y.Y.Y.D.S.Z.m.m.j.m.S.M.S.S.m.m.n.n.x.R 3.g.R ' Z.Z.f.2.m f.V.) _ x.x.f.f.z.k.d.d.d.d.d.d.d.s.a.d.d.d.d.a.a.",
"x v 4 4 4 x x c c x x v , , 0 5 O 5 v c c c c B c v c v c v 5 . # # < v v 8 < , 8 v B B B B B v v 8 . # # # # # # # # , 0 5 + o     o 2 9 V Z D G G G G G H G G G H H H ( H G H ( D G C C ( a.a._ H H _ a.a.s.s.s.s.s.d.a.( a.d._ _ a.d.d.d.k.d.P q w w w w w w y | w w w w d =.w e e e ] ] ] ] ] ] { { { { { { { { { } } } } } } } } } } } } ..} } ............ . ...5.^.~.W.W.).(.(.Q.(.~.(.).0XuXuXuX0X!.~.0X0XuX/.~.0XiXdXdXdXdXdXfXaXaXaXfXaXaXsXwXK.,.;.C.jXpXjXjXjXpX5XwXjXgXgXgXhXgXhX6XgX6XgXeXhXgX6X8.h.8.5.=.5.8.;XmXNXVXVXMXZXZXFXGXGXVXNXZXGXGXGXHXGXVXSXVXAX7X-X5.-XbXKXHXKXSXGXKXKXKXLXKXKXLXKXHXSXNXeXNXSXHXHXSX-X*X{.bXLXLXIXLXGXLXKXeX5.KXKXKXKXLXKXSXSXKXKXKXLXKXKXGXHXKXHXmXHXHXHXHXSXNXSXAXSXSX7XNXGXGXGXZXGXSXNXAXNXNXbXNXmXbX-XnXnX:X8X=X.X|.|.}.nX}.[.[.[.=X8X8X:X[.[.*XeXbX{.'.].].].].`.7X7X3X{.`.:X7X-X8X}.`.`.`._._._.X.X._.X.X._._._.X.X.-.3X:.J.-X-.X.X. .8.H.K.K.R.G.A.g.U / R p a p R / C.G.G.T.G.T.T.T.W.T.D.D.D.Y.Y.Y.T.D.S.Z.d.d.d.x.m.Z.S.S.n.m.c.n.f.m 2.g.R ' Z.m.f.2.p f.V.) ) d.x.' f.d.d.d.z.d._ d.d.d.d.d.d.d.d.d.d.a.",
"x 4 3 3 4 4 x x x 4 3 3 + , 0 5 . 5 v c c c c v c v B c c v 5 O # # < v v 8 < < v B B B B v b v b 8 # # # # # # # # # O 8 0 , o o   + 2 9 Z Z D G G G G G H H H H H H ( ( ( ( ( ( H G C C ( a.a.a.( H H a.a.s.s.s.s.s.s.a.a.a.a.a.( d.d.d.j.j.d./ p w w w w w w w w w w w e w w w e e e ] ] ] ] ] ] ] { { { { { { { } } } } } } } } } } } } -.{.} } ................ . .H.^.~.W.(.!.!.~.Q.).!.(.0X0XuX(.(.!.0X0XiXuX0X/.iX/.aXdXdXdXfXfXaX/.iXfXaXiXsX5X2.,.p 4.pXwX^.jXjXgXwX5XjXwXwXgXzXgXhXgXgXeXhXhXgXhX6XJ.5.5.5.=.5.8.7XmXmXVXZXZXFXZXZXFXGXGXZXGXGXGXGXGXGXSXVXAXmX-X5.8.SXHXHXSXHXGXGXKXKXLXKXKXLXKXKXHXNXAX3X:XbXKXKXHXbX:X{.:XKXLXLXLXLXLXGX7X8.LXHXLXLXKXZXVXKXKXKXKXLXKXKXKXGXGXGXGXGXGXHXGXSXmXSXSXSXSXAXAXSXSXSXSXVXSXAXSXbXnXbXNXmX7X:XnXnX:X8X=X|.|.|.|.}.[.|.[.[.}.}.:X:X[.[.*XbXrX}.].].].].].`.7X7X3X{.`.`.{.-.8X`.`.`.`.`._.X.:X`._.X.X._._._.X. .-.3X5.;X;X5.X.X. .h.K.K.K.K.G.A.C./ g.2.p u p m / g.A.G.T.T.T.T.T.T.T.D.D.D.T.Y.Y.D.Y.S.S.S.m.S.x.m.S.B.S.b.n.n.n.x.L 2.g.R ' x.x.f.2.p f.f.^ d.d.x.' f.d.k.d.d.d.d.d.d._ a.s.d.d._ a.a.a.",
"4 4 x x x 4 4 4 4 x 3 3 + , b 5 . 5 b v c c v v v v v v c v 5 O # # < v v 0 < 8 v B B B B B B v b 5 # # # # # # # # # < 2 , + o     + 2 3 v Z G G G G G G G H H H ( ( ( ( ( _ ( H ( ( ( ( _ ( a.a.( ( ( a.a.a.s.s.d.s.d.a.( ( _ _ ( _ _ _ d.d.' n y w w w w w w w w w w w w e e e e e e ] ] ] ] ] ] { { { { { { { { } } } } } } } } } } } } .. .} .............. ... . .:.R./.(.(.(.~.W.W.W.(.(.)./.).).).(.uX).0X/.0XuXuXiXaXdXfXdXdXfXaXfXfXsXfXiXwX5XK.U 4.pXwXpXpXgXjXgXjX6XpXhXhXhXhXgXzXhXhXgXzXmXgXgX;X8.;Xh.*X8.:.-X3XbXmXVXZXGXSXZXFXGXGXZXZXGXSXGXGXHXGXVXSXbX-X-X8.7X6XKXHXVXGXGXKXHXKXHXGXLXKXKXHXAXNX3X{.{.AXKXKXKXSX7X-XKXHXLXLXLXLXLXKXAX-XHXHXLXLXLXKXGXSXKXHXKXHXLXHXGXHXGXGXGXGXHXGXGXSXbXSXVXVXGXNXSXVXNXmXVXSXSXSXVXAXnXbXmXVXrX:XnXnX:X8X=X|.|.|.|.|.|.|.|.|.[.}.*X}.[.[.}.8X{.}.].].].].].`.7X7X3X{.`.'.'.`.}.`.`.`.`.`._._.:X`._._.X.X._._.X. .*X3X5.L.L.5.X.X...h.L.K.R.K.K.A.A.g./ m u p u / ` C.A.T.T.T.T.W.W.T.T.D.D.T.Y.Y.Y.Y.T.Z.Z.S.S.S.S.S.F.S.B.z.n.n.c.m.m ,.g.R ' x.d.f.2.n ' V.^ ) f.x.f.x.k.d.d.z.d.d.d.d.d.a.a.a.a.d.d.a.a.",
"x x 4 4 4 4 4 4 3 x 4 4 , 5 b 5 O 5 b c c v v v v B B B B C 5 O O . 5 v v 9 < 0 b B B B C C B b 0 < # # # # # # # # # < 5 2 @ o     o 2 v v B G G G D D G G G H H ( ( H H H ( ( G H G H ( ( ( a.( ( ( ( _ a.a.s.a.a._ ( H ( ( ( ( ( ( a.d.d.) P q w w w w w w w w w w w e e e e e ] ] ] ] ] ] ] ] { { { { { { { { } } } } } } } } } } } } } } } ............ ....... ...=.C./.Q.W.!.(.(.(.(.W.(.(.).(.).0XuXuX0XiX)./.0XiXdXdXdXdXdXfXfXsXiXiXiXlXfXsXpXK.,.C.jX5XjXsXzXpXgXgXgX5XgXwXhXhXgXzXzXgXbXhXmXhX7X;XJ.J.8.8.8.5.7XeXhXmXmXVXVXVXNXZXGXSXVXZXZXGXGXZXZXSXNX3X8.OXu.mXHXSXHXKXHXGXGXHXHXKXHXKXKXSXNXHXSX7X8.8.8.AXVXKXKXKXHXKXLXKXLXKXKXLXLXGXAX-XSXKXZXHXLXHXHXSXKXKXGXGXHXHXHXKXKXKXGXHXHXHXHXSXmXSXSXSXGXSXZXVXVXVXNXVXVXHXmXbXnXbXmXNX7X-XnXnX:X8X=X X|.|.|.|.|.|.|.|.[.[.=X}.[.[.[.}.}.].].].].].].`.7X7X:X{.'.'.`.`.`.`.`.`.`.`._.X.{.`._.X.X.X.X.X.X...-X;X5.L.;X5. .-...J.H.g.K.K.A.C.g.3.g./ n m n 2.C.C.A.G.T.T.T.T.T.T.T.T.D.T.Y.D.D.Y.Y.D.Z.m.m.Z.S.S.S.F.S.S.m.n.c.x.n 2.g.R ' x.x.f.2.n f.f.^ ) x.x.f.x.k.k.z.k.d.d.a.d.d.a.a.a.( a.d.a.a.",
"x x 4 3 3 4 x 3 3 v 9 9 > , v , O 5 v v N c v B B B c c v B 5 @ < O 5 v v 9 < 5 v B B B B B v b 5 # # # # # # # # # # < < , 5 5 o   , b B Z Z S D Z Z D D D D G H H H ( ( H G ( ( H ( _ _ ( ( a.a.a.a.a.a._ a.a.( G G ( ( _ _ _ _ _ a.d.d.d.^ 6 q q w w w w w w w w e e e e e e e ] ] ] ] ] ] ] ] { { { { { { { { } } } } } } } } } } } } } } ................ . . . ...=.H.~.W.W.(.!.~.).uX(.(.(.).(.~.uX0XuX0X/.uXuXuX0X~.aXdXaXdXfXdXiXiXaXiXfXaXsXsXsXpXsXjXpXjXjXjXgXgXjXjXjXjXhXgXgXgXeXhXgXhXhXmXgXgXgXgXhX6X-X8.8.-XeXhXmXNXNXmXbXhXNXNXZXVXZXGXGXNXSXVXbXu.J.3X3XVXHXGXVXGXKXGXGXHXSXGXSXVXmX3XbXmXHXSXhX3X-X{.AXHXKXKXKXKXNXVXGXKXKXLXLXLXHXSX{.eXHXHXSXGXHXGXGXSXGXKXKXKXHXKXKXHXHXHXGXHXGXVXSXmXSXSXSXAXSXSXZXZXVXNXNXVXAXNXmXbXbXNXmXbX-XbXnX:X8X.X|.|.|.|.|.|.|.|.[.[.}.8X}.[.[.[.[.[.[.[.].].].].`.3X7X-X{.`.`._.`.`.`.`.`.`.`._.X.{.`._. . . .X.X.-.-.-X;X5.L.^.8.:.-X5.J.K.K.R.^.R.K.K.A.g.2.m p p g.A.G.G.G.G.G.D.Z.A.G.D.D.T.T.D.D.D.D.Y.Y.D.S.S.S.S.S.S.B.S.S.n.n.c.x.m 2.g.R ' x.x.f.3.m f.V.^ ^ f.x.f.x.z.d._ d.d.d.d.d.d._ ( a._ ( a._ ( ",
"x x 4 3 3 4 4 3 3 3 3 8 > 2 b 5 O 8 v v v v B v v v v c x B 5 , 8 & 5 v b v 5 8 V B B B B B B V 5 # # # % % # # % % # & & , , 5 , o 8 C C Z Z Z C S Z C Z G ^ H H H G G H H ( ( ( ( ( ( _ ( _ ( ( _ ( ( ( _ _ ( ( G ^ ( ( _ ( _ _ _ a.a.d.z.' * q q w w w w w w e e e e e e e e e e ] ] ] ] ] ] ] { { { { { { { { { } } } } } } } } } } } } } .................. . . ...5.K.~.(.(.(.(.(.W.W.(.!.(.9X(.~./.0XuX0X).iXiXiX0X0XdXaXaXaXdXdXfXaXfXsXsXaXiXsXsXlXjXsXjXgXgXjXzXjXjXgXjXjXhXhXgX6XeXgXhXeXbXgXhXhXzXhXhX7X-X5.8.3XeXbXmXmXmXmXbXhXhXVXVXSXSXGXNXHXbX-X:.3XbX7X7XGXHXHXKXHXHXGXGXSXAXSXHXAXhXmXnXbXAXNXNXbXbXnXHXHXHXKXKXKXHXGXKXKXKXLXLXLXHXAX{.bXbXNXSXKXHXKXKXHXHXKXKXKXKXKXGXGXGXGXHXHXGXGXSXmXAXSXVXNXNXNXVXZXZXVXmXNXeXhXbXbXbXmXmXbX-XbXbX:XrX=X|.|.|.|.|.|.|.[.[.[.}.:X}.[.[.[.].].[.[.[.].].].`.7X3X-X{.`.`.:X`.`.`.`.`.`.`._._.{.`._.:X:X{.-.*X-X-.-X3X5.K.^.H.:.;X5.L.R.R.A.K.R.R.A.G.g.C./ m n g.A.G.A.G.G.G.G.Z.Z.D.G.T.T.D.D.D.D.Z.D.D.D.S.S.S.S.S.S.S.S.M.M.n.z.x.R 1.g./ f.x.f.f.3.m g.f.^ ) x.x.f.x.d.d.d.d.d.d.d.d.a._ _ ( _ a.a._ ( ",
"x v x 3 3 3 4 3 3 3 3 8 > , v 5 + 8 v v c N B B B v B B B B 2 , 0 < 5 v v v < 0 C v B B B B B b < # # # % % % % % % % % < b P b , o 8 V Z Z Z Z Z Z Z S S D G ^ ( ( H H G G ( ( ( ( ( ( _ ( _ ( ( ( ( ( ( _ _ ( ( H ^ ( ( ( ( ( ( _ d.d.d.z.' u q q w w w w w w e e e e e e e ] ] ] ] ] ] ] ] ] ] { { { { { { { { } } } } } } } } } } } } } } ..........} .. . . . . .-.8.K.~.(.(./.Q.~.Q.Q.(.(.(.~.(.).).).uXuX0X0X0X0X0XiXdXaXaXdXdXsXsXiXiXiXaXfXfXsXjXjXpXjXwX^.hXjXjXjXjXjXjXgXhXgX6X6XhXhXhXeXzXmXhXmXmXmXhXhX-X5.8.7XeXbXbXmXNXmXhXhXbXNXSXGXSXNXNXhX8.-X-XNXSXSXVXHXGXKXKXGXVXSXSXSXGXGXGXSXHXAXNXAXAXbXAXAXNXAXSXSXAXNXSXHXHXKXKXKXKXLXKXKXHXbX{.7XAXbXGXKXKXKXGXNXHXHXGXKXKXHXGXGXSXHXGXHXSXGXAXbXSXSXNXAXbXVXZXZXSXNXmXNXbXmXmXbX8XbXmXrX-XbXbX:X8X=X|.|.|.|.|.|.[.[.[.[.}.:X}.[.[.[.].].[.[.].].].].`.3X6X;X-X}.`.8X`.`.`.`.`.`._._.*X{._._.{.-.-.-.3X-X-.3X3X8.K.^.L.:.;X5.L.R.A.A.R.R.R.K.K.A.C./ p p 3.C.A.G.G.G.G.A.Z.Z.D.D.D.T.D.D.D.Z.m.S.D.D.D.S.Y.S.S.S.S.m.c.n.c.c.V.R 1.g.R f.m.n.f.g.p ' x.^ ) d.f.f.f.d.d.d.k.d.d.d.a.a._ a._ ( _ ( ( ( ",
"4 x 4 3 4 4 3 3 3 3 8 8 , 5 v , + 8 v v v v B B B B v v v B 2 , 0 5 5 v v 0 < , 0 v v v B B B b < # # # % % % % % % % # # 0 V 8 @ o 8 v v b Z Z Z Z Z Z Z G G D G ( G D G H ( ( ( ( ( ( ( a._ ( ^ H ( ( _ _ ( a.a.( ( ( H ( _ ( ( d.d.d.d.z.' u q q w w w w w w w e e e e e e ] ] ] ] ] ] ] ] ] ] { { { { { { { { } } } } } } } } } } } } } } ...... . .} 5.J.8.-. . .-.4.~.!.(.)./.~.(.~.(.!.(.(.!././.).).0XuXuXiXiXuX0X0XaXaXdXdXsXfXsX).wX0XiXsXpXjXjXwXpX6X6XL.hXjXjXjXjXjXjXgXeXgX6X6XgXhX7XgXmXmXmXzXmXmXzXhX;X5.5.7X7X7X7XbXmXmXbX7XmXAXNXNXmXbX-X8.5.-X3XNXGXHXSXGXGXHXHXSXAXAXAXGXGXHXGXAXHXAXNXAXAXbXmXAXNXAXHXAX7XrXNXAXAXHXKXKXSXHXKXHXNXbX5.-XbX7XSXHXKXKXNXAXGXVXAXGXKXHXSXGXSXSXSXHXGXSXSXNXSXSXmXNXSXSXZXZXZXNXmXmXmXmXmXmXrXbXmXrX-XnXbX:X:X.X|.|.|.|.|.|.|.[.[.].].:X}.[.[.[.].].].[.[.].].].`.7X7X;X-X}.`.:X`.`.`.`.`.`.`._.*X-.X._._.X.X.-.3X-X-.3X;X8.L.^.^.:.;X5.L.^.R.R.K.R.R.G.K.C.3.E p p 3.g.3.A.G.G.G.A.Z.D.D.D.D.G.D.Z.V.Z.Z.D.S.D.F.S.S.S.S.S.S.n.z.c.n.c.x.R 1.g./ ' x.z.f.g.m ' x.^ ^ ) f.' ) _ a.d.d.d.d.d.d.d.a._ ( ( _ ( ( ( ",
"x x 4 4 3 3 3 3 4 3 3 8 , 8 b 5 + 5 b v c v v B B B B B v B 2 , 0 5 5 v v 8 < + > , 8 v v b b 8 O # # % % % % % % % % # # & , > o O 8 b b V V Z C B b v v C Z Z G ^ ^ G G ( ( ( ( ( ( a.a.a._ ( ( ( _ ( _ _ ( _ ( ( ^ G A G ( _ a.a.d.d.k.x./ q q q w w w w w w w w e e e e e e ] ] ] ] ] ] ] ] ] ] { { { { { { { } } } } } } } } } } } } } ....} } .. ...8.L.4XJ.-.5.-XH.~.~.(.).(.(.(.(.(./.(.(.(././.(.).0X).iXiXiXiXiXuXiXaXdXdXaXaXaXiXaXfXsXsXwXjXjX5X5XH.4.4.6XgXwXhXzXhXgXgXgX6X4XJ.J.;XJ.3XbXmXhXmXmXbXbXhX-X5.5.8.-X3X-X7XgX7X7X3X7XeXbXbX7X-X5.5.-X-XbXmXGXSXGXGXGXGXGXVXVXNXSXSXGXSXSXNXAXAXNXmXbXNXNXmXAXGXHXbX{.-X7XbXAXmXNXHXSXmXAXNXAXnX5.7X7XbXmXAXSXSXbXAXSXNXGXHXHXHXGXSXGXSXGXGXSXSXSXmXAXSXVXNXSXZXVXVXmXmXNXNXbXmXmXbXbXmXmXbX-XbXmX7X8X=X X|.|.|.|.|.[.[.|.[.].:X}.[.[.[.].[.].].[.].].]._.7X7X;X-X`.`.:X`.`.`.`.`.`._._.{.-.X._._._.X.8.3XJ.-.;X;X8.L.^.^.4.;X:.L.R.R.R.R.R.R.G.G.C.C./ m p R / 3.g.A.Z.C.g.' g.V.V.Z.G.D.A.V.Z.Z.D.D.D.D.S.D.S.S.S.m.m.c.z.b.c.x.m 3.g.R f.c.c.f.3.p ' f.^ ) d.f.' ) _ d.d.d.d.a._ ( _ a.( _ a.( ( ( ( ",
"4 3 3 3 3 3 3 3 4 3 3 2 > 5 b 5 O 5 b v c c v B c c c v v v 2 , 0 5 , 9 v 5 @ O O + , 8 8 2 , @ # # # % % % % % % % % % # & < + o O + 5 9 v 9 9 v 8 2 8 9 v v C Z Z Z Z S G H ( ( ( _ ( _ ( a._ ( ( ( _ _ _ _ _ _ ( ^ ^ D G ( ( a.d.d.d.d.) n q q q w w w w w w w w e e e e e e ] ] ] ] ] ] ] ] ] ] { { { { { { { { } } } } } } } } } } } } ......} -.8.:.H.R.5XH.=.5.L.A.~.Q.!.Q.~.(.(.(.(.~.~./.~./.)./.).iX0X0X0XiXiXiX0XiXiXaXdXaXaXiXiXiXfXsXsX5XsXjXwX4.;.d d 4.4X4XgXhXgXgXgXgX6XL.8.8.5.5.;XhXgX6XgXbXhX7X7X5.5.5.8.8.8.8.-X-X*X-X-X-X8.-X-X8.5.8.-X-X-XbXAXNXVXGXGXHXHXGXSXAXAXSXSXSXAXVXAXSXmXNXrXbXNXAXNXSXGXHXbX{.{.:XrXbXAXnXNXAXAXAXnXbX7X-X{.7X7XbXbXbXmXNXAXSXAXGXHXHXHXHXSXSXSXSXSXSXSXSXmXmXAXNXNXVXNXNXVXNXVXmXmXmXbXmXbXrXmXhXbX{.bXmXrXnX=X|.|.|.|.|.|.[.[.|.].}..X}.[.[.[.}.}.[.].].}.}.}.X.7X7X;X-X`.`.:X`.`.`.`.`.`._._.`.{.X._._._.X.-.-X3X5.;X;X8.L.^.4X:.;X:.H.R.K.K.C.C.A.A.A.g.g./ m p p m m n 3.g.3./ / f.f.' g.V.f.f.g.V.V.Z.S.S.F.F.S.S.S.S.S.n.c.n.n.z.x.m 3.3.P f.m.n.f.3.n ' f.^ ) x.x.' ) d.d.a.d.d.d.d._ _ _ _ _ _ ( H ( ( ",
"3 2 3 3 2 2 2 2 3 3 3 8 , 2 v 5 O 8 v v B B B B v c c v v v , , 0 < , 8 2 , < O   o O + + o O O # # # % % % % % % # # # # O @ o o o + @ , , > , 2 2 , , , , 2 8 9 v V V C Z G ( ( ( _ _ a._ _ ( ^ ^ _ _ _ d.d.d._ ) ^ ( ( ^ ^ ( _ a.a.d.d.^ a q q q q w q w w w w w w w w e w e e e e w w w e e ] ] ] ] ] ] ] { { { { { } } } } } } } } } } } } } } 5.J.=.4.^.~.H.:.4.^.G.W.G.Q.).).(.).)./.V.V.G.~./.~././.).)./.).).).0XaXiXaXaXiXiXiXwX).wXiXaXsX5XwX^.^.C.d d d ;.4.4.J.J.J.L.;XL.8.:.:.:.=.:.:.J.J.8.8.-X-X-X3X8.5.5.5.8.5.5.5.5.5.5.5.5.5.8.5.5.5.8.-X{.*X7XNXSXSXVXGXHXGXGXSXmXNXAXNXNXNXGXSXSXNXbXNXnXAXbXNXNXAXAX7X{.:X7X8X8XnXnX8XnXrX8XrX8X7X7X{.-X:X-X7XbXnXmXAXAXNXAXSXHXSXHXHXGXVXbXSXNXSXAXmXNXAXNXNXNXhXmXbXbXmXmXNXmXmXbXbX7XbXbXbX*XbXbXbX8X=X|.|.|.|.[.[.[.[.[.].}..X}.[.[.].}.:X}.].].}.:X{.-.7X7X-X-X}.`.:X`.`.`.`.`.`._.X.{.{.X._._._.X.X.5.8.-.-X;X4.J.R.4X:.-X:.4.1./ 2.3.3.3.2.E M M m s p m n p m m R n n a m n m R n n P P P ' V.Z.Z.S.D.S.S.S.S.Z.m.m.m.x.x.' n 1.3.P ) f.z.f.3.n ' x.^ ) f.f.' ' d.a.d.a.d.d.a._ ) ) _ _ _ _ ( ( ( ",
"+ + > > > 2 3 3 3 3 2 2 + , 2 @ . 5 9 3 4 v v v x x v v v v , 5 0 , @ 5 5 @ O o             . . . # # # # # # # # # # . . @ @ o o o o O o + + o o + + + + O + , + + + , , , v ^ ^ ^ ^ ^ ^ ^ ^ ) ^ G S ^ ^ G ^ ( ) G Z ^ G G ^ ^ ) ( _ _ ^ P m q q q q q q q q q q q q w q w w w w w w w q q w w w w e e e e e ] ] ] ] ] { ] ] ] { ] e e ] ] ] | | =.8.J.| 4.K.K.K.J.4.L.G.G.D.Z.D.).(./.~.V.P P ' 3.V.' A.K.K.G.~.G.~./././.).wXiXiXwXwXwX5XwXiXpX5X5X^.^.H.;.;.=.d =.;.;.4.:.4.=.4.4.8.8.5.=.:.5.8.8.8.-XJ.J.8.5.5.5.5.=.5.-.:.5.5.5.5.8.8.5.8.5.8.5.5.{.8.5.5.8.7XNXNXNXNXNXNXNXmXNXmXAXAXNXnXAXAXAXnX7XrXbXAXbXAXnXnXbX:X{.*X-X:X8X8X8X8X:X:X8X8X7X:X7X-X-X:X{.{.8XnXbXAXAXNXAXAXmXNXAXAXAXAXNXNXNXbXhXbXbXmXNXmXbX7X7X7XbXmXmXmXbXbXbXbX8XbXbX7X:XbX8X8X8X=X[.[.[.[.[.[.[.].].[.[.}.}.].].'.}.*X}.}.}.:X7X:X-.:X7X-X{.`.`.*X{.`.`.`.*X-X`.{.-X*XX._._.X.X.X. .-.-.-XJ.8.h.3.J.:.h.=.1.d U R M m n M M p p p p p p p p n u u n n u u 6 n n 0 a n n a 0 ^ f.x.Z.x.Z.Z.m.Z.Z.V.x.x.f.f.' m 1.3.R ' f.f.f.3.n ' f.^ ^ f.f.' ' ) d.) ) _ a.) ) ) ) ^ ^ ( ^ ( ^ ( ",
"o   o o o o o o + + + , + + @ @ . + > > , + + + o o o o o o     o       o o           o       . . . # # # # # # # # . . . O + o     o o o + o o o o + , O O + + o o o o + , , 3 b 3 2 9 b 8 , 2 , , , , > , , 2 2 o o + 3 8 v 9 2 2 v b 0 5 & * % % % % % % % # % % % % q q q q y y y q q q q q q q q q q q q q q q w w w w w w w w y q y y y q q q q d e q u s d =.d M R ' ' L 0 5 0 0 7 5 L a 0 7 n P L i i 6 s s m s m 6 i P E I j Y L I s s M M d d d d d d ;.d ;.1.=.;.| d =.=.:.=.:.:.:.5.8.5.8.5.8.=.8.8.5.5.=.5.5.5.8.8.8.8.8.8.8.8.5.-.8.{.5.8.8.8.-X*X8.8.5.8.-X-X-X;X-X-X8.8.8.8.5.5.8.OX8.{.{.{.-X-X{.{.-X8.{.{.-.-.-.-.{.{.-X{.*X-X:X*X{.{.{.{.8.-.{.{.-.{.:X-X-X-X-X-X-X{.-X-X-X-X3X-X3X3X3X-X-X-X-X-X-X3X3X3X3X3X-X-X-X*X-X*X{.{.{.-X`.-.-.`.}.}.'.'.}.[.[.}.'.'.'.'.`.`.}.'.'._.:X`.`.`._.-.-.{. . .-...-.X.X.-. . . . . . . ...-.-.X.X.X.X...} ......| | | d d =.| :.| =.d M n p p u p a m R m n n n p p p u m a u u a u 6 n 6 a 0 0 6 < 8 b b 9 b b b 8 v 2 , > > , , < * y y p n n n n M u P P 0 8 P / n P ^ ^ ^ ^ ^ Z Z Z b v C S G ^ ^ Z ^ ",
"o o o o o             o o O @ O . + , , > > + + > > > > , , O O @ @ , 2 , , + o o o     o     . . . # # # # . . # . .       o + o o o   o o o o   o o o O + + + + + + , , , , , , 2 2 2 3 , , 2 5 8 2 2 2 5 8 8 2 2 8 8 b b 8 9 v b B V v 0 P 0 < # # # # # # % % % % % % % % # # q q q q q q q w w w w w q q w w w w w w w w w w w y q q q w w w | =.=.w M R W ;.;.M U L ' Q Q Q Q Q P L & @ < 7 6 5 5 R E V.A.E p s / 3.V.` ` W L s E E ` 3.W d M d d y y d d d ;.d d =.d d =.=.| | =.:.=.:.:.:.:.5.8.5.8.h.8.8.5.:.5.8.8.8.8.{.8.8.{.8.*X8.{.8.{.-X*X3X3X8.8.8.8.5.8.-X-X-X-X-X-X8.8.-X{.-X-X3X-X-X-X:X7X7X3X3X-X7X7X-X{.-X-X-X{.*X8.8.8.-X{.{.{.{.{.{.{.-.-.8.-X:X7X3X3X7X3X3X-X3X3X:X-X-X-X3X3X-X-X-X8.8.8.-X-X-X-XJ.J.-X-X-X-X-X-X-X-X{.8.8.{.-.-X:X{.{.}.].}.}.}.].].'.`.`.`.`.`._.`.`.X.X.`._._._.-.-.-. .8.8. .-.X.-.{. . .-.-.-.5.-.-.5.-.X.X. . ...........8.5.=.4.4.;.] 1.=.d d d p p p p p p p u 6 u 6 6 p p p u a n R m n n n n n n n 0 n n b P V V b b b V V Z ^ V b V V n p d m p R Q P P m p / / n n n P n b C b C C b C C C S ^ Z G S b b C v ",
"o > > > > , 2 2 2 3 8 8 , , 8 < . 5 v v v v v v v v v v 9 8 , , 8 5 5 b b 0 5 , , + + + , + + O . . # # # # # # # # < 0 b v 8 5 , o O + + , , + 2 2 , + , 5 9 V C Z ^ Z B B Z ^ ) ) ^ ) _ ( ^ ^ Q ) ) ^ Z ^ ) ^ ) ) d.d._ d.d.d.d._ _ d.) ) f.f./ a % q q q q q q q q q w w y y q w w w w w e e e ] ] ] ] ] ] ] ] ] { ] ] ] { { | e ] ] ] ] { ] | :.8.8.:.L./.~.K.K.1.C.A.W.W.G.T.W.W.W.G.A.V.3.P ' G.G.' P a E s R 3.G.~./.0XwX).~.wXwXiXwX5XA.,.2.wX^.,.1.4X5X6XL.4.4.H.J.L.H.J.h.J.J.;XL.;X;Xh.5.:.=.=.:.8.:.:.5.8.:.5.8.8.*X*X-X5.{.-X{.8.5.-X-X-X*X-X3X-X7XbXNXNXNXbXVXVXAXNXmXbXmXbX7X3XbXbXAX-X7XbXbXNXSXNXbXbXAXeX-X*X{.{.:X7X7X:X8X:X7X8X:X7XbXbX:X{.8.-XbXNXAXAXAXAXAXAXSXHXSXAXNXmXbXbXAXmXbXNXbXmXNXNXmXmXmXhXbXmXMXNXhXmXmXmXmX7X7X-X8X*XbXnX{.8X:X}.[.[.[.[.[.[.[.}.}.}.}.}.}.}.}.'.].].'.}.{.:X{.-.7X3X-X-.X.{.:X8.-X7X-X8.;X8.8.3X-X-.X.{.{.-.X.X.-...*X;X8.;X^.;X:.L.;.h.K.A.A.C.A.g.A.g./ 2.n p m 2.R / 3.3.R / g.' 3.' / g.g.f.x.' f.f.x.Z.Z.x.x.x.Z.Z.S.m.x.x.x.) ) f.R 3.2.m ' x.x.V.3.m f.f.P ) ' f.C.f.) ) ( ) ) ) ) ( ^ ) ) G ^ ) ) _ ) ",
"2 3 3 3 3 3 3 3 4 4 v 9 , , 0 < . 5 b v v v v v v v v v v 9 , > 0 5 5 v v 9 5 , 3 3 2 8 8 8 8 5 @ . # # # # # # # < b C Z C v 8 +   O + + + + 2 9 9 v 8 2 v C Z G G G G G ^ ( ) _ _ ( ( d._ ^ 6 < n ) ^ ) ) ) ^ ^ G ^ _ d.d.d.d.d.d.d.d.d.) x.f.' R q q q q q w w w w e e e w w w w e ] ] ] ] ] ] ] ] ] { { { { { { } } } } } } { } } } } } } } ..:.8.8.:.K.~.~.K.K.4.~.~.(.(.Q.W.W.T.T.G.G.G.~.A.W././././.P./ L L G.iXiX).iXaXiX).).aXwX^.5X3.d 4.pXwXK.U K.wXpX5XC.^.4X4X4X4X;X4X6XgXH.;X;XJ.4.:.8.=.=.:.:.:.5.8.:.=.:.8.5.5.5.-X8.8.*X8.5.5.5.8.8.*X-X7X7XhXmXVXVXVXVXSXZXSXbXNXNXNXmXbXbXeXNXmXbX7X7XbXAXHXNXAXSXSXbX7X*X:X7X:X:X7X-X:X7XrXbXrXbXbXNXbX3X7XbXNXmXmXAXSXSXAXVXGXGXSXVXNXbXSXAXmXAXAXmXbXNXmXmXVXNXNXbXNXNXMXMXmXNXmXNXbX7XbX3XtX{.bXnX{.7X8X}.[.[.[.[.[.[.[.[.[.].].}.].}.].].].].].}.{.7X{.-.7X3X-X{._.{.7XJ.;X3X;X8.;X8.8.3X8.-.X.X.X.X.X.-.-.-.8.;X4.L.^.J.:.L.;.h.^.R.R.R.K.R.K.G.G.A.R p m R m ` ` / n n P / g./ g.V.V.Z.Z.V.Z.V.Z.D.Z.Z.m.S.S.S.m.m.n.x.n.d.f.' n g.2.m ' x.z.x.g.m f.x.P ) d.f.f.f.d.d.d.d.d.d.d.d._ d.d.d._ d.d.d._ ",
"x 4 4 4 4 4 4 4 x x x v , , 0 < . 5 v v v v v v v v v c v v , , 0 5 5 v v v 5 8 v B v v B C v v 8 O # # # # # # # < V S D S Z B 2 o + , + , + , 3 9 v v C C Z D G ^ _ _ ^ ( ( _ _ _ ( _ _ ) P u y * n ^ ^ ) _ _ ) ) _ _ d.d.d.d.d.d.k.z.d.f.x.x.x.E q w w w w w w e e e e e e e e e ] ] ] ] ] { ] ] ] { { { { { } } } } | } } } } } } } ..} } .. .-.8.8.:.L.R.~.K.K.3.~.~.~.~.Q.D.G.Z.~./.W.T.W.~.~.~.T.).0X)./.3.L / ).).iXiXaXiXwXwXiXsXiX5X4.I 2.wXsXwX4.1.5X5XgX5XpXgXpXjXhXwX6XgXhX6X6XgX4X:.:.:.=.=.5.8.6XJ.;X8.5.5.3X7X3X-X-X-X8.8.-X8.5.-XJ.-X-XgXbXhXNXVXZXZXNXZXGXGXGXVXVXmXVXAXAXbXbXmX7XNX7XmXNXVXVXSXSXSXSXbX7X-X{.:X-X-X-X{.-X:XrXbXbXbXNXbXAXAXAXAXNXmXVXVXVXGXVXSXVXSXGXVXhXNXNXNXNXVXAXAXNXAXNXmXNXbXNX7XmXVXNXhXmXbXmXmXbX7XbX7XtX*XbXnX8.7X8X}.[.|.[.[.[.[.[.[.[.[.[.[.].].].].].].].}.{.7X-X-.7X7X-X{.`.{.7X;X3X3X;X8.;XJ.-X6X*X-.X.X.X.X.-.{.*X-.*X;X8.L.^.L.:.L.:.h.^.~.~.~.~.~.~.~.K.G./ u n 3.g.V./ ' R ' g.V.V.g.D.Z.G.G.G.D.Z.D.D.D.D.Z.Z.S.S.S.m.m.m.m.n.z.f.' s g.3./ ' d.x.x.3.n ' f.P ) x.f.f.f.d.d._ d.d.d.d.d.d._ d.d.d.d.d._ _ ",
"x x c c x v x x v v v v , , v 5 . 8 v c c v B B B v v v v v , , 0 5 8 v v v 8 8 B B B B Z Z C b b < # # # % % % # 0 P G G G G Z 2   , 9 9 3 2 b V C C C G Z C H ( G G ^ G ^ _ a.a._ _ _ ) ^ p q q q n ) ) _ ( ( ( ^ ) _ d.d.d.d.j.k.k.k.d.d.x.j.f.E q w w w w e e e e e e e e ] ] ] ] [ ] ] ] { { { { { { { } } } } | | =.| } } } } } } ..} ...... .8.8.5.L.K.K.R.K.W W.~.Q.~.(.(.~.W.(./.(.)./.(./.).).uXuXuXuX/.~.V.` G.iXaX).0XaXiXiXaXiXpXK.I K.pXwXpX5X;.4X5XjXjXsXgXjXjXjXgXgXhXhXhXgX6X6XL.:.:.=.h.7X6XhXhXgX;X:.5.3XhXgX7X3X;X3X-X-X3X3X-X-X7XbXmXbXmXbXNXVXZXVXVXZXGXZXZXZXVXNXSXNXbXhXmXbXhX7XbXmXNXSXNXVXVXVXAXAXbX:X7XrX7X7X7X7XbXmXAXbXAXAXNXNXAXAXVXNXmXNXSXSXSXSXVXNXSXSXSXAXVXNXmXAXbXSXAXVXVXVXVXNXMXMXbXNXNXmXhXbXNXmXNXbX7XbX-XtX-XbXNX8.8X8X}.[.|.[.[.[.[.[.[.[.[.[.[.].].].].].].].}.{.7X:X-.7X6XJ.{.`.{.7X-X3X3X3X8.;X-X-X6X-X-._._.X.X.{.3X-X-.-X;X8.L.^.J.:.L.4.J.^./.~.~.~.~.~.~.~.K.C.n m / g.g./ g.f.C.V.g.V.V.D.T.T.Z.D.D.D.Z.D.D.D.D.S.S.D.S.S.Z.Z.m.m.x.x.f.n 3.` / f.x.x.V.3.R f.x.P d.z.f.f.f.d.d._ d.d.d.d.d.d.d.d.d._ d.d.a.d.",
"x x x c c c x v v v v v , 2 b < O 8 v v v v v v B B v v v v 2 , b 5 5 v v v 5 8 B B C C C C Z C b < # # % % % % # 5 ^ G G G Z Z 5   + 0 b v 8 9 C G Z C G ^ G ^ ( G G ( ( ( ( ( _ a._ _ ) n q q q q m ' ) ^ ( _ _ ) ( _ _ d.d.d.d.d.k.k.f.f.x.j.x.` q w w w w e e e e e e e e ] ] ] [ [ ] ] { { { { { { { { { } } } =.H.L.8.} } } } ..} } ..........5.8.5.H.U C.^.L.2.~.W.W.(.(.(.(.(.(.(.(.9X9X(.).uXuX9X0XuXuX~.)./.A.! ~.).iXiXiXsXiXiXsXpX^.W pXpXwX5XH.1.4XsXsXlXjXjXjXjXjXjXjXzXhXgX6X6X6Xh.4.4.h.hXhXhXzXhXhX;X=.=.u.eX7X7X7XhXhX6X;X7XbX7X7XmXmXbXMXVXmXmXNXZXZXVXZXGXZXZXNXZXVXZXNXVXbXhXmXbXgXeX7XbXZXNXVXVXSXZXAXmXNXbXbXbXmXrXmXmXAXAXVXNXAXNXmXSXVXNXVXAXAXSXZXSXSXVXNXVXSXAXAXbXNXmXmXVXVXNXVXNXVXmXZXZXVXMXVXNXVXZXNXMXmXhXbXhXbX3XtX-XnXNX8.7X8X}.[.[.[.[.[.[.[.[.[.[.[.[.[.].].].].].].}.*X7X:X-.7X6X;X{.`.{.7X-X3X3XJ.8.;X*X*X3X-X`._._._.X.{.;XJ.5.-X;X8.L.R.L.5.;X4.J.^./././.~.~.~.~.~.T./ a n / C.A.G.A.V.Z.Z.Z.G.G.G.T.T.D.D.D.D.D.D.D.S.Z.S.S.S.S.S.S.Z.Z.Z.x.x.V.a 3.3.R ' f.f.V.3.R ' x.P f.z.f.f.f.z.z.d.k.d.d.d.d.d.d.d.d.d.d._ _ d.",
"x c c c x x v v v x v v , , 9 < # 8 v v v B B v v B B B B C 2 , b 5 5 v v v 5 8 B C C C C C C C v < # # % % % % # 0 ^ G G G Z C 2   + 9 C Z Z Z S G G D G H H G G H ( _ ( ( ( ( ( ( ( _ ) n q q q q p ) ) ( _ d.) G B B G H ( a.d.d.k.z.d.f.x.j.x.` q w w w e e e e e e e e e ] ] ] ] ] ] [ ] { { { { { { { { { } { :.L.R.H.} } } } } } } } ......} :.8.| :.2.K.K.K.2.~.T.(.(.Q.Q.(.(.(.(.(.).(.(.(.0XuXuX9XuXuX~.uX0X)./.L w.)././.).).iXiX5XK.W pXwXwX5X4.4.jXsXwXzXjXgXsXsXjXjXjXgXgX6X4XJ.4.:.4.6XgXhXzXzXzXhXgXJ.=.=.-XhXgXgXbXMXMXbXhXhXNXzXNXVXMXMXMXBXZXMXNXVXbXMXZXFXFXGXGXZXbXVXVXVXNXmXhXNX3X;X3XhXbXhXhXmXSXSXmXAXSXAXmXAXSXbXNXSXSXGXGXVXNXmXbXZXVXNXVXAXVXVXVXSXVXVXNXVXSXSXmXSXmXVXmXSXSXZXSXMXZXVXNXmXVXNXeXmXVXVXmXMXMXNXNXbXhX-XtX:XnXNX8.7X8X}.[.[.[.[.[.[.[.[.[.[.[.[.].].].].].].].}.{.7X-X-.7XgX4X{.`.{.7XJ.3X3X3X8.3XJ.*Xh.-X`._._._.X.-X6X;X5.-X;X8.^.^.L.5.;X4.H.~.~././.~.~.~.~.~.A.R m / g.V.D.A.T.T.G.G.D.G.T.D.T.T.D.G.D.D.S.D.Y.S.D.S.S.I.I.S.S.m.S.S.n.x.V.n / / P P C ^ f.3.R ' x.Q f.z.x.' f.x.z.z.z.z.z.z.d._ _ d.d.d.d.d._ _ ",
"x c c c c c c c v v v v , 5 b < # 0 b v B B B B B B v B v v , , b 5 5 v v v 8 8 B Z Z C C C C Z 0 & # % % % % % # 0 S G S S v 2 +   > v Z G D G H H G G H G H ( ( H ( ( ( ( ( ( ( ( _ _ ^ n y q q q p P ) _ _ d.) ^ ( ) d.d.d.d.d.d.k.k.d.d.x.j.Z./ q w w w e e e e e e e e e ] ] ] ] [ [ [ ] { { { { { { { { } } { :.H.C.=.} } } } } } ..........} -.8.| 4.^.K.^.K.C.~.~.Q.~.Q.(.(.W.Q.(.).9X9X9X(.9XuXuX9X9XuXuX).uX0XiX).7 7 E ` j G.^.^.C.C.p s A.^.K.;.H.zXsXsXjXjXpXpXjXsXzXjX6XL.H.4.1.4.1.hXhXhXjXzXzXzXgX;X;X=.5.bXmXmXzXhXMXMXMXVXVXhXVXZXVXBXVXVXMXVXBXVXZXVXmXZXZXFXFXGXZXMXVXVXVXVXmXNXVXbXmXNXNXZXVXNXNXHXSXGXGXGXGXSXSXGXVXNXZXZXFXGXGXNXGXGXSXSXSXNXNXNXmXSXNXHXmXSXGXSXZXVXSXSXNXSXVXZXGXZXZXZXZXNXZXVXhXhXNXMXZXMXVXBXBXMXbXbXh.tX*XbXnX{.7X8X}.[.|.[.[.[.[.[.[.[.[.[.[.].].].].].].'.{.-X7X-X-.7X6X4X{.`.{.3X-X6X;X;Xh.3XJ.-X3X-X-._._._.X.-X6X3X5.-X;X8.L.^.L.:.L.1.H.^./././.~.~.~.~.A./ n n ` g.A.T.V.T.T.T.T.W.T.T.W.T.T.S.Y.D.D.S.S.S.Z.S.S.S.S.S.I.S.S.S.S.m.n.V.n E 2.g.f.d.z.V.2.n ' x.Q ' n.m.' ^ d.z.z.k.k.d.d.k.d.d.d.d.d.d.d._ d.",
"v c B c c x x c v v v v , , b < # 8 v v B B B B B B B B B B 2 5 b 5 5 v b v 8 8 B C B B C C C B 0 < % % % % % % # 0 Z Z B v v b @   + 0 Z Z B C G ( ( H G G G ( ( ( _ ( ( ( _ ( H ( ( ) n n U y q q q n ) d.d.d.d._ _ d.d.d.k.d.d.k.z.z.d.) x.z.x.' q w w w e e e e e e e e e ] ] ] ] [ [ [ ] { { { { { { { } } } } | 4.4.] } } } } ..} } ........ .5.8.5.L.^.~.~.K.C.~.T.(.(.(.yX(.Q.(.(.~.9XuXuX9X9XuXuX0X0XuXuXuXiXuXdXaXiX` 6 * u p p p s q z C.2.I U 1.L.pX^.pXjXjXpXjXjXsXsX6XK.4.;.4.4.1.6XgXzXzXjXhXhXhXJ.;X8.=.:.8.gXbXhXhXVXMXMXVXMXBXVXVXMXVXBXBXBXBXVXMXZXMXVXZXZXFXVXGXVXVXZXZXVXZXVXVXbXmXNXbXmXVXVXZXNXGXGXGXZXVXVXSXHXVXVXGXGXZXGXGXZXZXKXVXGXZXGXVXGXSXVXVXVXVXVXZXZXZXVXVXSXMXSXSXGXGXZXVXMXMXmXZXMXMXVXMXMXBXZXBXJXVXMXmXgXbX-X7X-XbXNX-X7X8X}.[.[.[.[.[.[.[.[.[.[.[.].].].].].].].'.*X-XgX3X-.eXpXJ.8.X.{.7X;X7X;X;Xh.4X-X*X;X-X-._.X.X. .3X6X4X5.-X;X4.H.K.;X:.J.;.H.^.~./.~.~.~.A.C.C.A.m n a g.G.G.A.T.T.W.T.W.T.T.T.T.T.Y.T.D.F.D.Z.D.D.Z.x.m.S.S.I.S.S.S.S.m.c.V.n U g.V._ d.c.Z.g.n ' V.) ) d.x./ ) d.k.k.k.k.k.d.k.d.d.k.j.d.d._ _ d.",
"c v B B v v c c B v c v , 5 v 5 # 0 B c v B B B B B B B v C 5 5 b 8 5 v v v 8 9 B C B B B B B B 9 & # % % % % % # 0 C S Z B 3 2 , o , , 2 v C G G H ( ( H G G G H ( ( ( ( ( ( ( _ _ ( ) P m R % q q q n f.d.d.d._ _ ( _ d.d.d.d.d.k.k.k.d.f.m.c.z.' M ;.y w e w e e e e e e e e ] ] ] ] ] [ [ [ { { { { { { { } } } { | | { } } } } } } .......... .8.8.5.L.~.~.^.K.3.~.(.(.(.(.(.(.(.(.(.).(.(.uXuX9XuXuXuXuXaXuXuX0XiXdXaXiX~.V.` R p 3.U ,.I p p ;.4.;.H.5XpXjXzXxXjXpXsXjXwXH.4.K.;.L.4.6XjXjXzXzXzXjXgXgXMXeX7XJ.:.:.;XJ.3XhXmXVXVXBXBXVXZXMXzXMXBXVXBXBXVXZXBXVXVXMXVXZXFXGXVXzXbXZXVXZXVXVXmXmXNXNXhXzXbXNXMXNXZXGXKXGXGXSXGXKXGXSXGXGXGXZXGXGXGXGXZXSXZXZXGXGXGXZXNXSXVXSXVXZXSXVXZXSXNXMXZXZXMXVXNXmXmXVXMXVXVXMXBXZXVXMXBXZXBXMXmXmXNX3X7X-XNXAX-X7X8X}.[.[.[.[.[.[.[.[.[.[.[.].].].].].].].'.{.-X7X-X-.7X6X;X{._.-.:X;X6X;X3XJ.4XJ.8.8.-X{._.X.-X5.3X5X4X5.-X;X8.L.^.4X8.;X1.H.R.~./.T.R.R.R.G./ g.n < a g.g.V.G.T.W.W.W.T.T.T.T.Y.D.Y.Y.Y.D.F.Z.m.Z.m.m.S.S.Y.D.n._ x.m.m.m.Z.n U 2.f.c.b.b.f.2.R f.V./ ) z.Z./ ' z.z.z.c.c.z.z.z.d.j.d.d.d.d.d.d._ ",
"v c c B c c c c c c v v , 2 v < O 8 v v v v B B B B B v B B 5 5 b 8 5 v v v 0 v B B C B B Z Z C b < # % % % % # # 0 V Z Z v 8 8 , o @ , 8 Z G D G ( ( H ( ( H H H ( ( ( ( ( ( ( _ ( ( ) n * p d q q q n f.a._ d.a._ _ a._ ( d.d.a.d.d.z.f.f.m.c.n.' R C.1.q w e e e e e e e e ] ] ] ] ] [ ] [ [ { { { { { { { } } } } :.} } } } } } } } } ......}  .5.-.5.L.~.K.^.K.3.~.(.(.(.(.(.9X(.(.!.9X(.9X9XuXuXuXuXuXuXuXuXuXiXaXaXiX0XA.V.).~.G.).K.3.3.I s M p p U 4XK.wXsXsXsXjXjXjX5XH.;.;.4X4X4XhXgXjXcXcXjXjXcXzXgXL.J.J.:.=.:.8.hXhXmXBXMXMXMXBXVXVXMXBXBXZXZXZXVXVXMXMXMXMXVXZXBXGXZXZXVXZXZXZXZXVXmXmXNXNXVXVXVXzXhXNXMXFXGXJXFXMXFXJXGXZXGXFXGXZXFXGXFXGXGXZXSXSXGXGXSXZXNXVXGXSXVXZXNXVXZXZXZXZXZXVXGXVXVXVXNXVXmXZXmXBXVXZXVXBXMXBXZXMXMXbXmX3X7X-XmXAX{.:X8X}.[.[.[.[.[.].].].].[.].].].].].].].].'.:X-X7X7X8.7XgXJ.-.X.:X7X;X7X6X6XL.4XJ.5.J.;X-.X. .-X:.3X4X3X5.-X;X4.L.^.4X8.;X4.L.~.~./.~.T.~.R.G.V./ n a a 2.g.A.G.T.T.W.T.T.T.W.T.Y.Y.D.T.Y.D.F.S.S.S.S.j.S.c.S.S.S.m.m.m.B.M.D.n ;.g.f.x.n.d.f.3.R f.V./ ) n.Z./ ' c.c.z.c.c.z.c.z.z.k.k.k.d.d.d.d.d.",
"v v B c c c c B v c v v , 5 v < . 8 v v v B B B B B B B B B 5 5 b 8 5 v v b 8 9 B B C C C C Z C b < # % % % # # # 0 Z Z Z v 3 2 o   o + 3 Z G G G H ( ( ( ( H ( ( ( ( H ( ( ( _ _ _ ^ b 6 q q q q q q a ) d.d.d._ _ _ d.k.j.j.d.( a.k.z.x.f.n.c.c.) R C.3.d q w e e e e e e e e e ] ] ] [ [ [ [ { { { { { { { } } } } } } } } } } } } } } } ......5.8.5.5.^.~.G.^.^.3.T.Q.Q.(.(.(.(.(.(.(.).(.(.9X9XuXuXuXuXuX0X0XuX0X0X/.0X0X~.A.~.).wXwX5XR.2.A.s W s u ;.5XK.H.pX5X5X5X5X5XH.;.C.K.6XjX4XjXjXjXjXjXjXzXhXhX6X6X;X:.=.=.=.J.7XbXMXMXMXMXBXBXVXZXBXVXBXZXBXBXmXBXMXBXzXhXVXVXGXFXMXzXzXMXZXVXVXFXVXZXhXmXNXZXVXNXbXmXZXGXGXGXGXGXJXGXGXVXGXGXGXZXZXGXGXGXGXVXVXNXSXZXGXZXZXZXGXZXVXmXNXVXMXZXZXZXGXGXGXZXNXhXVXZXMXBXMXMXMXVXBXVXVXVXCXMXMXMXNX-X:X-XbXAX-X3X8X}.[.[.[.}.}..X'.'.].].].].].].].].].].'.:X-X7X7X-.7X6X;X8.-.-X3X-X6X6X4XH.4XJ.8.;X;X-.`.-.3X:.4X5X4X5.;X3X4.L.^.4X8.;X4.L.^.~.~.~.~.~.G.T.` / m n n ` ' V.T.W.W.W.T.T.W.W.W.W.T.T.T.D.S.S.S.D.D.S.Z.S.S.Y.m.m.b.n.n.m.m.D.n ;.g.f._ k.x.g.2.m f.V./ ) n.Z.) f.n.c.d.k.c.k.d.d.k.k.k.d.d.d.a._ d.",
"v B B B B B c c v v v v , 8 b < . 8 v v c v B B B B B B B Z 5 5 b 5 5 v v v 8 9 v B C C C C C C C 8 0 a # # & O O 8 Z v 9 b 9 2 o   o , V S D D D G ( ( ( H H ( ( ( ( ( ( ( ( ) _ _ ) b * q q q q q q p ) d.d.a._ a.( _ d.d.d.d._ d.c.c.x.f.n.c.n.f./ C.3.R ;.w e e e e e e e e ] ] ] ] [ [ [ { { { { { { { } { } } } } } } } } } } } } } } } ..5.8.8.5.:.^.~.~.^.^.C.W.Q.(.(.(.(.(.(.(.9X(.).9X9XuXuXuXuXuXuXuXuXuXuXuXiXaXaXiX).).iXaXsXiXwX/.s M s p p d ,.K.3.d 4.K.L.C.4.U ;.H.6XpXhX6XjXjXhXjXjXzXjXhXhXgX4X;X:.:.:.:.J.7XhXmXMXMXBXBXBXBXZXBXBXCXZXCXMXhXmXMXMXMXhXzXVXFXFXZXMXhXVXZXZXZXFXFXGXMXMXmXVXmXbXNXmXVXZXGXGXGXGXGXJXGXZXGXGXGXZXZXGXGXGXZXVXbXVXSXSXZXVXZXZXFXZXVXVXVXVXVXVXZXZXFXZXZXVXNXMXVXZXBXZXBXVXCXVXBXBXBXCXBXBXMXBXNX-X:X-XbXAX-X7X8X}.[.[.}.:X8X{.`.8X*X].].].].].].].].].'.:X-X7X7X-.7X5X6X-X-.-X3X3X7X6X4XJ.4XJ.8.L.3X-.-.8.3X:.4X5X6X5.;X3X4.L.^.L.5.L.h.L.^././.~.~.T.A.G.G.C.n a u / ' A.T.T.T.W.W.W.W.W.T.T.T.Y.Y.Y.S.Z.S.S.Z.Z.S.S.S.Y.S.S.z.z.n.m.m.D.n 2.V.x.x.z.x.' 2.R f.V./ ) n.Z.' f.b.n.z.z.z.z.j.j.d.k.k.k.a._ d.d.d.",
"v c v B B B B B v c v v , 8 b 5 . 8 B v v B B B B B B B B C 5 5 b 5 5 b v v 0 8 v B C C C C C C C 0 b ^ 0 6 n 0 O 5 b b v b v 3 +   O , 9 B C G G H ( H H H H ( ( ( ( ( ( D C D D G ) n % q q q q q q n f.d.d.a._ a.a.a.d._ _ d.a.d.z.c.x.f.c.k.n.f./ C.3.R 2.y e e e e e e e =.:.] [ [ [ [ [ { { { { { { { { } } } } } } } } } } } } } } } } ..5.H.L.5.:.).~.K.^.^.V.~.(.(.(.(.(.(.(.(.9X9X0XuXuXuXuXuXuXuXuXuXuXuXiXiXuXuXaXaX0XuXaXdXdXaXiX^.2.s p p p p p M U M C.K.L.K.L.C.d 4.4.1.4.4.1.K.5XgX6XpXhXhXhXeX4X6X:.=.=.:.6XeX6XhXBXBXBXBXBXBXVXVXBXBXCXBXMX4XgXVXMXhXmXVXMXMXZXBXZXMXVXZXZXZXZXFXZXVXMXNXVXbXMXNXMXZXVXZXFXGXGXGXFXFXGXGXGXJXFXZXZXFXFXGXZXVXVXSXZXVXZXZXGXGXZXZXZXVXVXVXZXZXZXZXMXZXVXVXVXVXZXZXZXBXZXZXVXVXBXBXBXBXBXBXBXNX-X:X-XNXNXOX7X8X}.[.}.8X7X7X:X`.8X7X}.].].].].].].].].'.{.-X7XgX5.6XpX6X3X8.-X6X;XgX6XJ.L.4XJ.J.L.3X5.*X5.3X:.4X5X6X5.;X3X4.L.^.4X5.L.h.^.R.~.~.R.G.G.G.A.A.V.n 6 a E C.A.G.T.T.W.W.W.W.W.Y.T.Y.Y.T.Y.Z.f.x.Z.S.S.m.S.S.S.m.S.Z.n.m.B.m.Z.n 2.V.V.x.j.c.' 3.R ' V./ ' n.m./ ) c.v.c.c.c.c.k.d.k.k.k.k.d._ _ _ a.",
"v v v B B B N v v c v v , 8 b 5 . 8 B v c B B B B B B B B B 5 5 b 5 5 b v b 8 9 B C C C C C C Z Z 0 b ^ b 0 P 0 O < 9 9 v V 9 2 + o O 2 v v Z G H H ( H H H H H ( ( ( ( H G D G ( ( ) P < q q q q q q n d.d.d.a._ a._ ( a.a._ d.d.j.z.z.f.f.n.c.n.' / C.' P 2.y e e e e e e ] ] ] ] ] [ [ [ [ { { { { { { { { } } } } } } } } } } } } } ..} } } 5.J.L.:.4.^.~.K.^.^.C.W.(.Q.(.(.(.(.(.(.9X9XuXuXyXuXuX0XuXuXuXuXuXuXiXiXiXuXiXuX0XiXaXaXiXsXiXK.E C.M p p p s U T s U U 1.C.C.;.p ;.I ,.;.1.d d ;.4.C.L.L.4XeX6XL.J.=.=.:.8.J.6X6XhXMXBXBXBXBXMXVXBXMXBXBXBXhXhXgXMXMXBXVXVXZXVXBXMXBXBXBXZXZXZXVXZXJXMXMXhXMXbXMXmXZXMXZXZXGXGXGXGXGXJXGXGXGXGXGXVXZXFXZXMXZXmXzXZXGXZXZXZXZXGXZXZXZXVXVXZXZXZXZXVXZXzXBXVXVXVXZXZXZXBXZXZXBXBXBXBXBXBXBXBXBXVX-X:X-XNXNXu.3X8X}.[.}.bX3X7X:X{.7X7X}.].].].].].].].].'.{.-X7XhX5.6XpXpX6X-X3X6X;XgX4X;XL.4XJ.J.L.3X8.:X .3X5.;X5X4X=.-X;X4.R./.4X:.L.h.4X^.R.~.Z.A.G.A.A.A.V.R n a / V.Z.V.G.T.W.W.W.W.W.W.T.Y.Y.E.Y.S.m.Z.m.m.S.S.S.D.S.m.S.m.m.S.m.m.Z.n 2.V.V.f.f.x.' 2./ f.V./ ' n.Z./ d.c.b.b.b.c.c.k.d.k.z.d.d.d._ ( _ d.",
"v B B N B B B B B v v v , 8 b 5 . 8 C B B v B B B B B B B B 2 5 b 5 5 b v b 8 8 B C C C C C C C Z 9 b ^ 0 0 P 0 O < 8 9 B b b 8 +   o , v B Z ^ H ( ( ( H ( ( H ( ( ( ( ( ( ( G D ( _ ^ n * q q q q p ^ d.d.d.d.a._ _ ( _ _ _ d.d.z.c.c.x.f.m.c.n.f./ C./ P 2.y e e e e e e ] ] ] ] ] ] [ [ [ { { { { { { { { { { } } } } } } } } } ..5.8.} } } 5.K.K.1.1.~.G.G.^.^.C.~.(.(.(.(.(.(.9X(.9X9X9XuXyXyXuXuXuXuXuXuXuXuXiXuXiXaXaXuXuX0XuXiXiXaX~.I 3.K.3.u p z K.K.3.C.C.I U ,.U p Y 5XwXwXK.K.L.^.^.4.4.4.;.1.4.6X6XJ.=.=.:.h.3X7X6XzXMXBXBXBXBXBXBXBXMXBXBXBXBXMXMXMXhXVXMXBXBXFXMXhXVXMXBXZXFXZXZXZXmXMXMXMXmXhXNXVXVXVXFXFXFXFXGXFXGXJXJXJXFXJXGXVXZXZXZXMXZXNXmXVXZXVXVXZXFXFXZXZXZXZXMXVXZXZXVXVXZXVXMXMXVXVXZXBXZXBXBXBXBXBXBXBXzXBXBXMXmXAX:X:X-XNXNX8.7X8X}.[.`.bX3X7X-X{.7X7X}.].].].].].].].'.'.{.-X7XhX5.6XpXpX6X-X3X7X5XgX5X4XL.4XJ.-X4X6X5.-X| 3X5.4X5X6X:.-X;X4.R./.4X:.L.h.^.~.G.G.A.V.V.V.G.A.3.R < 6 / V.A.Z.T.W.W.W.W.W.Y.Y.Y.Y.E.Y.Y.Y.D.D.x.n.S.S.S.S.S.S.m.n.m.B.m.m.Z.n 2.V.x.f.d.x.' 2./ f.V.) ) n.Z.^ f.n.b.n.n.v.c.z.d.d.k.k.k.d.d.d.d.d.",
"c B B B B B B v v v v v , 8 b 5 . 8 C B B v B B B B B B B B 2 5 b 5 5 v 8 b 0 v B C C B C C C C Z v b ^ 0 0 P 0 . @ 8 b Z B 3 2 +   + 2 v B S H H ( ( ( ( H H H ( ( ( ( ( a.H A H ( ( ) ^ 6 * % * u P d.d.d.d.d.d._ _ _ a._ _ d.d.j.z.z.f.f.n.c.n.' / C./ P 3.y e e e e e e e ] ] ] ] ] [ [ [ [ [ { { { { { { { { }  .} } } } } -. .} -.8.} } | :.K.K.1.4.^.~.~./.^.V.W.(.(.(.(.(.9X9X9X9X9X9XuXyXuXuXuXuXuXuXuXuXuXuXiXiXaXaXaXaXiXiXaXiX~.E ` ^.3.` p s K.^.R.~.^.5X^.K.K.s I ^.sXjXjXpXH.H.^.pXpX;.4.1.4.;.w.4.4.| =.=.8.;XeXhXMXBXMXBXMXBXBXBXMXBXBXBXzXBXBXMX4XMXVXBXZXCXZXBXzXMXMXMXMXVXZXFXZXMXVXMXMXMXzXVXZXZXZXVXFXGXFXGXGXGXGXFXJXFXFXFXZXZXFXZXMXZXVXmXZXZXVXVXVXZXZXZXZXZXBXVXVXVXFXBXZXZXZXzXBXzXVXCXBXCXZXBXBXZXBXBXBXzXBXBXBXBXVX:X:X-XmXNX-X7X8X}.].}.bX6X7X{.{.7X7X}.].].].].].].].'.'.{.-X7X7X:.6XpXpX6X;X4X6XpXsX5X4.J.4XJ.-X;X6X5.-X=.6X5.4X5X5X:.-X;X4.K./.4X:.L.h.L.R.~.G.A.A.A.T.T.A.V.n < a 3.V.Z.Z.T.W.W.W.W.T.T.Y.T.Y.Y.Y.I.Y.E.d.x.S.F.F.S.S.S.S.m.n.m.M.m.m.Z.L 3.V.x.c.j.j.' 2./ f.V.) ) b.Z.' f.n.n.v.v.v.c.k.z.d.k.k.j.d.d.d.d.d.",
"c c v v B N v v B v v v , 8 b < . 8 C B B B B B B B B B B B 5 2 b 5 5 b v v 0 8 B C C C C C B C Z v v ^ 0 0 P 0 . , 9 v Z Z v 8 @   @ 8 v Z G ^ H ( ( ( ( ( ( ( ( ( ( H H ( _ a.d._ ( ( ^ ^ P P P ) ) d.d.d.j.d.a.a.a._ G ( _ d.d.d.d.z.f.' m.c.z.) / C.R R 3.w w e e e e e e ] ] ] [ [ [ [ { { [ [ { { { { } { { } } } } } }  .5.} ...... .J.J.:.L.K.1.4./.~.~./.^.C.~.(.(.(.(.(.9X9X9X(.9XyXyXuXuXuXuXuXuXuXuXiXaXaXaXaXaXaXaXaXdXdXaX).E s 3.^.E I p W ^.).wXsXpXwXR.A.pX3.pXpXjXjXjXsX^.4X4X5XpX^.^.4X6XgXhX4X4.| =.:.4.4.6XhXzXzXMXBXMXBXBXBXBXBXMXzXzXjXBXCXBXBXBXBXBXMXZXZXBXBXBXMXVXZXZXFXBXhXVXMXmXMXVXZXZXzXZXMXZXGXFXFXFXGXGXGXFXFXGXFXFXFXZXFXZXZXZXVXVXBXBXZXZXVXFXBXFXFXFXZXCXBXFXZXZXFXVXBXVXMXVXBXCXCXZXZXCXCXCXCXBXBXcXBXBXBXVX3X:X-XbXNX-X7XbX}.].}.bX3X3X:X{.7X7X}.].].].].].].].'.'.{.-XeX7X5.6XpXgX6X;X5XwXwXpX5X4.4XL.h.J.L.4X:.7X:.3X:.4X^.4X:.;X3X4.R./.^.1.L.H.^.~.~.~.G.A.G.K.~.A.g.n a n ' V.G.T.W.W.W.W.W.T.T.Y.Y.Y.D.Y.Y.S.E.S.S.Y.Y.S.B.F.F.S.S.m.m.B.m.m.D.R g.V.x.j.c.j.' 2./ f.V.) d.n.Z.' f.n.b.n.v.c.c.l.d.d.z.j.j.j.d.d.d.a.",
"B B v v v B v B v c v v > 8 V 5 O 8 B B B B B B B B B B C Z 5 5 b 5 8 V v b 8 8 Z C C C C C Z S S v b ^ 0 0 P 0 . < v v B S b +     + 2 b G G ( ( H ( ( ( ( ( ( ( ( ( ( ( ( ( ( a.a.( _ ( _ d.) ) ) d.d.d.d.d.d.( a.d.d.d.d.d.d.d.d.d.j.f.f.m.b.n.' / C.R / 3.w w e e e e e e ] ] ] [ [ [ [ [ { [ [ { { { { } { } } } } } } } } } } }  .-.5.;XL.1.K.A.1.4.^.G.~./.^.C.~.(.(.(.(.(.9X9X9X9X9XyXyXyXuXuXuXuXuXuXuXaXiXaXaXaXaXaXuXaXaXiXiX/.s E 5XA.C.p I A.^.).sXaXsXiX5XK.5XG.sX5XjXjXjXlXjXjXwX5X4XwXjXgX5XgXhX6XH.| =.:.4.J.4XzXMXzXMXBXBXBXBXBXBXBXBXBXMXBXCXBXzXCXBXBXBXBXBXBXCXzXVXVXCXZXFXZXMXzXZXMXZXVXMXZXVXmXmXMXFXFXFXGXFXGXJXFXFXFXFXFXZXFXZXFXVXFXMXVXVXBXVXBXZXZXFXFXFXFXZXZXZXVXFXZXZXBXZXCXVXZXBXCXBXFXFXZXCXCXBXCXBXBXBXvXBXBXVX3X3X3XbXNXJ.7XbX*X}.}.bX3X-X8X{.7X:X}.].].].].].].].'.'.{.-X7X7X5.gXpXpX6X3X6XiXiXpX5X4.;X5XJ.J.4X6X:.3X:.3X:.4X^.4X=.-X3X4.R.).^.1.4XH.^.^.T.W.W.G.C.G.G.G.n n < 0 ' V.G.T.W.T.W.W.W.Y.Y.Y.Y.Y.Y.F.Y.Y.Y.Y.S.U.U.U.S.m.F.F.B.m.S.B.M.S.T.R C.V.n.b.b.z.f.2.` f.V.) d.n.Z.' f.n.b.v.n.v.l.k.k.k.k.j.k.j.d.d.d.d.",
"v v v v v v v v B v v v , 8 C 5 O 8 C B B B B B B B B B v b 2 5 V 5 5 V v b 8 9 v B C A C C Z Z Z b v ^ b 0 P 8 O 5 v v C Z v 2 o   o 2 b G G ( ( ( ( ( ( ( ( ( ( ( _ ( ( _ ( H ( _ _ a.d.d.d.d.( ( d.d.d.d.j.j.d.d.d.d.d.j.k.z.k.d.a.z.x.f.m.m.n.' / C.P / 2.q w e e e e e ] ] ] ] ] [ [ [ [ { [ { { { { { } { { { } } } } } } } } }  .5.:.L.^.4.H.A.1.H.).T.~./.^.C.~.(.(.(.(.(.(.9X9X9X9X9XyXyXyX9XyXuXuXuXuXuXuXuXuXaXaXaXiXiXaXiX).G.R K.K.C.E u E ).sXwXaXfXiXfXpX^.K.fXlXlXlXlXlXlXlXjXpX6XjXjXjXpX5XwXzXhXH.=.:.=.:.J.hXzXzXcXBXBXMXBXBXBXBXBXBXBXBXBXMXMXBXCXBXBXBXZXFXZXCXBXMXCXZXZXZXZXCXBXFXZXZXVXMXBXVXMXhXVXGXFXFXFXJXFXFXFXFXFXFXFXZXZXZXFXZXZXZXMXZXFXFXFXZXVXZXFXFXFXZXZXCXCXZXFXZXBXZXVXVXBXBXBXBXZXCXBXBXBXBXBXBXBXBXBXvXBXVX3X3X-XmXNX-XhXbX8X}.}.bX;X-X7X{.7X7X}.].].].'.].].].'.'.{.-X7X7X:.gXpXgX6X3X5XiXaXiX5X4.;X6XJ.J.4X4X4.3X:.3X:.4X^.4X:.;X3X:.R.).^.1.^.H.^./.~.~.~.~.G.G.T.G./ 6 6 n ' V.G.T.W.W.W.T.T.Y.W.E.E.Y.Y.D.Y.Y.Y.Y.S.Y.U.I.S.S.F.S.S.c.n.m.S.S.D.m 2.x.m.b.b.z.f.2.R ' Z./ ' c.Z.) d.v.v.v.v.c.c.k.d.a.k.d.z.z.j.d.d.d.",
"v v v v v v v v v v v v , 8 C 5 O 8 B B B B B B B B B B B B 5 5 V 5 5 v v b 8 9 B B C C C C C Z Z b b ^ b 0 P 8   5 b v B Z Z 9 @ o @ 0 B Z D G H H ( ( ( ( ( ( ( ( _ _ ( ( ( a.a.( _ a.a.d.a.d._ _ a.d.d.d.d.d.d.d.d.d.d.d.k.z.k.c.c.c.f.f.m.b.m.' / C.R ' 3.q y d e e e e ] ] ] ] ] ] [ [ [ [ { { { { { { { { { { } } } } } } } } } -.5.:.^.^.4.A.A.1.H.).~.~./.~.C.~.(.(.(.(.(.(.9XyXyXyXyXyXuXyXyXuXuXuX(.uXuXuXuXaXaXaXiX0XaXaXaX/.~ 3.K.~ C.3.p E wXfXsXaXdXiXiXpX5X` sXfXfXjXjXlXlXlXjXsXwXjXjXjXgXgX6XpXgX4X:.=.=.4.4X6XhXzXMXBXBXcXBXBXBXBXBXBXBXBXBXcXgXMXBXCXCXCXCXCXBXBXzXZXZXZXFXZXZXCXMXFXZXZXBXBXMXVXMXVXVXFXFXFXFXFXGXFXFXFXFXFXFXBXVXZXFXFXZX6XVXZXFXFXFXCXZXFXFXFXFXCXZXZXVXZXZXZXCXBXVXBXBXCXBXCXZXZXBXBXBXBXBXCXBXBXBXvXBXVX3X3X3XmXNX;XzXzXbX}.`.bX;X7XbX{.7X:X}.].].].].].].].'.'.{.-X7XeX:.6XpXpX;X;X5XiXiXiX5X4.;X4XJ.J.4X4X5.3X=.3X:.4X5X5X:.;X3X:.R.).^.1.^.H.^./.G.~.~.~.G.G.T.T.G./ 6 P g.V.A.D.T.W.W.T.Y.T.Y.E.E.E.Y.Y.Y.Y.D.S.Y.Y.Y.Y.Y.F.S.S.S.m.c.n.M.m.D.m E f.x.b.b.c.f.2.R f.Z.) ) z.Z./ d.c.v.v.c.c.c.z.k.d.d.k.z.d.d.d.d.d.",
"v v v B B B v v v v v v , 8 V 5 O 8 B B B B B B B B B C B B 2 5 P 8 5 V v b 8 9 B C C A A D C Z Z V C ^ b 0 n 2   , b v V Z V 9 @   + 2 B Z G H ( ( ( ( ( ( ( ( ( _ _ _ ( ( ( a._ _ _ a.a.a.a.a._ d.d.d.d.d.d.d.j.d.d.j.k.j.d.j.d.k.c.c.f.f.n.b.m.' / g.R g.' q U 4.w e e e ] ] ] ] ] ] [ [ [ [ [ [ { { { { { { } } } } } } } } } } } -.5.:.^.L.4.A.A.4.H.^.~.~.).^.g.~.(.(.(.(.(.(.(.9XyXyXyXyXyXuXuXuXuXuXuXuXuXuXuXuXaXaXiX0XaXaXaX~.s 3.E ` R p L C.iXfXaXdXfXiXsXfX5XV.).sXfXjXjXlXlXlXjXjXpXpXjXjXwX4X4XpXgX6X:.=.:.4.6X6XgXzXzXMXMXzXBXBXBXBXBXBXcXgXBXBXBXBXBXCXCXCXCXCXBXBXzXBXCXCXZXZXZXCXMXZXZXVXBXBXzXMXmXVXBXFXFXFXFXFXFXFXFXFXFXFXZXzXCXFXFXFXhXMXZXFXFXFXFXFXZXFXFXFXFXFXCXZXBXBXBXZXBXBXBXVXZXZXBXZXBXZXBXBXBXCXBXBXCXBXcXvXBXVX-X-X3XbXVX6XzXzXbX}.`.bX;XhX7X{.7X:X}.].].].'.].'.'.'.`.{.-X7XgX:.6XpXpXJ.;X5XiXaXiX5X4.L.6XJ.J.4X5X5.3X=.;X5.;X5X4X:.;X4X1.R./.^.1.^.A.^.^.G.~.W.T.G.V.G.G.G.g.a R V.V.Z.D.G.T.T.D.Y.T.Y.E.E.E.Y.Y.Z.D.S.S.Y.Y.U.U.F.F.F.S.S.S.m.m.B.S.D.R 3.V.n.m.b.c.x.` R ' V.' ) z.Z.' f.v.v.v.c.l.c.z.k.z.z.c.d._ d.k.d.j.",
"v B v v v v v v v v v v , 8 C < O 8 B B B B B C C B C B C Z 2 8 P 8 5 C v b 0 9 C C A D D D C Z Z C C ^ 0 0 b , o 2 9 v V C C V 2 o + 2 v G G G ( H ( ( ( ( ( ( ( _ _ _ _ ( _ ( ( _ _ _ _ a.a.a.a.d.d.d.d.d.d.d.j.j.j.j.d.d.d.k.k.c.c.c.f.' n.b.n.' / g./ V.V.u E 3.q e e ] ] ] ] ] ] ] [ [ [ [ [ { { { { { } { } } } } } } } } ..} } -.8.:.^.K.4.K.K.4.H.~.T.~.).^.V.(.(.(.(.(.(.(.9X9XyXyXyXyXyXuXuXuXuXuXuXuXuXuXuXuXuXaXiXuXaXaX).V.p R a ~ I s E ).sXaX).sXaXdXsXfXpX~.C.pXsXjXjXlXlXlXjXjXpXwXjXgX5X^.4XwXgXgXH.=.;.4.6XeXgXzXzXMXzXcXcXBXBXBXBXBXBXBXBXBXBXBXBXBXCXCXCXCXCXBXBXBXBXBXVXZXZXVXBXZXVXBXBXBXMXMXMXZXFXFXFXZXFXFXFXFXFXFXFXFXFXZXFXFXFXMXFXFXFXFXFXFXFXFXCXCXFXCXFXFXCXFXBXZXZXZXZXCXZXVXVXBXBXZXCXZXBXBXCXCXBXBXBXBXvXvXBXVX3X7X3XmXNX7XjXjXbX}.`.bX;XhX7X8.gX:X}.].].].'.'.'.'.'.'.{.{.7XbX:.6XpXwXJ.J.5XpXiXiX5Xh.4X5XJ.-X5X5X4.3X=.;X5.;X5X4X:.;X6X:.R.).^.1.^.H.^./.~.W.G.G.D.V.G.G.G.g.a R V.G.D.Z.D.T.T.G.T.Y.Y.E.E.Y.Y.Y.Y.Y.F.Y.U.Y.U.S.F.F.F.S.S.S.m.B.B.S.D.P V.Z.n.b.b.c.x./ R ' Z.' f.c.Z./ f.v.v.v.l.l.l.c.c.z.z.k.k.d.k.k.j.j.",
"B v v v v v B B v v v v , 8 V 5 O 8 B B B B B B C C B C B Z 8 8 P 8 8 b v V 0 v C C A C D D D D S V V ^ b 0 P 5 o 5 v 9 b B Z b ,   , b Z G G G H H ( H H ( ( ( ( _ _ _ _ _ ( ( _ _ a.a.a.a.a.a.a.d.d.d.d.d.d.j.j.d.j.k.k.d.d.d.d.c.l.c.d.' x.b.b.f.' C.2.V.V.p / 3.q e e e ] ] ] ] ] [ [ [ [ { { { { { { } { { { { } } } } } 5.8.| } -.8.:.^.K.1.K.K.1.h.).W.W.).~.V.(.(.(.(.9X(.(.9X9X9X9XyXyXyXyXuXuXuXuXuXuXuXuXuXuXaXaXaXiXaXaX/.i s E ` A.p p C.aXfXsX).aXaXdXaXfXfX~.I K.jXfXlXlXlXlXlXjXpXsXsX5X4X^.4XwXpX6XJ.=.;.J.6XhXjXjXzXMXzXcXzXcXBXBXBXBXBXBXBXBXBXBXBXBXCXBXBXCXCXBXBXCXBXBXCXZXZXZXBXFXVXZXBXMXzXzXzXVXFXFXFXFXFXFXFXFXFXFXFXFXFXFXFXFXFXFXFXFXFXFXFXFXFXFXFXFXFXCXFXZXCXFXBXCXFXZXFXCXBXZXBXBXVXBXVXVXMXMXBXBXBXBXBXBXvXvXBXVX3X7X6XMXhXgXzXhXbX}.`.bX;XbX3X8.bX:X}.].].].'.].'.'.'.'.`.{.3XbX:.6XpXwXJ.J.5XiXiX5X5X4.4X5XJ.;X5X4X5.3X:.;X8.4X).4X:.;X3X4.^.).^.1.^.H.)./.~.~.G.Z.V.V.G.A.A.g.n ' Z.G.G.D.T.Y.W.Y.T.T.Y.Y.E.E.Y.Y.Y.Y.Y.Y.U.U.U.F.F.S.S.B.B.S.S.B.M.M.D.P g.Z.n.b.c.c.x.` R f.Z.' d.n.Z./ f.n.n.v.l.l.l.c.c.c.c.k.l.c.k.j.j.d.",
"B B v v v v N B v v v v , 8 b 5 @ 8 B B B B B C C B B C B Z 8 8 P 8 8 C v b 9 v Z C C C C D C C S V V ^ 0 0 V 2 o 5 V b 9 B S Z 2 o 8 Z S G G ^ ( ( ( ( ( ( ( ( _ ( ( a.a.a.( ( _ a.a.a.d.d.a._ d.d.d.d.d.d.d.j.d.j.k.k.d.d.d.a.d.k.c.c.f.' x.b.b.f.' C.3.A.V.s ` 3.q e e ] ] ] ] ] ] ] [ [ [ { { { { { } | { } } { } } } } } :.-X8.| 5.-X1.^.K.1.C.K.:.4.).~.W.)./.V.(.(.(.(.9X(.(.9X9X9X9X9XyXuXuXuXuXuXuXuXuXuXuX9XuXuXiXaXiXuX0XA.7 L A.V.K.* j /.aXsXiXwXfXsXdXdXaXsX/.3.A.lXfXlXlXlXlXjXjXsXsXwXwX5X^.4XwXpX6X4Xd 4.6XhXgXjXzXzXcXcXzXcXBXBXBXBXBXBXBXBXBXBXBXCXCXCXCXCXCXBXCXBXCXBXBXZXBXBXZXBXZXZXZXZXBXhXhXMXBXFXFXFXFXFXFXFXFXFXFXCXFXFXFXFXFXFXFXFXZXFXFXFXFXFXFXCXCXCXCXCXBXFXFXCXDXCXZXCXVXVXBXBXBXVXBXVXmX7X7XNXBXBXBXBXvXvXvXBXVX3X3X4XMXMXwXjXhXbX}.`.bXJ.mX-X8.7X:X}.].].].'.'.'.'.'.'.`.{.7XhX:.6XpXpX;X;X5XiXiXwX^.4.4X5XJ.J.4X5X:.-X:.;X5.3X).5X:.-X3X:.R.).^.3.^.A./.).~./.T.G.V.V.A.G.T.V.a P V.A.G.T.T.W.Y.D.Y.Y.Y.E.E.Y.Y.Y.Y.Y.Y.Y.U.U.Y.U.F.F.S.S.m.S.B.m.m.M.Z.P g.Z.m.b.b.z.x.R L f.Z.f.f.c.Z./ f.b.n.v.k.l.l.c.c.k.k.l.l.l.l.k.j.k.",
"B v v v B B B B v v v v , 8 C 5 O 8 C C C B B C B B C C C Z 8 5 V 8 8 C b V 9 v C C D D D D D S S Z Z ^ 0 0 V 2 o 8 C V V C S Z 2 o 3 C S G G ( ( H ( ( ( ( ( ( ( a.a.a.a.a.a.a._ a.a.a.a.d.d.d.d.d.a.d.j.d.d.j.j.j.k.k.z.d.d.d.c.z.c.b.f.' x.c.b.f.' C.g.G.g.p ' 3.q w e e ] ] ] ] ] ] [ { { { [ [ [ { { { { } } { } } } } } :.;X-X5.5.J.;.^.K.4.H.K.:.h.).~.W.).~.g.(.(.(.(.9X9X(.9X9X9X9XyXyXyXuXuXuXuXuXuXuXuXyX9XuXuXuXiXuXuX/.P s 3.~.L u u ~ aXaXiXdXsXfXaXdXdXfXfXfXwX! lXjXlXlXlXlXjXjXpXsXsXpXpXpXwXgXgXgX4Xd 4.4XgXgXjXzXzXzXcXzXBXvXBXBXBXBXvXBXvXBXBXBXBXCXBXBXCXCXCXFXCXBXBXCXBXZXBXBXBXBXCXZXZXBXMXMXZXZXFXFXFXFXFXFXFXFXFXFXFXFXCXFXFXCXFXFXFXFXFXFXFXFXFXZXFXCXCXCXCXCXCXFXCXFXCXZXzXMXBXVXBXBXBXBXNX:X}.*XbXMXBXBXBXBXvXvXBXVX3X3X6XcXcXzXlXjXbX{.`.bX3XmX-X8.7X8X}.'.'.'.'.'.'.'.'.'.`.{.6XgX:.6XpXpXJ.;X5XiXiXwX5X4.4X5XJ.J.4X5X:.3X:.3X8.;X).4X:.;X3X1.R.).^.3.^.A.~./.~.~.~.W.T.V.G.T.T.A.a Q V.A.G.T.Y.T.T.D.Y.E.E.E.E.E.Y.Y.Y.Y.Y.Y.Y.Y.Y.Y.S.S.F.F.S.S.m.m.m.B.D.R g.Z.n.b.c.m.Z./ R f.A.f.x.c.Z.) f.n.n.n.v.l.c.c.c.c.k.l.k.k.k.k.j.k.",
"v v v v v v B B v v v v , 8 V 5 O 5 B B B B B B B B B C C Z 8 5 V 5 5 Z B b 0 8 C C C C D D D S S Z Z ^ 0 0 P 5 o 8 C C C Z S v + o 5 Z S D G ^ ( ( H H ( ( ( ( ( _ a.a.a.a.a.a._ a.a.s.d.d.d.d.d.d.d.a.d.d.k.k.d.d.k.z.k.k.d.k.c.z.c.b.f.' m.b.b.f.' C.g.G.' p ` 3.y y y y e ] ] ] ] [ [ [ [ [ { { { [ { { { { } { } } } } } :.;X-X:.:.J.1./.K.4.K.K.1.4.^.Q.T.).~.' (.(.9X(.9X(.(.9X9X9X9X9XyXuXuXuXuXuXuXuXyXuXuXuXuXuXuXiXuX/.G.6 s K./.7 * p K.iXaXaXaXfXdXaXdXkXfXsXsX).! /.fXlXlXlXlXlXfXsXjXfXsXsXsXgXjXjXgXJ.d 1.6XgXjXjXzXcXcXzXzXcXcXvXBXvXcXBXBXBXBXBXBXBXBXBXBXBXBXCXCXBXBXBXCXBXBXCXCXcXCXBXCXZXMXzXMXcXZXFXFXFXCXCXFXFXFXFXFXFXFXCXFXFXFXFXFXFXBXFXFXFXDXFXCXFXCXCXCXCXCXCXCXDXCXCXFXMX4XBXBXBXBXBXVXbX}.}.}.{.mXBXBXBXvXvXvXBXVX7XhXhXcXzXzXlXjXbX{.`.bX3XbX7X5.7X8X}.'.'.'.'.'.'.'.'.'.`.{.7XgX:.6XpXpXH.;X5XiXiX5X5XH.4X5XJ.8.C.4X:.3X:.4X8.;X).4X:.;X3X4.R./.^.3.^.G.^.~.~.~.~.T.T.G.~.~.T.V.n A.A.A.D.T.T.Y.T.D.Y.E.E.E.E.Y.Y.Y.Y.Y.Y.U.F.Y.F.S.F.S.S.S.F.S.S.F.m.M.D./ V.Z.c.n.b.m.x.E / V.Z.f.x.c.Z./ f.b.n.b.n.v.c.l.c.l.l.l.l.l.c.j.j.k.",
"v v v v c v v v B 3 v b , 8 V 5 O 8 B B v B C C B B B C B B 5 5 P 8 8 C B V 9 v Z D A A D C B C G ^ ^ ^ 0 0 P 5 + 9 B B Z Z S V , o 9 Z Z D G ( ( ( H ( ( ( ( _ a.a.a.a._ ( a.a.a.a.a.a.a.d.d.d.a.a.d.d.d.d.j.j.k.k.k.z.z.d.d.d.c.c.c.c.f.f.m.b.m.f.' A.g.A.3.p ` 3.p 2.A.4.w ] ] ] ] ] [ [ [ [ [ { { { { { { { { { { } } } } =.J.J.| :.8.1./.K.4.K.K.;.4./.(.(.(.~./ (.(.(.(.9X(.9X(.yX9X9X9XyXuXyXuXuXyXuXuXuXuXuXuXuXuXuXuXiX)./ 0 L A.7 i p E fXfXaXaXaXiXaXdXaXsXfXfXkXlXaXY fXlXfXlXxXlXjXsXjXlXsXwX5XwXpXjX6X4.d ;.hXpXwXjXzXzXzXcXcXvXcXvXvXvXBXBXBXBXvXBXCXCXBXBXCXBXBXBXCXcXBXCXCXFXBXCXCXCXZXZXCXCXBXzXBXBXBXZXZXFXFXFXFXBXFXFXFXFXFXFXFXFXFXFXFXFXFXFXFXDXDXFXFXDXDXFXCXCXCXCXCXCXFXZXFXFXFXBXZXBXBXMXMX:X}.].}.{.mXBXvXvXvXvXvXBXVX6XbXMXcXxXlXlXjXbX{.-.gX6XbX7X5.7X7X{.'.'.'.'.'.'.'.'.`.{.-X6X7X5.6XpXpXL.;X5XiX).wX5Xh.4X5XH.8.L.5X:.7X:.4X4.^.^.^.5.-X;X4.R.).).3.^.K.~./././.~.G.D.G.T.W.G.' 0 / A.G.G.D.T.T.W.Y.Y.Y.E.E.Y.Y.Y.Y.Y.Y.Y.F.F.Y.Y.Y.S.S.F.F.F.F.B.B.m.B.D./ V.Z.m.b.b.b.x./ / x.Z.f.f.c.Z./ f.n.n.n.v.l.c.c.l.k.l.l.l.k.l.k.j.k.",
"v B B v c N B v b 3 v v , 8 C 8 @ 8 B v c c B B B v B C C B 5 8 P 8 8 Z B V 9 8 B C A C C D S C Z ^ ^ ^ 0 0 P 0 O 8 Z B Z S G b o o 8 ^ ^ G G G ( ( ( ( ( ( ( _ a.a.a.a.( ( _ _ ( a.a.s.a.a.d.d.( ( d.d.d.k.j.k.k.k.k.z.z.k.j.d.k.c.k.c.f.f.m.b.b.f.' V.' V.' p ` ' u ` G.g.w e ] ] ] ] [ { [ [ [ [ { { { { { { { { } } } } } =.J.L.4.4.:.:.^.R.C.K.K.;.4.).(.(.(.~.' (.(.(.(.(.(.9X9X9X9XyX9X9XyXuXuXuXyXyXuXuXuXuXuXuXuXuXuX/./.V.L A.~.7 < 6 ! wXaXiXdXaXaXsXfXfXaXfXfXfXdXwXL lXfXlXjXjXsXsXsXsXjXwXsXwXpXjXjX6XH.d 1.jXjXgXgXzXcXzXzXzXcXzXBXvXvXvXvXBXvXcXBXCXBXBXCXBXvXBXCXBXcXjXBXCXCXCXCXCXCXBXCXCXCXCXMXVXZXFXZXFXFXCXFXFXCXFXFXFXFXFXFXFXFXFXFXFXDXDXDXDXDXDXDXCXCXCXBXzXCXBXBXCXCXFXpXBXBX4XMXCXBXBXBXVX-X}.].}.-XhXvXvXvXvXvXvXBXVX3XhXcXzXjXwXjXjXgX{.-.7XJ.7X-X5.7XeX{.*X}.'.'.'.'.'.'.`.{.-X6XgX5.gXsXpXJ.;X5XiXiX/.^.H.4X5XH.8.4X5X:.3X=.4X4.^.).^.5.-X;X4.^.).).R.^.g.A.~.~.~.~.T.D.G.G.T.~.A.a g.G.G.G.D.G.Y.W.T.F.Y.E.E.Y.Y.Y.Y.Y.Y.Y.F.S.F.U.F.U.S.S.F.S.c.c.m.B.S.D./ V.Z.m.b.b.b.x./ / V.V.' d.c.Z.) f.b.n.n.n.n.c.c.l.k.k.l.l.l.k.k.k.k.",
"c c v v B N B v b 8 x b , 8 b 8 O 8 C B B B B C B B B C C Z 8 8 P 8 8 C B V 9 v Z A C C C C C C S ^ ^ ^ b 0 b 5 @ 0 C B S G Z v , o b S D D G H ( ( ( ( H H ( _ a._ _ a.a._ _ _ a.a.a.d.d.d.d.d.d.a.d.d.j.j.j.k.k.k.k.k.k.k.d.d.c.c.k.c.f.' m.b.b.f.' Z.f.f.' p ` ' p ' G.V.y e ] ] ] [ { [ { { [ { { { { { } { { } } } } } } | 8.L.K.L.:.1.^.~.C.K.K.;.4.).(.(.(.~.' (.(.(.(.(.(.9X9X9X9XyXyXyXyXuXuXuXuXyXuXyXuXuXuXuXuXaXuX0XA.7 E /./.7 u ` iXsXaXiXfXdXwXiXwXiXiXdXfXfXfXiXA.iXfXsXpX^.sXpXsXjXjXjXpX5XpXpXgX4XJ.=.H.gXpXgXgXlXzXcXcXzXcXcXcXvXvXvXvXBXBXvXBXCXBXBXBXCXBXvXBXCXcXBXCXCXCXCXBXCXCXBXBXBXCXBXzXMXBXCXBXFXFXCXCXFXFXFXFXFXFXFXFXDXDXFXFXFXFXDXDXCXCXDXCXCXDXBXBXBXCXCXcXCXBXBXBXBXBXMXMXBXBXCXBXVX7X{.}.{.bXMXcXcXvXvXvXvXBXVX3XhXcXjXcXlXlXhX7X{.-.7X-X3X7X5.7X7X{.:X8X}.'.'.'.'.'.`.{.-XeXeX5.gXpXpX;X;X5X0XuX).).h.4X5XJ.8.^.5X:.3X:.;X:.L./.^.5.-X;X4.^.).^.K.R.A.G.~.~.~.~.W.G.G.T.T.G.g.0 ' A.D.D.D.W.T.T.Y.Y.E.E.E.Y.Y.Y.Y.Y.Y.Y.Y.Y.U.F.U.F.F.Y.U.S.S.F.S.B.S.D./ C.Z.m.b.b.b.Z./ ` V.V.f.d.v.Z./ f.b.n.n.n.n.l.l.l.l.l.l.l.l.l.k.k.k.",
"c c B B B v B B b 8 x b , 5 b 5 @ 8 B B v B B C C C B B C Z 5 0 P 8 8 C B V 9 v Z C C C C B C Z Z Z Z ^ 0 0 n 5 @ 9 Z Z Z Z C b , + b S S G G H H ( ( ( ( ( ( _ _ ( _ a.a._ _ a.a.a.s.a.a.d.d.d.d.d.d.d.d.d.d.d.k.k.k.k.z.z.j.z.k.k.c.c.f.' Z.b.m.) ) D.Z.x.' p / ' p ' G.V.d e ] ] ] [ [ [ [ { [ [ [ [ { { } } } { { :.8.{ } | 8.L.^.L.:.4.^.K.C.K.K.;.4./.!.!.(.~.' (.(.(.(.(.9X9X9X9X9XyXyXyXyXuXuXuXuXyXuXyXuXuXuXuXuXaXuX/./ 5 3./.~.& u 3.sXaXdXaXaXsXiXiX).).fXdXdXsX).w.C.~.iXwX5X/.5X5XsXsXjXlXsX5XwXwXwX5XL.;.H.^.wXwXgXlXcXcXcXcXcXvXvXvXvXvXvXBXBXBXvXvXBXBXBXBXBXvXzXcXBXcXBXBXCXBXBXBXBXBXBXBXCXBXMXBXBXCXCXCXFXCXDXDXFXFXDXDXFXFXBXDXDXFXDXFXDXDXCXDXCXCXCXCXCXCXBXBXCXCXCXBXCXCXBXzXcXzXzXcXBXCXBXCXmX7X:XbXMXMXcXvXvXvXvXvXBXVX3XhXzXwXcXxXzXzXeX{.{.7X-X-X7X5.7X7X8.7X7X{.'.'.'.'.'.`.{.J.gXgX5.6XiXpX4X3X5X0XuX).).H.4X5XJ.J.^.5X:.3X5.;X5.L.5X4X5.-X;X4.^./.K.K.K.K.~.T.~.~.~.~.G.T.T.T.T.A.0 ' G.D.Z.D.T.T.T.Y.E.E.E.E.Y.Y.E.E.E.Y.Y.Y.Y.U.F.U.F.F.F.S.M.S.B.B.S.S.D./ V.Z.m.b.b.m.Z.R ` x.Z.f.j.n.Z.' f.b.n.c.c.v.l.l.l.c.n.l.l.k.k.k.k.k.",
"v c N B B B B B B 8 v b , 5 b 5 @ 8 B C B B B C C B B C C Z 8 8 P 8 0 C B V 0 8 C C C C A C Z Z C Z Z ^ 0 0 P 0 @ 0 S G S S S Z 3 , V S S G G H ( ( ( ( ( ( ( _ ( a.a.a.a.a._ ( a.a.d.d.a.a.d.d.d.d.d.d.d.d.a.d.j.k.j.k.j.k.z.k.k.k.l.c.f.' m.c.n.) ) Z.m.m.' p 2.3.p / G.g.d e ] ] ] ] [ [ [ { { [ { { [ { { } { { =.H.K.:.| :.J.L.R.K.:.4.^.K.C.K.K.;.4./.!.!.(.~./ (.(.(.(.(.9X9X9X9X9XyXyXyXyX9X9XyXuXuXuXuXuXuXuX(.uXuXuX~.5 I ).).A.* L P.dXaXiXwX0X0XdXfXdXdXaXiXfXaXG.L L C.pXpXsXpXpXiXsXsXjXsXsXpXpX5X5XpX4X;.L.wXwXwXjXlXzXcXcXcXcXvXvXvXvXvXvXvXvXcXvXvXBXBXBXBXBXBXBXcXvXBXBXBXBXcXcXBXCXBXBXBXBXBXBXBXCXCXFXFXFXCXFXDXDXFXFXFXFXFXDXDXDXDXDXDXDXDXDXDXCXCXCXCXCXBXCXvXBXBXBXcXBXcXBXBXBXcXMXBXzXBXcXBXBXNXbXhXMXcXcXvXvXcXvXvXBXNX3XhXcXjXxXxXxXzX7X{.{.7XJ.hX7X-.7XgX8.7XeX{.'.'.'.'.'.`.{.-XgXgX5.6XiXpX4X3X5X0XuX0X/.h.4X5XJ.J.4X4X:.3X5.;X5.;X5X5X8.-X3X4.R./.G.K.~.G.T.~.~.W.W.W.W.W.G.T.~.T.n V.G.A.D.D.Y.T.W.T.E.E.E.E.E.E.E.Y.Y.Y.Y.F.F.F.F.F.F.S.S.S.m.B.B.B.M.S.Z.R g.Z.m.b.m.n.Z.R ' Z.m.z.c.b.Z.' f.b.n.n.n.n.v.c.c.l.l.l.l.l.k.k.k.k.",
"v v c v B B B B B 3 9 C , 5 b 5 @ 8 B C B B C C B B B C C Z 8 0 P 8 0 Z b V 0 3 C C A C C C C Z Z ^ ^ V 8 0 b 5 @ 0 S Z Z Z S S 9 , Z S Z G G H ( ( ( ( ( ( ( _ a.a.( _ ( ( ( ( a.s.d.d.d.d.d.d.d.d.d.d.d.a._ d.d.k.k.j.d.j.z.j.j.z.k.z.f.' m.b.b.) ) S.m.m.' p 2.3.u E A.g.d w ] ] [ [ [ [ [ [ [ [ [ { [ { { { { ] ;.K.K.4.| 4.K.K.~.K.:.4.^.K.C.K.K.;.4./.Q.!.(.~.Q (.(.(.(.(.9X9X9X9X9XyX9X9X9X(.9XyXyXuXuXuXuXuXuXuXuXuX/.' P A.^.P.A.* u w.0XaXaXiXiX0XdXaXiXiXiXaXaXwXA.w.w.P pXwXpXpXiXpXsXsXjXsXsXsXsXwXwXgX5X;.L.6XwXgXjXjXlXcXcXcXcXvXvXvXvXvXvXvXvXzXzXvXBXvXvXBXBXBXBXBXzXvXBXBXBXcXcXBXBXBXBXBXBXBXBXCXCXCXZXFXFXCXDXCXCXFXDXDXDXDXDXDXDXDXDXDXDXCXDXCXCXCXCXCXCXBXCXBXBXBXBXBXBXBXBXBXBXBXcXzXjXcXcXBXBXMXhXzXcXcXcXcXvXvXvXvXvXMX3XhXcXjXxXxXxXzX7X{.{.7XJ.hX3X5.7X7X8.7X7X-.'.'.'.'.'.`.*XJ.gX7X5.pXpXpX3X;X5X0XuXiX^.h.4X5XH.J.4X5X:.3X:.;X:.L.5XR.:.J.;X4.R./.G.A.G.T.T.W.W.W.W.W.G.W.G.T.~.~.n A.D.D.D.D.T.T.W.T.E.E.E.E.Y.Y.Y.Y.Y.Y.S.m.M.M.S.F.S.S.S.F.B.B.B.M.M.m.Z.R g.Z.n.m.b.c.Z.R ` m.b.n.n.b.Z./ f.v.n.v.n.v.v.n.n.l.l.l.l.l.k.k.k.k.",
"N N B B B B v v v 3 8 C 2 8 b 8 @ 8 B B B B C C B B B B B Z 8 8 P 8 0 C v Z 8 3 Z A C C C C C Z Z V b P 0 0 b , @ 0 S S Z C S S 8 , V S D G H H H ( ( ( ( ( ( a.a.a.a.( ( a._ _ a.a.a.a.a.d.d.d.d.j.j.d.d.a.d.d.k.k.k.j.j.k.k.k.j.k.l.c.d.' m.b.m.f.) m.m.m.' p 2.2.q / A.2.q d :.] [ [ [ [ [ [ [ [ [ { { { { { { ] ;.K.K.H.=.4.K.K.^.K.:.1.^.K.C.K.K.;.1./.!.!.(.W.' (.(.(.(.(.(.9X(.(.9X9X9X9X9XyXyXyXuXuXuXuXuXuXuXuXuX).~.w.` ~.~.G.K.& m A./.aXaXsXaXaXdXdXfXsXaXaXsXaX).R./.a K.5XsXpXwXsXsXjXsXsXsXsXpXR.5XsX^.M L.pXwXpXjXcXcXvXzXcXvXcXcXcXvXvXvXcXcXzXcXBXcXzXzXcXcXBXBXBXvXzXcXBXBXcXcXvXBXBXBXMXBXCXBXBXCXCXCXDXFXDXDXFXCXDXDXDXDXDXDXDXDXDXDXDXDXDXCXCXCXCXCXCXCXCXCXBXCXCXBXBXCXCXBXBXBXcXzXcXcXcXBXBXcXVXgXzXcXcXvXvXvXcXvXcXcXMX;XhXzXjXxXxXxXzX7X{.{.7XJ.hX7X-.7X7X8.7X7X{.`.'.'.'.'.`.*XJ.gXeX:.6XiXpX6X3X5XiX).iX5XH.4X5XH.;X4X6X:.3X:.;X5.;X5XL.:.J.;X1.R.~.G.V.A.A.T.G.W.W.W.W.W.G.T.G.W.~.n V.A.Z.D.D.T.W.E.E.E.E.E.E.Y.Y.Y.Y.Y.S.S.M.S.S.S.S.F.S.F.S.F.F.B.M.m.m.Z.R ' Z.n.n.m.c.Z.R ' m.b.b.b.m.Z./ f.b.n.v.l.v.n.c.c.l.c.l.l.k.k.j.j.j.",
"N B B B v v c c v 3 8 b 2 8 V 8 @ 8 B B B B B C C C C C B Z 8 8 P 8 0 C C Z 8 8 Z A A C C D C B C V V ^ 0 0 V 8 @ 0 G D S Z S ^ 8 5 Z G G D G ( ( ( ( ( ( ( ( a.a.a.a.a.( a.a.( ( a.a.a.d.s.s.d.d.d.d.d.d.d.d.d.d.k.k.d.d.z.k.k.k.k.k.c.d.' m.b.m.f.) S.m.Z.' p 2.` q / A.2.d g.4.e ] [ [ [ [ [ [ [ { } } { { { { { 1.K.R.H.=.4.K.K.^.K.1.4.^.K.C.K.K.1.1./.!.!.(.~.W.(.(.(.(.(.(.(.(.(.9X9X9X9X9XyX9X(.uXuXuXyXuXuXuXuXuX/./.A.E /.R.G.E 6 L /.0XdXaXsXiXdXaXfXdXsXfXaXaXsXaXiXwXA.E pXsXsXfXsXsXsXsXsXpXpXK.;.H.wXH.;.H.4X5XpXjXcXcXcXzXzXcXcXcXcXcXvXvXvXvXcXcXvXjXpXcXcXzXvXBXBXvXvXBXBXBXcXzXcXcXMXBXBXBXCXFXBXCXCXCXBXCXCXCXFXDXDXDXDXDXDXDXDXDXDXDXDXCXCXCXCXBXCXCXCXCXCXlXBXBXCXBXBXBXCXBXBXcXzXzXcXcXBXBXBXcXVXgXzXBXvXvXcXvXcXvXcXcXBX;XhXlXlXxXxXlXzXeX{.{.7XJ.gX7X-.7X7X8.7X7X-X`.'.'.'.'.`.*XJ.gXgX:.6XpXpX4X;X5XuXuXiX5XH.4X5XJ.;X4X5X:.3X:.;X4.;X).R.:.;X;X1.R.G.G.~.G.~.~.~.W.Q.Q.Q.W.W.W.G.T.~.a f.D.Z.D.D.T.E.T.E.E.E.E.E.E.E.Y.Y.Y.Y.S.S.S.M.m.F.F.F.F.F.F.F.F.B.m.n.Z.n ' Z.m.n.m.n.Z.R ' m.b.b.c.b.Z./ f.v.v.v.n.n.n.c.c.l.l.l.l.k.k.j.j.d.",
"N N B v B B B v v 8 9 V 5 8 C 8 @ 8 B B B C C C C C C C C Z 8 8 P 8 8 C B Z 9 3 C A D A D C C C Z V C Z 0 0 P 8 @ 0 G G D S S ^ 8 5 Z D D D G ( ( ( ( ( ( ( a.a.a.a.a.( ( ( H H ( a.s.d.a.a.a.s.d.d.d.d.a.d._ d.d.d.d.j.k.k.k.d.z.z.k.z.d.' Z.b.m.f.) S.m.S.' p 2.3.p ` A.3.m C.3.w ] [ [ [ { [ [ [ [ { { { { { { { 1.K.K.J.=.4.K.K.^.K.1.1.^.R.C.A.G.1.4./.!.!.!.(.(.(.(.(.!.Q.(.(.9X9X9X9XyXyXyXyXyXuXyX9XuXuXuXuXuXuX).9.A.P G./.3.3.6 * E wXwXiXaXaXaXiXaXiXiXiXsX).wXaXiXaX0X).A.R.iXpXiXpXsXsXsXpXpX^.d U K.H.H.;.K.pXwXpXjXzXcXzXzXlXcXcXvXcXvXcXcXcXcXlXvXzXlXvXvXvXcXlXvXBXvXcXBXvXcXzXgXzXzXzXzXBXBXCXCXBXBXCXCXBXCXCXBXCXFXCXDXDXDXDXDXDXDXDXDXDXCXCXCXcXK.BXCXCXCXCXCXCXBXBXvXBXBXBXBXBXcXjXcXcXcXcXvXvXBXVXgXzXcXcXvXvXcXcXvXsXjXMX3XhXzXlXlXzXlXjXgX{.{.7XJ.6X7X-.7X7X8.7X6X-X`.'.'.'.'._.{.J.eX7X:.6XpXpX4X;X5XuXuX0X5XJ.4X5XJ.;X4X5X:.3X:.;X4.L.).^.5.J.;X1.R.A.G.~.~.~.W.~.~.W.Q.W.W.W.W.W.T.~.b f.G.D.D.T.W.W.E.E.E.E.E.E.E.Y.Y.Y.F.F.m.z.z.B.U.F.F.F.F.F.F.F.F.B.M.m.V.m ' x.c.c.c.n.Z.R ' x.b.n.n.b.Z./ f.n.n.l.n.n.v.l.l.l.l.l.l.l.k.k.k.G ",
"B N B B B B B B B 8 8 b 5 0 V 8 @ 0 C B B C C C B B B C C Z 8 8 P 8 0 C B Z 0 2 B D A A C C D B C V V ^ 0 0 P 0 & 0 ^ G D S G G 8 , C G G G G H ( H H ( ( ( a.a.a.a.a.a.a.a.a.d.a.a.d.d.d.s.s.d.d.d.d.d.d._ _ d.d.d.d.k.z.z.j.j.z.k.k.z.f.' Z.m.m.f.) Z.m.m.' p 3.3.p ` A.3.p 3.3.w ] [ [ [ { [ [ [ [ { [ { { { { | 1.G.K.H.=.C.K.K.^.K.1.1./.R.C.A.G.;.1./.(.!.!.!.!.!.(.(.(.(.!.9X9X9X9X9X9XyXyXyXyXyXyXyXuXuXuX9XuXiX0XA.' ' /.A.~.K.6 s V.iXaXdXfXfXaXiXfXiXiX~.).wXaXiXaXaX).iX/.L iXwXwXwXpXjXwXsXwXI ;.;.H.;.4.d H.pXpXwXsXzXzXzXlXlXlXxXcXcXvXcXcXvXvXcXBXcXvXBXvXvXBXvXvXcXvXBXcXcXzXjXjXjXzXzXBXBXBXBXcXBXBXBXCXCXCXCXCXCXCXCXDXDXDXDXDXDXCXDXDXDXCXCXCXCXCXCXCXCXCXCXCXCXBXCXBXBXBXBXBXBXBXCXcXcXcXzXvXvXcXVXeXzXvXxXxXcXvXcXsXjXjXVX4XjXlXlXlXlXlXlXhX{.{.7XJ.eX7X-.7X7X8.6XeX3X`.'.'.'.'.`.*XJ.6X7X:.6XsXpX4X;X5XuXuX0X).H.4X4XH.J.5X5X:.3X:.;X:.L.^.4X:.J.L.1.K.~.G.~.(.~.~.W.T.W.W.W.~.W.W.W.W.~.b V.T.D.G.D.T.W.T.E.E.E.E.Y.Y.Y.Y.Y.Y.U.S.m.S.S.F.F.B.F.F.F.F.B.S.F.M.n.Z.L 3.Z.n.b.n.b.Z.R ' z.b.n.n.b.Z./ f.n.v.v.n.n.n.c.l.l.l.l.l.l.l.k.k.d.",
"B B N B N N B B b 8 8 b 5 8 V 8 O 8 B B C B C C C C C C C Z 8 8 P 8 8 C Z Z 8 9 Z D D A D D S C Z C Z ^ b 0 V 0 < b G D D S G G 8 2 Z G D G ^ ( H J H ( _ ( ( a.a.( a.a.a.a.a.a.a.a.s.s.s.s.s.s.d.d.d.d.d.d.d.d.k.j.k.k.c.c.z.k.k.z.z.c.f.f.Z.c.m.f.) S.m.Z.' p 3.3.p / Z.3.n V.3.w e ] [ { [ [ [ [ [ { [ { { { { | 1.G.R.H.=.C.K.C.^.K.4.1./.K.w.A.G.1.4./.!.!.!.!.!.!.(.(.(.!.!.(.9X(.9X9X9XyXyX9XyXyXyXyXuXuXuXuXuX0X~.' P ~.)./.~.G.6 s ~.iXiXaXdXdXdXiXaXaXsXaXaXaXiXsXaXsXiX).wXA.iXsXiXiX5XK.Y i ~ ^.4X;.1.H.H.l ^.pXpX5XsXzXzXzXlXlXcXcXcXcXcXvXcXvXvXcXvXBXvXcXvXvXvXvXcXvXvXcXvXvXcXjXjXjXBXBXBXBXBXBXBXBXBXBXCXCXCXBXCXCXCXCXDXDXCXCXCXCXDXCXCXCXCXCXCXCXCXCXCXCXzXCXvXBXBXBXBXBXBXBXBXBXBXjXjXjXcXvXvXBXBXVXeXzXvXvXcXxXcXcXcXcXzXBX4XjXlXxXxXxXlXlXhX{.{.7XL.eX7X-.3X7X{.7XeX7X`.'.'.'.`._.*X-X6XgX:.6XpX5X4X;X5XuXuXuX5XK.4X5XJ.J.^.5X4.3X:.L.4.L.).4X:.J.;X1.R./.~././.~.~.~.~.Q.W.Q.Q.W.W.W.W.W.b f.G.D.D.T.T.E.T.E.W.E.E.Y.E.Y.Y.Y.Y.F.F.F.F.F.U.U.U.F.F.S.F.M.m.B.M.n.Z.R 3.Z.n.b.b.m.Z.L ' x.c.c.c.c.Z.' d.n.v.v.n.c.n.v.l.l.l.l.l.l.l.j.k.k.",
"N N N B B N N v b 8 x b 2 8 C 0 O 0 Z B B C C C C C B C C Z 5 8 P 8 8 C C Z 8 3 C A A C C C D A Z C Z ^ b 0 P 0 & b ^ D D S G ^ 9 8 ^ G G G G G H H H ( ( ( ( a.( a.a.s.a.a.a.a.s.s.s.s.s.d.s.a.a.d.d.d.d._ _ _ d.d.k.k.z.c.z.k.k.k.k.z.f.' Z.c.m.f.) S.m.Z.' p 3.' p / V.` m A.3.y e ] [ [ [ [ [ [ [ { [ [ { { { | 1.G.K.H.=.C.K.w.^.K.1.1./.K.4.A.G.2.4./.!.!.!.!.!.!.!.(.(.9X9X9X9X(.9X9XyXyXyXyXyXyX9XuXuXuX9X(.G.P 0 ' G.uX)./.G.3.< 6 L /.iXaXaXdXdXiXiXaXdXaXaXaXaXwXiXiXaXaXiX).C.pXsX5X2.^.5X5XsXjXsX^.^.jX5XU 6XgXpXpX^.wXpXpXwXpXpXpXsXjXcXcXcXcXcXcXvXcXcXcXcXvXvXcXcXlXjXjXcXBXBXzXjXpXjXBXBXBXBXBXBXBXBXBXBXCXDXCXBXBXCXCXCXDXDXCXCXCXCXCXCXCXCXCXCXCXCXCXCXBXCXvXBXBXBXBXBXBXBXBXvXcXvXlXzXgXzXBXvXvXvXMX7XzXcXvXvXcXcXsXcXcXjXBX4XjXcXxXxXxXlXzXhX{.{.7XJ.eX7X5.7X7XOX7XeX7X`.'.'.`.`._.*XJ.6XgX:.6XiXiX6XL.^.uXuXuX).K.4X5XJ.J.^.5X:.3X:.L.8.L.^.4X:.J.;X4.^.~././.~.~.W.~.Q.W.W.W.Q.W.W.W.W./.V V.G.G.D.D.Y.Y.T.T.E.Y.Y.Y.E.Y.Y.Y.Y.F.U.Y.Y.U.U.U.F.F.F.M.m.c.m.S.B.m.Z.L ' Z.n.b.b.m.Z.R ' x.b.c.c.c.Z.' d.n.v.v.v.v.c.l.l.l.c.l.l.l.l.k.k.l.",
"B B B B N N B B b 8 x b 5 8 Z 0 @ 0 Z C C C C C C C C C C Z 3 8 ^ 8 8 b v Z 9 v Z A A A D C C C Z V Z ^ 0 0 P 0 < b ^ G G G G ^ 9 3 G G G G G H ( J H ( ( ( a.a.a.a.a.a.a.a.a.a.s.s.s.s.s.d.a._ a.d.d.d.d.d.d.d.d.d.k.k.c.c.z.c.c.c.c.c.f.f.m.c.m.f.) Z.m.m.' p 3.3.p R V.` R Z.V.d e [ [ [ [ [ [ [ [ ] { { { { { | 4.G.K.H.=.C.K.2.~.K.1.2./.K.4.A.G.1.4./.!.!.!.!.!.!.(.(.(.(.9X9X9X9X9X9X9X9XyXyXyXyX9XyX9X(.(.Z.f P V./.).).0X~.' 7 * * 5 P ).iXiXdXdXdXdXaXaXiXiXaXiX0XwXsXaXiXiX5X3.sX).C.2.5X5XpXsXlXjXpXpXgX^.z 5XsXpX^.~ w.w.3.2.2.` 3.w.A.^.jXlXlXcXcXxXcXvXvXcXcXcXcXcXjXzXjXvXvXcXzXzXjXgXjXBXBXBXBXvXBXBXBXBXCXCXCXCXCXCXBXCXDXDXCXCXDXCXCXDXCXCXCXCXCXCXCXCXBXCXBXvXvXBXBXvXBXBXBXBXvXvXzXzXpXzXvXBXvXvXMXeXhXcXcXvXcXxXcXcXcXvXBX4XjXlXxXlXlXlXlXhX{.{.7XH.6X7X5.7X7X-X7XwX7X`.`.'.'.`._.*XJ.6XgX:.6XiXiX6X;X5XuXuX0X).L.4X5XH.J.L.5X:.3X:.J.4.L.).4X:.L.;X1.R././.~.W.W.~.W.W.W.W.W.W.W.W.W.W./.V V.T.W.D.D.Y.Y.Y.F.Y.Y.Y.Y.Y.Y.U.Y.Y.F.F.S.U.F.U.F.F.S.F.n.b.c.j.m.m.c.V.R ' x.c.b.m.M.Z.R ' x.b.c.c.c.Z.' f.n.b.n.n.n.v.v.v.v.l.l.l.l.l.l.k.k.",
"B B B B B N B B b 8 8 v 5 0 Z 0 @ 8 C C B B B C C C C C C Z 8 0 P 8 8 b B Z 9 9 B C C C A D C C Z V Z ^ 0 0 V 0 @ b ^ G G D G ^ 9 8 S G G G G H H H H ( ( ( a.a.a.a.a.a.a.( a.s.s.s.s.d.d.a.a.d.d._ _ d.d.d._ ( _ d.k.k.k.k.l.c.c.c.c.z.f.) n.c.n.f.) Z.n.n.' p g.3.u L g.2.R Z.V.U e ] ] [ [ [ { { ] :.8.] [ { { | 4.G.G.H.=.C.K.,.K.K.4.1.~.K.4.A.T.3.4./.!.!.!.(.(.!.(.(.(.(.(.(.9X9X9X9X9X9XyX9X9XyX9X9X~.Q x.x.V.uX).~.0X)./.V.7 5 ; 6 7 L ' ~.iXaXaX0XiXiXaXdXdXiXiXiXaXaXiXiXaX).K.K.wX^.^.~.pXsXfXfXsXpXsXpX^.I ^.^.A.` L ` ` ~ ~ ~ ~ ~ ~ ` ! A.5XsXlXjXlXcXxXxXcXvXcXcXcXcXcXzXcXvXcXzXjXjXgXzXBXBXBXBXBXBXBXBXBXCXCXCXCXBXvXBXCXBXCXCXDXDXCXCXCXCXCXCXCXBXBXCXBXBXCXCXvXvXBXvXcXcXBXvXvXvXcXsXjXcXzXvXvXvXvXMXeXzXcXxXcXxXxXcXxXxXvXBX;XgXjXlXxXlXlXlXhX{.{.7XH.6X7X5.7X6XJ.6X4X7X`.`.'.`.`._.*XJ.eXgX:.6XiXpX4X;X5X).uX).).L.^.4XH.J.^.4X:.3X:.J.H.L.^.4X:.L.L.:.^.~.)./.W.W.G.W.W.T.Y.W.W.W.W.T.W./.V V.G.D.D.D.D.D.F.F.Y.Y.Y.Y.Y.Y.Y.Y.Y.F.S.S.F.F.F.F.F.S.S.M.S.B.k.b.M.m.V.L / x.n.b.b.m.Z.R / x.b.c.c.c.V.' f.n.v.v.n.v.v.v.v.l.l.l.l.l.l.l.k.k.",
"B C B B B N B B B 8 8 v , 0 C 0 @ 8 B B B B B C C C C C C Z 5 0 ^ 8 8 C B V b b B C C C A S C Z Z V Z ^ 0 0 V 9 , b ^ G G G G ^ v 8 G G G D G G H H ( ( ( ( a.a.a.a.a.a.a.( a.a.a.s.s.d.d.d.d.d.d.a.a.d.d.d._ ( _ d.k.k.k.k.k.c.c.l.z.z.f.' x.c.n.f.) Z.n.m.' p g.' p R V.3.R A.Z.;.e ] ] [ [ [ { ] | 4.4.] [ { { | 4.G.G.H.=.C.K.W K.K.4.;.^.K.C.C.G.4.4./.!.!.!.!.!.!.(.(.(.(.(.(.(.(.9X9X9X9X9X9X9XyX9X9X(.' x.(.(.uXuX).iX~.' a Q V.P V.' G.E P G.iXaXuXdXaXaXaXaXiXiXiXaXiX0X0X0XR.C.w.wXwXpXwXiXsXjXfXpXiXwX^.3.; h 7 ` 3.` ` ` ~ ` 2.2.` ` ~ ~ P h ! 3.K.5XsXlXlXxXvXvXcXcXcXzXsXlXvXcXzXjXwXjXcXBXvXBXBXBXBXBXBXvXBXCXvXBXBXBXBXBXBXvXCXCXDXCXCXCXvXCXvXvXvXvXBXCXBXBXvXvXvXvXcXjXzXcXvXcXvXvXcXcXzXcXvXcXcXcXMXeXzXcXcXvXcXcXxXcXxXvXBXL.gXlXlXlXlXlXlXhX{.{.7XJ.6X7X5.hX7X;XeX4X7X`._.`.`.`._.*XJ.6X7X:.6XiXpX4X;X5X).uX).).K.^.5XH.J.^.5X:.;X=.J.8.L.^.4X:.L.;X1.^.~././.W.W.W.D.W.W.W.W.Q.W.W.W.W./.b V.G.G.G.D.D.D.F.F.F.Y.Y.Y.Y.Y.Y.Y.Y.Y.S.F.F.F.U.F.F.F.S.M.B.B.j.c.m.n.V.R ' x.n.b.b.m.Z.R / x.c.c.c.c.V.' f.n.n.n.l.l.l.l.v.n.c.l.l.l.l.l.k.k.",
"B B B B B N B B B 8 x v , 0 V 0 @ 0 Z B B B B B C C C C C C 5 0 P 8 0 C B V b b C C D D D A S Z Z V Z ^ 0 0 ^ b 5 b ^ G H H G ^ b 8 G G G G H ( ( H H H ( ( a.a.a.a.a.a._ ( _ a.s.s.s.d.d.j.d.d.a.a.d.d.d.d.d.d.d.d.d.j.k.k.z.z.z.k.c.c.f.' x.z.n.d.) Z.M.m.' p f.' p ' V.3.R Z.V.2.w ] ] [ [ [ { ] =.H.g.e [ [ { | 4.G.~.H.=.C.K.,.K.K.4.;.^.K.4.A.T.4.3./.Q.!.!.!.!.!.!.(.(.(.(.(.(.(.9X(.9X9X9X9X(.(.9X9X9X(.).uX0X9XuXuXW.P ` Q ~./.A././.).G.w.Q /.iXiXiXaXaXdXaXiXiXaXaXiXwXiX).A.).~.w.wXiXpXiXiXjXiX~.A.w.3.,.~ 3.2.2.2.2.! ! ~ ~ ~ ~ ~ ~ ~ ~ T ! ! ~ ` w.A.G./.iXjXxXcXxXcXcXjXcXcXzXzXzXjXpXzXvXBXBXBXvXBXBXBXBXvXBXBXcXvXBXBXvXCXCXvXBXCXCXCXCXCXvXvXvXvXvXvXCXBXvXvXvXcXcXsXwXjXzXvXcXvXzXcXcXlXcXcXvXvXcXMXeXzXcXcXcXcXvXxXxXxXcXMXL.jXlXxXlXlXlXjXhX{.{.7XJ.4X7X5.hXgX4XeX5X7X`._._._._._.{.J.6X6X:.6XiXiX4X;X5X).).).5XK.^.5Xh.J.^.4X:.3X:.J.8.L.^.^.:.;XL.1.^.R.~.Q.~.Q.~.W.W.Q.W.Q.W.W.W.W.E.Q.b D.W.W.G.Z.D.D.F.Y.F.Y.Y.Y.Y.E.Y.Y.Y.Y.Y.Y.F.F.U.F.F.F.S.S.B.M.m.b.m.m.V.R ' x.c.b.b.m.Z.R ` x.b.c.c.c.V./ f.n.v.n.n.c.l.l.l.l.v.l.l.l.l.l.l.k.",
"C B N B B B B B B 8 v b , 0 V 0 @ 0 C B B B B C C C B C C B 2 0 P 0 0 C C Z b v C D C C C A D D G Z Z ^ 0 0 Z b 5 b G G G G G ^ v 8 G G G G H ( H H H H ( ( a.a.a.a.a.a.a.( a.a.s.s.s.d.d.d.d.d.d.d.k.j.d.d.d.d.d.d.j.k.k.j.k.z.z.c.c.c.f.' x.z.n.f.) S.m.m.' p g.f.s ' V.3.R Z.V.2.w e ] [ [ [ { ] | g.4.e [ [ [ | 3.G.G.H.=.C.A.W K.K.4.;./.K.C.A.T.3.3./.Q.!.!.!.(.(.!.!.(.(.(.(.9X9X9X(.(.9X(.yXyXyX(.yXyX9X9XuXuXuX).~.f Z.~.Z.).).(.uXuX).).~.L Q 0XaX).iXdXdXaXaXwXiXiXwX).).G.wX)./.3.K.aXsX).wX/.V.~ ,.! ! ,.>.3.w.3.2.,.! ! ! ! ! ! ! ~ ~ ! T ! ~ ~ ` ` ` ` Q ` C./.fXlXcXlXzXvXcXcXzXzXjXzXzXvXBXBXBXvXvXBXBXBXBXBXzXvXvXvXCXCXvXCXvXCXvXvXCXCXCXvXvXvXvXCXCXCXvXvXvXvXcXcXcXjXjXzXlXcXzXcXcXcXzXcXcXcXcXcXMXeXzXcXcXvXcXxXlXcXxXcXMXL.jXlXxXlXlXlXlXhX{.8.7XJ.6XeX5.gX6X4XeX6X7X`._._._._._.{.J.6X6X5.6XiXiX4XL.).).uX0X0XK.^.5Xh.J.4X4X:.;X:.H.4.L.^.4X:.L.;X:.^.~.~.~.Q.W.Q.W.Q.W.Q.Q.W.W.W.W.W.W.9 Z.T.E.D.D.D.F.D.D.Y.Y.Y.Y.E.Y.Y.Y.Y.Y.Y.U.F.U.U.U.F.U.S.F.B.B.B.M.m.m.Z./ ' x.c.b.b.b.V.R / x.b.n.n.c.V.' f.n.n.c.l.l.c.c.v.l.l.l.c.l.l.l.l.l.",
"B N N N B B B B B 3 v v , 0 C 0 @ 0 C B C C C C C C C C C C 5 0 P 0 0 C B Z b v B A A A D D D D Z V Z ^ 0 0 ^ b 5 b ^ G G G G G 9 8 S G H G G H H H H J K ( a.a.a.( a.a.a.( a.a.s.s.s.d.s.d.d.d.d.d.k.k.d.( ( _ ( d.j.z.z.k.j.k.c.c.l.c.' ' x.x.n.f.) S.M.S.' p g.f.m ' A.3.P D.D.2.w e ] [ [ [ ] ] e ;.g.e [ { [ | 4.G.G.H.=.A.K.,.K.K.4.;./.K.C.A.T.2.2./.Q.!.!.!.!.!.!.(.(.(.(.(.(.(.(.(.9XyX(.9XuX9XyXyXyXuX9XuXuX0X~.V A.uX)././.0XuXiXiX(./.uXA.L P.dXiXiXaXaXdXdXiXaXsX).! R.)./.).).~.` /.wX~.w.3.! T T T T ! ,.>.3.3.,.! ! T T T T T T T T T ~ ~ ~ ~ ~ ` ! ! X   X 6 ! K.pXlXjXvXvXcXcXgXwXjXlXcXBXcXcXcXzXBXBXBXBXBXCXBXBXvXBXCXCXCXvXvXvXCXvXvXCXvXCXvXvXvXvXvXvXvXvXvXvXlXBXzXzXvXlXcXvXcXzXzXzXcXcXvXcXcXMX7XjXcXxXcXvXcXxXxXxXcXMXL.sXlXlXlXlXlXjXhX{.{.7XJ.eXeX5.gX6X3X6X6X7X`._._._._._.{.J.6X7X5.6XiXiX4XL.^.).0XuX).R.4X5XH.J.4X5X:.3X=.H.h.L.^.^.=.J.L.:.^./.(.Q.Q.Q.Q.Q.Q.Q.Q.Q.W.W.W.W.W.W.9 Z.Y.T.D.D.D.Y.Y.Y.F.Y.Y.Y.Y.F.Y.Y.F.U.F.M.F.U.U.F.F.F.F.B.B.B.m.B.m.n.f.n / d.z.b.b.m.V.R / x.c.v.n.n.V.' f.n.l.v.n.n.c.c.v.l.v.v.l.l.l.l.l.l.",
"C N B B B v B B B 3 v C 5 9 V 8 O 0 Z B C C C C C C C C B b 2 0 P 0 0 C B Z b v C D D D S D D D G V C ^ b 0 ^ V 5 b G G G G G S 9 8 S G ( ( H H J H H H ( ( ( a.a.( a.a.a.a._ a.s.s.s.d.d.d.a.d.d.d.d.d.d._ d._ ( _ j.j.j.z.z.z.c.c.l.z.f.' x.c.n.f.) Z.M.S.' p g.f.L ' Z.3.P D.G.1.e ] ] ] ] ] ] ] ] ;.g.e { { { | 3.G.K.H.=.H.K.W K.K.4.;.~.K.C.A.W.3.1./.!.!.!.!.!.!.!.!.(.(.(.(.(.9X9X(.9X9X9X9XyXyXyXuX9XuXuX9XuX).P P aX).uX).W.0X).uXaX0XuXuX).V.` sXaXaXiX0XuXaXaXaXG.' fXiXsXsXaX0X).~.h C.3.T l l l T T Y l T T ,.! T l z j j j j h j j I Y T ~ ,.~ ~ ` ` ` ! ! ! ! 3.w.A.P./.lXlXlXsXzXjXwXcXzXcXvXvXBXvXvXvXvXBXBXcXvXvXvXBXvXvXCXvXvXvXvXvXvXvXvXCXvXvXCXvXvXvXvXvXvXvXvXcXzXcXvXcXcXvXvXzXjXcXcXcXcXcXzXMX6XzXcXvXcXxXcXxXxXxXcXMXJ.sXxXxXxXxXlXlXzX{.{.7XL.6XgX5.gX7X4XgXhX7X`._._._._._.*XJ.6X7X5.pXiXiX4X;X5X0XuX).).^.^.5Xh.J.^.5X:.;X=.J.h.L.^.^.=.J.;X:.^.~./.(.Q.Q.Q.Q.Q.Q.Q.Q.Q.W.W.Y.F.W.0 Z.W.Y.D.T.D.F.Y.F.Y.E.Y.Y.Y.U.U.F.Y.Y.S.F.Y.U.U.U.F.F.S.B.B.B.B.m.b.c.f.P ' x.c.b.b.m.Z.m / x.c.l.c.n.V.' f.v.l.v.v.v.n.c.l.l.l.l.l.l.k.k.l.l.",
"N N B B B B B B B 3 9 v 2 0 V 8 O 0 Z B B C C C B C C C B v 5 0 P 0 8 Z C V b v C D D D D D D D ^ Z C ^ b 0 ^ b 5 b G G G S Z S 3 8 ^ ( H H H ( ( J J J ( ( ( a.a.a.a.a.a.a.a.a.s.s.d.d.d.d.d.d.d.j.d.j.d.d.d.d.d.j.j.k.z.z.z.c.c.c.c.c.f.' m.c.m.f.) Z.m.m.' s V.f.L 3.A.g.Q D.V.d w ] ] ] ] e ;.h.d 1.h.e [ [ [ | 3.G.K.H.=.C.C.W K.K.4.;.^.K.C.A.T.2.2.~.Q.!.!.!.!.!.!.!.(.(.(.(.(.9X9X!.(.9X(.9X9XyX9X(.uX9X9X(.!.' 8 8 ~.(.uXuXaXiXuX(.).0X0X(.aX).Q ' ~.0XiXiXfX0XG.Q iXwX~.fXaXiXwX/.G.3.I T T T l l l T Y l l l l z z h i i : : : : : : r i h j Y T ~ ~ ~ ! ` ! E ~ ! ~ ~ ~ ! ` G.).jXjXjXlXzXcXcXcXcXcXjXvXcXvXvXvXBXvXvXvXvXvXvXCXvXvXvXvXvXCXCXCXCXvXvXvXvXvXvXvXvXvXvXvXcXvXlXcXvXvXvXcXcXvXzXlXcXcXvXcXcXVXeXjXcXxXcXcXxXxXxXxXcXcXL.jXxXxXxXlXlXlXhX{.-.7XJ.wXeX5.hX6X4XwXpX7X`._._._._._.*XJ.6X7X5.gXiXwX4XL.).).uXuXiXK.K.5Xh.J.R.4X:.3X:.J.H.L.^.^.=.J.L.:.^.Z.W.Q.W.W.Z.W.W.W.Q.Q.Q.W.T.E.Y.W.0 V.W.Y.F.D.S.Y.D.Y.F.Y.Y.Y.E.Y.Y.Y.Y.Y.S.F.U.U.U.F.F.F.U.B.B.F.m.B.m.m.Z./ ' d.z.b.b.m.V.m ' m.n.c.n.n.V.' d.c.n.n.n.n.c.c.l.l.l.l.l.l.l.l.l.l.",
"N B N B C B B B B 3 9 v 8 b P 8 O 0 Z C C C C C C C C B B B 8 0 ^ 8 8 V v V V v C D C D D D A C G Z Z ^ b 0 ^ b < b ^ G G G S S 9 8 G G H H H H ( ( ( ( ( ( a.a.a.a.a.a.a.a.a.a.s.s.d.j.d.d.d.d.d.d.j.k.k.d.d.( ( j.j.k.c.c.b.c.z.c.c.c.f.' Z.m.m.f.) S.m.m.' s V.V.L ' Z.' / D.Z.,.e ] ] =.1.d g.H.d ;.4.e { [ { | 3.G.G.K.=.C.A.2.R.K.4.;.^.K.C.A.T.3.3./.Q.!.!.!.!.(.(.(.(.(.(.(.(.(.(.(.(.9X9X(.9XyX!.(.uXyXuX~.' V.~.5 x.(.iXuXuXuX0XuXuXuX0XiXuX(./.f V.iX).iX/.Q ).iXdXaX).iX/.C.E j 2.,.T T ;.T T l T l z z z z z i i r * $ $ $ $ $ $ $ $ * : i s z Y E ! ! ` ` ` ` ~ W T T E E ! ! ' ~.jXpXvXcXcXcXcXcXcXcXvXBXvXvXBXBXBXvXvXCXCXCXCXvXCXvXvXCXCXCXDXvXvXvXvXvXvXCXCXcXvXvXcXcXcXcXcXvXcXvXBXvXcXcXcXvXcXvXcXBX7XjXzXcXcXxXcXxXxXlXcXMXJ.gXlXlXlXlXlXlXhX{.{.7Xy.eX7X8.gX7X4XpXpX7X`._._._._.X.{.J.6X7X8.6XiXiX4X;X^.0X0X0XiX^.^.4XH.J.^.4X:.6X:.J.4.L.^.R.=.J.L.:.^.A.W.(.Q.Q.E.W.Q.W.W.Q.W.W.W.Y.T.W.b V.T.T.D.Y.S.Y.Y.Y.Y.Y.Y.Y.E.Y.Y.E.Y.Y.Y.Y.U.U.U.U.F.U.F.F.B.m.m.B.m.M.V.R ' d.z.c.b.m.Z.R ' x.n.b.b.n.Z.' f.v.n.v.l.l.l.l.v.l.l.l.l.l.l.l.l.l.",
"B B B N c N B B B 8 9 B 8 0 V 8 O 0 Z C C B B B C C C B B v 2 8 P 8 0 Z B V b v C D D D D D D C Z C C ^ b 0 V 0 < b ^ G D S G ^ 9 2 S ( ( H H H H ( ( ( a.a.a.a.a.a.a.a.a.a.a.d.s.a.s.d.d.d.d.d.d.d.d.j.j.d.d.d.d.j.j.j.k.k.c.z.c.c.c.c.f.' m.c.n.f.) m.m.S.' s g.' m ' A.V.P D.Z.2.e e e ;.C.M C.A.U ;.h.e [ [ [ | 3.G.G.H.=.C.C.W K.G.1.;.^.K.4.A.~.A.3./.!.!.!.!.!.!.(.!.!.!.(.(.(.(.(.(.(.(.(.9XyX(.(.yX9X(.G.Q D.(.).).0X0XuXuXuX0X(.uXuXuXuX0X0XuX~.~.h Q w.Q /.iXdXfXaX0XK.A.C.3.>.;.;.;.;.;.;.T z z z d i r - % % $ $ $ $ . . $ $ $ $ $ $ $ $ * u i s j j I E ` ` ` W W T T Y E Y Y ! V.A.R.sXlXcXcXcXcXcXzXvXvXvXvXBXBXBXBXvXBXvXvXvXvXvXvXvXCXvXcXvXCXvXvXvXvXvXvXxXvXvXvXlXcXcXvXcXcXcXvXcXvXjXzXcXcXvXcXzXBXeXzXcXxXxXxXxXxXxXxXlXMXJ.jXlXlXlXlXlXjXhX{.{.3X4.eX7X8.gX6X4XwXpX7X`._._._._._.-XJ.6X6X5.6XwX5X4XL.^.).).~.~.^.^.4XH.4X4X4X:.;X:.L.1.L.^.^.=.J.J.;.R.D.Q.(.Q.Q.Q.Q.Q.W.W.W.W.W.W.T.D.~.b V.T.Y.Y.Y.E.T.Y.Y.E.Y.Y.Y.Y.Y.Y.Y.Y.Y.Y.E.U.U.F.F.F.S.F.B.B.B.B.B.M.m.Z./ ' z.n.n.b.m.V.m ' x.n.n.n.n.V.' f.v.n.n.n.v.l.l.v.l.l.c.c.l.c.l.k.j.",
"B B N c c B B B b 3 9 v 2 0 V 0 O 0 Z B B B B B B B B B v v 5 0 ^ 8 0 C C Z b b C A A C Z C C C Z V v Z 0 0 V 0 < b G D D S S G 8 3 G ( ( H H ( J K ( a.a.a.a.a.a.a.a.a.s.a.a.d.s.a.d.d.d.d.d.d.d.d.j.d.d.a.d.k.j.k.k.d.k.k.k.l.c.k.c.c.f.) m.c.n.f.) m.m.S.' s g.f.L ' V.' / D.Z.;.w ] e ;.A.U C.A.;.;.4.e [ [ { | 1.G.G.H.=.H.A.W G.K.4.;.^.A.4.A.W.A.3.~.!.!.!.!.!.!.(.(.!.!.!.(.(.(.(.9X(.9X9XyXyXyX(.(.(.Q.V.V.(.(.(.uX0X0X0X0X).(.uX0XuXuX).iXiX0X~.).A.V.' A.aXaX0X/.A.w.Y ! ,.>.>.;.;.;.;.U U z d s i r r - % % $ % $ $ $ $ $ $ $ $ $ $ $ $ $ $ * * : : u s L R E E E E W W W E Y Y Y Q P E V./.sXcXcXcXvXcXvXvXvXvXvXvXcXvXvXvXvXvXvXvXvXvXvXvXvXvXcXvXvXvXvXvXvXvXvXvXvXvXcXxXcXvXvXcXcXvXcXcXzXlXcXcXcXcXzXMX6XzXcXlXxXlXlXxXxXxXlXcXJ.jXlXlXlXlXlXlXhX{.{.7XL.5X6X5.gX6X4XwXwX3X`._._._._.X.-X;X5X7X5.6XiX^.4XL.^.).).~.).R.^.^.H.J.^.4X:.;X=.L.4.L.^.K.=.J.4X;.R.A.Q.(.Q.Q.Q.Q.W.E.Y.T.Y.Y.T.D.D.Q.b Z.W.Y.Y.S.Y.E.Y.Y.Y.Y.Y.Y.Y.Y.Y.U.Y.Y.Y.U.U.U.F.F.F.F.F.F.B.B.B.M.B.m.G./ ' z.c.b.c.m.Z.m ' x.b.n.n.n.V.' f.v.b.n.n.n.c.v.v.l.l.v.l.k.j.l.l.l.",
"B B N N B B B B B 8 v B 2 0 P 0 O b S C B B C B B B B B B b 8 0 V 8 0 C B V b v C A C C D A C C Z V v Z 0 8 V 0 & b G D G G S S 8 8 ^ H H H ( ( ( ( a.a.a.a.a.a.a.a.a.a.a.a.a.a.s.d.d.s.s.s.d.d.d.d.d.j.j.j.k.k.k.k.k.j.k.k.k.k.c.c.c.c.d.) m.b.n.f.) m.b.S.' p f.f.m ' V.' / D.Z.,.e ] e ;.C.M C.C.M ;.4.e [ { [ | 4.G.G.H.=.C.A.2.G.K.4.;.~.A.4.A.W.A.3.~.!.!.!.!.!.(.(.!.(.(.(.(.!.(.(.(.(.(.(.9XyX9X(.yX(.W.' (.(.9XuXuXuXuX9X(.9X(.(.uXuX0X!.iX0XV.~.iX/.~.).iX0XA.` V.3.~ 2.,.2.1.>.;.;.U l z d i u r r % % % % $ $ % $ $ $ $ $ $ $ $ $ $ $ $ $ $ $ $ $ $ * : u p s L R R W W W ! ! Y Y Q Y E Q E 3.K.pXlXcXcXvXvXvXxXvXvXvXvXvXvXvXvXvXvXvXvXvXvXvXvXlXxXvXvXvXvXvXvXvXvXvXcXxXcXcXxXcXvXcXzXlXcXcXlXcXcXcXcXcXMX6XjXxXxXlXlXlXxXlXxXjXzXJ.jXlXlXlXlXlXjXhX8.8.6X^.5X7X5.7X6X4XpXwX3X`._._._._.X.-XL.4X6X5.6X).^.4XJ.^.).).).).R.^.^.h.J.L.4X:.;X=.J.4.L.^.K.=.L.4X;.R.D.W./.W.W.E.W.W.T.D.E.Y.Z.D.T.D.W.9 D.W.Y.Y.F.Y.Y.E.Y.Y.Y.Y.Y.F.Y.Y.U.Y.Y.U.F.U.U.F.U.F.U.U.B.m.M.B.m.M.M.V.L ' n.m.b.b.m.Z.n ' x.b.n.n.n.V.' d.n.b.b.n.n.c.l.v.n.l.v.l.d.j.l.l.l.",
"B v B B B N N v b 8 v B , 8 V 0 O 0 Z C B B C C C B B B B V 8 8 ^ 0 0 C B Z b v A A A D C C C C S ^ b ^ 0 8 ^ v < b G D G G G G 8 8 ^ H H H H ( ( ( ( a.a.a.a.a.a.a.a.a.s.a.a.s.s.s.s.s.d.d.d.d.d.a.a.d.k.k.k.k.c.c.c.z.k.k.k.l.l.c.c.c.f.f.n.m.m.f.) m.b.S.' p ' ' s ' Z.' / D.Z.1.e ] e ;.H.d 1.;.d 1.4.e [ [ { | 3.G.G.H.=.H.C.,.K.K.4.;.^.A.4.A.T.V.3.~.Q.Q.Q.Q.Q.Q.E.Q.(.(.(.!.(.(.(.(.(.9X(.9XyX9XyX(.Q.9.(.9X9XuX9X(.uXuX(.9XuX0X0X0X9XuX!./.iX/.).uXuX0XT.G.A.3.~ ,.,.,.,.T ,.2.;.T z z s r r r : * $ # # $ % % % % % $ $ % % $ $ $ $ $ $ $ $ $ $ $ $ $ $ & * * 6 u p s I R E Y Y Y E E Q L Y E ! 3.G./.).jXcXvXvXvXvXvXvXvXvXvXvXvXvXvXvXvXvXDXvXvXvXcXvXvXvXvXvXvXvXvXvXxXxXcXxXxXcXvXlXcXcXcXcXcXcXcXcXcXcXMX6XjXlXxXxXlXlXlXsXlXlXzXJ.jXlXfXlXlXsXfXgX8.8.;XwXpX7X5.7X6X4XwXwX3X_._._._._.X.-X;X4X6X5.6X)./.4XJ.^.).).).).K.^.^.4.L.R.4X:.3X=.J.1.L.^.^.=.J.;X;.R.T.W.~.W.W.W.T.T.W.D.T.E.T.Y.T.D.G.9 Z.T.E.Y.Y.Y.E.E.Y.E.Y.Y.Y.Y.Y.Y.Y.Y.U.Y.U.U.U.U.F.F.F.S.B.M.m.b.M.M.S.G.P ' n.b.b.b.b.V.n ' m.m.b.b.b.x.' x.n.b.b.n.v.v.v.n.n.c.c.l.k.k.l.l.l.",
"v v c c B N N B v 8 9 8 + 5 V 0 O 0 S C B B B C C C C B B b 8 8 V 0 0 C B Z b v S F D D S D D Z Z Z Z ^ 0 8 V v 5 b G G D D D G 9 8 ^ ( H H ( ( J J ( ( ( a.a.a.a.a.a.a.s.a.s.s.s.s.s.s.s.d.a._ _ _ _ a.k.k.k.c.c.c.z.c.l.c.v.n.c.c.c.c.d.f.n.b.n.f.) m.m.S.' p ' ' i ' Z.' Q D.A.,.w ] e ;.h.w e ] e ;.4.e [ { { | 3.G.K.H.=.H.A.2.K.K.4.;.^.K.4.G.W.A.3./.Q.!.!.(.!.Q.W.F.W.!.(.(.(.(.(.(.(.(.(.(.yXyXyX(.W.W.uXyXuXuXyX9XyXuXuXuXuXuXuX0X(.0X!.~.iXuX).0X)./.A.` 2.~ ~ ,.T ,.,.;.,.,.T z s i r : : * % $ $ % % $ * : r * * * * * * * * * * * * * & $ $ $ $ & & & $ $ $ $ * u u p j L L Y E E E Y ! ! ! ! ! ' ' A.).lXvXvXvXvXvXvXvXvXvXvXvXvXvXvXCXCXDXvXvXvXvXvXvXvXvXvXvXvXvXcXvXvXvXxXxXcXxXxXcXcXlXlXcXcXcXxXcXMX6XjXlXxXxXxXlXxXlXxXcXcXJ.jXlXlXfXfXaXsXeX8.8.;XpXpX7X8.7X6X4XwXpX3X_._._._._.X.-X;X4X6X5.6XiX).4XJ./.).).(./.A.K.^.4.;X4X4X:.-X=.L.4.^.^.^.=.L.;X;.K.W.W.~.Q.W.Q.Q.W.W.W.W.E.E.T.D.D.G.0 V.T.E.Y.Y.E.E.Y.Y.E.Y.Y.Y.Y.F.U.Y.Y.U.U.U.U.U.F.F.F.F.B.m.c.j.n.M.M.m.D.R f.n.b.b.n.c.Z.n ' m.b.b.b.m.Z.f.x.b.n.n.n.n.v.v.n.b.c.c.c.l.l.l.l.l.",
"v v B B N N B B b 2 8 5 + 8 V 0 O 0 Z C C B B C C B C C B v 2 9 ^ 8 0 Z Z S b v D D G G D Z Z Z ^ ^ Z ^ 0 8 P v < b ^ G D C Z S 8 2 G H H H ( ( K ( ( ( ( a.a.a.a.a.a.s.s.s.s.s.s.d.s.s.s.d.( J a.a.j.j.j.j.k.k.k.k.k.k.c.c.c.n.n.c.c.c.j.f.n.b.m.x.f.m.N.Z.' p ' / i ' Z.f./ G.A.;.e ] e ;.h.e ] ] e ;.4.] [ { { | C.G.G.H.=.K.C.2.T.K.4.;.^.K.4.G.W.A.' ~.Q.!.!.!.Q.E.W.W.m.x.!.!.!.(.(.9X(.!.(.(.yXyXyX~.' 0X0XuXuXuXuXuXuXuXuXyXuXuXuX).).).!.uXaXiX0XW.G.A.3.2.! ~ T W T ,.;.;.T T Y z i u * * * % $ $ % % % * : u u r : : : : * * * * * * * & & & & & * * * & # $ . $ $ $ * : 7 h h L E E E I I E W E E E E ' V.A.pXcXvXvXvXvXvXvXvXvXvXvXvXvXvXwXjXxXvXvXvXvXvXvXvXvXvXvXvXlXcXvXvXcXxXxXlXxXxXjXjXlXlXcXcXlXcXMX6XjXlXxXxXxXlXlXlXlXlXzXJ.jXlXkXfXwX~.^.6X5.8.;XpXsX7X5.7X6X4XwXP.-X_._._._._.X.-XL.4X6X5.6XiX).4XH.^.).).)./.K.K.^.h.L.^.4X:.3X=.L.1.^.^.K.;.J.4X;.K.W.~.Q.Q.G.W.W.W.W.W.W.E.E.T.S.D.W.0 Z.W.E.Y.Y.E.Y.Y.E.E.E.Y.Y.Y.U.Y.Y.Y.U.U.U.U.F.F.U.F.F.F.B.z.j.m.B.B.S.A.P f.m.b.b.n.m.Z.n ' m.m.b.b.b.Z.x.z.n.n.n.c.l.v.v.v.( C d.b.l.k.l.l.l.",
"v N B B B B B v v b b 5 O 5 b 0 @ 8 Z C B C C C C C C B B v 2 v ^ 8 0 Z Z Z b B D D D D D D D Z S Z C ^ 0 8 ^ v < b ^ G G S S S 8 8 ^ ( ( ( ( ( ( ( ( ( a.a.a.a.a.a.s.s.s.s.s.d.j.d.s.s.s.a.a.a.( ( s.d.j.j.j.k.k.k.k.k.n.n.n.n.n.c.n.c.x.f.n.b.m.x.) M.N.S.' s g.' a f.Z.' Q D.V.;.e ] e :.h.e ] ] ] 1.4.] [ [ [ | C.G.G.H.=.H.A.2.K.K.4.;./.G.3.G.W.A.' /.Q.!.!.!.(.!.Q.D.B ( Q.(.(.Q.Z.(.(.(.(.(.yXyX(.Z.V.).uXuXuXuXuXuXuX(.uX(.(.aX0X).~.uX(.(.aX0XW.9.7 ` ~ ~ ~ ~ ! W W T T I z p u : * * % $ $ $ $ $ % * : r i i s i i i u : * & & & $ & $ $ $ * u u u p p 6 6 * # # . . X X $ & : u s L I R E E E E E E E E / 3.V./.lXvXvXvXvXvXvXvXxXvXvXvXDXvXwXvXvXcXvXvXvXvXvXvXvXvXxXjXxXxXcXxXvXcXlXxXlXlXlXlXxXxXcXxXcXcX6XjXxXxXxXlXxXxXxXlXjXzXH.pXfXkXfXfX^.C.4X5.8.;XpXiXgX8.7X6X4XwX5XJ.X._._._._.X.-X;X4X6X5.6XiX).4XJ.^.).).)./.C.^.^.h.J.L.4X:.-X=.L.1.L.^.R.M L.4X1.K.Z.W.W.W.T.T.W.W.W.W.W.E.Y.Z.F.D.T.0 V.T.E.E.E.E.E.E.Y.Y.Y.Y.Y.Y.Y.U.Y.U.U.U.U.U.F.F.F.F.F.F.m.m.M.c.m.B.S.D.P f.m.m.n.n.m.Z.n ' m.b.b.b.n.Z.x.x.n.n.n.j.k.n.v.v.c.d.z.c.l.l.l.l.l.",
"B N B B B B B B b 8 v b 8 0 b 0 @ 8 Z B B B C B B C C C v 9 5 v ^ 0 0 C B Z b v G D D D S Z C Z Z B Z ^ 0 0 V 0 < b G G G S S Z 3 3 G ( ( H ( ( ( a.a.( ( a.a.a.a.a.a.a.a.a.s.s.s.s.s.s.s.a.( a.d.d.j.j.d._ a.j.l.l.c.c.c.n.n.n.v.v.c.c.j.f.n.b.m.f.f.B.N.S.' s g.x.L V.Z.' R D.A.1.e ] ] :.H.w ] ] ] ;.4.e [ [ [ | g.Z.G.H.;.H.A.3.K.K.4.;.^.G.4.G.W.A.3.~.Q.Q.W.W.!.!.!.W.x.S.(.Q.W.Q.Y.(.(.(.!.yXyX9XW.0 V.W.uXuXuXuX(.9X(.9X9X0XuXaXuX(.T.uXuX).~.V.! j a ` ~ ~ ~ W W W E Y z s i - % % % % $ % % % % % $ : : u i s j j j s i u : * * * * * * * : u a s s m m a p 6 < & & # # # . . # * 6 p a L R E E W W E E E E / R ` R.iXxXvXvXvXvXvXcXvXvXvXvXDXlXcXvXvXvXvXvXvXcXvXvXvXxXlXcXcXcXxXxXvXvXcXvXlXjXlXxXxXvXvXlXzXjXzXxXlXlXxXlXlXlXlXlXzXH.sXfXkXiXsXfX5X6X8.{.;XpXpXgX5.7X4X4XwX5X8.X._._._._.X.-XL.4X6X5.6XiX/.^.H.^.W.(.).).g.^.^.4.H.K.4X:.;X=.L.1.L.^.K.d L.^.;.K.W.T.W.D.G.W.W.W.E.E.W.E.T.D.D.D.T.9 V.Y.E.Y.E.E.E.E.E.Y.Y.E.Y.Y.Y.Y.U.U.U.U.U.U.F.F.F.U.F.M.m.m.M.B.B.B.n.Z.P f.m.m.N.b.b.Z.P ' m.b.b.b.n.Z.V.c.n.n.v.v.n.v.v.v.l.c.d.k.l.l.l.k.k.",
"N B B v v v B v v 3 v v v 0 b 0 O 8 Z C B B C B C C C C Z b 5 v Z 0 0 C Z ^ b v D D D D D S Z C S Z C S 0 0 V 0 < b G D S C Z Z 3 3 G H H H ( ( a.( ( ( a.a.a.a.( ( _ a.a.s.s.s.s.a.d.s.s.a.a.a.d.j.j.j.j.j.d.j.k.l.c.n.v.c.n.c.v.n.c.c.d.d.n.b.m.x.d.B.N.M.' s f.x.0 / Z.' P D.A.,.e ] e :.H.w e ] e ;.4.] [ [ ] | g.A.G.C.=.C.C.` G.A.4.;.^.G.4.G.W.A.3.~.Q.!.Q.Q.Q.!.!.Q.(.(.W.F.(.Q.W.M.Q.(.!.9X(.Q.9.T.(.(.uXuXuXuXuXuXuXuXuXuX0XuXyX(.Q.(.G.9.' ! E Y T ~ ! W E Y I L j a u : * $ $ $ # $ % % $ $ $ $ % : u i s j j I I j s i i u u i i i i i i s L I L L L L L a a 7 6 & # # . . . # & < 6 a m L R E / / E E E W W / 3.3.~.fXcXvXvXvXvXvXvXvXvXcXvXvXvXvXcXvXcXcXcXcXvXvXvXcXcXcXxXxXxXxXjXsXjXjXfXlXlXxXjXxXlXzXlXlXlXlXlXlXxXlXlXlXlXjXH.sXlXfXfXkXkXlXhX8.{.;XpXiXeX8.7X4X6X4X4X8.X._._._.X.X.8.J.4X4X5.6XwX/.^.H.^.).).(./.C.A.^.H.J.K.4X:.-X=.L.1.L.^.R.d J.4X;.K.W.W.W.G.D.G.E.T.E.T.T.T.G.D.D.D.D.9 x.T.E.Y.Y.E.E.E.Y.E.Y.E.E.Y.Y.U.Y.U.U.U.F.U.F.B.B.B.B.B.b.M.N.B.B.B.m.A.P ' m.m.N.N.b.Z.P ' n.b.b.b.b.Z.V.x.n.n.n.v.n.v.v.n.n.n.n.l.k.l.l.k.k.",
"v v v v v v v B v 3 v B b 9 b 8 O 8 Z B C B C C C C C C Z b 5 9 Z 0 0 C B Z v v D D D D D S Z Z S C B Z 0 0 b 5 < b S D S Z Z Z 8 3 G G G H H ( ( ( ( ( ( ( ( a.( K a.a.a.s.s.s.j.j.s.a.a.a._ a.j.j.j.j.j.j.k.k.l.l.l.n.v.n.l.v.n.n.n.c.j.) n.b.b.n.b.N.N.B.' a f.x.L / Z.' P D.A.3.| e e :.H.y y y w ;.:.] [ [ ] | 3.V.A.4.;.H.C.3.T.G.4.;.~.A.3.G.W.G.w./.!.!.!.!.!.!.!.!.(.!.Q.Q.W.Q.W.Q.W.Q.(.9X(.G.P (.(.(.uXyXuXyXuX9XuXuX9XuXuXuXuX(.x.V.' ! E Y T T T W E I j j a : : * $ # . $ $ % $ % % * * * * * * u i i j I I Y I I j s i a a s s j j j j L Y E E R R R L L m s p 6 & # . . . . # # & < 6 p m L E E / / / ` ` ` E E 3.A.).lXcXvXvXvXvXvXvXvXvXxXvXvXvXxXlXxXvXxXvXcXvXxXxXxXxXxXxXxXxXfXjXjXjXlXlXlXxXlXxXxXlXxXxXlXlXlXlXlXlXlXlXzXH.sXlXfXfXfXfXfXgX8.8.;XpXiX7X5.7X4X6X^.5X8.X._._._.X.X.{.L.4X4X5.6X).~.L.H./.).0X!.(.V.K.^.h.J.^.4X:.-X=.L.1.K.^.^.;.H.4X;.K.~.D.Z.G.T.W.W.W.W.E.D.D.Z.D.D.D.G.9 m.Y.Y.Y.F.Y.E.E.Y.E.E.E.E.Y.M.U.Y.U.U.F.F.F.U.U.F.B.B.b.b.N.N.N.B.B.m.D.P f.n.b.N.N.b.Z.R ' m.b.b.n.b.V.f.x.b.n.n.v.v.v.v.v.n.n.l.l.l.l.l.l.k.",
"B B v c v B B B v 3 v B v 9 b 8 O 8 Z B C B B C A C C C Z b 5 9 Z 8 8 Z Z Z b v D D D S C Z Z C Z C C ^ 0 0 b 8 < b G D S S Z S 9 8 ^ G G H ( ( a.a.a.( ( ( ( a.( a.a.a.a.s.s.s.d.j.d.d.k.j.a.s.d.j.j.j.j.j.k.k.l.l.v.n.v.v.v.v.n.n.n.c.j.f.n.b.b.b.b.b.N.M.' s ' x.P ' Z.' E D.A.1.y e e 1.H.d C.4.d ;.:.] [ [ [ | g.Z.A.C.=.C.C.3.G.K.4.;.~.G.4.K.W.G.V./.!.Q.Q.!.!.!.!.!.!.!.(.W.M.F.E.Q.W.Y.E.W.D.' P (.(.9XyXyXyXuX9X(.0X9X9X0XuX9XW.Z.Q Y E Y T T l Y T I L j i u : $ $ $ . $ $ $ % * * * : : : : : : u i i j I I Y Y I I j s i i p s s j j s s j I R R R E R R L L L a p < < & # # # X X # # # & < p s L R E ` ` ` ` E E Q L ' G./.fXxXcXvXvXvXcXcXxXvXvXcXxXlXlXcXcXxXcXxXxXxXxXxXxXxXxXlXlXxXlXjXlXlXlXlXlXxXlXlXlXlXfXlXlXlXlXlXlXlXjXH.pXfXfXdXsXdXpXgX8.8.L.5X5X6X5.6XL.5X5X^.8.X._.X.X.X.X.{.J.6X6X:.6X)./.L.H.^.).(.(.).T.^.^.h.L.^.4X;.-X=.;X4.L.~.R.=.H.4X;.K.W.V.D.T.W.W.W.W.W.W.Y.D.D.S.D.Z.D.9 Z.Y.Y.Y.Y.E.E.E.E.E.E.Y.Y.U.U.U.U.U.U.F.F.F.F.U.F.F.F.S.m.N.M.N.B.B.M.D.P f.m.b.b.b.M.Z.P ' m.b.b.n.n.x.f.x.b.n.n.v.n.n.n.v.v.n.l.l.l.l.l.l.j.",
"B B B v v N N B B 9 v B v v b 0 @ 8 Z B C B B C C C C C Z v 5 9 Z 0 0 Z B Z b v D D D C C A Z Z D D G ^ b 0 b 8 < b ^ S Z S Z G 9 9 ^ G G G H ( a.a.a.a.( a.a.a.a.a.a.a.a.( ( a.s.j.s.s.d.d.a.d.d.j.k.k.k.k.k.k.l.l.l.l.l.l.v.n.n.n.n.b.j.f.m.b.b.b.N.b.N.M.' p ' x.P ' Z.3.E G.A.3.y e e 1.H.U G.V.d ;.:.] [ [ [ | g.Z.A.H.=.H.C.3.G.G.4.;.~.G.C.K.W.G.V./.Q.Q.Q.Q.Q.Q.W.W.!.W.F.E.Q.!.!.!.!.!.Q.Q.D.' ' Q.(.uXyX9XuXyX(.9X9X9X(.9X(.D.w.w.~ T Y Y T Y I I I j s u : * $ $ $ $ $ $ % * * r u u : r r r r r u a j j I Y Y I I I j i u u u i p a p i i p s j L L R R R L L L m i 6 6 < < & & & # X . . . # & < 6 s L R E W ` E / ! Q Q Q P A.).fXxXvXvXxXcXcXcXcXxXxXxXxXcXxXxXxXxXxXxXxXxXxXxXxXsXlXlXlXlXlXlXxXlXlXlXlXlXlXlXlXlXlXlXkXfXjXlXjXH.pXfXfXfXdXfXsX6X5.5.;X5XiX6X5.6X;X6XwX5X8.X.X._.X.X.X.{.J.6X6X:.6X)./.L.H.^.).(.(.(.A.~.^.h.L.^.5X;.;X=.L.4.K.~.A.=.4.;X;.K.G.G.T.D.W.Q.W.W.W.W.W.T.D.D.D.D.Z.9 Z.Y.Y.Y.Y.Y.E.E.E.E.Y.Y.Y.U.F.U.U.U.F.F.U.F.F.F.F.M.F.B.B.M.m.B.B.B.B.D.P f.m.b.b.N.M.Z.L ' m.b.b.b.b.x.x.x.b.n.n.v.v.n.c.l.l.l.l.l.l.l.l.j.j.",
"B B N B B N B B B v v B B b b 0 @ 0 Z B B B B C C C C C S v 5 v Z 0 0 Z B V b v Z C C C D S D D A D G ^ b 0 P 0 < b ^ D S G D G 9 8 G G G H H ( a.a.( a.( ( a.( a.( H K a.a.( G H a.d.s.s.s._ _ d.j.k.k.k.k.k.l.l.l.l.k.l.l.c.n.n.b.b.b.d.) m.b.N.N.N.N.N.M.' p ' V.E f.Z.' R G.A.,.y e e 1.H.R G.C.M ;.:.] ] [ ] | g.V.A.4.=.H.C.3.G.G.4.;.~.G.4.K.W.A.V./.Q.Q.Q.W.W.W.W.W.F.S.!.!.!.(.!.!.(.(.(.(.(.(.Q.(.(.uXuXyXuXuX9XuXuX9XQ.T.' 3.>.>.,.T Y l Y I j s p 6 % $ . $ $ $ $ $ $ $ $ * : r u u r r r i p i s j j j I I I I I j s i u 6 6 6 6 6 6 : : 6 i s L L L R R R R R L m a i 7 6 < < < < & # . . . . # # & 6 p m R E E ` / / / / ` ' C.~.).lXcXcXcXvXxXxXxXlXxXcXxXlXxXxXxXxXxXxXlXxXxXlXwXwXwXfXlXlXlXlXlXlXlXlXfXlXlXfXlXlXlXlXfXfXfXjXH.pXfXdXaXiXaXaXgX8.5.;X5XiXgX8.7X;X6XwX5XJ.X.X._.X.X.X.{.;X6X6X:.5X)./.J.4.^.).(.).(././.^.h.L.5X5X:.-X=.L.4.L.~.A.;.8.;X;.K.~.Q.W.W.Q.Q.W.W.Q.Q.W.T.D.T.D.S.D.9 Z.T.Y.F.F.E.E.E.E.E.Y.Y.Y.U.U.U.S.F.F.U.F.c.b.S.F.U.F.B.B.k.c.M.N.N.B.D.P f.n.b.N.b.b.Z.n ' m.b.b.b.b.x.x.x.b.n.n.n.n.n.c.l.n.v.l.c.l.l.k.l.k.",
"B C B B v N B B B B B B V b V 0 @ 9 Z C B B v B C A C D D v 5 v Z 0 0 Z Z Z b v D D S S D A D D D A D ^ b 0 ^ 0 < b ^ S S S S G 9 8 ^ G G H H ( a.( ( ( ( ( a.a.a.a.s.a.a.a.a.a.( _ d.d.d.s._ _ d.j.k.k.k.k.j.l.l.l.l.j.k.c.c.c.n.n.n.b.d.) m.m.N.b.N.N.N.m.' p ' f.P f.Z.' R G.A.,.y e e :.H.R G.C.M ;.:.] [ [ ] =.V.Z.A.w.=.H.H.3.G.K.4.;.~.G.3.K.W.G.C./.Q.Q.Q.W.Q.Q.E.Q.(.(.!.!.!.(.(.!.(.(.(.9X9X9X(.(.(.uXyXuXyXyXuXyX9XW.V.' Y >.>.>.,.T T z I j i u : * $ . . $ $ $ $ $ $ $ % : r i i i i i i i j z z I I I I Y Y I I I j a u * * * * * * * * : u p s L L R R R R R L L m a p p p p p 7 6 & & # X O # # # & * u a m L E ! ` ' ' ' ' ' 3.V./.fXxXcXcXvXxXvXvXcXcXxXxXxXxXlXxXxXxXxXxXxXfXfXK.K.fXlXlXfXlXlXfXlXjXlXlXlXfXkXlXlXfXsXiXjXjXH.pXfXdXfXsXwXsXgX8.5.;XpXiXgX5.7X4X6XwXwX;XX._._.X.X.X.{.;X6X6X:.5X5X/.H.4.C./.(.).(././.^.H.L.5X5X4.-X| L.4.L.~.A.=.4.;X;.K.~.Q.Q.Q.Q.Q.Q.Q.Q.W.W.D.Z.D.Z.D.D.9 Z.T.Y.F.Y.E.E.E.Y.E.Y.Y.Y.U.U.Y.Y.U.F.B.B.B.B.m.b.B.B.B.m.z.c.m.N.B.B.D.P f.m.M.N.l.M.Z.m ' m.b.b.b.b.Z.V.x.b.n.n.n.n.n.c.c.v.n.n.v.k.l.l.l.k.",
"B B B B B B B B B B B B C b b 0 @ 9 S C B v B v B D A C S v 5 v Z 8 8 Z Z Z b v Z D D D D D C D G A D ^ b 0 P 0 < b G G S Z S ^ v 9 ^ G H H ( ( a._ _ _ ( ( ( a.a.a.a.a._ a.d.d.a.a.d.j.s.s.d._ a.j.k.j.k.k.k.k.l.k.k.k.c.c.n.c.n.n.n.b.f.) m.b.M.b.M.N.N.S.' s ' x.R V.Z.' P D.G.4.y e e :.H.R G.C.d ;.:.] [ [ ] d g.Z.A.H.=.C.H.3.G.G.1.;.~.G.3.K.T.G.C./.Q.W.W.W.Q.!.!.!.!.!.Q.!.(.(.(.(.(.(.(.9X9X9X9XyXyX(.9XuXuXyX9XQ.D.P ' ` ` >.3.>.,.T z j s i : % $ $ $ . $ $ * * * * $ $ $ p i s z I z z z z I Y Y E E Y I I I I I I j s u * * * * * * * * * 6 i s L L R E R E R R L L L L m m m m s a 6 6 < * & # X # # # & < 6 i L E / ` ' ' ' ' ' ' ' A.iXxXcXcXxXxXcXxXxXxXxXxXxXlXxXxXxXxXxXxXxXkXfXR.fXlXlXlXlXxXlXlXlXjXfXlXfXfXaXsXlXiXfXlXjXH.pXfXfXfXfXfXsXgX8.5.;XpXaXhX5.7X6X5XwXwX-XX.X._._.X.X.8.J.6X6X:.5X)./.H.8.C.T.).9X)./.K.^.H.;X5X5X4.;X=.L.1.H.~.K.=.4.L.;.K./.Q.Q.Q.Q.Q.Q.Q.Q.E.W.D.D.D.D.D.D.9 Z.T.D.Y.Y.E.E.Y.E.Y.E.Y.U.U.U.U.U.U.F.F.B.F.m.M.B.F.B.B.c.j.d.k.M.N.B.D.Q ' n.b.n.v.b.Z.m ' m.b.b.b.b.Z.V.x.b.n.n.n.n.n.n.v.l.n.l.l.l.l.l.l.j.",
"B C C B N B B B C C B B C b b 0 @ 9 S B B v B c B D A A Z v 5 v ^ 8 8 C Z ^ b v D D D D Z C D D G D D ^ b 0 P b < b S Z Z Z C Z 8 8 ^ G G G H ( ( ( _ _ ( ( a.a.a.a.a._ a.a.s.s.a.s.d.s.d.d.a._ _ d.k.l.l.l.c.l.c.c.c.l.l.v.n.n.n.n.n.b.d.) m.b.N.N.N.N.N.S.' p ' f.L ' Z.g./ G.A.3.y e e :.H.R A.V.d ;.:.] ] [ ] d 3.Z.A.H.=.C.C.V.G.G.1.;.~.A.2.K.W.A.V.~.Q.!.Q.!.Q.W.!.!.(.(.(.Q.(.!.!.(.(.(.(.9X9X9XyXyXyX(.yXyXyXQ.Z.D.9.` ` ! ! >.>.,.T z d r u * % % % $ $ $ $ : 6 u u 6 : : : i p s z Y Y I I Y Y T Y Y I I I I I Y Y I L j i : : : : : : 6 : : u i s L R E E E E E E R R R R R R R R R m n a p u 6 < * & # # # # & < i L P E / / ' ' ' ' ' 3.V.).lXcXcXxXxXxXxXxXxXxXxXxXxXxXxXcXlXxXlXfXfXcXxXlXlXlXlXlXlXlXfXfXlXlXkXfXaXaXsXsXfXfXjXH.sXaXaXdXdXdXsXgX8.5.;XwXaXgX5.7X6X6XiXwX-XX.X._.X.X.X.-.L.4X6X:.4X/.A.H.:.L.~.(.).).~.A.^.h.;X5X5X4.;X=.L.1.K.~.K.=.:.L.1.K.W.S.W.Q.Q.Q.Q.Q.W.E.E.D.D.D.Z.D.D.9 Z.T.S.S.U.Y.Y.Y.E.Y.U.E.E.U.Y.E.U.U.F.U.U.U.U.F.B.F.F.B.B.d.d.c.N.N.B.D.P f.m.m.b.b.N.Z.m ' m.b.N.N.b.Z.x.x.b.b.b.n.v.n.n.v.v.l.l.l.l.v.v.l.k.",
"C C B C C B N N B B B B Z b b 0 @ 9 G Z B B C x c A D A Z v 5 9 V 5 8 C Z ^ b v D A C C B C C D D A D ( b 8 P 0 & b ^ G Z Z Z ^ b 8 G G G G H H J ( a.( ( a.a.a.a.a.s.s.a.a.a.d.s.s.s.s.s.s.s.a.( ( j.k.k.l.c.l.c.n.n.c.k.l.n.n.b.n.n.c.d.) m.N.b.b.b.N.N.S.' a ' f.L ' Z.g./ D.A.3.d e e :.H.R A.C.d =.:.] [ [ ] | g.x.Z.H.;.H.H.C.G.K.4.;.R.A.2.K.W.G.A./.Q.Q.Q.Q.!.Q.Q.Q.!.(.(.Q.!.(.!.(.(.(.(.(.9X9XyXyXyXyXyX(.G.Q 5 ' ' ` ` ! ! ~ ,.T z s u r % % % % % $ $ * : u i i i i u u u i i i s z I I I Y Y Y Y I I I I L I Y Y Y I j j p p p p p p i u u p s L L R E E E E E E E E E E E E E E E R L L m s a i u 6 & # # # X & * 7 h P E / / ` ` / ` ' a P G.iXlXxXxXxXxXxXxXxXlXkXlXxXxXlXxXlXkXsXvXlXlXfXlXfXsXkXlXlXaXiXfXsXsXfXfXfXfXfXfXfXzXH.pXsXsXfXdXaXaXpX8.8.;XpXaXhX5.7X4X5XiXwX-XX.X.X.X.X.X.-.;X5X6X=.4X5XG.H.h.K.~.(.(.(.~.~.^.H.;X^.^.4.;X=.L.A.~.~.^.=.4.;X4.K.~.W.Q.Q.Q.W.W.W.T.D.D.Z.Z.Z.D.Z.W.9 Z.D.S.S.Y.Y.E.E.Y.E.E.E.Y.Y.Y.U.U.U.U.F.F.U.F.U.F.B.S.N.M.m.c.m.B.N.B.D.P f.m.M.N.b.M.Z.m ' Z.b.b.N.b.Z.V.c.b.n.b.n.n.n.v.v.v.v.l.l.l.v.v.l.k.",
"C B N B C C B B N B B B Z b b 0 @ 0 G Z B B B B B A A C Z b 8 v Z 5 8 C B Z b v D D C C B B C C D D D ^ b 0 P 8 & b G Z Z Z Z S 9 8 S G G G ^ ( ( ( ( ( ( ( a.( K s.s.s.( H s.d.s.s.d.j.j.d.d.d._ d.j.l.l.k.k.j.c.c.c.l.l.n.l.c.c.n.n.c.d.) n.N.N.N.b.b.b.m.' s ' x.a / Z.' P Z.G.2.y e e ;.C.R A.C.d =.;.] ] ] ] d g.m.A.C.| C.C.g.G.A.4.;.~.A.,.K.W.G.V.~.W.D.!.W.!.!.!.!.!.!.!.W.!.(.(.!.(.(.(.9X9X9X9X9X9X9XQ.Z.0 O O ! ' ! ! ! ! T T Y j p * % % % % % % * * : u i a i i u u u u u u u i s j I I I Y Y Y I I I I I I I Y Y I I L j j j j j j s s a s j L L R E E E E E E E W W W E E E E E R L L R L m L s i 6 & & # . X & ; 6 L P E ` ` ` ` ` ' 6 @ ; E ~.sXlXxXxXxXxXlXaXxXkXfXlXlXlXlXlXlXfXxXlXlXfXfXfXkXlXfXkXlXaXwXsXiXsXiXsXfXsXjXhXH.wXiXwXdXdXdXfXpX8.8.;XwXpXgX5.7X4X5XiXwXJ.X.X. .{.-. .-.;X^.6X=.5X/.K.K.4.^./.(.0X(.).K.5XH.L.).^.:.J.=.K./.~.~.K.=.;.J.1.K./.W.Q.Q.Q.Q.W.W.Y.T.T.Z.Z.m.x.m.D.9 x.Z.D.m.Z.Y.Y.Y.Y.E.F.U.E.b.F.U.U.U.m.b.F.U.U.U.B.F.B.B.S.c.d.n.N.B.S.D.P f.m.b.n.k.k.Z.L ' m.b.b.b.b.Z.V.n.n.b.n.n.n.n.v.l.l.n.j.d.k.l.l.l.k.",
"C C C B B B B B B B B B V b b 0 @ 9 Z C B B c v C A A Z Z b 8 9 V 5 8 Z C Z v 3 Z D C C Z G D D G D D ( b 0 V 8 & b G G S Z B Z 9 3 Z D S S G G H ( ( ( ( ( a.a.a.s.s.s.a.a.a.a.s.s.s.d.d.d.a.d.a.a.s.k.k.k.j.k.c.c.c.c.n.n.n.c.c.n.n.b.j._ b.N.N.N.N.N.B.M.' p ' f.s R D.g./ D.G.3.d | e ;.C.R A.A.d =.=.] [ [ ] | V.Z.A.H.=.C.C.g.A.A.4.;.K.A.W A.T.Z.3.~.Q.Q.Q.Q.Q.Q.!.!.!.!.!.!.(.(.(.!.(.(.(.(.(.9X9X9X(.W.V.! ! ! ! ! ! ! ! ! z j u * $ $ $ $ % $ $ % $ : : : i i j j i 6 : : : * * : 6 i a j j L I E E E E E E E Y Y I I I I I I I I j j j j j j j j I R Y E W W W W ~ ` ` ~ ~ E L j s i u i s L L j L L s p u 7 * & # # X X * 6 p L E ` ` ` ` ` ` 3.3.V.A.P.wXfXlXlXxXfXxXlXkXfXfXwXlXfXfXlXlXlXaXaXaXfXkXfXfXlXlXfXsXaXfXsXdXiXaXfXfX4X4.^.iXdXaXfXaXsXgX8.-.;XwXaXgX5.7X5X5XiXwX-X . .-X4X7X-.8.;X4XgX=.^./.K.L.4.~.~.(.uX(./.A.^.J.L.).^.4.;X=.K./.~.~.~.=.4.L.;.K.~.Q.Q.Q.Q.Q.Q.Y.W.Y.D.Z.Z.Z.x.x.G.9 x.D.Z.x.m.x.D.Y.E.E.U.Y.E.Y.U.U.U.U.U.F.F.U.U.F.B.B.B.B.c.c.c.b.m.N.S.D.L ' m.n.b.N.N.Z.L ' m.N.b.b.m.Z.x.c.n.b.b.b.b.n.v.v.l.l.j.j.k.l.j.j.j.",
"C C B B B B C C B B C B C b b 0 @ 0 Z Z C B B B B C A C Z b 9 v V 5 8 C B Z v 3 C C C C C S S D G G G ^ b 0 P b < V ^ D Z Z Z S 9 b ) G S Z B G ( ( ( a.a.d.a.a.s.s.s.s.s.a.a.a.s.s.s.s.a.J ( d.d.j.d.j.k.j.d.z.c.l.k.l.n.n.n.n.b.b.n.n.b.m.b.b.b.b.b.N.N.M.' p ' f.R ' D.g.P D.G.2.d | w ;.C.U A.V.d =.| ] ] [ [ =.V.D.G.H.=.C.C.C.G.G.g.;.~.A.2.G.G.G.G.~.!.Q.Q.!.!.Q.!.!.!.!.Q.!.(.(.(.(.(.(.(.(.(.9X9XQ.x.9.` ! ! ! ! ! ! ! Y z s u : $ $ $ $ $ $ $ $ $ * : : u i a j j i 6 6 6 6 6 6 6 6 6 i j L L I E E Y E E E W E I I I I I I I I I j j j I I I I I I I Y E W ~ ~ ~ ~ ~ ~ W Y j p u u : & * 6 a j L L L L s s s p 6 * # . . . # & u s E W ` ` ` 3.3.3.3.3.3.V.~.wXlXxXlXlXlXfXsXaXaXkXfXkXlXfXkXfX).iXfXkXfXlXlXkXkXsXsXsXdXfXiXfXfXpXgXr.wXsXdXdXdXaXfXgX8.-.-X6XpXgX5.gX5X5XiX5X;X .-.6XwX6X5.8.L.4X6X=.4XwX).^.4.R.W.(.yXQ.~.P.^.H.L.^.4X1.;X=.K.~.~.~.^.=.4.4X;.A.~.W.Q.Q.Q.Q.Q.W.S.E.E.D.Z.m.m.S.W.9 Z.D.Z.x.Z.D.F.Y.Y.E.Y.Y.E.Y.E.E.U.U.U.F.U.B.F.B.B.b.b.m.d.c.m.M.m.m.M.Z.b ' Z.m.N.N.M.Z.R ' m.b.b.b.b.m.n.c.n.v.n.v.n.n.n.n.l.d.s.d.s.j.k.j.j.",
"B B B B C C C C B B B B C b b b @ 9 Z B B B B c v C A C D V 0 v V 5 8 C C S v 9 C C C C A A D D G G G ^ b 0 P 0 < b G S B B G G 8 9 ) G D G G ( H H ( ( a.a.a.a.a.a.s.s.s.s.s.s.s.s.s.s.a.a.d.d.j.j.j.k.k.d.j.z.c.l.k.k.c.l.v.n.n.b.b.n.n.b.b.b.b.b.b.b.b.M.' s ' f.R 3.Z.g./ D.A.,.d =.w ;.C.R A.A.d =.| e e ] ] =.A.F.G.C.=.H.A.C.G.G.4.;.R.G.3.K.G.G.Z.(.Q.Q.W.W.!.!.!.!.!.!.Q.!.!.(.(.(.(.(.(.(.(.(.!.x.f ! ! ! ! ! ! ! Y z j i : * $ $ . $ $ $ $ $ $ * : : r u i h j a i i i i i p i i u 7 i L L L E E E E E W W ~ ~ W E E I R R I I I j j j I I I I I I Y Y W ~ 2.2.2.2.~ ~ W I p u 6 6 * $ $ * u s L R R R L L L s p u * # # . . . & 6 s R E ` 3.3.3.3.3.3.3.3.w.' ~.fXlXlXlXlXkXfXfXfXlXkXlXkXkXsXaXiXfXkXfXlXfXfXfXdXfXfXiXsXsXdXsXsXhXH.pXsXdXaXfXaXsXgX8.-.J.6XpXgX5.gX5X5XiXwX-X .5.5XwX6X=.8.4X4X6X=.5XwX).^.4.K.A.(.(.(.Q.~.^.H.L.^.4X4.;X=.K./.~.~.^.=.4.^.;.A.W.W.Q.Q.Q.Q.Q.F.Y.W.E.Y.D.x.m.n.T.b V.G.Z.Z.G.D.S.F.Y.Y.F.F.Y.Y.U.E.U.U.F.U.Y.U.F.B.B.B.N.c.c.n.m.M.N.m.B.Z.0 ' Z.m.N.b.N.Z.R f.m.b.b.b.b.b.b.n.v.v.v.n.n.n.n.n.l.k.j.k.k.l.l.k.k.",
"C C C C C C C C C C C B V b V 0 @ 9 S Z C C C v C D D D Z b 0 b Z 5 8 B B S 9 4 Z C C C C C D D G G G ^ b 0 P 0 < V G D Z Z Z S 9 9 ) G G G ( ( H G H ( ( _ a.a.s.s.s.a.a.s.s.s.s.d.s.s.d.a.s.s.s.d.k.k.j.j._ ( c.k.k.j.c.n.n.v.n.b.b.b.b.b.b.b.N.b.N.N.N.B.' p ' f.L ' D.f.Q D.A.2.d | w ;.C.R A.A.d =.| e y d e =.A.S.G.C.=.H.A.C.G.A.4.;.K.G.V.W.G.D.D.E.W.Q.W.E.Q.!.!.!.!.Q.Q.!.!.(.(.(.(.(.(.(.(.Q.m.P Q ! ! ! ! ! Y L h i : : % $ $ $ $ $ $ $ $ $ * : u u u i i j j a a p a s L L L L s s p L L L E E E W W W ~ ~ ~ W W E Y R R I I I j j j j j j j j L I Y W ~ ` 2.2.2.2.~ W R s p p p u : : 6 u a L R E E R R R L L s u * & # . . . X * u L E ` 3.3.3.2.3.3.3.` 3.V./.sXlXfXkXlXfXsXfXkXkXlXkXkX0XsXfXkXkXlXfXfXfXfXaXfXfXaXfXaXdXaXsXhXJ.pXfXfXiXfXaXaXgX8.8.J.6XpXgX5.gX5X5XiXwX-X-.8.5XwX5X:.8.L.4X6X=.5XwX).5Xg.K.W.(.(.(.(.G.^.H.L.R.^.1.;X=.R.~.W.~.~.=.4.L.;.K.Q.Q.Q.Q.Q.Q.Q.W.W.W.E.F.D.m.x.n.W.b x.D.Z.Z.D.F.Y.S.S.F.F.Y.E.E.E.U.U.U.U.U.U.U.U.U.B.b.m.m.n.m.m.N.B.N.S.Z.0 ' Z.M.b.N.N.Z.L ' m.b.b.b.b.b.n.n.v.v.b.n.n.n.n.l.l.j.j.k.j.l.l.k.k.",
"B C C C C C C B C B B B V b b 0 @ 9 S C C C C C C D C C Z b 8 v Z 5 8 Z Z S v 9 C C C A C C S D G G H ^ b 0 ^ b < b G D Z C Z S 9 v ) G D G ( ( ( H G H ( ( ( a.s.s.a.s.a.s.d.d.s.a.d.s._ a.a.s.d.d.d.d._ j.d._ k.k.k.l.c.l.n.l.c.b.b.b.b.b.b.N.N.b.N.N.N.B.' p ' f.L ' D.g.P A.A.2.d =.w ;.C.R A.A.d | | d ;.4.;.;.A.F.T.C.;.K.A.V.G.G.4.;.~.Y.Z.T.E.Y.D.D.W.W.W.W.Q.Q.Q.!.!.!.Q.!.!.(.(.(.(.(.(.(.Q.x.P P Q ! ! ! ! L h i 7 : $ $ . . $ $ $ $ $ $ $ * : u i u i i i j j a a a s L L E E L L s s L L L E E E W E E Y I R I I I R I I I I I j j s s s s s s s s j I Y W ~ 2.2.2.` W E I L L L s i u u u p s L R E E E E R L L p 6 * & # # . . . # * s E ` ` ` ` 3.` ` ` ` ` V.G.aXfXkXlXlXkXfXkXlXkXkXkXfXfXfXaXfXkXfXkXfXfXdXdXfXfXfXaXdXiXsXgXH.5XaXdXaXfXiXsXgX8.8.J.4X^.gX5.gX5X5XiXwX;X-.8.5XwX5X:.5.;X5XL.4.).).).pX4.K.(.(.(.(.(.~.^.H.L.~.^.1.;X=.K.W.W.~.^.=.4.L.;.G.Q.W.Q.Q.Q.Q.Q.Q.W.E.E.D.D.x.m.S.T.9 V.D.Z.Z.S.E.F.S.S.S.M.F.U.U.E.E.E.U.U.U.F.U.F.m.m.b.m.m.M.m.b.c.b.b.M.Z.0 ' Z.c.b.b.b.Z.L ' m.b.b.b.b.n.n.n.n.v.n.n.n.n.n.k.j.k.k.k.j.j.k.j.j.",
"B C B C B B B C C B B B C b V 0 @ 0 S C A C C C C D C B G Z b b Z 5 5 Z C Z 9 3 S D D C C D D G G H G ^ b 0 ^ b < V G S C B C Z 8 9 ^ ^ D D G ( G D G ( ( ( H ( s.s.a.s.a.a.s.d.d.( _ d.a.d.a.s.d.d.d.d.d.j.d._ k.k.l.c.c.n.n.n.b.n.b.b.b.b.b.b.b.b.b.N.N.m.' p ' f.L ' V.' Q D.A.U d =.w ;.C.U A.V.d d | d 3.G.g.U A.Y.W.A.;.K.A.A.W.G.4.U G.F.D.E.F.E.E.E.W.W.W.Q.Q.Q.Q.Q.Q.!.Q.!.!.!.(.(.(.(.!.W.) 5 Q Q Q ! ! ! L h i 6 ; $ . . . . # & * * * * * : 6 u i i i i i j j a a s L L R L L L L s s L L L I E E R I L s s p p s j I Y Y I I L j j j a a i i i i u i s j I W 2.2.2.` ~ Y I I R R j a i u u i s j L R E E W I R L a u 6 6 * * & # . . . * s E W ` ' ` ` ` ` ` ` ` 7 ' ).fXsXkXsXsXfXfXlXkXfXfXfXiXfXfXkXkXkXfXfXfXfXaXdXaX0XaXiXiXgXH.pXiXaXiXfXdXaXpX8.8.h.;X5XgX5.gX5X5XiXwX;X-.8.5XwX5X:.8.4X4XH.^.)././.5X4.K.(.(.(.W./.W.).J.L.^.^.;.;X=.^./.~./.^.;.4.L.;.G.W.Q.Q.Q.Q.W.Q.Q.W.W.E.F.S.Z.m.Z.T.b Z.G.D.Z.S.Y.S.Z.m.m.S.F.M.U.E.U.U.U.U.B.m.B.c.z.c.M.m.M.M.m.c.m.m.c.z.Z.b ' Z.m.b.N.N.Z.R ' m.N.N.b.b.b.b.l.n.n.n.n.n.n.n.v.l.l.l.l.l.l.l.j.j.",
"C B B C C C B C C B B B v b b 0 @ 0 G A A D C C D D A C Z B b b Z 5 5 Z C Z 9 4 C C D C C C A D G G G ^ b 0 ^ b < V G D Z C C S 8 8 ^ G D G G G S v v B S H ( a.s.s.s.s.a.K ( ( H _ _ G G ( a.d.a._ ( ( ( ^ _ _ c.c.c.c.c.c.n.n.b.b.b.b.b.b.N.b.b.N.b.b.b.n.' s ' g.L ' Z.f.Q A.A.;.d | w ;.C.W A.V.M d | =.V.G.C.U G.Y.W.A.;.K.C.A.W.G.4.;.~.E.Y.F.E.E.E.D.W.W.W.W.Q.Q.Q.Q.Q.!.!.!.!.!.!.(.!.W.x.9.Q Q E Q ! ! ! E h 7 ; $ $ $ . . $ $ & * * : : 6 6 u u i i i u i i a j j j j L R E I L L s s j L L E R L L j a u 6 : 6 i s L R Y Y Y I L j j j j j a i i u 6 : 6 i s I ~ 2.3.2.~ E Y I s s a i u : : u p j L R E E E E R L s p u 7 6 6 * & # # . . # * s I ! ! ! ! ~ ` ` ` ` 9.G.R.iXfXfXkXdXfXkXkXkXfXfX/.dXkXkXkXkXfXfXfXdXaXfXdXaXaXiXaX5XH.5XiXdXiXdXiXaXpX8.J.J.J.5XgX5.gX5X5XiXwXL.-.8.5XiX5X:.5.4X4XH.).).).).5X4.^.(.(.(.(.~.G.^.H.L.^.^.;.3X=.^.~.~./.^.=.4.L.;.G.W.Q.Q.Q.Q.Q.Q.W.W.W.E.F.D.D.m.S.W.0 x.Z.Z.m.Z.m.S.m.) ) d.M.S.B.F.U.U.U.F.b.b.m.m.c.d.d.( j.n.z.z.a.z.c._ Z.P ' m.b.b.N.B.Z.P f.m.b.b.b.b.b.b.b.n.v.l.n.b.v.v.l.l.l.l.l.c.l.l.l.j.",
"B C C C C C C C B B B B v b b b & 0 Z A C C D D D D D A Z C b b ^ 8 8 Z C G 9 9 G A C D A C D D G G G ^ b 0 ^ b < V G Z Z C B S 9 9 ^ G G G G D B 4 3 4 Z G H a.s.s.s.s.s.a.a.a.( a.H C ) _ ( _ ( _ j.d.d.d.d.d.d.k.l.l.l.l.c.c.n.b.b.n.b.b.b.N.N.b.M.M.N.m.' s ' g.s ` A.f.Q Z.V.U d | w ;.C.R A.A.;.d e =.C.A.4.U A.F.T.A.U K.3.3.T.G.4.;.T.E.W.E.E.D.F.W.W.W.W.W.Q.W.!.Q.!.!.!.!.!.Q.!.W.x.Q P Q Q Q E E Q Y L h u ; X X X $ $ % ; : 6 6 u 6 6 u u i p p i i i i a j j a a j L E E L L a i s s L L R R L L s p u 6 u i L I Y E E E Y Y I I I Y Y I I j j s u u : u i j Y ~ ` ` ~ W R j p u u u 6 : : u a j L R E E W E E R s p p u u 7 6 * & * & . . . X : i L ! ~ ! ~ ! ~ ` ` ' V.G.).iXfXkXfXkXfXfXkXkXkXkXkXkXkXkXfXfXfXfXfXaXdXiXiXiX5XpXH.5XiX0XiXdXiXiXpX8.-XJ.J.4X6X5.6X4X5XwXwX;X-.8.5XiX5X:.5.6X4XH./.uXuXwX^.4.~.(.(.(.(.(.T.~.H.J.^.K.;.4X:.^.~.Q.~.^.=.4.L.1.K.Q.Q.Q.Q.E.W.Q.Q.W.E.E.D.D.Z.Z.Z.W.v x.D.S.S.S.f.) ^ Z f.x.m.M.F.Y.U.U.U.U.F.B.m.b.c._ G j.Z.f.d.j.z.m.c.j.Z.P ' m.b.n.N.N.Z.P ' b.b.b.b.b.n.n.n.v.c.n.n.n.n.v.v.l.l.k.j.l.j.j.l.j.",
"C C B C C B C C C B B B v v b 0 @ 9 S C C C C A A D D D Z C b b ^ 0 8 Z B G v x D C C C C D D D G G G ^ b 0 ^ b < V G S Z S Z Z 8 8 ^ G G G G G S C Z Z G ( ( a.a.s.s.s.a.s.d.d.d.a._ ( ( ( D G ( a.j.k.k.j.j.j.k.k.c.c.n.n.n.b.b.b.b.b.b.b.b.N.b.N.N.b.b.m.' s ' ' a / D.f.Q Z.V.U d | w ;.g.R A.Z.;.d e =.C.A.g.U A.Y.W.C.M K.A.A.W.G.4.W T.Y.Y.D.D.D.W.E.D.W.E.W.W.W.W.!.Q.!.!.Q.!.W.x.f @ 7 E Q Q Q Q Q P h h 6 $ X . . X $ : : 7 p p s a p u p p p a s s i i j j j j j j L L E E P L i u p s L L L L L s s p i p s L E W W W E E Y Y Y Y Y W W W W Y Y I j s i i i s I Y W ~ ~ W I s u 6 : 6 u 6 u i s L R R E E E W E R L s s s p p u u 6 6 < & # . . . # : j I E ! ~ ~ ~ ~ ` ' ' V./.fXfXfXkXfXkXkXfXkXkXkXkXkXkXkXkXfXdXaXiXaXaXiXiXiX5XH.5X).0XiXdXiXaXpX8.-XJ.J.5X6X5.6X5X5XwXwX;X-.J.^.wX^.:.5.6X4XC./.).)./.5X4.~.(.(.(.(.(.~.^.h.J.K.K.;.;X:.^./.~.(.~.;.:.L.1.G.W.Q.Q.Q.Q.Q.W.W.W.W.E.S.Z.Z.m.x.D.9 Z.D.Z.m.m.n.x.x.f.) j.n.S.F.U.Y.U.U.F.F.U.U.F.B.b.d.( z.f._ z.c.b.M.m.Z.P ^ x.b.n.N.N.S.P f.m.b.b.b.b.b.b.n.n.n.n.n.n.n.v.l.l.l.c.l.l.k.k.l.k.",
"C C B C C C C B C B B B b b b 0 @ 0 S A C A C A D D D D Z v 9 b ^ 8 8 Z S S 9 4 Z A C C S D D D D G G G b 0 ^ 9 , b G S Z Z Z S 9 8 ^ D G G G ^ G D D G H H H _ s.s.s.s.s.d.d.s.a.a.( ( ( ( G ^ ( a.a.j.j.d.d.k.l.c.n.n.n.n.b.n.b.b.b.b.b.b.N.N.N.N.N.N.N.m.' p E ' s ' Z.f.P Z.V.U d | w M g.R A.A.U d d =.C.A.C.;.A.F.T.C.M K.W.W.W.G.g.,.W.E.E.Y.Y.E.W.E.D.W.W.Q.W.W.W.W.!.!.!.Q.F.D.9.` Q Q Q E Q Q L L h 7 ; $ . . . X X % : 6 i s s L L s a s s s L L L j j j I I I L L L E E E E L p i s s L L L L L j j s j L R E W W ~ W W E Y Y Y Y Y W W W W W W W Y Y I j j j j j I Y W E s i : : : u p p s s j L R R E E E E E E R L L L L m s s p p u 6 * & # . . . : h I E E ~ ~ ! ! ` ' ' ' ~.aXfXkXkXkXkXkXkXkXkXkXkXfXkXfXdXdXaXiXiX).iXiXiX6Xw.4X).uXiXiXiXwXpX8.-XJ.H.5X6X5.6X5X5XiXwX;X-.J.5XwX^.:.5.6X4XC.).).uX/.5X4.~.(.(.(.(.(.Q.~.h.L.K.^.1.4X:.^.~.Q.~.~.;.4.L.4.G.Q.Q.Q.Q.W.Q.W.W.W.E.T.D.Z.m.m.x.D.0 V.S.S.S.Z.z.x.m.m.n.m.m.S.b.F.E.U.U.U.U.U.F.F.M.n.n.c.x.d.d.z.c.m.m.b.x.P ' z.b.b.N.N.m.^ f.m.b.b.b.b.b.b.n.n.v.n.b.n.n.n.n.l.c.l.l.l.k.j.j.j.",
"C C C C C C C B B B B B b v b 0 @ 9 Z C C A C C D D D D Z B 9 b Z 8 8 Z C G v 4 C C C C C D D S D G G ^ V 0 ^ 0 < V G Z Z Z Z S 9 8 ^ G G G G G G H H ( ( ( ( _ a.a.a.a.s.s.d.s.a.a._ _ d.( S G _ d.j.k.k.d.d.z.l.n.n.n.n.b.n.n.n.b.b.b.b.N.b.N.N.b.n.N.N.m.' p W ' s ' Z.f.Q Z.V.M d | w U g.E A.V.U d d =.C.G.C.U A.F.T.C.U K.W.E.E.G.C.,.W.E.F.E.W.W.W.W.W.W.W.W.W.W.Q.Q.Q.!.W.D.' ' ! Q Q Q Q Y Q L h h a ; X . . . X X $ ; : 6 i p L L R L s L L L L R R I I Y E E E E E E E E E E I j j j j j L L L j j L j L R E W W W W W W W ~ W T Y Y W W W W W ! ! ~ W W W E Y I j j j I I i 6 * : u p j L I R R R R R I E E E E E E I R R R R L L L m s u 6 * & # . . X ; h Q Q ! ~ ! ! ` ' ' P ' ~.aXfXkXkXfXfXkXkXkXkXkXfXfXfXfXdXdXaXaXiXiXiXiXpXH.5XwXiXiXaXuXiXeX8.-XJ.J.5XgX5.7X^.5XiXiX;X-.h.5XwX^.:.5.6X4X4.).).).(.5X3.~.(.(.(.(.(.Z.R.H.L.^.).4.4X:.R.~.Q.~.~.M :.L.g.G.W.Y.W.Q.Q.Q.W.W.W.E.E.F.Z.m.m.m.D.9 Z.D.S.S.S.Z.x.m.S.S.F.F.F.U.U.U.U.U.U.F.F.F.F.M.c.c.m.j.d.d.c.b.m.N.M.m.P f.n.b.N.N.N.m.f.z.b.b.b.b.b.b.b.v.b.n.l.c.n.c.c.v.l.l.l.l.l.l.l.j.j.",
"C C C C C B B B B B B B v v b 0 @ 8 Z C D C C C C C D D Z b 9 b Z 5 8 Z C G 9 3 Z D A C S D D S D G H ^ b 0 ^ b < b ^ Z Z S Z S 9 8 ^ G G ( ( G G ( _ _ ( a.a.a.a.a.s.s.s.s.s.a._ _ ( ^ _ ( S G ( ( a.d.k.j.k.c.c.n.b.b.n.n.n.n.b.b.b.b.b.b.N.b.N.N.N.N.c.d.' p / ' s ' Z.' P Z.V.U d | w ;.C.E G.V.U d d =.C.G.C.U G.F.T.V.U G.W.E.E.G.C.2.W.E.F.E.E.W.W.W.W.W.E.W.W.W.W.Q.Q.!.F.' ' ! ! ! ! ! Y P L h h i 7 X .   . $ ; & : : : : 6 i s L R L L L L L R E Y E E W ! W W ~ E E E E E E I L j j j j j L L j j j j L L Y E E E W W W ~ ,.~ W T T W W W ! ~ ~ ~ ~ ~ ~ ~ ! W Y j j j I s u : * 6 p j I R E E Y Y Y Y Y Y E E E E E E E E R R R R R L m a u 6 * * & X . X ; h P E E E E ~ / / / ' V.V.iXfXkXkXfXfXkXkXkXfXfXfXfXfXdXaXdXiXiXiXiXaXsXH.5X0XaXiXiXuXiXwX8.-XJ.H.wXpX5.7X^.5XiXwX;X-.8.^.0X).:.5.6X4X4.).(.(.).5Xg.~.(.(.(.(.(.T.G.H.L.^.^.4.3X=.R.~.Q.~.~.d :.L.C.G.W.Y.E.W.Q.W.W.W.W.E.Y.S.Z.m.x.m.D.9 Z.D.Z.Z.F.S.S.S.F.F.F.F.Y.U.Y.B.F.F.F.F.F.B.B.m.j.S.m.z._ _ z.n.n.b.m.Z./ ' n.b.b.N.b.m.z.c.b.b.b.b.b.b.b.b.n.n.l.c.l.d.k.c.l.k.l.l.l.l.l.l.l.",
"B B C C C C C B B C B B v v b 0 @ 8 Z C D D D A A A D D S C 9 b P 8 8 Z Z S 9 4 Z D D A D D D S D G H ) b 0 ^ b < b G B B Z S S 9 2 ^ ^ G H H G H ( ( ( ( a.a.a.a.a.s.s.a.d.d.d.a._ ( ( _ ( D G d.j.j.j.j.d.d.d.v.v.c.v.k.k.n.b.b.b.b.b.b.N.N.N.N.N.N.N.B.z.P p / ' s ' Z.f.P Z.V.;.d | w ;.C.E A.V.W d d ;.A.G.C.U G.F.T.C.U G.W.W.W.G.C.2.W.E.E.E.E.W.W.W.E.E.W.W.W.W.W.Q.Q.W.) P Q ! ! ! E E P j a 7 : ; $ . . . . : a a a a u 6 * u s I I I R I R Y E W W E E E Y I R E E E E E Y I I z z j j I I z I I I I I I I Y E E W W ~ ~ ! W T T ! ! T T T W ~ ~ ! ! ! ~ ~ ~ ! ! E Y I I i 6 6 6 p L E E E E Y Y E E E E E E E E E E E E E E E E E E R L L s u 6 * * & X . . @ 7 L E E ! ` ` E E ` ` 3.G.).fXkXkXfXfXkXfXkXfXfXfXdXdXdXdXuXiXuXiXaXpXH.^.0XaXiXiXuXiXpX8.-XL.H.pXpX5.6X5XiXiXwX;X-.8.^.iX^.:.:.5X5X4.).).(.).5Xg./.(.(.(.(.(.Q.~.H.L.^.^.4.4X=.L.~.Q.~.~.d 1.K.T.T.E.E.W.W.Q.W.E.E.E.E.F.z.m.Z.Z.m.D.8 x.D.m.S.F.D.S.Y.S.F.F.U.U.U.U.U.U.F.U.U.U.F.B.m.m.m.m.c.d.j.c.c.b.m.M.x.Q ) j.b.b.N.k.c.z.c.b.b.b.b.b.b.b.n.v.n.n.n.n.k.l.c.l.l.l.l.l.l.l.l.k.",
"B B C C C C C C C C C B v 9 b 0 , 0 Z A C A A A C C C C Z Z b b ^ 8 8 Z Z Z 9 4 Z D A S D D D D D G H ) b 0 ^ b < b Z Z Z C Z S 9 8 ^ S D G G H ( _ ( ( ( a.a.a.s.s.s.a.s.d.d.d.d.a._ ( G H ^ ( d.k.k.j.k.d.d.k.c.c.c.l.l.n.b.b.b.b.b.b.N.N.b.N.b.N.N.B.B.n.Q p / ' m g.Z.f.Q D.V.U U =.w ;.C.E A.V.U d d ;.A.G.C.U G.F.E.C.U G.W.W.W.G.C.2.W.E.E.E.E.E.W.W.W.W.W.W.W.W.Q.Q.E.P Q Q ! ! ! Q Y P h i 6 ; $ X X . . $ : i j I L j i 6 : u s I Y I I I I Y E E W W W E E I R R R E E I R I z z z z z Y Y Y l l Y Y Y E E E E E W W ! ! W T T T T T T Y T T T ~ ! ! ! ! ~ ~ ! ! ! E E Y j s a p s L I R Y E E W W W W W W W W W W W W W E E E E E E R R L s p u 6 : * & X . . & i L E E E ` E E ` ` ' ` C./.fXfXfXfXkXfXkXfXfXfXdXdXdXaXaXaXaXuXaXsXH.5XaXiXuXuXiXaXpX8.;X;X4.wXpX:.6XpXiXiXwX;X .8.5XiX).:.5.6X5Xh./.(.(.(.5Xg./.(.!.(.(.(.Q.~.H.L.5X~.C.4X=.R./.(.(.~.M 4.K.W.W.D.E.W.Q.Q.Q.E.E.Y.F.S.m.Z.x.x.m.Z.8 f.Z.x.S.F.S.Y.Y.Y.S.M.U.U.U.U.U.U.U.F.F.F.F.B.M.c.m.n.c.z.z.m.M.N.m.m.V./ ' z.b.b.b.m.M.m.b.N.b.n.b.b.b.n.n.v.v.n.n.n.l.c.c.l.k.k.l.l.l.l.l.l.",
"B B C B C B C C C C C B v 0 0 5 @ 0 Z A A D D D D A A C Z V 9 b ^ 0 v Z C S 9 4 Z D D D D D D D D D H ^ b 0 ^ b < 0 Z Z C S S S 9 8 Z S G G ^ ( ( _ a.( ( a.a.s.s.s.d.s.s.s.d.d.s.( ( d.( H _ d.k.k.k.k.k.d.d.k.c.c.n.n.n.n.b.b.b.b.b.b.b.N.b.N.b.N.N.N.N.M.' m / 3.L V.S.f.Q D.V.U U d w ;.C.W A.V.U d d ;.A.G.C.U G.F.W.C.U G.W.W.W.G.C.2.G.F.E.F.E.E.E.E.W.W.E.W.E.W.W.F.Q 5 ` ! ` ! ! P L h i : $ X . X $ % : : i j I I L L a u 7 u s I Y I I I Y Y W W W W W E I R L L L L L L I I z Y T T T T T Y Y Y Y T T T T E T W T E E Y Y z z z z z z z l Y T T T T ! ! ! ! ~ ~ ! W E Y L L j s s s j j L I I E E W W W ~ ~ ~ ~ ~ ~ ~ ~ W E E E E E E R L s p p i 7 6 ; & $ . . & i L E E E E E / ` ` ` 3.' ~.dXfXfXfXfXfXfXdXfXdXdXaXaXiXiXiXiXiXsXH.).iXiXaXiXiXaXwX8.;XL.H.5XwX:.6XpXiXiXwX;X .8.5X0X).:.:.4X4XH.).(.(.(.).g.^.(.!.(.(.(.(.~.C.L.^.K.A.4X=.^./.~.(.~.U 4.G.W.W.T.E.W.W.W.W.F.S.Y.S.Z.n.Z.Z.m.Z.D.8 f.Z.Z.F.m.S.F.Y.E.Y.Y.Y.Y.U.U.U.U.F.B.F.F.U.B.F.c.M.S.z.j.n.M.B.B.M.m.f.' x.m.b.b.N.N.M.b.b.b.b.b.b.b.b.b.v.v.n.v.n.n.l.l.l.c.c.l.l.l.l.l.l.l.",
"B C B C B B C C C C C B b 0 b 0 & 0 Z A D C D D D D C C Z Z b b Z 0 0 Z C S v x D F G D G G D G D D G ^ b 8 ^ b & 0 C C Z S S G 9 9 ^ D G G ( ^ H ( a.a.a.a.a.a.s.s.d.d.d.d.d.d.s.a.a.a._ a.d.k.j.k.j.j.k.d.j.z.z.n.n.b.n.n.n.n.b.b.b.b.b.b.n.c.M.N.N.N.b.m.f.L / ' m V.Z.' P D.V.U U d w U C.W A.V.W d d U A.G.C.U G.F.T.C.U G.E.E.E.A.3.,.G.E.F.F.F.E.E.W.W.W.W.Q.E.E.x.V P ' ` ` ` E P h i 7 ; $ X X X $ ; : i h j L I j j s p i u u s I Y I I I Y E E W ~ W E E L L s p p p s j j I Y T T ! ! ! T T T T T T E E E E E E Y z j j j i s s s s i s j z z Y E E E W ! ! ! ! ! E E Y I L j s s p p p a s j L I R I Y E E E E W W W W E E E E E E E R s p p s s a 7 6 ; ; X . . & i L E E E E ` W ` ' ' ' 3.P.aXfXfXfXfXdXdXdXdXaXaXuXuX)./.iXiXpXH./.iXaXdXuXuXiX6X5.;X;XH.5XwX:.6XiXiXiXwXL.-.8.5X0X).1.:.4X4Xg./.(.9X).).g.~.(.!.(.(.(.Q.~.C.L.K.G.C.L.=.^.~.Q.Q.G.M 4.G.W.E.Y.W.W.W.W.Y.Y.D.F.m.m.m.Z.S.m.m.D.9 x.S.S.S.S.M.S.F.U.U.Y.U.U.U.U.U.U.B.F.U.U.U.F.B.B.M.B.M.c.n.m.M.B.M.n.f./ ) c.b.N.m.M.b.b.b.b.b.b.b.b.b.j.j.v.v.v.j.K s.l.l.c.c.v.c.l.l.l.l.l.",
"C C C C C B C C C C C B b b b 0 @ 9 S D D D C C D D C C B C 0 b Z 8 0 Z Z ^ v v D D D D D G G G D D G ^ 0 8 P 0 @ 0 C B B Z Z S 9 8 S Z Z G G G H K a.a.a.a.a.s.s.s.s.s.s.s.d.d.s.d.a.( ( ( a.z.k.j.d.a.( ( d.a.k.c.v.c.v.l.v.n.b.b.b.b.N.b.b.N.b.N.N.M.M.m.f.L / ' m V.D.f.P D.V.U M =.w U g.E A.Z.W d d M A.G.V.U G.F.W.C.U T.E.W.W.G.4.,.G.S.S.S.E.E.E.W.E.W.E.E.j.) ' Q Q ` ` ` ~ P h i ; $ X X X $ ; : 6 u i i a i i i i 7 7 u u u s I Y I I Y Y E W ~ ~ W E L s p i 7 u p s L I Y T T ~ ~ ,.,.~ ! T T T T Y Y Y Y z z j j i i i i i i i i i i i j j z Y Y E E W ! ! ! T E I Y R R I L j s a p p p p p a s s j L L R R R R R R E E E E E E E L i 7 u s j h a 7 6 5 ; @ . . & 7 L L E E ` ` ~ ~ ` ` ` 3.G.iXfXfXdXdXfXdXiXaXuXuX0X/.iXuXuXpXL.5XiX0XiXiXiXiXwX8.;X;XH.wXeX:.6XiXiXuX).L. .8.^.)./.:.:.4X4Xg./.9X9X(.).g.K.(.(.!.W.Q.W.~.C.L./.~.K.L.=.^./.Q.Q.W.M 1.G.E.E.E.E.W.W.W.Y.D.S.m.m.m.x.m.S.x.x.x.5 Z.D.Z.m.m.m.S.U.Y.E.Y.U.U.U.U.U.U.M.F.F.F.U.F.F.B.d.b.F.S.S.B.N.M.m.c.x.' ) b.b.N.b.b.M.b.b.b.b.n.b.b.b.b.n.n.v.v.b.n.n.l.l.l.l.c.v.l.l.l.l.j.",
"B C C C C C B C C C C C v b b 0 @ 9 S C D D A C D D A C Z Z b b P 0 0 Z C ^ v v D F D G G D G G G G G ^ b 5 V 9 @ 0 Z Z Z Z B S 9 2 Z G D G G ( H H ( a.a.a.a.s.s.s.s.a.a.s.d.d.d.d.a.a.s.a.d.k.k.k.j.d.d.a.d.z.k.c.n.n.j.j.l.n.b.b.b.b.N.N.b.b.n.b.N.N.b.m.f.R / ' L V.D.f.P Z.V.d d | w U V./ A.A.2.M d U A.D.V.U G.Y.W.C.U K.E.E.D.G.C.2.G.Y.F.F.W.E.E.E.E.E.S.) 8 P ` ` ` ` ` ` ~ L i : $ . . X & ; 7 i i u i u u : : 6 6 6 6 6 6 u p j I I I Y Y W W ~ ~ E R s i u u u p s L I Y T T T ! ,.,.,.,.~ T T T Y I z z z j i i i i s i s s s i i i r r i i i j j I I E E W W E E Y E E E E E R L j s s a p i u u u i p s L L L L I I I E E E E E R s u 6 7 s j j h i 7 7 6 ; X . . & i L L E ` ` ` ` ` ` ` 3.P A.uXaXdXdXdXdXaXaXaXiX~.).uXiXiXpXH.).uXuXuXiXiXiXpX5.-X;XH.5X6X:.6XiXuXuX0X;X-.5.^.).).1.:.^.^.g.).(.(.(.).C.~.(.(.!.(.Q.W.~.4.R.~.~.G.^.=.^./.Q.!.W.M 4.G.W.E.W.T.E.W.Y.S.S.Z.Z.S.Z.m.D.S.m.x.x.5 V.D.m.S.S.F.m.F.Y.E.U.U.U.U.U.U.U.U.U.U.U.U.F.F.m.M.B.B.M.B.B.B.M.m.n.x.' x.n.b.b.N.c.c.b.n.n.b.n.n.n.n.b.v.l.n.n.b.n.l.l.l.l.l.l.l.l.v.l.j.j.",
"B N B B B C C C C C C B b b b 0 @ 0 S A A C A D D D A A Z Z b b ^ 0 0 Z Z ^ v v D G D G G G G G G D G G b 8 Z 9 @ 0 Z Z Z S Z Z 9 2 V S G D G ( J ( a.a.a.a.a.a.a.s.s.a.s.s.d.j.d.a.a.s.s.d.d.j.k.j.j.k.d.a.d.k.j.j.l.c.c.k.l.n.b.b.b.b.b.b.b.N.b.b.N.N.b.m.V.R / ' P V.Z.' P D.A.;.d | y U V./ A.A.,.M d M A.D.V.R G.Y.W.C.U T.E.E.E.G.V.2.G.E.E.E.E.W.E.E.E.Y.V.' ` ` ` ! ` ` ` W I 7 ; X   . X & ; 7 u i i i i : : ; : : : 6 6 6 6 6 u i i i i j Y W W W W E L p u u i p m L R Y T T T ! ,.,.,.,.~ T T l z z s p i i i i j j z z z z z z j s i u r r i i i i j j I E E E T ! ! W W W W W E Y R L L s p u u 6 : 6 u a s j I I Y I E E E E E W R p 6 6 u s a i a a i i i 7 ; $ X X $ * 7 L E / ` W E ` ` ` ' V.~.iXdXdXdXaXaXuXaXiXuXuXiXaXiXpXC./.0XaXuXiXuXiX6X4.;X;XH.5XwX:.6XiXuXuX0XL.-.8.5X)./.1.:.^.4XC./.(.(.(.).C./.(.(.(.(.Q.(.~.g.L.~.W.~.5X=.^./.Q.Q.~.U 4.T.W.E.E.E.Y.E.F.Z.F.S.D.Z.n.Z.D.F.D.Z.) , ) m.S.S.S.S.F.U.U.U.U.U.U.U.N.F.F.F.U.U.E.U.F.F.F.F.B.F.B.N.N.B.N.b.m.Z.V.x.b.b.b.b.b.b.b.b.n.b.b.b.b.b.n.n.n.n.n.n.v.v.v.n.l.c.c.l.l.l.k.j.k.",
"B C B B C C C C C C C B v b b 0 @ 9 Z A A C D D D D D D Z Z b b ^ 0 v Z D ^ v v D G G D G G G H G D G G B b Z 0 @ 0 C B B C C Z 9 2 Z Z C G ( ( ( _ a.a.a.a.s.s.a.( _ a.s.s.a.a.d.a.a.d.a.a.d.j.k.j.j.j.d.a.d.k.j.l.l.c.c.c.c.n.b.b.b.b.b.b.b.b.b.N.N.N.b.m.x.R / ' P Z.D.' P Z.A.4.d | y U g.E A.Z.` d d M A.F.V.R G.F.W.C.U T.E.E.D.D.V.3.G.W.E.Y.W.W.E.E.j.V.' ! ` ` ' ! ~ ` E L a & X .   . X ; : 7 i i u i : : - * : & & * : 6 6 6 6 6 : : : s I Y Y Y Y I L s p s L L R E E W ~ W ! ~ ,.,.,.,.! T z z s i p u i p s z z z z I Y l z z z j j i i i i i u u u i j j I W ! ! ~ ~ W W W E E E E E R L s s i u 6 : 6 u s I I E E Y I R E E E E R p : 6 p a i i i i i i i u 6 ; $ X $ & & * s E E E E W W ` ` ` V.G.uXdXaXaXaXaXiXaXuXuXiXaXiXpXC.^.uXiXiXuXuXiX5X4.;X4Xw.5XpX:.6XiXuXuX0XL.-.8.^.)./.:.:.^.4XC./.(.(.(.).A./.(.(.(.!.Q.Q./.C.L.~.W.W.^.;.~./.Q.Q.~.W 1.~.Q.Q.W.Y.Y.Y.F.D.E.S.Z.Z.m.Z.Z.S.S.m.Z.8 f.x.n.M.S.F.F.U.U.U.U.U.U.U.U.U.B.F.U.U.U.U.B.F.S.B.B.B.N.B.B.B.B.m.m.V.x.x.m.b.b.m.b.n.n.n.n.b.b.b.b.b.b.n.b.n.n.n.n.v.v.n.l.c.v.l.l.l.j.k.k.",
"B B C C C C C C C C C B b b b 0 @ 9 Z C D D D D D D A A C C v b ^ 0 8 C C G v v G G G G G G G G D D G D G Z Z 0 @ 0 Z C C Z Z S 9 2 Z S G H H ( ( ( a.a.a.s.s.a.a.s.s.s.s.s.s.a.s.d.j.d.a.a.d.s.j.j.d.d.d.d.d.k.k.j.l.l.l.l.l.c.l.n.b.b.b.b.b.b.b.b.N.N.b.m.x.R ' f.P Z.D.' P V.C.4.d | y U C./ A.A.2.M d M A.F.V.Y G.F.W.A.U G.E.W.W.G.V.3.G.E.F.F.E.E.Y.M.9 ' ! ! ! ! ! ~ E L a 7 : . .   . X & ; 6 7 i i u : : : : : : : : : 6 6 6 6 : : * $ $ i j I I I R L L j L L R E E E W W ~ ,.,.,.~ ~ ~ ! T z s i i r u i s s z z z I T T T T T l z z z z z j j i i i u u u i j I I W W ~ ~ ~ W E E W W W E Y R L s p i u u u s I Y E Y R L L L R R R R s u p L s i u 7 7 7 i i i i 7 : $ $ X . . 6 L E E E E W ` ` ' ' P ~.iXaXiXaXaXaXiX9X0XuXiXaXwXC.).uXiXiXuXuX0XpX4.;X4XH.5XpX:.6XiXuXuX0X;X-.8.).)./.:.:.^.4Xg./.(.(.(.5XK.~.(.(.(.(.Q.T.R.4.K.~.Q.G.^.M R./.!.!.~.;.1.K.Q.Q.W.Y.D.S.F.Y.T.D.S.Z.Z.S.T.F.m.Z.D.8 x.m.m.S.S.M.F.U.U.U.U.U.U.U.U.U.U.F.U.U.U.F.B.F.B.B.B.b.b.M.N.N.m.m.m.Z.V.m.m.b.M.B.n.l.n.c.n.b.b.b.b.n.b.b.b.n.n.l.l.v.v.v.l.n.v.v.l.j.k.k.j.",
"B B C C C C C C C C C B 9 b b 0 @ 9 Z C A D D C A D C C Z V b b ^ 0 0 Z D ^ 9 v G G G G G G H G D D G D D Z Z 8 @ 0 Z Z Z Z B S 9 2 b B G H H H ( a.a.a.a.a._ s.s.s.s.s.s.j.d.s.j.j.d.d.a.( ( s.j.k.j.d.d.j.k.k.l.j.j.k.k.k.k.k.c.b.N.b.b.b.b.b.b.b.N.N.b.m.V.R ' f.L Z.Z.' P V.C.1.d | w U V./ A.A.2.M =.U A.D.V.R G.F.W.C.U G.W.E.W.G.C.3.G.Y.Y.S.M.F.M.^ O ` ! ! ` ! ! E L a 6 * & . . . X ; : 6 7 i i i u u : : : 6 u u i i i i i u 6 : $ $ $ : i j j L I I L L I I E E E E W W W ~ ~ T T T T Y j i i i i i s z z z z Y Y T T T T T T Y l z z z z I I j j s i u u 6 i a j I Y W ~ ` ~ W W W ~ W W E I R L j s s a s j I R R I j s s s s s s L s s L E I a u : - : u i i j h u : & & X . # 6 s R E W W ` 2.3.` ' g.W.iXiXiXiXaXuXuXuX).uXiX5XC.).uXiXuXiXuXiXpX5.3X4XH.wXpX:.6XiX0XuX0X;X-.8.).).).:.:.^.4Xg./.(.(.(.).A.~.(.(.!.Q.E.Q.~.4.K.~.W.~.).U ~.(.(.Q.~.U ;.K.Q.Q.F.D.D.D.F.T.Z.S.S.Z.m.Z.S.S.m.x.Z.8 V x.S.Z.S.m.S.U.U.U.U.F.U.U.U.U.U.F.U.U.F.U.U.F.B.B.N.b.c.b.m.N.b.b.Z.V.V.x.b.n.m.B.n.j.c.c.n.n.n.n.b.b.v.n.n.n.n.v.n.n.n.n.l.l.l.l.k.a.s.j.j.",
"B B B B B B C C C C C v 8 0 b 0 & 0 Z Z C C D D D D C C Z V b b ^ 0 9 S D ^ 9 v G H H H G G H G G D S D S Z Z 8 @ 0 C B C Z C S 9 8 Z B D G G H ( a.a.a.a.K ( s.s.s.a.s.d.d.s.s.j.j.d.d.a.( ( d.j.j.j.d.j.j.k.k.a.j.k.k.j.a.j.k.l.c.b.b.b.b.b.b.b.b.b.N.M.M.x.E ' g.P Z.Z.' P V.g.1.d | w U C./ A.A.,.d d U A.D.V.R G.F.T.C.U G.E.E.E.G.C.3.W.E.E.E.F.m.^ @   ` ! ! ~ ! ! I s 6 * & & & & & : 6 7 7 i i a i u u u u u i a j j L L L L a i : * * & * i j j L I I R I I I E E W W W W W T T T Y I z j i r u p i s z Y T T I T T T T T T T T Y Y I z z Y Y Y I I j s s i u u u i s j R W ` ` ` ~ W W E E Y R I L L L j j j j j L L s p p p p u u u u p L E W R s u : : : u i i j h j i i 6 & $ X # 6 s R E E / 2.` ` ` E P W.iXuXuXaXaXuXuXuXuXiX5XC.).uXuXuXuXuXiX5X:.;XL.H.wXpX:.6X).).0X0X;X-.5.5X)./.:.:.^.4Xg./.(.(.(.).K.~.(.(.Q.(.Q.Q.~.3.R.~.E.(.).M ^.).(.Q.~.U ;.K.Q.Q.E.D.F.F.S.E.S.S.Z.Z.n.S.S.S.m.m.Z.8 ) Z.S.S.m.M.F.U.U.U.U.B.U.U.U.U.B.F.F.F.F.F.F.F.B.M.B.c.c.b.m.N.b.m.m.V.V.x.z.l.n.b.b.k.c.b.n.l.n.b.b.b.b.b.n.n.n.n.n.n.l.l.v.v.l.k.j.l.k.j.j.",
"B C B B C C C C C C B v 9 b P 0 & 0 Z Z C C C D D D D D S V b b Z 0 9 S D G 9 v H H H G G G G G D D D D G S Z 8 @ 9 Z C v B Z Z 8 8 Z Z D G ^ ( ( a.a.a.a.a.a.a.s.s.s.s.d.s.s.s.d.s.d.j.a._ a.s.j.j.d.d.j.j.j.k.k.k.k.l.k.j.k.k.k.k.c.b.b.b.b.b.b.b.b.b.N.m.x.E ' g.L Z.Z.g.P x.3.4.d d y U g.R A.Z.` d d M A.D.V.R G.F.G.V.U G.E.E.E.G.C.3.W.E.E.D.x.Q a 6 : ` ! ! ! ! ! j 7 * & & * * : : 6 i i i a a a i i i i i i j j I I I I E I j s u : : : : i j j I I Y Y I I I Y E W W W W W Y Y I j j s i r : u i j j z T T Y I T T Y Y Y Y Y Y Y Y Y Y Y Y Y T Y I I L j s i u : 6 i p s Y W ` 2.` W W Y Y R I I L L I I I j j j s s i p u u u u 6 6 6 u L W W Y s u : * : u i j j j j j s i 6 & # . & 6 s L R E W ,.W 2.E 6 ` K.uXuXaXiXdXaXuXiXuXpXH.).uXuXuXuXuXuX5X:.;X^.C.wXpX:.5XiXuXuX0XL.-.5.^.).K.;.:.^.4X4./.(.(.(.).K.~.(.(.!.(.Q.W.P.4.R.~.Q.Q.).M ~.(.(.!.~.U ;.G.Q.E.D.Y.D.Y.F.F.F.S.Z.S.m.S.m.m.m.x.Z.8 ) Z.M.S.n.m.M.U.U.U.U.U.F.F.F.F.F.B.B.F.F.F.F.F.B.B.B.m.b.b.M.N.n.c.m.x.V.m.n.b.n.c.n.c.c.c.c.n.b.n.b.b.b.b.b.v.n.v.v.n.n.l.l.v.v.l.k.j.j.j.k.",
"B B C C C C C C C B B B v b P 0 # 5 b C Z C D D D D A A Z V b b ^ 8 0 S D ^ 9 9 G H G G G G H G D D S D D S Z 8 @ 9 Z B v B Z S 9 8 Z G G D C G ( a.a.a.a.( J ( s.s.a.a.s.s.j.j.j.j.d.a.a._ a.j.j.j.j.j.j.d.k.k.k.j.k.c.k.a.j.k.k.v.b.b.b.b.b.b.b.b.b.N.N.m.x.E ' 3.L V.Z.' P g.3.1.d d y U 3.P Z.Z.` d d M A.D.V.R G.F.T.V.U T.E.E.E.G.C.3.G.S.Z.Z.V.w.3.>.>.,.~ ! E z a : * $ X # & * * : u i i i a a s s s a s s j j j Y Y Y E Y Y L j s i u u s j L I I I I I I I I Y Y E E E W E R L a u 6 * * : u a j L I I Y Y T T T T T T T T Y Y Y Y Y Y Y Y Y T T Y E I I j s i 6 : : u i j I W ~ ~ W W W Y I I I I I I I I I I j s i p u u u p u u : * i R ~ ~ E s i : * : u s z I Y Y Y L a u 6 & X . & 6 a L Y ,.;.,.2.2.2.3.V.~.9XiXuXiXaXuXuXiXpXK.5XuXuXuX0XuXuX5X:.;X^.C.).pX1.5XiXuXuX0XL.-.5.^.)./.1.:.^.^.4.~.(.(.(.).K.~.(.!.(.W.Q.W.~.3.K.~.W.W./.I K.~.Q.!./.U ;.G.Q.F.Y.W.Y.F.F.S.F.S.Z.m.m.Z.S.n.z.) Z.9 ' m.S.m.c.c.M.U.U.U.U.B.B.F.B.B.B.B.F.F.F.F.B.B.B.B.b.m.m.m.M.N.b.z.m.V.V.Z.n.b.b.n.l.j.c.c.c.n.b.n.n.n.n.v.n.n.n.v.v.v.v.l.l.k.l.l.k.j.j.j.j.",
"C C C C C C C C C C C B v b P 5 # # O , v Z D D D A C C Z V b b Z 8 0 S D ^ 9 v G G G G H H G D G G S Z S S B 5 @ b Z C B B Z Z 3 3 S G G G G ( ( a.a.a.a.a.a.( ( a.s.s.s.s.d.d.s.s.j.j.j.d.j.j.j.j.d.s.d.a.a.k.k.l.k.k.k.j.k.c.j.j.n.b.b.b.b.N.b.b.b.N.N.N.x.R ' ' L V.Z.g.R g.` ;.d d y U 3.L Z.Z.W d d M A.D.V.R G.F.T.C.U T.E.E.E.T.C.` D.F.x.w.3.,.>.,.,.2.~ ! I s 6 & $ # # & * * : 6 u i p p p a s j s s s j L L L E E E E E Y I j j s a i s j I I I I I I I I I Y E Y Y Y E R j p u 6 * & 6 u i L L R I I Y Y W W T T T W E Y Y Y Y Y Y T T Y Y T Y T Y Y Y I j s u : : u p p s z Y T T T Y I I I I Y Y Y Y Y I I z s i p i p p i p u : u s Y 2.~ W Y I s s p p j z I Y Y Y I j a i * # . . & 6 a I ,.2.1.1.3.2.2.3.A.D.(.uXuX).(.uXuXpXK./.0XuXuX(.9XuX5X:.;X^.A.5XpX:.5XiXuX9X).4X-.5.^.)./.1.1.^.^.4.~.(.(.(.).K.~.(.(.!.W.W.W.~.4.K.W.W.W.).R G.Q.Q.Q.~.M ;.G.W.E.Y.E.S.D.F.S.m.Z.Z.S.S.S.x.m.x.f.Z.8 x.m.m.b.n.S.S.U.U.U.U.F.M.N.B.U.F.F.B.B.B.B.B.B.F.B.M.M.M.M.N.M.b.b.c.V.V.x.c.b.n.n.c.b.b.b.k.b.b.b.b.b.n.n.v.n.b.n.v.n.v.l.l.l.l.k.j.l.k.j.j.",
"C C C C C C C C C C C B 9 V P < # # # @ v Z D D D C C C Z V b b ^ 0 0 Z D G 9 v G G G G G G G D D G G S C Z Z 8 , 0 S C B B B Z 8 8 Z Z G G G ( ( ( a.a.a.a.a.a.a.a.s.s.s.s.s.a.a.s.s.s.j.j.j.s.j.j.j.j.k.d.d.k.j.j.k.k.l.v.v.c.l.c.b.b.b.N.b.N.N.N.N.b.b.m.x.R / ' L A.Z.g.R f.R ;.d d y U 3.P A.V./ d M M A.D.g.R G.F.D.V.U T.E.E.E.G.C.` D.M.P ! ~ ,.,.,.,.3.~ Y j : $ X X X & * * * 6 u i p p i p a j R R I R R I Y E E E E E E Y I I I j j j j I I I I I I I I I I Y Y Y I I I s p u 7 6 * 6 i s s L L R Y Y Y E W ! W W W W W W E T T T T T T T T T T T Y Y Y I z j s p u u u r u p s z I I I I z I I Y Y Y Y Y Y I I z j s s p p p p i p i j Y W W W Y Y Y Y I z I I Y T W T Y R L s u & # . . $ 6 s W ,.3.3.3.3.3.3.3.E G.(.uXuXuXuX0XpX~.).9XyXuX).9X).5X:.;X^.A.).pX:.5XiX9X9X).4X-.5.^.)./.;.:.^.^.4./.(.(.(.).K.~.(.!.Q.E.Q.Q.~.4.K.W.Q.(./.I G.Q.Q.Q.~.s ;.G.W.F.D.n.S.S.S.m.m.Z.D.S.m.S.m.m.x.) Z.8 ) n.m.M.M.S.S.U.U.U.F.F.F.F.m.B.F.F.B.B.B.B.N.B.B.b.M.B.M.M.M.b.b.b.m.V.f.x.m.b.b.b.n.b.b.b.j.n.b.b.b.b.b.v.n.v.v.v.v.n.l.l.l.l.l.l.j.j.k.j.j.",
"C C C C C C C B B C C C 9 b P 5 # # . < v Z D D A A A A Z C b b P 0 0 Z D G v v G G H H H D D G D D Z C S D Z 8 < 0 Z C C B B Z 9 + 2 9 Z G G H ( a.a.a.a.a.a._ a.a.s.s.s.s.s.a.a.j.j.d.s.j.j.s.s.d.j.j.j.j.d.d.j.k.k.l.v.v.n.n.c.n.b.b.b.v.k.k.b.N.N.N.b.m.x.R ' ' L Z.Z.' E ' R U ;.d y W A.' S.V.` d M R Z.S.g.R G.F.D.V.U T.E.F.F.Z.V.3.G.m.5 ! ! ,.,.>.>.~ E j : % . . X & & 6 6 : 6 u i p p i p s L R I I I E E W W Y Y Y Y Y Y I I I I I I I Y Y Y Y Y I I I I I I I I j j s p u 6 7 7 7 i L L L L E E E Y E W W ~ W W W W W W W W E E E T E E E E E T Y Y Y Y I z j s i u : * : u p p j j j j j z Y Y Y Y Y Y T Y Y I I I z s s i i p p s s I I Y Y Y Y W W T Y Y Y W W W W E Y R L p 6 & # . . & u I W 2.3.3.3.3.3.3.w.A.~.uXuXuXuXuXiX)./.(.9XuXuXuX0X5X:.;X^.A.).pX:.5XuX9X9X(.4X-.5./.)./.1.1.^.^.4.~.(.(.(.).K.~.(.Q.Q.W.W.W.~.3.K.W.Q.W./.L G.~.Q.!.~.M 1.G.D.D.Y.E.S.D.F.S.S.S.S.Z.m.Z.m.m.x.x.m.8 x.m.m.M.S.S.F.U.U.U.F.F.F.F.F.F.F.B.B.B.F.M.M.B.B.N.M.M.M.b.m.b.N.m.m.Z.f.x.b.b.b.b.b.b.N.N.b.b.b.b.b.l.k.n.n.v.v.v.v.v.l.l.l.l.l.l.k.k.j.j.j.",
"B C C C C C B B C C C C 9 b P 0 # # & v S D D D D A A D Z b 0 V ^ 0 0 Z D G v v G G G H H H G D G G S S D S Z 0 < 0 Z B C Z C Z 8 + , , 9 S G H ( ( ( ( ( a.a.a.a.s.s.s.s.s.a.J a.s.d.d.s.d.s.s.s.j.j.j.j.d.d.j.j.k.l.l.l.v.v.v.n.n.b.b.c.c.v.c.b.N.N.N.b.M.x.E ' ' P Z.Z.' R ' / ;.;.d d E D.S.S.Z.2.d M R Z.S.g.R G.F.G.V.U G.E.E.D.D.V.3.D.' Q ! ! ~ 2.2.2.E j : % $ . X $ & * 6 6 6 6 u i p a s j L L L L L I R R Y Y R R R R R I I I I I I Y Y E T E Y Y I I I I I I L j s i i u 6 6 7 i s j L L E E E E E E E W ~ ~ ~ ~ ~ ~ ~ ~ W W W W W W W W W T W T Y Y Y T Y Y Y z s u : : : * : u p s s s j z Y T T T T T T T T Y Y Y I I z s i s s s s j z I T W W ~ ~ W Y Y T W ~ ~ ~ W Y R L s i 6 * $ $ $ & p z ,.2.3.3.3.3.w.w.w.G.(.uXuXuXuXuX/.).).9X).uXyX).5X:.;X^.A.0XpX1.5XuX9X9X(.4X-.4./.0X/.1.4.^.^.4.~.(.(.(.).K.~.(.!.Q.Q.Q.T.G.3.K.(.Q.(./.m K./.Q.Q./.d ;.V.G.E.E.Y.F.S.S.F.S.S.S.m.m.Z.Z.m.m.z.m.8 x.m.m.M.S.F.F.F.F.F.F.F.F.B.F.U.U.B.B.B.S.b.b.B.B.B.B.B.m.b.b.b.b.b.m.V.f.x.b.n.b.b.b.N.b.b.b.b.b.b.n.l.v.n.n.v.n.l.l.v.v.l.l.l.l.j.j.k.k.k.k.",
"C C C C C C C C C C C C 9 b P 0 # 0 P Z D D D D D A C D Z b 9 V Z 0 8 Z D G v v G G H H H G G D D D D G G G S 9 < 0 Z Z B C Z Z 3 , 5 , 3 Z G H ( ( ( ( ( ( a.a.a.a.a.a.s.a.a._ a.s.s.s.s.s.d.j.j.j.k.j.j.d.a.j.j.j.j.l.l.n.n.n.n.n.b.b.b.b.n.n.b.N.N.N.N.M.V./ / ' L Z.Z.f.R V.' ;.U d d E D.S.S.Z.2.d M R Z.S.V.R G.F.T.V.U G.E.E.E.G.V.' ' 0 P ! ! ! ~ ~ ! j u % . . . # & * 6 6 7 6 u u i a s L L L j s s s j L L I R R I I I I I I I I Y Y Y Y T W W E Y I I I I I I j s i i i 6 6 6 u p L L P I E E E E E W W ~ ~ ~ ~ ~ ~ ~ ~ ! W W W W W W W W W W W W T T T T T T T Y j p p u u : : u p p i p s z Y T W W W W W W W T Y Y Y Y I j s s s s s s z Y W ~ ~ ~ ~ W T W W ~ ~ ~ ~ W Y R L j a i 6 * $ $ $ * p U ,.3.3.3.3.3.3.3.C.Z.(.uXuXuXuX).).).yX(.uXuX).5X:.;X^.C.0XpX1.5XuX9X9X).4X-.8./.)./.;.4.^.5X3./.(.(.(.).K.~.(.!.W.Q.Q.W.T.C.W.W.W.!./.m ~.~.Q.Q.~.M ;.G.Y.F.Y.Y.F.F.Y.Y.F.S.S.m.x.Z.n.n.m.j.Z.9 f.m.m.S.B.S.F.F.F.F.B.B.B.F.F.F.F.B.B.B.B.M.M.B.B.N.M.M.b.b.M.b.b.M.m.V.V.x.b.n.b.b.b.b.N.b.b.b.b.b.b.n.n.b.n.v.n.n.l.v.v.l.l.l.l.j.j.j.k.l.j.",
"N C C C C C C C C C C C 9 b P 0 O 0 S D S S C D D D C D B 9 9 C Z 0 0 Z D G 9 v G G H H H G G D D D D G G G G v , 0 Z Z B C Z Z 8 + , @ 3 Z G H ( ( a.( ( ( ( a.a.a.a.a.s.a.a.a.s.d.j.s.s.s.s.j.j.j.l.j.j.d.s.j.j.j.j.k.v.n.n.n.n.n.n.b.b.b.b.b.b.b.c.N.b.M.V.E / ' L V.S.x.R g./ W U d d / D.B.B.Z.2.M M M D.D.V.R G.S.D.V.R G.E.E.E.D.' a 0     Y ! ! ! z j : : $ . . $ $ & * 6 7 7 6 u i p s s L L L j j j j j L I R Y E I R I R I W W E E Y E E E E E E E Y I I j j s i u i j j i u 6 i s L L E E E E E I E W W ! ~ ~ ~ W W W W W ~ ~ ~ ~ ~ ~ ~ ~ ~ ~ ~ W W W W W W W W T I z s p u p i i p p p i i s z Y W W ~ W W W W W W W W T Y I j s s s s s j I W ~ ~ ~ ~ ~ ~ ~ ~ ~ ~ ~ ~ ~ W E R L j s u 6 * # $ # * i z ~ 3.3.3.3.3.3.3.P G.(.uXuXuXuXuXuXuXyX9XuX0X5X:.;X^.C.).pX1.5X0X9X9X).4X=.8.).)./.;.1.^.^.1./.(.!.(.).K.~.Q.!.Q.!.(.Y.W.A.G.W.W.Q./.s ~./.Q.Q.Q.M ;.G.W.F.F.Y.F.Y.Y.Y.F.S.S.Z.Z.Z.z.z.n.j.Z.9 f.m.m.M.B.S.F.U.U.F.S.B.M.B.S.F.B.B.B.B.N.M.B.B.B.N.M.M.m.b.M.N.b.M.m.V.V.m.b.b.b.b.b.b.b.b.b.b.b.b.b.b.b.n.n.k.l.l.l.l.l.l.l.l.l.k.k.l.k.j.j.",
"C B C C C C C C C C C B 9 b P 0 @ 0 G D A D D D D A C C B 9 9 C S 0 8 Z D G 9 v G H H G G G G G D D G G G G S 9 < 0 ^ Z Z Z Z Z 8 o o + 3 Z G H ( ( a.( ( _ _ _ a.a.a.a.a.a.a.a.s.d.j.j.s.j.j.j.j.j.k.k.k.j.d.j.j.j.l.c.v.n.c.n.b.b.n.b.b.b.b.b.b.b.b.b.b.m.x.E ` 3.P V.Z.x.E 3.R ` U d d E D.F.B.Z.2.M d M D.D.g.R G.F.D.V.R G.Y.E.F.V.` E E E Y ! ! ! z h i - $ . . $ $ & : 7 p i i i a s j j L R R I I L L I I I I R R R I I R E W ~ ~ W W W W W W E E E W E I j i u 6 6 u s j L p i i s L L L R E E E E I E E W ! ~ ~ W W W ! W W W W W ~ ~ ~ ~ ~ ! ! ! W W W W W W W W W T Y I j s p u p p s p i p i p j Y W ~ ,.,.,.~ ~ W T W W W T Y I j s s j j z Y W W W W ~ ~ ~ ~ ~ ~ ,.2.` ~ W Y R L j s p : * $ $ % : u z ~ ,.3.3.3.3.3.` x.W.9XuXuXuXyX9X(.9X9X9X).5X:.;X^.C.).wX;.4X0XyX9X).L.=.4./.)./.;.4.^.^.1./.(.(.(.).K.~.Q.Q.Q.(.W.T.G.T.W.Q.W.Q./.s ~.Q.W.Q.W.M ;.G.W.E.Y.F.Y.Y.Y.Y.F.S.S.S.m.Z.n.n.n.j.Z.9 f.Z.S.M.S.S.F.U.U.B.S.B.B.M.M.F.F.B.B.B.B.B.B.B.B.N.m.M.m.N.N.b.M.M.m.Z.V.m.b.n.b.b.b.b.b.b.b.v.v.b.b.b.b.v.v.n.l.l.l.l.l.l.l.l.l.l.k.l.l.j.j.",
"B B C B C C C C C C C B x b ^ 8 O 8 S D D C A D D D C B v 2 8 v C 8 8 C D G 9 v G G H G G G H G D G G G G G S 9 & 0 Z S Z C Z Z 9 o o + 8 S H ( ( ( _ ( ( ( _ ( ( _ a.a.a.a.a.a.s.d.j.s.j.j.j.j.j.j.k.j.j.j.d.j.j.k.c.c.c.v.c.n.n.c.n.n.b.n.b.b.b.b.b.n.b.m.x.E ' 3.P Z.Z.x.R 3.R 3.` d d E D.F.S.V.2.M d M D.D.V.L A.S.D.V.U G.Y.S.j.' ! ! ~ ! ! ~ ! z h : ; $ $ . X $ & : 6 i s n s s j j I R Y E E Y I I I I R I L L L j L I E W W ~ ~ ~ W W W W W E Y Y Y I j s i u u i s j s a i p a s L L E R E E E E I Y Y W W ~ ! W W W ! ! W W W W ! ~ ~ ~ W W W W W W W W W W ~ W W W T Y I I p u u s s s p i i p p j I W ~ ,.2.,.~ W W W ~ ~ W W Y I j s j j z I Y T W W W ~ ~ ~ ~ ~ ,.,.` ` ~ W E E R j s u : * $ $ $ $ r j T ,.>.2.3.3.w.' x.W.(.uXuXyXyXyX9X(.(.).5X:.;X^.C.).wX1.^.).9X(.).L...4./.)./.;.4.^.^.1./.(.(.(./.C.~.Q.Q.W.W.Z.x.x.G.Q.W.E.Q./.m T.Q.W.W.W.U ;.G.W.W.E.S.F.Y.Y.Y.F.S.S.m.Z.S.z.n.n.x.Z.9 f.Z.M.S.S.m.F.F.F.F.B.S.S.M.M.B.B.M.M.N.B.B.B.B.N.N.m.M.b.N.N.b.N.M.M.Z.V.x.b.b.b.b.b.b.b.b.n.v.v.n.b.b.b.v.v.n.l.l.l.l.l.l.l.l.l.k.k.j.j.s.j.",
"C C C C C C C C C C C B 8 b Z 0 O 0 Z D C C D D D D D Z C 9 0 v V 8 8 C D G 8 v G G G G G G G G D D G D D G Z 8 @ 0 Z C C S S S 9 o o , b S H ( ( ( ( ( a.a.( ( _ a.a.a.a.a.a.a.s.j.s.s.s.s.s.j.j.j.j.j.k.j.d.j.j.l.c.c.c.v.n.n.n.n.n.n.b.b.b.b.b.b.b.b.b.m.x./ ' ' L Z.m.x./ 3.R V.` d y E D.B.S.V.2.M d M D.D.V.L D.F.D.V.U G.F.x.0 ! ! ! ! ` ~ ! Y j 7 ; $ $ $ $ $ % ; : 7 s m L L L L R Y E W W W E E E Y R I L s p i s L R E W ~ ~ ~ W W W W W E Y Y I I j j s s i s j j s u u i s L L L R E E E E R R I E Y E W ! W W W W W W W ! W W ! ~ ~ ~ W W ! ! W W W W W W ~ ~ ~ W W W W Y j i p i i s j j s s p p s j I W W W W ~ W W ~ ~ ~ W T Y I z j z z I I I Y T W ~ ~ ~ ~ ~ ~ ` 2.2.2.` ~ W E R L s i 6 * % $ $ % r j z ~ ,.2.2.w.w.V.x.W.9X9X9XyX(.(.(.0X).^.:.;X^.C.).wX;.^.).(.(.(.J.| 4./.(./.;.1.^.5X1./.Q.!.Q.~.C.~.!.W.Q.W.E.Z.Z.D.E.Y.Y.W./.s G.Q.Q.W.W.U ;.G.W.W.Y.F.F.Y.F.S.S.S.m.m.Z.S.m.m.m.x.D.9 x.S.m.M.M.m.F.F.F.F.F.F.B.B.M.M.B.B.B.M.N.M.B.B.B.M.b.m.m.N.N.N.N.m.m.Z.g.x.v.b.b.b.b.b.b.b.n.n.n.n.b.n.n.n.n.c.l.l.l.l.l.l.l.l.l.k.k.l.l.j.j.",
"B C C C C C C C C C C B 8 v ^ 0 @ 9 D A B B C D D A D S B 9 b Z Z 0 8 B D G 8 v G G G G G G G D A S A C Z S Z 0 < 0 Z C S S Z Z 9   o 2 Z G H H J ( ( ( ( _ ( ( ( a.a.a.s.s.a.s.j.j.j.j.s.s.s.j.j.j.j.j.j.k.k.k.k.k.c.c.l.l.v.n.v.v.l.n.b.b.b.b.b.b.b.b.b.b.x./ / ' n Z.m.f./ g./ V.` d y R D.B.S.V.2.M d M D.D.g.L D.S.D.C.U G.S.x.` ! E E ~ ~ ! Y j u ; $ $ $ $ % % : : : i a s L L L R I E W W W W W E E R L s p u : : a L R E W W W W W E Y Y Y Y I I I j j j j j j j j j i u u s j I L R R E E E E R E I Y Y E W W W W W W W W W W W W ~ ~ ~ ~ W ~ ~ ~ W W W W W W W W ~ ~ ~ ~ W W Y j p u p s z I I z s p p p s j Y Y W W ~ ,.,.~ ~ W W W Y I j z z z z z I Y W ~ ~ ~ ~ ~ ~ ` 2.2.2.` ` ` W E Y L s u : : * $ $ % * i z ~ 2.2.3.' w.V.G.~.9XyXyXyX(.uX(.(.^.:.L.^.C.).5X1.4X).(.(.(.J.| 4./.).~.;.1.^.^.1./.Q.!.W.G.C.~.Q.W.Q.W.M.S.D.W.W.W.W.W./.z G.W.W.W.W.U ;.G.W.F.F.S.F.S.F.S.S.m.Z.z.j.m.M.S.m.x.Z.9 d.m.M.S.S.M.S.F.F.B.B.S.B.M.b.M.B.B.B.N.M.B.B.B.B.b.b.N.N.N.N.N.M.b.M.Z.V.x.b.b.b.b.b.b.v.b.n.v.v.n.b.n.n.n.c.n.n.l.l.l.l.l.l.l.l.l.l.j.l.l.k.",
"C C C B B B C C C C B B 3 v ^ 0 @ 8 Z C C C C D D D D C B v B Z Z 0 8 C S G x v G G G H G G G G G G S S Z Z Z 0 , 0 S Z C Z S C 3 o , v G G G ( ( ( ( ( ( a.a.( a.a.a.a.s.s.s.d.j.j.s.s.s.j.s.j.j.j.j.j.k.k.k.c.c.c.c.l.v.n.v.v.v.l.l.c.n.n.b.b.b.b.c.c.b.b.x.P / ' L Z.m.f.R / ' V.' M y E D.B.F.Z.2.M d M Z.S.g.L A.F.G.C.U G.) 0 ! ! ! ! ~ ~ E j i : & $ X $ $ % : : 6 6 i a j L L R R R Y W W W W W W Y I j s u 6 6 : j I E W W W W W W E E E Y R j j j j j j L j j j s a u i s I R R R E E I R R R R R R Y Y Y E W W W W W W W W W W W ~ ~ ~ ~ ~ ~ ~ ~ W W W W W W W W W W W W W W Y I j p u p j I I I z s p i p s j I Y W ~ 2.2.2.,.~ ~ W T I z z L j j L L R E W W W ~ ~ ` ` 2.2.2.2.2.2.~ W W Y z s u : : $ $ $ $ * i Y ~ 2.3.` w.w.9.V.~.(.(.(.(.(.(.!.^.:.L.^.C.).wX:.4X).(.(.(.h.| 4./.)./.;.1.^.^.;./.Q.!.(./.C.W.!.Q.W.Q.E.F.E.E.W.W.F.W.K.d G.W.W.W.W.U ;.G.W.E.F.S.S.S.S.m.S.S.S.m.m.m.M.m.m.z.m.9 f.S.m.S.M.M.F.F.F.F.F.F.B.M.M.B.B.B.m.M.M.N.B.B.N.M.b.M.b.N.N.N.N.m.m.Z.x.x.b.b.b.b.b.b.b.n.n.v.v.n.n.n.n.n.n.l.l.l.l.l.l.l.l.k.l.l.k.j.k.j.j.",
"N B B B B B C C C C C B 3 v ^ 0 O 8 S A C C C C C A C C B v C C Z 0 8 C D G 8 v G G G G G G G G D S C C C Z C 8 , b S S C Z Z Z 3 o 2 V ^ ^ ( ( ( ( ( ( ( ( a.a.a.a.a.a.s.s.s.s.s.j.s.s.a.a.a.s.j.j.j.j.k.d.a.a.d.l.l.n.n.v.n.v.n.v.n.n.n.b.b.b.n.b.n.v.b.b.x./ / ' P D.m.x.R 3.' Z.' M y E D.B.B.V.,.d d I D.S.g.L D.D.G.C.U Z.V 6 E T W ~ E I j 6 : % $ ; @ X & ; 6 7 i a a j j j j I I I Y T W W W T Y Y I j p u u s L Y Y E W W ~ ~ W W W E E I j s p s s j L L L L L s p u p s L L R R E E R R L L R R R Y Y Y E W W W W W W W W W W ~ ~ ~ ,.~ ~ ~ ~ ~ ~ W W W W W W W W W W W W W W Y I j p p i s z U Y I L s p i p s I Y W W ~ ,.,.,.~ W W T T Y R L L j s s L E E E W ` ` ` 2.2.2.2.2.2.W W W T Y I s i 6 & $ $ $ $ : a I ` 3.w.9.` 3.V.Z.Q.9X(.(.9X(.(.^.:.;X^.C.).wX:.^.).(.(.).H.| 4./.(./.;.1.^.^.;./.(.!.(.~.C.W.Q.W.W.E.Q.E.W.W.W.Q.Y.W.~.d G.W.W.W.W.U ;.G.Q.E.S.S.S.S.S.M.n.z.x.z.n.S.S.m.n.z.D.9 x.S.m.M.S.B.F.F.F.F.F.B.B.B.B.B.B.B.B.M.B.B.B.B.B.B.b.N.b.b.N.b.b.m.m.Z.' d.c.b.b.b.n.b.n.n.b.n.v.v.n.v.n.n.l.v.j.l.n.l.l.l.l.j.k.l.k.j.l.l.k.",
"N N B C B B B C C C C B 3 v Z 0 @ 8 C A C Z A A A D C B C C C C C 0 8 C D G v v F G G G G G H G D Z Z S Z B B 8 , b S D S C Z S 9 o 3 Z D ( H H ( a.a.a.a.( ( ( a.a.a.a.s.s.s.s.s.s.s.s.a.a.a.j.j.j.j.j.j.j.d.j.k.l.n.v.l.l.n.n.n.v.v.n.n.n.b.b.b.b.c.b.b.m.x.R E ' P D.M.x.L E g.Z.f.M d / S.F.S.V.,.d d R Z.S.g.L D.F.D.C.R P L P W W W W I L u * & $ X ; ; ; ; 6 7 7 i h h a i i p i s z I T W W T Y Y I I s a a j R E E E W W W W W W W E R L s s a s j L L L L L s p p p s L L R E E E E E E E R R R R I Y Y Y E W W W W ! W W W W ~ ~ ,.,.,.~ ~ ~ ~ ~ ~ W W W W W W W W W W W W ~ W W Y I j p i i s I Y Y E R L s s a s L R E W ~ 2.2.,.~ ~ W W W W E L s p i p s L R E ` ` ` ` 2.~ ~ ~ ~ ~ ~ W Y Y Y L s u : & # X # & 6 s E ` ` ` ` ` ' 9.D.Q.(.9X(.(.(.^.:.L.^.V.).pX1.^.).(.(./.L.| 4./.(./.;.1.^.^.;./.!.Q.(.A.3.W.Q.W.W.B.E.Q.Q.W.F.E.E.Q.~.d G.Q.Q.E.W.U ;.G.W.E.Y.S.m.S.F.n.m.n.x.x.Z.S.S.M.n.m.D.9 f.Z.m.m.S.M.B.U.F.F.F.F.F.F.F.B.B.B.B.B.B.B.B.B.B.B.N.N.b.b.N.N.N.m.M.Z.x.z.n.b.b.b.b.b.b.n.v.n.n.v.l.v.b.v.v.n.v.l.l.l.l.l.l.l.l.k.j.k.k.k.k.",
"B B B C C C C B C C C B 3 v Z 9 @ 8 Z D C C S A D C C C C C A C Z 0 8 C D G v v G F G G G G G G G G S C Z B v 8 & 0 S S S Z Z S 9 o 8 S G ( ( ( a.a.a.a.( ( ( ( ( a.a.s.s.s.s.s.s.s.s.s.a.s.s.j.j.j.j.j.j.k.j.j.l.l.c.c.n.n.n.v.v.v.v.n.n.n.c.c.c.c.c.b.b.m.x.P E / L D.M.x.L E g.Z.f.M y / D.F.S.V.,.d d I Z.S.g.R A.S.D.V.p a P E / W W E L i : & & $ & ; ; 6 6 7 7 a i a i i u u u u i j I Y Y Y Y Y I I j s j L Y W ~ W W W W W W W W W R s i u i s L R I L L L s p u p s L R E E E E E E E E I R R R I I Y Y Y E W ! W ! ! W W W W W ~ ,.,.,.~ ~ ~ ~ ~ ~ W W W W W W W W W W W ~ ~ ~ ~ W W I j i p p j I Y E W E R L s p s s I W W ~ 2.2.~ ~ ~ ~ W W E L s p 7 7 7 a L E ` ` ` ` 2.~ ~ ~ ~ ,.W W I I I L L a 7 * & & # X & 6 a ! ! ` ` ` ` ' ' V.W.Q.!.W.(.^.:.L.^.V.).wX;.^.).(.(./.L.| 4./.(./.;.:.^.^.W ~.!.Q.(.~.A.W.W.Q.M.S.E.W.W.E.E.E.E.W.~.M G.Q.W.W.W.;.;.G.W.W.E.Y.S.M.S.n.n.m.z.m.M.m.S.Z.m.m.S.9 x.Z.M.M.B.B.F.F.F.B.B.F.B.M.B.B.B.B.B.B.N.B.B.N.N.B.N.N.b.N.b.N.N.b.m.Z.f.z.b.b.b.b.b.n.n.n.n.n.v.v.v.n.n.n.v.l.l.v.l.v.v.l.k.j.j.k.j.l.k.j.k.",
"B C C C C C C C C C C C 8 v ^ 0 @ 8 Z C C C C A D C C C A D D A Z 9 8 C D G v v D F G G G G G G D S S Z C B v 5 , 9 Z Z Z C Z G v + 8 Z G H ( ( a.a.a.a.a.a.( ( ( a.a.s.s.s.s.s.s.s.s.s.s.j.j.j.d.j.j.j.j.k.k.k.k.k.c.n.v.v.n.n.v.v.v.n.n.n.b.b.b.b.b.b.b.b.x./ / / L Z.m.x.P ` V.Z.f.U y / D.B.B.V.,.M d R Z.Z.g.R D.S.D.` : E E / / E E L i : & $ & & ; 6 7 7 a h h h h i i u u u 6 u i s I Y Y Y I I z z j L R E W ~ W W W W W W W W E R s i u u p j R Y Y R L m p u u s L R E E E E E E E E E E E E E Y I Y Y Y E W W W W W W W W W ~ ~ ,.,.,.~ ~ ~ ~ ~ ~ W W W W W W ! W W W W W ~ ~ ~ ~ W T I s p p p s R E / ` E E L p p p L R E W ,.,.~ ~ ~ ~ ~ W W I L s i 7 7 7 a L E W ~ ~ ` ~ ~ ~ ~ W T I s s s s s s p 7 * * & # & * 6 j Y ! ` ' ' ' ' w.9.W.(.(.(.4X:.L.^.V.).pX;.5X).(.(./.L.| 4./.)./.;.1.^.^.;.~.Q.Q.Q./.A.W.Q.W.B.F.E.W.W.E.W.E.E.W.~.m G.W.E.W.W.U ;.G.W.E.B.F.F.M.S.n.j.z.x.n.m.S.S.S.m.z.Z.9 f.m.S.B.B.S.F.F.B.B.B.F.F.B.B.B.B.B.N.B.N.N.N.B.N.N.N.N.N.b.b.b.M.M.m.Z.c.c.n.b.b.b.b.b.n.n.n.v.n.v.v.n.l.l.l.l.l.l.l.l.l.l.l.l.l.l.l.l.k.j.j.",
"B C C C C C C C C C C C 8 v ^ 0 @ 0 S D D C A A C C C A D D D C Z 0 8 Z D G v v G G G G H H G G G G S C Z Z B 5 , v Z S Z C Z G 9 o 3 B S G H ( ( ( a.( ( a.( K ( a.a.a.s.s.s.s.s.s.s.a.a.j.j.j.j.j.d.j.j.k.k.d.k.l.l.l.v.v.l.v.n.v.n.n.n.b.b.b.b.b.b.b.b.b.x./ / ' P Z.M.x.s / G.Z.f.U y E D.F.B.V.,.M d I Z.Z.g.L D.M.' E z E E ' / R L i * & X & & ; 6 7 h h h h h h h h a a s s s s s j z I Y I I z z j j I E ~ ` W W ~ ~ ~ W W W E R s p p i p j I Y Y R R L a u u p L R E E E E E E E E E E E E E E E I Y Y Y E W W W W W W W W W W ~ ,.,.,.~ ~ ~ ~ ~ ~ W W W W ! ! ! W W W W W ~ ~ ~ ~ ~ W T I j p i p s R E W W E R L a p s L I Y W ~ ,.~ ~ ~ ~ W W E E L m i i 7 7 s L E W ~ ~ ~ ~ ~ ~ Y j p u u u u i s s i 7 6 6 & & & & i h Y ! ` ` ` ' ` ' V.Q.9X).).:.J.^.V.).iX1.^.).(.(./.L.| 4./.(./.;.;.^.^.;.~.Q.!.(./.A.W.Q.W.E.E.W.W.W.W.E.E.E.F.~.m G.W.E.W.W.R ;.G.W.E.E.B.M.S.S.S.n.m.m.m.m.m.S.m.x.n.D.9 ) m.m.B.F.B.F.F.F.B.B.B.B.B.B.B.B.N.B.B.B.N.M.N.N.N.b.b.N.N.b.n.b.b.m.M.z.c.b.b.b.b.b.b.v.b.n.n.n.v.v.n.l.l.v.l.l.j.l.l.l.l.l.k.l.k.k.l.j.j.j.",
"C C C C B C C C C C C B 2 v S 0 @ 9 Z D D D D D D A D D A D D S G 9 8 Z D G v v G G G G G G G G G G D C C Z Z 8 < 0 Z Z Z Z G G 9 o , B D G G H H K K K ( a.a._ _ a.a.a.s.s.s.s.s.a.a.a.a.a.j.j.s.s.j.j.j.j.k.j.k.l.l.l.v.v.v.v.v.l.n.n.b.b.b.b.n.b.b.b.b.b.x./ / ' L Z.S.x.Q V.D.n.f.U y E D.B.B.V.,.M d I Z.Z.g.P Z.) P Y E E E / / R p < & X X & * 6 a h L h h h h h h j j L I I I I z j z z Y I z j j z I E W ` ` W W W ~ ~ W W E I s i u p s j L Y E Y R R s p u p s E E E E E E E E E E E E E E E E E Y Y Y E E W ! ! ! ! ! ! W W W ~ ~ ,.,.~ ~ ~ ~ ~ ~ W W ! ! ! W W W W ~ ~ ~ ~ ~ ~ ~ ~ ~ W T I s i p p L R E E E E R L s p s s j I T W ~ ~ ~ W W W W E E L L s u 7 i s R W ~ ~ ~ W W W j p p : * * : u p s s s i 7 6 & & & : 7 h E ` ` ` ` ` ' 9.D.(.(.^.:.H.^.V.).pX1.^.).(.(./.^.| 4./.(.~.;.;.^.^.U ~.!.Q.(.~.C.T.Q.W.E.E.W.Q.Q.W.W.Q.W.Y.~.m G.W.W.W.W.M ;.G.W.E.E.F.S.F.F.S.m.S.S.m.m.m.m.Z.m.m.S.9 ) n.m.S.F.B.B.B.F.B.B.B.B.B.B.B.B.B.N.B.N.N.M.b.b.N.b.b.N.N.N.b.b.b.b.m.m.b.b.b.b.n.b.n.n.n.v.n.n.n.n.n.n.l.v.v.l.l.l.l.l.k.k.k.l.k.j.l.j.k.k.",
"C C C C C C C C C C C B 2 v S 0 @ 9 S A A C D A C C A C c B D D Z 0 8 Z D A C Z G G G G G H H G G D D D S Z C 8 < 9 Z Z Z C Z S 9 o > B G H G D H ( ( ( ( ( a.a.a.a.s.s.a.a.s.s.s.s.a.a.a.a.j.j.j.j.j.j.j.s.j.k.l.l.l.l.v.l.v.n.n.n.b.n.v.v.v.v.b.b.n.n.n.n.x.Q P ' P Z.M.x.) x.Z.n.f.U y R D.B.B.V.W U d M Z.Z.3.L x.P ! j Y W E R R a 6 & # X & * 6 7 a h L h h h h h a h L I I I R I z j s z z j j j j I Y Y E ` ` W W ~ ~ ~ W Y R s i u i s L I I E E I R s s p s L L E E E E E W E E E E E E E E E E E Y Y Y E W W ~ ~ ~ ~ ! ~ W T T ! ~ ~ ~ ~ ~ ,.,.~ W W W W W W W W W W ~ ` ~ ~ ~ ~ ~ ~ ~ ~ W I j p i p a L E E E E E R L s p i i s j Y Y W ~ ~ ` ~ ` ` E E L L s i i i L E W W W T Y I i u u u u : u i s n L L L s 6 * & & 6 6 a I E ` 3.` ` 3.w.A.D.(.^.:.H.R.V./.iX;.^.).(.(.(.4X| 4./.).~.;.=.^.^.U ~.!.W.Q.~.C.G.Q.Q.E.W.E.B.E.E.W.F.F.F.~.L A.W.W.E.W.M U G.W.E.E.Y.F.Y.S.M.M.m.S.m.S.S.m.m.m.m.S.9 f.m.m.B.b.m.b.B.B.B.B.B.B.B.B.B.B.B.N.B.N.B.N.N.b.N.N.N.N.b.b.b.b.b.b.b.b.b.b.b.b.b.n.n.n.v.n.n.n.v.v.n.l.n.l.l.v.l.l.j.j.l.l.k.k.l.l.l.j.j.j.",
"C C C C C C C C C C C Z 2 v S 0 @ 9 S A D D D D A A D D C C D D S 9 9 Z C C D G G G G G G G G G G G G D S C V 8 < 9 C C Z Z Z G v + 2 Z G G G G H ( K a.a.K a.a.a.s.a.a.s.s.s.s.d.s.d.s.s.s.j.j.j.j.j.j.j.s.j.l.j.l.k.l.l.v.l.l.l.n.n.v.v.v.b.b.b.b.c.k.c.c.z.Q / ' P Z.m.m.m.m.m.m.f.U y E D.B.S.V.U M d R Z.Z.3.L Q Q Y L W E R R n 6 * # # & & : 6 7 a h L L L h h 7 6 7 a L I I L j s i s s z j j j j z I E W ` ` W W ~ W W Y I L s s p s R E Y Y Y I L j p p s L R E W W W W W W W E E E E E E E E E E E Y Y E W W ~ ~ ~ ~ ! ! W W W W W T W ~ ~ ,.,.~ W E E E E E W W W W ~ ` ~ ~ ~ ~ ~ ~ ~ ~ W Y z s p p p s R E W W W E R L s p p i i s I Y W ~ ` ` ` ` ` E E E L L s s L I E W Y I I I i i i p p s p s L L L R L L i 6 * * : * i L E ~ 2.` ` 2.3.w.Q T.^.:.H.^.V./.iX;.^.).(.(./.^.| 4./.(.~.;.=.^.^.U K.Q.Q.Q.~.A.T.Q.W.W.W.c.E.W.E.E.S.E.W.W.n A.W.W.E.W.M U T.Y.E.E.Y.F.M.m.M.M.c.S.n.j.S.M.x.j.z.m.3 ) m.m.m.B.B.B.F.B.B.B.B.B.B.B.B.B.B.M.M.N.B.N.N.N.N.b.N.b.b.b.b.b.b.b.b.N.b.b.b.n.v.n.n.n.v.v.l.n.n.v.l.l.v.l.l.l.l.l.l.l.l.l.l.l.l.j.l.l.k.j.",
"C C C C C C C C C C C C 2 v S 0 @ 8 S D A C C A A A D D C D D S ^ 8 8 G D D G D G G G G G G G G D G D Z Z Z Z 8 & 0 Z C Z Z B Z 9 + 9 G G G G G H ( K K K K a.a.a.a.a.a.a.a.s.s.s.s.s.s.s.j.j.j.j.j.j.j.d.j.l.l.k.j.j.j.l.l.l.l.l.n.v.v.v.v.n.b.n.n.n.n.c.c.x.Q P ' P Z.m.m.m.M.m.n.f.U y E S.B.S.V.R M d R Z.Z.' 6 Q Y Y j E W R n u * & # & * : 6 7 i a L L P P h 7 6 ; : i j L j s p i i p s j j j j I I I E W ~ ` W W W E R I L j j j L R E W W E R L s s p p L R W / / ` ` ` ` ` W W W E E E E E E E E E Y Y E W W ~ ~ ~ ~ ! ! W T T T T T T W ~ ,.,.W T Y Y Y Y Y E W W W ~ ~ ~ ~ ~ ~ ~ W W W W T I z s s p p m E / W W W E R I j s p i i s I W ~ ` ~ ` ` ` ` / E E R L L L L E E Y Y I I z j z I I I j L L L E E E L m i 7 6 * * 6 p L E ~ ~ 2.2.3.w.P V.^.:.J.^.V./.iX;.^.(.(.(.(.^.| 4./.(.~.;.;.^.^.U K.!.Q.!./.V.W.Q.W.W.W.E.W.W.E.W.W.E.W.~.n G.W.E.E.W.M U G.W.E.E.F.F.S.F.m.x.S.n.m.m.m.n.n.m.m.Z.9 x.m.m.B.B.M.B.F.N.b.M.B.B.B.B.N.B.N.N.N.N.B.N.M.N.N.N.N.N.N.b.N.b.b.b.M.N.N.b.b.n.v.n.n.b.n.n.l.l.l.v.v.l.l.n.v.l.l.l.l.l.k.l.k.l.j.j.k.k.k.k.",
"C C C C C C C C C C C Z 2 v G 0 @ 9 S D C C A A C C C C D D D D ^ 8 8 S D F G G G G G G G G G G G G D C C Z Z 8 & 0 C B Z C C Z 9 3 C G G G G H H K K ( ( ( a.a.a.a.s.s.a.a.a.s.s.s.s.s.s.j.j.s.s.j.j.j.d.j.j.j.j.j.j.l.l.l.l.l.l.v.l.n.n.n.v.n.n.b.b.b.n.c.x./ / ' P Z.b.b.b.m.m.m.f.E y E S.B.S.V.U M d R Z.Z./ @ P ! W a L R R a < # # & * 6 7 i a a h L P P P h h 6 ; : 6 a a p u u u u p p s z I I Y Y Y E W ` ` ~ W R I L L L L L I I E W W W E I j s p p m R E ~ ` ` ` ` ` ` ` ` / W W E E E E E E E E Y Y E W W ~ ~ ~ ~ ~ ~ W T T T T T T ~ ~ ,.,.W Y Y Y Y Y Y T T W W ~ ~ ~ ,.,.~ ~ W W W W T T I I L s i p R E W W W W E Y I j s p i i s I W ~ ` ` ` ` ` ` ` E E I L L L R Y Y Y Y Y T W Y Y Y I L L L L E E E E R L p u < & < 6 p s E ~ 2.2.2.3.3.` w.;.J.^.C./.iX;.^.(.(.(.(.^.| 4.~.(.~.;.;.^.^.M ~.Q.W.Q.~.A.W.Q.Q.W.W.Y.E.E.E.E.W.W.W.W.n G.W.W.E.W.R ;.T.W.Y.E.Y.S.m.m.S.M.m.n.m.n.m.S.x.m.n.S.9 x.m.M.m.B.B.B.B.M.M.N.B.B.B.B.B.B.B.N.N.B.N.N.N.N.N.N.N.N.N.N.N.b.n.b.b.n.n.n.n.n.n.v.v.n.n.n.n.n.n.l.v.l.v.l.l.v.v.l.l.l.l.l.k.k.k.k.k.k.j.j.",
"C C B C C C C C C C C C 3 v S 0 @ 9 S D A A A C C C C Z D D D D G 8 8 Z D D G G G G G G G G H G D D C C C S Z 5 @ 9 C C S C B B 9 9 Z G G G H H ( H J ( K K _ _ a.a.a.a.a.s.s.s.s.s.s.j.s.s.j.s.s.s.j.s.a.j.d.s.j.j.j.l.l.l.l.l.l.c.v.n.n.n.v.v.n.n.b.n.n.c.x.' Q ' P Z.b.b.b.M.m.n.f.U y R Z.B.S.V.M U d R Z.f.L Q ! ~ ~ ~ W L a u & # & & 6 6 i a h j h L P P P L h i 7 6 7 i i u 6 : * : u p s I Y W W W W E W ` ` W W j j j L I I R I E E W E W I L s p p s L E ~ ~ ~ ` ` ~ ~ W W ~ ~ ` W W E E E E E E E Y Y E W W ~ ~ ~ ~ ~ ~ W T T T T T T W ~ 2.2.T Y Y Y Y Y Y T T T W ~ ~ ~ ~ ~ ~ ,.W W T W W T T Y I L p p s R E E W W W E Y I j s i u i s I W ~ ` ` ` ` ` ` ` E E R L L I I I I I I Y T Y Y I I j j L L L R E E E R L s 6 & & & < u I ~ 2.,.,.2.! ! 3.p 4.^.C.).wX;.^.(.(.(./.^.| 4./.(.~.;.=.^.^.M ~.W.W.W.~.A.W.Q.W.E.E.E.E.W.E.E.E.E.Q.W.n D.W.E.E.W.R ;.G.E.F.M.S.S.S.S.M.c.j.S.S.m.n.m.x.f.x.Z.9 ) m.M.m.B.B.B.B.B.b.b.M.N.N.M.N.N.N.N.N.N.N.N.B.N.N.N.N.N.N.b.b.n.n.n.b.n.n.n.l.l.v.v.n.v.n.v.v.v.v.v.l.l.l.l.l.l.v.l.l.j.k.l.k.k.j.j.k.j.d.j.",
"C C C C C C C C C C C B 2 v S 0 + 9 Z C C A A C D D C C A D D D G 8 8 Z D D D G G D G G G G G G G D A D G D S 8 @ 0 Z Z Z Z B C 9 2 V G G D G H H J ( K ( ( _ a.a.a.a.a.a.a.s.a.a.s.s.s.s.s.s.s.a.a.d.j.s.s.a.j.k.j.k.k.l.l.l.l.l.c.l.v.n.n.v.n.n.n.v.v.c.c.x./ ) ' P Z.b.b.n.b.m.x.f.U y E Z.S.S.V.M U d R x.Q L ! / ~ ~ ~ E L 6 & # # $ & : u a a j h h h P L L L j h a i i i i u 6 * * : u s j T W W ~ ~ W E W ~ W Y I s j j I I R R Y W W W E W R j s a s j Y W ~ ~ ~ ~ ~ ~ W W W ~ ~ ~ ~ W W W E E E Y Y E Y W W W ~ ~ ~ ~ ~ ~ W W W W W ~ W W ~ ,.,.T Y Y Y Y Y Y T T T W W ~ ~ ~ ~ ~ ~ W W W W W W E Y Y I s p p s I W W W W W Y I z j s i i p j I E W ~ ` ` ` ` ` ` E E R I I j j s s j z I I z z z j s s s j I I E E E R L p < & & & < s I ~ ~ ~ ~ 2.` ` s 3.K.V.(.iXU ^.(.(.(.(.^.| 4.~.(.~.;.=.^.^.U ~.Q.Q.Q./.V.W.Q.W.E.E.E.E.E.E.E.E.W.W.W.n D.W.E.E.W.R ,.D.E.U.F.M.S.S.F.S.S.n.m.m.m.m.m.x.j.f.m.9 ) n.c.m.m.S.B.B.M.M.m.M.N.N.N.N.N.N.N.m.N.N.N.N.N.N.N.N.N.N.b.b.n.n.n.n.b.c.l.l.v.n.n.n.n.n.v.v.l.l.l.l.l.l.l.l.l.l.l.j.j.j.l.k.k.k.k.k.j.j.d.",
"C C C C C C C C C C C C 3 v Z 0 + 8 C C C C C C C C C C C A C A S 8 8 Z D D F D G G G G G G G G G G D D G G S 8 @ b Z Z B C Z Z 9 2 V G G G G H H ( ( J ( ( ( ( a.a.a.a.a.a.s.s.s.s.s.s.s.s.d.s.a.a.a.a.a.a.a.j.j.j.j.k.l.l.l.l.l.l.l.v.n.n.n.n.b.b.n.c.c.c.x.) / ' P Z.b.b.b.b.m.x.f.U y E Z.B.S.f.M U d s P E ~ ~ / / ~ ! L u * X . . $ $ : u i j j j j j L L L L j j j s a p i u u * * 6 i j Y W W W W W W W W W Y L j j j I I Y Y Y Y W W ! W Y L s i s j I Y W ~ ~ ~ ~ ~ W W T T W W W W W W W E E Y Y Y W W W W ~ ~ ~ ~ ~ ~ ~ ~ W W W W W W ~ ~ ~ ~ T T Y Y Y z I Y T T W W ~ ~ ~ W W ~ W W W W W W E W T Y I j s p j Y W ~ ~ W W Y I z j s i i s s z Y W W ` ` ` ` / W E E R I s p p i p i s s s j j s s i i s I Y Y Y Y Y Y s u * & & * 6 i L E ` ` 2.2.2.2.3.A.V.(.0XU ^.(.(.(.~.L.| 4.~.(.~.;.=.^.^.U ~.Q.W.Q./.V.T.W.W.E.E.E.E.E.E.E.E.E.W.W.L D.W.E.E.W.Y 2.G.E.E.Y.S.S.S.S.F.S.S.m.n.n.m.n.z.x.f.Z.9 ) n.n.n.m.B.N.N.N.b.M.M.M.N.N.N.N.N.N.N.N.N.N.N.N.N.M.N.N.N.N.b.l.k.v.n.b.n.n.n.c.n.n.v.v.v.v.v.v.l.l.v.l.l.l.l.l.k.l.k.j.k.j.j.k.k.k.j.j.j.j.",
"C C C C C C C C C C C C 8 v ^ 0 + 8 C C C C C C C C C C C A C C Z 8 8 Z D D D G G G G G G G G G G G G G G G D 8 @ 0 Z S Z Z Z C 9 , b S Z G H H H ( ( H H H K ( a.a.a.a.a.a.a.a.a.a.s.s.s.s.s.s.s.a._ a.a.d.d.j.j.j.j.j.k.l.l.l.l.l.l.v.v.n.n.b.b.c.c.c.n.b.x.) / ' P Z.b.b.b.b.m.x.f.U y R Z.B.S.' M U p p / ` ` ` ` W E L s < X . . . $ % : u a j j j j z L I I L L j L L j s s p p 6 u p s Y W W W ` 2.2.~ W W E I j s j j I Y W W W W W ~ ~ ~ j s a s j z I T W ~ ~ ~ ~ ~ W T T Y T T Y E E E E Y Y Y Y Y W W W ! ~ ~ ~ ~ ~ ~ ~ ~ T W T T T W ~ ~ ~ ~ T T Y Y Y z l Y T T W W ~ ~ W W W ~ W W W W W W W W W W Y I s i p I W ~ ~ ~ ~ W Y I I z j s s i s j R E / ` ` ` / W E E Y I s i u p i p p s s s s s i i i s z Y Y T T Y Y L s u 6 & & & 6 s I ` 2.2.2.2.2.3.3.E ~.).U ^.(.(.(.~.L.=.4.~.(.~.;.=.^.^.U ~.Q.W.Q./.3.G.W.E.E.W.W.W.E.E.W.E.E.W.W.L D.Q.E.E.W.R 1.D.E.E.U.Y.U.U.U.F.F.S.S.m.m.S.n.d.) j.Z.9 ) d.f.z.c.B.B.B.b.b.b.b.b.N.N.N.N.N.N.N.N.N.N.N.b.N.M.b.b.b.b.n.j.l.l.n.b.b.n.c.c.l.n.n.n.v.v.v.l.v.l.c.l.l.l.l.l.j.k.k.k.k.j.j.j.j.j.j.j.j.j.",
"C C C C C C C C C C C B 2 v ^ 0 @ 8 C C C C C A C C C C C C A C Z 8 0 Z D D D D G G G G H H G G G G H H G G D 8 @ 0 Z Z Z B B C 9 8 Z G Z C G H H H H H H H H ( _ a.a.a.a.a.a.a.a.s.s.s.s.s.s.s.d.s.a.a.a.a.d.d.j.j.j.k.l.l.l.l.l.l.l.n.n.v.n.b.b.b.c.v.c.c.x./ / ' P Z.b.b.b.b.b.x.f.U y R Z.B.m.' s U p h ` ` ` ` ` E L i 6 X . . $ $ % % : u s j j j j I I I R R L L L I I L s s s u p m Y E ` ` ` ` ` W W W E I j s j j I I E ! ~ ~ ~ ~ ~ ~ W i i s j I Y Y T W ~ ~ ~ W W T T Y Y Y Y T Y Y T T Y Y Y Y Y W W W W ~ ~ ~ ~ ~ ~ ~ ~ T ~ T T T ~ ~ ~ ~ ~ W T T T T l Y Y T T W W ~ W W W W ~ W W W W W W W ~ ~ W T Y j i i j Y W ~ ~ ~ ~ W T Y I z z s s i s s R E / / ` W W W W Y I s i u r p p p p s s s s i p s s z Y Y T T Y Y I L s p < & X & 6 s R W 2.2.2.2.2.3.L V./.U ^.(.(.!.~.L.=.4.~.(.~.M =.^.^.U ~.Q.W.W./.' G.E.E.E.E.E.E.E.E.E.E.E.E.W.P D.W.E.E.W.U ,.D.E.E.E.E.Y.U.U.F.F.S.m.n.n.m.n.j.d.) Z.8 ) x.d.d.m.B.B.b.c.c.k.k.b.N.N.N.N.N.N.N.N.N.N.N.N.N.b.b.b.N.c.c.l.l.l.v.b.n.n.l.l.c.n.n.n.v.v.v.v.v.l.v.l.l.l.l.k.j.k.k.k.k.j.j.j.j.k.j.j.j.j.",
"C C C C C C C C C C C C 3 v Z 0 @ 8 Z C C C C C C C C C C C C C Z 8 0 Z D D D D G G G G G G G H G G G G H F Z 8 @ 0 Z C B B B B 9 8 V Z Z C D G H G G ( H H ( a.a.a.a.a.a.a.a.a.a.s.s.a.s.s.s.s.d.s.s.a.a.a.a.d.j.j.j.j.k.l.l.l.l.l.l.v.v.v.v.v.b.b.n.c.c.c.x./ ) ' P Z.b.b.b.b.c.x.f.U y E Z.M.Z.' m s P ` ` ` ` ` E L s * & X . $ & % % : : i j j L L I I I Y I R R R I R R I L j s s m R W ` ` ` ` ` ` W W E I j s j I I I Y W ~ ~ ~ ~ ~ W W E i a j I E W T W ~ ~ ~ W T T T Y Y I T Y Y Y Y Y T T T E T E W W W W ~ ~ ~ ~ ~ ~ ~ ~ ~ ~ ~ T T T ~ ~ ~ ~ ~ T T T Y Y Y Y T T ! W ~ ~ W ~ ~ ~ W W W W W W W ~ ~ ~ W Y I s p s z Y W ~ ~ ~ W W W Y I I z j s p p m R E / W W W W W W Y z p p p i s s s s s j j j j j z I Y Y T T Y Y R R L s 7 : & # & 6 a R ` 2.2.2.2.2.` E A.U ^.(.(.!.Q.L.=.4.~.(.~.M ;.^.^.U ~.Q.W.W.G.' G.E.E.E.E.W.E.E.E.E.E.E.W.~.P D.E.E.E.E.R ;.A.E.E.E.E.U.U.F.F.S.m.c.c.n.z.n.x.d.f.Z.8 ) x.d.d.z.b.b.z.c.b.c.b.M.M.M.N.N.N.N.N.N.N.N.N.N.N.N.N.N.b.b.n.c.n.l.n.n.b.c.l.l.l.c.n.n.n.n.n.v.v.l.l.l.l.l.l.k.k.k.k.k.k.s.d.k.k.k.k.k.d.d.",
"C C C C C C C C C C C B 2 v ^ 0 + 8 C C C C C B C C C A C A S D S 8 0 Z D D D D G G G G G H G G G G G G H D Z 8 @ 0 C Z Z B B Z v 2 v Z Z S D D D D H ( H ( a.a.a.a.a.a.a.a.a.a.a.a.a.s.s.s.s.j.d.s.s.s.s.d.d.a.d.j.j.j.s.j.l.l.l.v.l.v.v.v.v.v.n.n.b.n.n.c.x.Q ) ' P m.b.b.b.b.c.x.' U y R S.M.Z.' p 6 P ! ! ~ ` ` E s 6 # # # & * : * * : 6 i j j L I I I I Y E I R R R R I I L L L L Y E 2.2.` ` ` W W W W I j s j I I I Y W ! ~ ~ ! ~ W W Y I s j I W ! ~ W ~ ~ ~ W T T T Y Y I I Y T T Y Y Y Y T T T T T W W W ! ~ ~ ~ ~ ~ ~ ~ ~ ~ ~ ~ T T W ~ ~ ~ ~ ~ W T T T T T Y T T T W ~ ~ ~ ~ W ~ ~ W W W W ~ ~ ~ W W W Y Y z s i p j Y W W ~ W W W W T Y I z s p p p s R E W W W W W W W Y j i p s j j j z z z z I I I Y T T Y Y T Y Y R R L L s i 6 & X X 6 p W ` 2.2.3.2.` 3.G.d ^.(.(.!.Q.L.=.4.~.(.~.M ;.~.^.U ~.W.W.W.~.g.D.E.E.E.E.E.E.E.E.E.E.E.W.~.P Z.E.E.E.T.R ;.D.E.E.E.E.U.U.U.S.S.m.n.n.n.c.M.d.( f.S.9 x.m.z.x.z.c.z.d.k.m.m.m.M.N.M.N.N.N.N.N.N.N.N.N.b.b.N.N.N.b.b.b.n.c.c.l.c.k.l.l.j.k.l.c.n.l.l.v.l.v.l.l.l.l.l.l.k.k.k.k.k.k.k.d.k.j.j.k.k.j.d.",
"C C C C C C C C C C C C 3 v ^ 0 @ 8 C C C C C C C C C C A C C S Z 8 0 Z D D D D G G G G G H H H H G G H H D S 8 @ 0 C S S C B Z v 2 v Z Z C Z D G G H ( ( ( _ _ a.a.a.a.a.a.a.a.a.a.s.s.s.s.s.s.d.s.a._ a.a._ _ d.j.j.j.j.j.l.l.l.l.l.v.c.v.v.v.v.n.v.n.n.n.x.Q ) ' P V.n.b.b.b.b.n.f.U y E Z.M.m.' u a ! ! ! ~ W E L 6 # . # * < 6 u : : : i a j L I I I I I E E E R R R I I L j L L Y W ` 2.2.` ` ` W W Y I s s j I I I I E ! ~ ~ ~ W W W Y j s j I E ~ ~ ~ ,.,.~ ~ ~ T T T T Y Y Y T T T T T T T T T Y T T E W W ! ~ ~ ~ ~ ~ ~ ~ ~ ~ ~ ~ T T W ~ ~ W ~ ~ T T T T T T T T T T T ~ ~ ~ ~ W ~ ~ ~ ~ ~ ~ ~ ~ ~ W W W T Y I s u u i j Y W ~ ~ ~ W W W T I z j s p u u s R E W W / ` ~ ~ W Y j j j j z I I I I I Y Y Y T W W T T T T Y Y R L L j s 6 * X . & 6 L W 2.2.` 3.` 3.V.R K.(.!.!.~.L.=.4.~.(.~.d =.^.^.U ~.W.W.Q.~.3.Z.E.E.E.E.E.E.E.E.E.E.E.E.W.D.E.E.E.E.T.E ;.D.E.E.E.E.E.U.U.S.S.m.m.m.n.n.n.x.d.d.Z.8 f.z.z.d.z.x.x.j.z.b.M.M.N.N.N.N.N.N.N.N.N.N.N.N.N.b.b.N.N.N.N.n.j.l.n.n.c.l.l.c.l.l.j.l.v.l.l.v.v.v.l.v.l.l.v.l.l.k.k.k.k.k.j.k.k.k.k.k.k.j.j.",
"C C C C C C C C C C C Z 3 v ^ 0 @ 8 Z C C C C C C C C C C A D A S 9 0 Z D D G G G G G G G G G H G H H G H G G 9 @ 9 Z D Z C B Z v 2 v S Z B C S D G H ( ( ( a.a.a.a.a.a.a.a.a.a.a.a.a.a.a.s.s.s.s.s.s._ _ a._ a.d.d.d.d.j.k.l.l.l.l.c.c.v.v.v.n.n.n.c.c.n.b.x./ ) ' P V.n.n.b.b.b.x.f.U y R Z.B.M.Q 6 ! ! ! ! W E L u & X # & < 6 u u i u i a j L I I E E E E E E E R R I L L j L L I E W ` 2.2.` ` ` W E I s j j I I I I Y E W W W W E W Y z i i j I E ~ ~ 2.2.,.~ ~ ~ W T T T T T T T T T T T T T T T Y Y E T W W ! ~ ~ ~ ~ ~ ` ` ~ ~ ~ ~ W W ~ ~ ~ ~ ~ ~ T T T T T T T T ! ! T ~ ~ ~ ~ ~ ~ ~ ~ ~ ~ ~ ~ ~ ~ ~ W W T T I s p u p s Y W ~ ~ ~ W W W Y I z j s p u u p m R E W / ~ ~ ~ W W Y I j j j I Y Y Y Y Y Y Y T W W W W W W W E R L L L s i : # X X & s E 2./ / ` ` ` 3.V.G.Q.(.(.~.^.=.1.~./.T.d ;.~.^.U K.Q.W.W.~.V.D.E.E.E.E.E.W.W.W.E.E.W.E.E.E.E.E.E.E.T./ ;.D.E.E.E.E.U.U.U.F.S.M.M.m.m.n.m.z.j.d.D.9 f.n.z.j.z.z.z.j.c.b.b.m.N.N.N.N.N.N.N.N.N.N.N.b.b.b.b.b.b.b.b.b.b.n.l.c.c.k.d.k.c.n.c.v.n.v.l.l.v.l.l.l.l.l.v.v.v.k.k.j.k.k.k.k.k.k.k.k.k.j.j.",
"C C C C C C B C C C C C 3 v Z 0 @ 8 Z C C C D A D A A C C A D D S 9 9 Z D D G G G G G G H G G G G G G G G D G 9 @ b Z C Z Z B Z v 2 B D Z Z D G G G ( ( ( ( ( a.a.( a.a.a.a.a.a.a.a.a.a.a.s.s.s.s.s.d.a.a._ a.a.s.j.s.d.k.k.l.l.v.l.l.l.v.v.v.n.n.n.n.n.n.b.z./ ) f./ V.c.n.n.b.b.n.f.U y R Z.M.m.0 ; ! ! ! ~ E L u * # # * * u p p s s s s j L I I E E E E E E W E Y R I L j j L I R W W ` ` ` ` ` ` E Y L s L I Y I I I E W W W W Y Y I j s i i j I W ~ ~ 2.2.,.~ ~ ~ W T T T T T W ,.W T T T T T T T T Y T W W W ! ~ ~ ~ ~ ~ ~ ~ ~ ~ ~ ~ ~ ~ ,.,.,.,.,.,.~ ! T T T ! T ! T T T W ~ ~ ~ ~ ~ ~ ~ ~ ~ ~ ,.,.~ ~ W W T T Y z p p p s I Y W ~ ~ ~ W T Y I z j s s p p p p m R E W ~ ~ ~ ~ ~ W W Y j z I Y Y Y T W W T T T W W W W W W E E R L L L s 7 * X X $ 6 L / ' / / / ` 3.3.w.D.!.!.~.R.=.1.~.~.K.d =.^.^.U ~.W.W.W.~.V.T.W.W.W.E.F.E.W.E.E.E.E.E.E.E.W.E.E.E.Y./ ;.D.E.E.E.U.U.U.U.F.S.M.m.m.m.m.j.z.j._ Z.8 x.n.j.d.x.c.c.b.b.b.N.N.N.N.N.N.N.N.N.N.N.N.N.N.b.b.b.N.b.b.n.b.n.v.l.l.j.k.l.c.n.n.l.v.v.v.v.l.l.v.l.l.l.l.l.l.v.k.k.k.j.k.k.d.j.k.j.j.j.j.j.",
"C C C C C C C C C C C C 3 b ^ 0 @ 8 C C D A D A A D D A C C C S Z 9 9 Z D D G G G G G G H G G G H H H H G D S 9 @ 9 Z C C S S Z 9 , b Z A S G G G ( ( ( ( ( _ a.( K K a.a.a.a.a.a.a.s.s.a.s.s.s.s.s.a.( a.a.( _ s.j.j.s.a.d.k.l.v.v.v.v.v.v.v.n.c.v.c.n.c.c.x.) ) x.f.m.n.b.n.b.c.z.' U y R Z.m.) a a ! ! ! ~ Y p * # # & 6 u p s s j j j L L I E E E E E E E W W E R L j j j j I I Y W W ` ` ` ` W W E R I L R Y I I I Y W W ~ ~ W Y I j s i s j I Y ! ~ ,.2.2.,.~ ~ ~ W ~ ~ ~ ~ ~ ~ ,.W T T T T T T T T T T W W W ! ~ ~ ~ ~ ~ ~ ~ ~ ~ ~ ~ ~ ~ ,.,.2.2.2.,.~ ! T T ! ! ! ! ! T T W ~ ~ ~ ~ ~ ~ ~ ~ ~ ~ ,.2.~ ~ ~ W W T Y I I p i p s I T W ~ ~ W W Y I z j j j m s p p p s R E W W W ~ 2.2.~ W I z I I I Y T W W W W T W W W W W W E E E L L L L a 6 & # X & a R / / E / ` 2.3.3.A.W.!.~.L.=.4.~.~.~.d =.~.^.U ~.Q.W.Q.~.V.T.W.E.W.E.E.U.E.E.E.E.E.E.E.E.E.E.E.E.D.` ,.D.U.E.E.U.U.U.F.F.S.S.M.m.m.m.z.c.z.d.Z.3 f.z.j.j.j.c.c.b.b.M.b.b.b.N.N.N.N.N.N.N.N.N.N.N.b.N.b.b.b.b.b.n.n.j.l.k.s.j.l.n.n.n.s.j.v.v.v.l.l.v.l.l.l.l.l.v.v.l.k.k.k.k.k.j.d.j.j.j.j.d.j.",
"C C C C C C C C C C C C 3 v Z 0 @ 8 Z C A A D D C C C C C C A D Z v 9 C D F D G G G G G H H G G G G G G G G S 8 @ 9 C B B C C C 3 2 b Z D Z B v C G ( H H ( K a.( ( a.a.a.a.a.a.a.a.a.s.s.a.s.a.a.a.a.( a.a.a.a.j.j.j.a.a.d.l.l.l.v.v.v.v.v.v.c.c.v.v.n.c.c.x.) ) m.c.b.n.n.n.c.c.z.' U y P Z.z.V Q ! ! E ! ! j u # . # * u p p m I I I I R I E E E E E E E E W W E I j a s j L I Y E W W ` ` ` W E R Y Y Y Y I I I I Y W W ~ ~ ! W Y L j i i j I Y W ~ ~ 2.2.2.,.,.~ ~ ~ ~ ~ ~ ~ ~ ~ W T T T T T T T T T T T W W W ~ ~ ~ ~ ~ ~ ~ ,.,.,.,.,.,.,.,.,.,.2.2.,.~ ! T T ! ! ! ! T T W W ~ ~ ~ ~ ~ ~ ~ ~ ~ ~ ~ 2.` ~ W W W W E W Y s p p i j I W ~ ~ W W Y I z j j L L L L s p a L R E W W ~ 2.2.2.~ Y I I I I Y T W W W W ~ W W ~ W W W W E E R L L L s i 6 & $ & < n R / / / ` 2.3.w.A.F.!.Q.K.=.4.~.~.~.d d R.^.M W.W.W.W.Q.V.D.E.F.U.E.E.E.E.E.E.E.E.E.E.E.E.E.E.E.D.2.2.D.U.E.U.U.U.U.F.F.b.M.M.m.n.z.z.z.j.z.Z.8 f.z.z.z.( f.z.z.c.m.m.b.N.N.N.N.b.N.N.N.N.M.M.N.N.N.b.b.b.b.b.k.l.l.k.s.d.j.l.c.n.c.k.l.l.l.l.l.l.l.l.l.l.l.l.v.v.k.k.k.k.k.k.k.k.k.j.j.j.j.j.",
"C C C C C C C C C C C B B B Z 8 @ 0 Z A D C D D A A D D A D D S Z v 9 C D F G G G G G G G G G G G G G G G D Z 8 @ b Z C B B S S 9 2 v Z Z C B B C G G D G H K a.a.a.a.a.a.a.a.a.a.a.a.s.a.a.a.a.a.a.a._ _ a.a.a.a.j.k.k.j.j.k.l.l.l.v.l.l.v.v.v.c.c.v.v.c.c.j.) ( b.b.c.v.n.n.v.c.z.' U y L x.) ` ! ! ! T ! E s 6 # # # * u p s m I I Y R Y E E E E E E W W W ~ W R j p i s j I Y E W W W ~ ~ W W I I I Y W W I I I E ~ ~ ~ ~ ~ ! W Y j s i s j Y Y W ~ 2.2.2.2.,.,.~ ~ ~ ,.,.,.,.,.~ T T T Y Y Y T T T Y T T E W W ~ ~ ~ ~ ~ ~ ~ ,.2.,.,.,.,.,.,.,.,.,.,.,.~ ! T T T ! ! ! T T W W ~ ~ ~ ~ ~ ~ ~ ~ ~ ~ ~ ~ ~ W W W W W E W E I s p p p z Y W W W W T Y I I L L R R R L s p p s Y W ~ ~ ~ 2.2.2.W I z z z I Y Y W W ~ 2.~ ~ ~ ~ ~ ~ W W E E R L s s p u 6 * & @ < L / / ` ~ 2.2.3.V.' Q.Q.L.=.4.~.Q.G.d d ~.^.R T.W.W.W.~.V.G.W.E.E.E.E.E.E.E.E.E.E.E.E.E.E.E.E.E.D.3.3.Z.U.U.E.U.U.U.U.B.M.M.M.M.m.n.n.n.n.m.Z.8 f.z.c.j._ ( z.c.c.k.b.M.N.N.N.N.N.N.N.M.N.b.b.N.b.b.N.b.b.l.n.k.k.k.l.d.k.c.k.k.l.l.j.k.l.l.l.l.l.l.v.l.l.l.k.k.k.k.k.k.k.k.k.k.k.k.k.j.j.j.j.",
"C B B B B C C C C C B B B C Z 0 @ 8 Z D C C C C C D D D C D D S Z v 9 B D D G G G G H G G G G G G D D G G Z S 0 @ b Z Z C C S S 9 , v D D S Z G G G G D G K ( a.a.a.a.a.a.a.a.a.a.a.a.a.a.a.a.s.s.a.d.a.a.d.d.d.a.j.k.j.j.k.k.l.l.l.l.l.v.c.n.n.v.v.c.c.n.c.j.) ) n.b.n.c.b.b.b.c.z.' U y L ' f ' ! ! ! ! ! j 6 * # # & * u u p s I R I R E E E E E E E E E E W E I s i i s L R E W W W ~ ~ ~ W Y s j I Y W W I I Y W ~ ~ ~ ~ ~ ~ W Y j s s j I T T W ~ ,.,.,.,.,.,.~ T T ,.,.,.,.,.~ T E E Y Y Y Y Y Y Y T W W W W ~ ~ ~ ~ ~ ~ ,.2.2.3.2.2.>.,.,.~ ,.,.,.,.W ! ~ ~ ~ ~ T T W W W W W W W ~ ~ W W W W W W ~ W W W W W W W W W R I s p u a I Y Y W W E Y I I I E E E E R s p 6 u j E W ~ ~ ~ ,.2.~ W Y I z j j I Y W ~ ,.,.,.,.~ ~ ~ W W W E Y Y I L s p u 6 * X X p E ` ~ ~ 2.2.` ' P W.Q.L.=.4.~.~.G.d d R.^.R T.W.E.W.~.V.G.W.E.E.E.E.E.E.E.E.E.E.U.E.E.E.E.E.U.D.3.3.D.U.E.E.U.U.U.U.B.m.S.m.c.n.c.c.n.z.c.m.9 f.m.z.j.j.j.z.z.k.( ( l.N.N.N.N.N.N.N.N.N.b.b.N.b.N.b.b.b.b.b.c.c.v.a.k.c.k.k.v.l.j.s.k.l.l.l.l.v.v.v.l.l.l.j.k.k.k.k.k.k.k.k.k.j.k.k.k.j.j.j.",
"C C C C B B B C C C C C C C Z 0 + 8 Z D C D C C D D C D C D G D Z 9 8 C D G D G G G G G H H G G G G G G G S Z 8 , b Z C A D A Z 9 2 v Z G Z C S G G ( H H ( a.a.a.a.a.a.a.a.a.a.a.a.a.a.a.a.s.d.s.a.a.( H _ d.a.d.j.j.j.d.s.j.l.l.l.l.l.l.v.n.n.n.c.l.c.c.c.j.) ^ c.c.c.n.n.b.c.c.z.' U y L ^ 5 ! ! ! ! ! L i $ # # # & & < * 6 u p s m L E E E E E E E E E E E R L s i i j R E W ~ ~ W ~ ~ W I j s I Y W W Y I I Y ! ~ ~ ~ ~ ~ ! W Y j i s z T ~ ~ W W ~ ~ ,.,.,.,.~ T T ,.,.,.,.,.~ T W W T Y Y Y Y Y Y E W W W W ~ ~ ~ ~ ~ ~ 2.2.3.3.3.3.>.,.,.W ! T T T T W ~ ~ ~ W W T W W W W W T T T T T T Y T T W W W W E W W W W E E E Y R a u u j I I E E Y I I I E E E Y E I L p 6 6 p L W ~ ~ ~ ~ 2.2.2.~ T z s p s I T ~ ~ ~ 2.2.,.~ ~ W W W W W W T Y I s i u : $ . * j E ~ ~ ~ ` 2.` 0 Z.Q.^.=.4.~.(.G.d d K.^.R T.W.W.W.~.V.G.W.E.E.E.E.E.E.E.E.E.E.E.E.E.E.E.E.Y.F.3.V.D.U.U.U.U.U.F.B.M.b.S.c.n.m.m.m.c.z.z.Z.8 ^ z.c.j._ d.m.c.b.a.d.b.N.N.N.N.N.N.b.N.N.N.N.N.b.b.b.b.b.b.b.n.c.k.d.a.k.v.c.v.v.n.l.k.j.l.v.v.v.v.v.v.l.l.l.k.k.k.k.k.k.k.J a.k.k.k.k.j.j.j.",
"C C C C C C B B C C B B C Z Z 0 @ v Z C C C D A D D D D D D D D S 9 5 B D F G G G D G G H H G G H G G G G D G 9 @ b Z S A C B Z 9 , v C G S B C G ( ( ( ( a.a.a.a.a.a.a.a.a.a.a.a.a.a.a.a.s.s.d.d.a.a.d.d.d.a.d.a.j.j.j.d.s.k.k.l.l.l.l.l.v.n.n.n.n.v.v.v.c.j.^ ^ c.b.b.b.c.n.n.c.z.' M y p 8 5 ` ! ! ! L i ; . . X X & & & * 6 6 6 6 i L E E E E E E E E E E E I j a a j I E W W ~ ` 2.,.W Y z s j I T W W T I Y W ! ~ ~ ~ ~ ~ W Y I j s j I T ,.,.T T W ~ ,.,.,.,.,.T T ,.,.,.,.,.W T W T T Y Y Y Y Y Y T T W W W ~ ~ ~ ~ ~ ~ ,.2.3.3.3.3.2.,.,.,.T T T T T E W ~ ~ ~ ! W W W T W Y T T T T Y Y I Y Y Y Y W W E E E E E E E W E Y L i u i j I I I I Y E E E E E E Y I R j i 6 u p I W ~ ~ ~ 2.2.2.2.W I s u i s I W ~ ~ ,.2.2.,.~ W W W W W W W T I j s s : % $ $ u I ! ! ~ ~ ` 3.' x.W.^.=.4.W.(.G.d ;.R.^.R W.W.W.Q.~.V.G.W.E.E.E.E.E.E.E.E.E.E.E.E.E.E.E.E.E.F.' V.D.F.B.F.U.F.S.F.F.S.S.c.m.c.c.c.c.c.z.S.9 ) z.j.z.H z.m.b.b.c.c.b.N.N.N.b.N.N.N.N.N.N.N.N.b.b.b.n.v.n.b.b.c.c.j.k.c.c.l.l.c.n.n.v.k.l.v.v.v.v.v.l.l.l.l.k.k.k.k.k.k.j.k.k.k.k.j.j.j.j.s.",
"C C C C C C C C B C B B C C Z 9 @ 0 Z C A D D D A A D D D D D D S 9 2 V D F G F G D D G D D G D G A D G D S C 5 @ 0 Z D A A C Z 9 9 ^ D G G Z D G H H G ( a.a.a.K K a.a.a.a.a.a.a.s.s.a.( a.a.s.a.a.( G G a.d.d.s.d.k.j.j.j.l.k.j.l.l.l.l.n.c.n.n.v.v.v.n.b.x.) ) b.b.b.c.b.b.b.c.x.' d q & o ; ! ! ! Y i ; X . . . X & * * 6 6 * & & 7 a R E W E E E E E E E R L s s j I Y W W ~ ~ ` 2.~ Y I j s I Y T W W W W W W ~ ~ ~ W W W Y I I z z z T T ,.,.T T T ~ ,.,.,.,.,.T T ! ,.,.,.,.W T T T T T Y Y Y Y Y T T T W W ~ ~ ~ ~ ~ ~ ,.2.2.3.3.3.2.,.,.! T T T l Y T W ~ ~ ~ ~ ~ W W T T Y I I I I I I z I I I Y T E E E E E E E E E E Y I j i 6 i j L I I E E ! W W W E Y Y E R s u u u s Y W ~ ~ ,.2.2.2.~ Y j p u i j Y W ~ ~ ,.2.,.~ W W W W W W W W Y I j j u * $ $ & a I E ~ ~ ~ 2.` Q V.^.=.4.W.Q.~.d d R.^.m G.W.W.W.~.V.T.W.E.E.E.E.E.E.E.E.E.E.U.E.E.U.F.U.U.S.' g.D.Y.B.F.F.B.B.S.S.z.z.z.n.n.m.m.m.n.d.D.9 ) n.m.n._ d.c.m.m.z.c.b.N.M.l.b.N.N.N.N.N.N.N.N.b.N.c.n.b.b.c.n.b.a.a.k.c.l.c.l.l.n.l.l.v.l.l.l.l.v.l.l.l.l.l.k.k.j.j.k.k.k.k.k.k.k.j.j.j.j.j.",
"C C C B C C C C C C C C B C Z 0 @ 8 Z D A C C A D D D D D D A S S 8 5 C D F D D D D D D D G D D G G G G D D Z 5 < b S S D A Z S 9 8 Z D D G D G G G G G H ( a.a.( a.a.a.a.a.a.a.a.a.a.a.( ( ( ( ( ( ( ( ( a.d.s.d.d.d.j.j.j.k.l.l.l.l.l.l.v.v.n.v.v.v.l.c.c.f./ ) b.n.b.n.b.N.b.c.z.' d * @ X 5 Q ! E h : $ . . . . X ; 6 7 i i 7 : ; 6 i L E E E L L L L L L L j j j Y W W ~ ~ ~ ~ 2.2.W I j j z T T W W ~ ~ ~ ~ ~ ~ ~ ~ W W Y I j j I Y T T ,.,.,.,.,.T T ! ,.,.,.,.,.T ! ,.,.,.,.W T T T T Y Y Y Y Y Y T T T W W ~ W ~ ~ ~ ,.,.,.2.2.2.2.,.,.T T T T T z Y T T ~ ,.~ ~ ~ W T T Y I z z z z z z z z I I Y T E E E E E E E E E E W E I j i i j L I I Y E ! ~ W W W E E E R j a i u s I W ~ ~ ~ ,.2.2.~ W I p p i s I Y W ~ ,.2.2.,.~ ~ ~ ~ ~ ~ ~ ~ W Y I I a : & $ $ : j E ! ~ ~ ` ` P P A.=.4.W.Q.~.d d K.^.m G.W.W.W.Q.V.G.E.E.E.E.E.E.E.E.E.E.E.E.E.E.E.U.U.Y.F.' V.D.F.S.F.U.F.B.M.M.j.j.n.M.S.m.n.n.j.z.D.9 ) n.c.c.j.j.c.c.k.c.b.b.b.b.b.m.m.N.M.N.N.N.b.b.b.b.l.k.c.d.d.j.z.k.a.k.n.k.k.c.n.n.l.l.l.l.l.l.v.l.l.l.l.l.l.k.l.l.j.j.j.k.k.k.k.k.j.j.j.j.s.",
"C C C C C C C C C C C C C C Z 0 @ 8 Z D A D D A D D D D D D D D S 8 5 C D F D G G A D D D D D F G G G G G Z Z 8 & b Z C C C C S v 9 ^ G D D G D G G D D H ( ( ( ( ( a.a.a.K K a.a.( K ( _ ( ( ( ( ( _ _ _ a.d.d.a.a.d.j.j.k.l.l.l.l.l.c.l.l.v.n.n.v.v.v.c.z.f./ ) c.c.n.b.n.n.n.c.x.' I E Q ! ! ` ! L i & X . X $ & ; 7 i a a h s 7 6 6 i L E E E L L L L L L L L I E W ~ ~ ~ ~ 2.2.2.,.Y j s z Y W W W ~ ~ ~ 2.2.` ~ ~ ~ E Y Y I j s Y T ! ,.,.,.,.,.,.T T ;.,.,.,.,.,.,.T ,.,.,.,.T T T T Y I z z I I I I T T T W W W ~ ~ ~ ,.,.,.,.,.,.,.,.T T T T T T T T T W ~ ,.,.,.~ ~ ~ T Y z z z z z z z z I I I Y T E E E E E E E E W W W E E I j i i j I I Y E E ~ ~ W W E E I I L j s p p j Y W ~ ~ ~ ,.,.,.~ W j s i p j I W ~ ~ 2.2.,.~ ~ ~ ~ ~ ~ ~ ~ W T Y Y j i * $ $ $ i I ~ ~ ~ ~ ~ ! ' 3.| 4.W.W.~.d d K.~.m T.W.Q.W.~.V.G.W.E.E.E.E.E.E.E.E.E.E.E.E.E.E.U.U.U.B.m.Z.S.F.U.S.U.F.S.B.m.z.n.c.c.z.j.j.n.z.c.D.9 f.n.n.z.j.c.c.c.d.z.b.b.n.b.b.m.b.M.b.b.N.b.b.n.l.c.b.b.c.z.d.z.c.d.d.k.k.k.k.c.c.n.v.v.l.l.l.l.l.l.l.l.l.l.l.l.j.j.j.j.k.k.k.k.k.k.j.j.j.s.s.",
"A C C C C C C C C C C C C C Z 9 , 8 Z D A A D A D D D D D D D D D 9 5 C D G D G D D D G G F D D D G G G D C Z 8 @ b Z C S D S S 9 8 Z D D D G S D G G H ( ( H H H H J K ( K K K K ( a.( _ _ ( H H C C _ _ _ a._ _ _ a.j.j.l.k.j.l.l.l.l.l.l.v.v.l.v.v.v.c.z.f./ ) c.n.n.b.n.b.b.b.z.P L ! ! ! Q ! E h : $ . X X & : 7 a a h h h s 7 6 * 7 L R L L s s s s L L L I Y ~ ~ ~ ,.2.2.2.2.` W I s j Y W ~ ~ ~ ,.2.2.3.3.2.~ ~ ! E Y I j j j Y T ,.,.,.,.,.,.,.,.! ! ,.,.,.,.! T T T ,.T W T T T T I z z z z z z z I T T T ,.,.~ ~ ~ ~ ,.,.,.,.,.T T T T l l l T T T T ~ ,.,.,.,.,.,.,.W T z j j j j z z I I I I Y Y E W W W W E E E W ~ ~ ~ ! E I h i j I E E Y E W W W W E E j j I R L j i i s Y ~ ~ 2.,.,.~ ~ ,.T I s i s z T W W ~ ,.~ ~ ~ ~ ~ ~ ~ ~ ~ ~ W Y I s i : & $ $ : j E ~ ~ ~ ~ ` ` ` d 1.W.Q.~.d =.K.~.M T.W.Q.W.Q.g.G.E.E.E.E.E.E.E.E.E.E.E.E.E.E.E.E.U.U.U.U.F.U.F.M.b.B.F.F.B.M.d.n.m.n.n.z.c.n.c.n.Z.8 ) n.c.z.c.c.c.b.c.k.c.b.c.c.z.b.b.b.b.n.n.b.b.b.c.c.n.c.k.j.d.( d._ d.a.j.j.d.k.l.l.v.v.l.l.k.l.l.l.l.v.l.l.l.k.k.j.j.j.j.j.k.k.k.j.j.j.d.s.d.",
"C C C C C C C C C C C C C C Z 9 @ 8 Z D A D A A D D D D D D D D D 9 5 C D G G G G D G G G G G D G G G G G C B 5 @ b C B Z S Z Z 9 8 Z S C G G G G G H G ^ ( H ( H H K ( ( K K ( a.a.a.a.a.( ( ( H G ( ( _ ( ( ( _ _ d.j.j.k.k.k.l.l.l.l.l.v.v.n.l.v.v.v.c.z.f.) ) c.n.n.b.b.b.b.c.f.0 P ! ! ! Q E P a & X . X & ; 6 i a h h s a i 6 6 6 7 s L s i 6 6 6 6 i a L I W ~ 2.2.2.2.2.` ~ ~ I z I Y W W W ~ ~ 2.2.2.3.3.2.~ ~ ! W I j s j z Y T ,.,.,.,.,.,.,.,.,.,.,.,.,.,.! T T T T T T T T T T I z z z z z z z z I T T ,.,.W W W W ,.,.~ T T T T T T T T T T T T T W ,.,.2.2.2.2.,.,.W I z j j z z z I I I I Y Y W W ~ W W W W W ~ ` ` ` ~ ! E L i a L Y E Y E W W W W E E s s L I R I s u u j W ~ 2.~ ~ ~ ~ ,.~ Y j p s j I Y W W ~ ~ ~ ~ ~ ~ ~ ~ ~ ~ ~ T I s i u : & $ $ $ u I ~ ~ ~ ` ` ` ` d 1.G.Q.~.d =.K.R.I G.W.Q.W./.g.G.E.E.E.E.E.E.E.E.E.E.E.E.E.E.E.U.U.F.U.U.U.U.F.B.F.U.U.F.B.c.d.z.c.b.c.d.j.z.d.d.x.2 x.z.c.c.c.n.z.b.c.z.d.c.c.z.c.b.b.b.b.n.b.b.b.b.n.n.n.c.l.k.j.G ( ( _ a.d.d.d.j.k.l.l.l.l.l.j.l.l.l.l.l.l.l.l.k.k.j.j.j.j.j.j.k.k.j.j.j.d.j.j.",
"C C C C C C C C C C C C C C Z 9 @ 8 C C A A C C C A D D D D D D S 8 5 Z F G G G G G G G H H G D G G G G G C B 5 @ 0 Z C B C Z Z 9 2 v Z D G G D G G H G G ^ ( ^ H ( ( ( ( ( a.a.a.a.a.a.a.a.a.a.K ( ( G H ( ( ( ( a.d.j.j.k.k.k.l.l.l.l.l.l.l.l.l.l.v.v.l.c.d./ ) c.n.n.b.b.b.b.b.) @ P Q Q Q E E L 7 & . X & 6 7 i a s a a i 7 6 6 6 7 i a i 7 6 & & & * 6 u j Y ! 2.2.2.2.2.` ~ ~ W s j T ~ ~ W I T ~ 2.2.2.3.3.2.2.~ ~ W I s s j I T ~ ,.,.,.,.,.,.,.,.,.,.,.,.,.,.,.T T T T T T W T T T U z z z z j j z z z T T W ,.W ,.W W ,.,.~ T T T T T T T T T T T T W W ,.,.,.,.2.2.2.,.,.T I I z I I Y Y Y Y Y Y Y W W ` ~ ~ W W ~ ~ ` ` 2.2.~ W L a i j I E Y I E W E E E E j s L Y Y L j p u i I W ~ ~ ~ ~ ~ ~ ~ T z s s s z I Y W W ~ ~ ~ ~ ~ ~ ~ W W Y z i p u 6 : & $ . . & a ! ~ ~ ~ ~ ~ ` d ;.W.Q.~.d =.K.R.Y W.E.W.E./.g.G.E.E.E.E.E.E.U.E.E.E.U.U.E.E.E.U.U.U.U.U.U.U.F.N.F.U.F.F.F.m.j.n.z.c.c.j._ d.d.d.) 2 ) x.z.z.z.z.z.c.z.c.d.z.c.k.c.c.n.n.n.b.b.b.b.b.b.b.n.l.l.c.k.d.( _ d.a.d._ _ d.j.l.v.l.l.l.k.l.l.l.l.l.k.l.l.v.k.k.k.j.j.j.j.k.j.j.j.j.j.d.d.",
"C C A A C C C C C C C C A A Z 9 @ 8 C A C C A A A C A D A D D D S 8 8 Z G G G G G G G G G G G D G G G G G D C 5 @ 0 B Z Z Z Z Z 9 2 v C Z G G G G H H G G G G G H H H H ( a.a.a.a.a.a.s.a.a.a.a.( ( ( H ( ( G G ( a.a.j.k.k.j.k.l.j.l.l.l.l.l.l.l.l.v.v.c.c.x.' ) c.n.n.b.b.n.b.j.V o P Q Q E E P i 6 & X & : i a h h s a a 7 5 ; ; 6 i i p p < & & & & * 7 i L W ` 2.3.2.2.2.~ ~ W Y s I ~ 2.~ I I Y ~ 2.3.3.3.3.2.2.` ~ E j s s z E T W ,.,.,.,.,.,.,.,.,.,.,.,.,.,.,.! T T T T W ,.T T T U z z z z z z z z z U T W ,.,.,.,.,.,.,.,.T T T T T T T T T T T T T W W ,.,.,.,.2.1.2.,.W T T T T Y Y Y Y Y Y T Y W W ~ ~ ~ W W ~ ~ ~ ` 3.2.` ~ Y j i i j I I I I E E I E E L j L Y W I R j p u j Y W ~ ~ ~ ~ ~ ,.W I z s s j j I Y W W W W W W W W Y I j p p r 6 6 : ; $ X . . & j E ~ ` ~ ~ ` p M W.Q.~.d =.K.~.I T.E.E.E.Q.g.G.E.E.E.E.E.E.E.E.E.U.B.U.E.E.E.U.U.E.U.U.U.U.B.M.F.U.U.F.U.M.z.j.d.j.j.d.d.j.j.d.) 2 ) j.d.z.j.j.z.c.c.z.z.z.z.z.c.c.c.c.n.b.b.b.b.b.b.b.n.l.l.l.j.d.d.d.a.a.j._ ( d.k.l.l.v.l.l.l.l.l.l.l.l.l.l.k.l.k.k.k.j.j.j.j.j.j.j.j.j.d.s.s.",
"C C C C C C C C C C C C C A S 9 @ 8 Z D D D D D D A D D S A A D S 9 5 Z G G D G G G G G G G G G G G G G G S b , , 9 v B C Z Z Z b 2 b Z D G H ^ G G G G G G G ( H H H ( ( ( a.a.a.a.a.a._ ( a.( J ( ( ( H ( ( ^ ( _ a.d.k.k.l.l.l.j.l.l.l.l.v.l.l.v.v.l.c.c.x.' ) c.b.b.b.b.b.c.^ @   P Q Q Q E L ; & @ @ & 6 a h h h a a 7 7 6 5 6 i a j s i 6 & * * * 6 p s R ~ ` 2.2.2.2.2.~ W Y I j Y 2.2.W I I W 2.3.3.3.3.3.3.2.` ~ I j a s I W T W ,.,.,.,.,.,.,.,.,.,.,.,.,.,.,.,.T T T T W ,.,.T T T I z z z z z z z z U T T ;.T ,.,.,.,.,.;.T T T T T T T T T T T T T T T ,.,.W ,.,.2.2.,.~ W ~ ~ W T T T T T T T T W W ~ ~ ~ W W ! ~ ~ ` 2.` ` ~ E L a i a j L j I R R Y Y Y I j L E W I Y z i u s j W ~ ~ ~ ~ W ~ ~ T I z j s j z I Y T Y Y Y Y Y Y I s p p p i u i i 6 : % . . . : L W ~ ~ ` W s p G.Q.W.d ;.K.~.M T.W.W.W.Q.g.D.E.E.E.E.E.E.E.E.E.U.E.E.E.U.U.E.E.E.E.U.F.F.B.M.F.U.F.B.B.m.j.j.z.z.j.x.x.j.d.z.n.3 ) z.j.d.z.z.z.z.z.d.d.z.c.k.c.c.c.n.n.b.b.b.b.b.n.b.b.c.c.c.d.j.d.d.d.j.z._ ( _ d.k.l.l.l.l.k.l.l.l.l.l.k.k.k.k.k.k.k.j.j.j.j.j.j.j.k.j.j.j.s.",
"C C C C A A C C C C C C C C Z 9 @ 8 Z D D D D D D A C C D D D S Z 8 5 C G G G G G G D D F G G D G G G G G Z v , @ 0 C Z Z S Z Z 9 9 Z Z D G D G G Z S D D G G G H ( ( ( ( a.a.a.a.a.a.a._ K a.( H H a.( G G _ ( ^ _ a.d.k.l.l.l.k.j.k.k.v.v.l.l.l.l.l.l.c.c.x.' ) b.b.b.n.b.c.d.Q Q Q Q E E E E L & X X X & 7 a h h h h 7 7 7 7 7 7 a j j s p 7 6 : 6 6 p j R E ` 3.3.3.2.2.,.! Y I L Y T ~ 2.W I Y W 2.3.3.3.3.3.3.2.2.~ L j s j Y W T W ,.,.,.,.,.,.,.,.,.,.,.,.,.,.,.,.;.T T T ,.,.,.W T T T U I z z z z z I U T T T T T ,.,.,.,.T T T T T T T ! ,.! T T T W T T W W W ,.,.,.,.,.,.~ ,.,.,.W T T T T T T T W W ~ ~ ~ W W W ~ ~ 2.` ~ ~ ~ ! I j i i a j j L I R R Y E I I R Y E E Y I s i i i Y W ~ ~ ~ W W W W Y I z j j j I I I Y Y Y Y Y Y s i p p p s i a j a u : $ $ . $ 6 I W W W ` W W A.Q.~.d =.K.R.M G.E.E.W.~.V.G.E.E.E.U.E.U.U.U.U.E.E.U.E.U.E.E.E.E.U.k.b.F.B.M.S.F.F.B.N.z.d.( z.c.j.z.j.j.d.j.m.3 x.z.j._ j.c.x.d.d._ d.k.z.z.c.n.n.b.b.b.b.b.b.b.b.n.b.n.j.j.j.d.j.k._ a.d.d.d.a._ d.k.l.l.l.j.l.l.l.j.k.l.l.l.k.k.k.k.k.j.j.j.j.j.j.d.j.j.s.s.",
"D C C C C C C C C C A C C C Z 9 @ 0 D D D D D D D A C C D D D D S 8 2 C G G G G G G D D G G G D C C C A C v 9 , @ 0 C Z Z Z Z S 9 3 Z Z Z G D S Z S G G G G ( G G G H ( ( a.a.a.a.a.a.s.a.K ( a.( a.s.a.( G _ _ _ a._ d.j.k.l.l.k.l.k.k.l.l.l.l.n.v.l.l.n.c.x.' ) c.n.n.n.n.k.) E E E E E E E L 6 $ X X & 6 7 a h h h h L L L L h j L L L L s s p i i s j R W ~ 2.2.3.3.2.` ! I j j I T W ~ ~ ~ ,.~ 3.3.3.3.3.3.2.2.2.~ R s s j I Y W W W ,.,.,.,.,.,.,.,.,.,.,.,.,.,.,.~ ~ T ;.,.~ ,.,.W T T T U z z z z z z z U T T T W T T W W W W T W T T W ,.,.,.,.T T T T W T W W T W ,.,.,.W T ,.W ,.,.W ,.,.~ ~ ,.W T T W ~ ~ ~ W W ~ ~ 2.2.~ W W ~ W I j i i i s s j I I R Y Y Y I I R Y T Y R L s u u s R W W E W W W E E R I j s s p p p j j L R I I j a i a j j j j j s i 6 * $ # . * i Y W ~ ` ` ` Q W.~.d =.K.R.2.T.E.E.W.~.V.G.E.E.B.E.E.E.E.E.E.E.E.E.E.E.E.E.E.E.c.M.F.U.B.F.F.m.m.m.M.x._ ( c.z.z.c.c.d.d.d.S.8 x.n.z.d.z.z.x.d.d._ d.z.z.j._ l.n.b.b.b.b.b.b.b.b.b.v.k.n.k.( a.j.d.H d.j.a.k.j.s.j.k.l.l.l.j.j.l.k.l.l.k.k.k.k.k.k.k.j.j.j.j.j.j.j.j.j.d.s.a.",
"C C C C C C C C C C C C C C Z 0 + 0 S A D A D D D D D A A C D D S 3 2 C G G G G G B B G G H G D D G G D C 9 b 5 @ 8 V S S Z C S 9 8 V B Z S D D S G G G G G G ^ H ( ( ( ( p.a.a.a.a.a.a.a.a.a.a.a.s.a.a._ _ _ a.s.a.a.s.j.j.k.k.l.k.l.l.l.l.l.l.l.l.l.v.n.n.f.) ) c.n.n.n.n.j.' E E T Y Y Y I i $ . X $ : 7 i a s j L L L L L L L L L I I j j j s s j z Y W ~ 2.2.3.3.2.2.~ Y j s j I T W ~ ~ ~ 2.2.3.w.3.3.3.3.` ~ ~ Y s p s j R E W W ~ ,.,.,.,.,.,.,.,.,.,.,.,.,.,.~ ~ ~ ! ;.W W ,.,.W T T T I z z z z z z I U T T T T T T T T T W ,.,.,.W W ,.,.,.,.W W W ~ ~ ~ ~ ~ W T ~ ~ W W T W ~ ,.,.,.,.,.,.,.,.,.W T W ~ ~ W W ~ ~ ~ ,.,.W W W W W W I p u i s p s I I I Y Y Y z I I I Y Y R R L p u u m E E E E W W E E R L s p u 6 6 7 i a j L L L j a i a L L L L L s p 7 : & # # * u z T ~ ` ~ ~ 5 Z.T.d d K.R.g.T.E.E.W.Q.C.G.E.E.U.U.B.U.U.E.U.U.b.U.E.E.E.E.E.j.b.F.F.U.B.N.M.c.m.m.j.) G z.z.z.j.c.j.j.d._ S.8 ) f.d.j.d.d.d.d.d.x.z.j.j.z.d.k.v.n.n.n.n.n.b.b.b.n.n.l.n.c.c.k.j.j.k.d.k.a.j.k.j.j.k.l.l.l.l.j.l.k.k.l.l.k.k.k.k.k.k.j.j.j.j.j.j.j.j.j.d.s.s.",
"C C C C C C C C C C C C C C Z 0 @ 0 Z A C C D D D D D A A C S S Z 3 5 Z G H H G G D D G G H G D G G S C B 9 8 5 , 0 C C B C B Z 9 3 v C S D G D G G S D G G G H H H J ( ( a.a.a.a.a.a.a.a.a.a.a.s.s.s.a.( ( ( ( a.s.s.j.k.j.d.j.l.k.l.l.l.l.l.l.l.v.v.v.v.n.d.) f.c.n.b.n.k.^ / E W T T Y I i $ . . $ % : i h h j L L L L L L L L L I I I z j j s j I Y ~ ,.2.2.3.3.3.2.` ~ I s s I Y Y W W W ~ 2.2.3.w.3.3.3.2.W W W R s s s L R E W W W W W W W T W W ,.,.,.,.,.,.,.! T ! ! T W ~ ~ ,.~ T T T T T I I z z I U T T T T T T T T T T W ,.,.,.,.,.,.,.W ~ ,.,.,.~ ~ ,.,.~ ~ T T T T T W W ,.,.,.,.,.,.,.,.W W W W W W W W W W W W W W W W W W W W R s u p s s I Y Y Y T W Y I j z I Y I R R R L p 6 a L E E E W W E E R L s i 7 6 6 6 6 7 i s j L s i i a h L L L s s p p 6 * # # $ * s I ! ~ ~ ~ E ' G.d d K.R.g.E.W.W.W.~.C.D.Y.E.F.U.U.U.F.F.U.E.U.U.E.E.E.E.E.F.U.B.U.U.B.M.M.M.m.z.d.( S ) ( d.j.d.d.d.d.d.m.8 ) ) d.d._ j.d._ d.d.j.j.j.d.k.l.n.n.n.n.n.b.n.n.n.b.b.b.n.l.l.l.k.k.d.( _ j.k.l.j.j.l.l.k.l.j.l.l.l.k.k.l.k.k.k.k.k.j.j.k.j.j.j.j.j.d.d.d.d.s.",
"C C C C C C C C C C C C C C Z 8 @ 0 Z A D A D D D D D D D A A S Z 8 5 Z G H H G G G G G H H G D D C B B B v 8 , , 8 b B B B v C 9 2 b B Z Z S S G G D D G G H H H H ( ( ( a.a.a.a.a.a.a.a.s.s.s.s.s.a.a.a.( H J _ s.d.j.j.j.j.j.l.l.k.j.l.l.l.l.l.l.l.v.n.n.d.) ) c.n.b.n.d.0 E E W T T T z : . . . $ : 7 h h h j L L L L R R R R R R I I z j j s s I T ~ 2.3.3.3.3.3.2.~ W I j j I Y Y T W W W ~ ~ 3.3.3.3.2.` E E W R s s L I Y W W W W W W W T T T W ~ ,.,.,.,.,.,.! T ! T T W W ~ ~ ~ T T T T T Y T Y I Y T T T T T W T W W T T W ,.~ ,.,.,.~ W W W W W ,.,.,.,.,.,.~ T T Y T T W W ,.,.,.,.,.,.,.,.W W W W W ,.,.,.W W W W W W W W W W W W E L p u s I E W W W ~ ~ W I z z z I L L R R R L u p m R E E W W E E R L s i u 6 6 6 ; 6 6 7 a a i 7 6 i a s s s a p p p p 6 & # # $ i z W W W E ! E V.p d K.K.A.Y.E.E.E.~.A.D.E.E.U.F.E.U.B.U.U.U.U.U.E.E.E.U.U.F.F.U.U.U.B.M.M.c.j.z.z.) ) ^ _ j.j.z._ d._ _ m.8 ) ) d.j.j._ d.d.d.d.j.j.j.d.z.l.c.n.n.n.n.b.b.n.b.n.b.n.n.v.l.c.j.d.d.d.k.l.j.j.j.j.s.j.k.l.k.l.j.k.k.k.k.j.k.k.j.j.j.j.k.j.j.j.j.d.d.d.d.a.a.",
"C C C C C C C C C C C C C C Z 8 O 0 Z C D D D D A D D D D D A S Z 8 5 Z G G G G G G G G G H D C Z C C Z B 4 9 5 , 8 b Z C B B Z 9 8 V B Z Z Z G ^ G G G G G G G G H K ( a._ ( a.a.a.a.a.a.a.a.a.s.s.a.a._ ( G G _ a.a.a.d.k.k.j.l.k.k.j.k.l.l.l.l.l.l.v.n.c.d.' ) c.c.b.v._ 5 E E W T T T s $ . . $ % 6 i h h h j L L L L L E R R R R I I z j j s j I W ,.2.3.3.3.3.3.` ~ I j j L I Y Y T T T T W ~ 2.3.3.3.2.` W E E I s I R R W W W W W W W W T T T T ,.,.,.,.,.,.,.,.;.,.,.,.,.~ W W W T T T T T T T Y Y Y T Y Y T T W W W W W W ~ ~ ~ ~ ~ ~ ~ W W W ~ ~ ,.,.~ ~ ,.,.~ T T T T T W W ,.,.,.,.,.,.,.,.W W W W W W ,.,.,.,.W W W W W W W W W W W E s u p L E W W W ~ ~ W Y I z z I I L L L E R i u p L R E W W E E R R m p u 6 6 6 6 : 6 6 6 7 7 6 6 6 i i p i p p p a a u * & # $ u s Y Y E E ! ! ' * d K.~.A.E.E.E.W.~.A.D.E.E.E.U.U.U.U.E.E.U.U.B.E.E.U.U.U.U.F.B.B.U.B.M.z.c.c.j.d.) z.n.z.z.) j.x.j.) ) m.9 ) d.j.j.j.d.d.j.d.d.j.j.d.d.k.k.l.n.n.b.b.b.b.n.b.n.n.n.l.v.n.v.l.k.j.H _ _ s.s.j.s.d.j.k.k.k.l.j.j.k.j.k.k.j.j.k.j.j.k.j.j.d.d.d.d.j.j.d.a.s.",
"C C C C C C C C C C C C C C Z 8 O 0 Z A D D D D D D A A C S A D Z 3 8 Z G G H G G G G G G G G D S S A C B 8 9 5 , 5 v v v 4 4 v 3 8 C C Z Z B Z D D G G G D D G H H ( ( ( a.a.a.a.a.a.( K K a.s.a.a.a._ _ _ _ ( s.s.d.a.d.k.j.l.k.k.k.l.l.l.l.k.l.l.l.v.n.c.f./ ) c.v.n.v.( 5 E E W T T z u $ . . $ : i j j h s j L L L L E E E E I I I I z j j j I Y ~ 2.2.2.3.3.3.2.~ ! j j I I I Y Y T Y Y Y W W 2.3.w.3.2.2.` E E I s Y Y E W W ~ ,.,.,.,.,.W W W ~ ,.,.,.,.,.,.,.,.! ! W ,.,.W W W T T T T T W T T T Y Y Y Y Y T T W ~ ~ ~ ~ ~ ~ ~ ~ ~ ~ ~ ~ W W W W ~ ~ W W W W ~ W T W ~ ~ T W W ,.,.,.,.,.,.,.,.W W W W W W ,.,.,.,.,.W W W W W W W W W W E L p i j R Y W W W ~ W W W Y Y Y R L L L R R s u u s R E W W E R R R L s s i u 7 6 6 ; ; : 6 6 6 ; 6 7 i 7 7 7 u p p s p 6 * & & u p I Y E E E E E # q K.G.G.E.W.E.E.~.Z.D.Y.E.U.F.U.E.U.E.E.U.M.B.U.E.U.U.U.U.U.U.U.U.F.M.b.c.m.z.( ) j.j._ d.) ^ _ _ ^ ^ Z.9 ) d.j._ _ _ d.j.d.d.d.d.d.a.k.j.l.n.n.b.b.b.n.n.n.n.v.v.n.v.v.l.l.j.a.a.( d.l.l.l.j.l.j.l.k.l.l.k.l.l.k.j.j.j.j.j.j.k.k.j.j.d.k.d.d.s.s.d.d.d.",
"C C C C C C C C C C C C C C Z 8 O 9 Z A D D A D D D D D A C A D Z 2 5 Z G G G G G G G G G G G D S G D S B 9 v 5 , 8 C Z B v v B 3 8 Z S D G S D D S G G D D D G H H ( a.( ( a.a.a.a.a.( a.a.a.s.s.s.a.a.a.a.a.s.s.j.s.a.s.j.j.k.k.k.k.k.l.l.k.k.k.l.l.v.n.c.f./ ) c.v.c.k.) P ~ E W W T j * . . $ - : i j j h j L L L L L E E E I L L I I s s s j I T ~ 2.2.2.2.2.2.` W I s j I I I Y T T Y Y Y W ,.2.3.3.2.` W ` W R m s R E W ` 2.2.W W W W W W W W ,.,.,.,.,.,.,.,.,.W ,.,.,.W W W W T T T W W ~ T T T Y Y T T T T T T ~ ~ ~ W W W ~ ~ ~ ~ ~ ~ W W W ~ ~ W T T T T T T Y T W ~ ,.,.,.,.,.,.,.,.W W W W W W W W W ,.,.,.W W W W W W W W W W W W W E s u i j I Y T W W W ~ W W T Y Y L s L L R L a u p L R E E E E E R R R R L s i 7 6 i a s a 6 6 6 6 6 6 * * * 6 u p s s p 6 * & * u s I Y Y I E E j Y A.A.G.W.W.E.W.W.Z.D.U.E.Y.Y.E.U.U.E.E.F.B.F.E.E.F.U.E.U.E.U.U.B.B.B.k.x.c.c._ G d.z._ _ ( ^ d.) ) d.m.8 ) f.j.d.n.x.j.d.j.z.d.d.d.d.j.k.l.n.n.v.n.b.b.n.n.n.n.n.n.n.v.l.j.d.d.d.d.j.k.k.l.j.j.l.k.j.j.k.k.k.k.k.k.k.j.j.j.j.k.k.j.j.j.j.j.j.d.s.a.d.d.",
"C C C C C C C C C C C C C C Z 8 O 9 S A A A D D D D D D C C C D S 2 5 C S C D G G G G G G G D D S D S Z B v v 5 @ 5 v B B B B B 8 8 Z Z S D Z Z G D C S S C S G H H ( ( ( K K a.a.a.a.a.a.s.a.a.a.a.( H H a.s.s.s.s.s.j.d.j.j.j.j.k.l.k.k.l.l.l.l.l.l.l.v.c.f.' ) c.v.v.( Q E ~ E W T I i & . . $ : : i h h h L L L L L L E E E L L L I j s s j I T W ,.2.2.2.2.2.` ! I j s j j j j Y T T W W W ~ 2.2.2.2.2.W E W W I s s E W ` 2.2.2.W W W W ,.W W ,.,.,.,.,.2.,.,.,.,.,.,.,.,.,.~ ~ W W T T T W W T T T T T W W T T T T W ~ ~ ! ! W ~ ~ ~ ~ ~ ~ T W W ~ W T T T T T T Y Y T W ~ ,.,.,.W W W W ,.,.,.,.W W W ,.,.,.,.,.,.,.,.,.~ ~ W / / / W / E E E s u u s z I Y Y T W W W W W T R L a p s L R L i u p L E E W W E E E E E R L s i i a L P L a i i 7 6 6 * * * 6 p s s s p u * * * q p z I I Y I Y E ~ C.g.G.E.W.E.W.W.A.D.U.U.Y.E.U.F.U.U.U.M.U.S.U.U.U.U.E.U.U.U.U.B.N.B.c.c.c.j.d.( j.x._ _ d._ z.) d._ x.3 ^ ) z.z.n.z.j.d.d.d.d._ d._ j.l.v.n.n.v.v.n.b.n.l.n.n.v.j.l.l.l.a.( a.j.k.l.j.j.k.j.j.k.c.j.j.k.k.k.k.k.k.k.k.k.j.k.k.k.j.j.d.j.j.j.s.j.d.j.j.",
"C C C C C C C C C C C C C C Z 8 O 9 D C C A D D D D D A A D D D Z 2 5 V G G G G G G G G G D D D D C C C v v 9 , @ 0 v v Z B b B 3 8 Z B C C B C D C v B Z Z S G H ( K K K K _ a.a.a.a.a.a.a.a.a.a.H G D ( d.d.d.d.s.s.a.a.K a.j.j.j.l.l.j.k.k.k.k.k.l.l.v.c.d./ ) c.l.l.G P E W E W T s u $ . $ % : 6 i i h h L L L L L L R L L L L j L j j j I T W ~ 2.2.2.2.2.2.! Y j j s j j j j Y W W W ~ ~ ~ ,.2.2.2.W E E W R s s s W W ` 2.2.W ,.,.W W W W W ,.,.,.,.,.2.2.2.2.,.,.,.,.,.,.~ ~ ~ ~ W W T T T T T T T W W T T T T T W ~ ~ ! ! W W T T T T W T T T W T T T T T T T T T T W ~ ,.~ W W W W W W W ~ ,.W W ,.,.,.,.,.,.,.,.,.,.,.~ W W / / / / E E E s u i p j I Y Y Y W W W W W T R s u 6 u s R R s u u s R E W W W E E E E R L s s a h P E P L L h a 7 6 6 6 6 u p s L s s i 6 * * * u s I Y Y Y I E ~ 3.' G.W.W.W.W.~.A.D.E.U.F.F.F.U.U.F.U.U.S.B.F.U.U.E.U.E.E.E.E.B.B.M.M.c.z._ d.^ _ Z v ) j._ z._ ( d.m.8 ) d.j.d.c.d.d.d.) _ _ _ _ d.z.n.b.n.b.n.n.n.n.n.n.k.k.l.l.l.l.j.G G d.k.k.l.k.l.j.j.H a.l.l.k.k.k.l.k.j.j.j.k.j.j.k.k.j.j.j.k.j.j.j.j.d.s.s.s.",
"C C C C C C C D A C C C C C Z 8 O 9 G A C D D D D D D A A D D D S 2 5 ^ G G G G G D G G A C D D D S S C B B V 5 @ 5 8 v C B Z Z 4 8 C Z D S C S D Z C c B Z D D H H H ( ( ( a.a.a.a.( H H _ ( _ a.( ( G H ( a.d.d.s.a.a.s.s.j.l.j.j.j.d.j.j.j.k.k.k.l.l.v.n.d.) ) n.v.l.S P Q E W W T p * $ $ $ & : : i i h h L L L L L L L L L L L j L j j I T ~ ,.2.2.3.2.2.2.~ Y j j j s s a a j I W ~ 2.2.2.,.~ ~ ~ W Y R Y E R s p m E W ` 2.~ W W W W W W W W ,.,.,.,.,.2.2.2.2.,.,.2.,.,.,.,.~ ~ ~ W W T T T T T T T W W T T T T T W ~ ~ ~ W W W T T T T W T T T T T T T T T T T T T T W ~ ~ W W T T T W W ,.,.,.,.,.,.,.,.,.,.,.,.,.,.,.,.~ W / / / / / E W E L p i s j I Y Y Y W W W W T T Y s 6 * 6 s R E L p 7 i L R E / / W W / W E R L L s h P E E I P L j a a i i i p s L L L s p u u * * q r d U I Y Y Y T ` ' D.E.W.E.W.(.A.D.F.U.U.F.U.F.F.F.U.U.M.F.U.U.E.E.E.F.F.E.U.B.M.B.B.m.x.c.( d.j.f.) ) _ z.z.j.j._ d.3 ) d.j.j.n.d.d.d.f.d._ _ d.d.j.l.l.b.n.n.n.b.l.n.c.a.a.j.l.l.j.d.d.d._ ( a.k.l.l.j.d.a.a.j.l.j.j.j.j.d.j.j.k.k.j.j.j.j.j.j.j.j.j.d.j.d.d.a.a.a.",
"C C C C C C C C C C C C C C Z 8 O 9 D A D D D D D D D C C C C S S 2 , V G G G G C C D C A G G G D D D A C Z V 5 @ 8 b Z Z C B Z 9 2 C Z S D C C Z C B S S G H G H H ( ( K ( a.a._ ( _ a.a.a.( G G ( _ G G H D ( j.a._ _ a.d.j.k.j.j.j.j.a.d.j.k.j.j.k.l.v.n.d.) ) c.v.d.b P E E W W Y : $ $ $ $ & : : 6 6 h h L L L L L L L L L L L L I I I Y W ,.2.2.3.2.2.,.~ W I s s j j j i i s I ~ ,.2.2.2.~ ~ ~ ~ W Y I Y Y L p s I W ` ` ` W W W W W W W W ,.,.,.,.,.,.2.2.2.2.2.2.2.2.2.,.~ ~ ~ ~ T W T T T T T T T W W W T W ~ T T T T W W W W W W ~ ~ W T T T T T T T T T T T T T W ~ W ~ W T W T T T W ,.,.,.,.,.,.,.,.,.,.,.,.,.,.,.,.~ W W W W W W W W W L p p s z I Y T T W W W W W W Y L u 6 u a L L L s u u s L R W ` ` ` ` / E E L L h s L E E E I I L L L j s s m L L L L L s p p * * * q p z z Y Y z Y ! 0 x.Y.E.E.E.W.Z.D.F.F.F.F.F.F.S.F.F.B.F.B.F.U.U.U.B.c.b.F.M.M.M.F.B.c.c.c.c.z.) ^ ) _ _ _ c.x.d._ z.3 ) d.d.z.m.d._ _ ) f.G C _ z.d.j.l.l.v.b.n.v.l.c.l.l.l.j.j._ H a.d.( a.d.( ( j.j.s.s.a.j.k.v.k.k.k.j.s.a.j.j.k.j.j.j.k.j.j.d.d.j.d.s.s.s.s.a.a.",
"C C C C C C C C C B C C B C C 8 O 9 D A C A D D D D D A C C B C Z 5 < V G G H G D D G G G G G G G G D D S C C 5 @ 8 v Z C B B Z v 8 Z C C Z S C C C B B Z G G G G ( ( ( ( ( a.a.( a.a.a.a.a.( G G ( H H ( H ( ( a.a.a.a.d.j.j.k.k.j.k.l.j.d.j.k.j.s.l.l.v.l.d.) ) c.l.G @ P ! E W W Y * $ $ $ $ % : : 6 7 i h L L L L L L L L L L L I I I I Y W 2.2.2.2.2.,.~ ~ I j s s j j j i u i j ~ 2.2.2.~ W ~ ~ ~ W Y Y Y Y s p p R W W W ~ W W W W W W W W W ,.,.,.,.,.2.2.2.2.2.2.2.2.2.2.~ ~ ~ ~ T T T T T T T T T W W W T T T T T T T W W W W W W W ~ W T T T T T T W W W W T W W ~ W W W W T W T T T W ,.,.,.,.,.,.,.,.,.,.,.,.,.,.,.,.,.W W W W W W W ~ W I s p j z Y T W W W W W W W W Y L a p p p p L L L p u p s R E / ` ` ` ` W E R L s a L E E E E I I L L L L L L L R L L L L p p : * % * p s z I I l I E ; ' E.E.E.F.T.V.Z.F.F.B.B.U.B.M.B.M.B.B.M.F.U.E.U.U.F.B.F.U.B.B.B.B.B.M.m.c.j.z.) ) d.d.j.x.j.d._ n.3 f.z._ _ z.j.d._ _ ) d.d._ a.j.j.n.c.v.v.b.b.c.n.n.l.v.v.n.d.H ( d.d.d.a.j.l.j.j.j.d.d.j.k.k.k.k.j.d.d.K a.k.j.a.j.k.j.j.s.s.d.d.s.s.s.s.s.a.a.",
"C C C C C C C C C C C C C B C 8 O 9 G A A D D A D C C A C B B Z Z 5 , b D G G G G G G G G G G G G G G D D Z C 5 @ 0 Z Z C B B Z v 9 Z Z Z S D C C S Z Z D G G G G G H H K K K a.a.a.a.a.a.a.a._ ( G G ( ( ( ( a.s.a.a.a.a.j.j.j.k.j.j.j.a.a.k.j.k.k.l.l.v.v.d./ ) c.j.Z L E E E E R p # $ $ $ % % % : : 7 i j L R I I I I I I I I I I j z I W ~ ,.,.2.2.2.~ W W I s s j I j s i u i j ,.,.2.~ ~ ~ ~ ~ ~ W W T Y Y j p s Y W ~ ~ ~ ~ ~ ~ ~ ~ ~ ~ ~ ,.,.,.,.,.,.,.2.2.2.2.2.2.2.2.2.,.,.~ ~ ~ ~ W T W W W W W W W W W W ~ ! ! W W W W W W W W ~ ~ W T T T T T Y W W W W W W W W W W W W E E T T T W ,.,.,.,.,.,.,.,.,.,.,.,.,.,.,.,.,.~ ~ ~ ~ ~ ~ ~ ~ W R s s j z Y T W W W W T T Y I R L L s s a p s L R L s p p L R E W W W W W E E L L s s L R E E E E I R L L L L L R L L L L s p u * # & 6 p L I I I E E P ' F.Y.U.Y.T.V.Z.F.B.B.B.F.S.M.F.U.U.B.M.B.U.U.F.U.U.B.B.B.U.M.B.B.B.M.b.c.z.z._ d.z.j.z.z.d.d.d.z.2 ) j.d.j.c.z.j.d.) G ) _ a.a.d.j.l.n.l.v.b.n.v.n.n.v.v.l.l.k.a._ d.s.d.j.j.j.j.k.j.j.s.k.k.k.v.j.j.k.H K s.j.j.j.j.j.j.j.j.j.d.j.s.s.s.s.a.a.a.",
"C C C C C C C C C C C C B C C 8 O 9 D D D D A C A D D D D C C C Z 5 , v D F G G G G G G G G G G G G G D C B Z 0 @ 0 Z C C B B S v 8 S D Z Z D D S S Z Z S S D D G G H H K _ ( a.a.a.a.a.a.a.( ( H D D ( H ( a.a.a.a.a.d.s.j.j.k.k.k.j.s.a.j.j.j.j.j.l.l.l.v.d.) ) k.^ f ! ! E E R s * . . . $ $ % % : 6 u i j L Y Y Y I I I I I I I j s z T ~ ,.,.,.,.2.,.~ W I j a s L I j s i a j z 2.~ ~ ~ ~ ~ ~ ~ ~ W W T Y I s i j Y W ~ ~ ~ ~ ~ ~ ,.~ ~ ,.,.,.,.,.,.,.,.,.,.2.,.,.2.2.2.2.2.,.,.,.~ ~ ~ ~ W ~ ~ ~ W W W W W W ! ~ ~ ~ ~ ~ ~ ~ ~ ~ ~ ~ ~ ~ W T T Y Y Y Y W W W W W W W W W W W W E E Y T T W ,.,.,.,.,.,.,.,.,.,.,.,.,.,.,.,.,.,.,.,.,.2.2.2.2.~ Y z s s z Y T Y T T T T Y I z I L L m s s a s L R L L s p s L E E W W W W E E R L j s L L R E E E E R R L L L R R L L L L s p u * & & : i L P E E E ! / ' S.Y.U.E.W.V.Z.F.B.U.B.U.F.B.B.F.F.B.b.B.U.U.F.F.U.F.F.B.F.B.B.B.N.M.c.j.d.z.d.d.z.c.j.z.j._ _ x.3 ) x.j.d.c.d.j._ _ G ( d._ a.d.j.j.c.n.v.b.n.n.n.n.n.n.n.l.a.a.( d.d.a.j.j.s.s.j.k.k.j.k.k.k.k.j.j.s.s.j.j.k.j.k.j.j.j.j.j.d.d.j.s.s.s.s.a.a.a.",
"C C C B C C C C C C C C C C B 8 O 9 S D D D D A C D D C D S C C C 5 , b D G G G G G G H G G G G G G G D Z Z Z 8 @ 9 Z S C C C S v 3 Z D S S D D D G S C C C S G G G H J H ( ( a.a.a.a.a.a.( ( H H ( H H ( ( a.a.a._ a.s.s.j.j.j.j.a.a.j.j.j.j.j.j.k.j.j.l.l.d./ ) d.^ Q ! ! ! E L u # . . . . $ & : 6 i i j j I Y Y Y Y I I z I z z j s I W 2.,.W W ,.,.,.W Y s i i j I I j j j j I Y ~ W W W W W ~ ~ ~ W W W Y z p i j W W W W ~ ~ ~ ,.,.,.,.,.,.,.,.,.,.,.,.,.,.,.,.,.,.,.,.,.,.,.,.,.,.~ ~ W W W W W W T E E W W ! ~ ~ ~ ~ ~ ~ ~ ~ ~ ~ ~ ~ ~ W T T Y Y Y Y W W W W W W W W W W W W E E Y Y Y T W W W ,.,.,.,.,.,.,.,.W W ,.,.,.,.,.,.,.,.,.,.,.,.T T z i p j z I z z I Y I z z s s s p p s s a s L L L L s p p s L R E E W W W / E R m s s L L R R E Y I R R R R R R L L L s s a 7 : $ X & 6 h L I I E E E P f.U.E.E.T.V.Z.F.F.F.F.U.B.B.M.M.S.B.M.M.F.U.U.U.U.F.U.B.B.B.B.B.B.B.b.z.z.c.j.d._ c.c.c.d.d.d.M.8 f.z.d.d.z.d.d.d.d.S ( _ _ _ j._ d.z.c.n.b.v.n.n.v.n.l.l.l._ ( _ j.d.j.k.k.k.d.j.j.l.j.k.k.j.s.J a.j.j.j.j.k.j.k.k.a.a.j.j.d.s.a.d.d.s.s.a.a.a.",
"C C C C C C C C C C C C C C Z 8 O 9 S D C A D D A C D C C C C B Z 5 , v Z D G G G G G H H G G G G G G G D Z Z 5 @ 0 Z Z Z Z Z Z 4 3 B D C S D S G D C S Z C S D D G H H H H ( a.a.a.a.( ( a.( D D ( G G ( a.a.a._ _ a.d.j.j.j.j.k.j.j.j.j.j.k.k.k.k.j.j.l.c.d./ ) B P ! ! ! E E s * . . . . $ % : 6 i j j j I E W W Y Y Y I I I j s s z T ,.2.2.W W ,.~ W Y z p i s I I I j j j I Y W W W W W W W ~ ~ W W T Y Y j i i I ~ W W ~ ~ ~ ~ ,.,.,.,.,.,.,.,.,.,.,.,.,.,.,.,.,.,.,.,.,.,.,.,.,.,.~ ~ ~ W W W W W T E E W W ! ~ ~ ~ ~ ~ ~ ~ ~ ~ ~ ~ ~ ~ W T T Y Y Y Y W W W W W W W W W W W E Y Y Y Y Y W W W W W ,.,.,.,.W W W W W ,.,.,.,.,.,.,.,.,.,.,.~ T Y z s i s z z j j j z I z j s i u 6 6 u p p s L L L L m p u p s L E E E W / ` W R L a a s s m L R E E R R R R R R R L L j s s u 6 & X & & i j P I I E E P ' F.E.Y.G.A.Z.S.F.M.B.U.F.B.c.M.z.M.M.N.F.U.U.F.F.F.B.B.B.B.B.B.N.N.b.b.c.z.j.d.j.c.b.c.j.d.d.x.3 ) d.d._ z.j.d.d._ G G G ^ H H a.j.d.j.n.b.v.n.n.n.n.l.c.s.( D ( d.a.j.j.k.j.d.d.j.l.s.s.k.k.l.l.j.j.k.j.j.k.k.k.j.d.d.j.j.j.d.d.d.s.s.a.a.a.a.",
"C C C C C C B B C C C B B C Z 8 O 0 S C C A D D D A D D C B B C Z 5 , b D D D G G G G G H H G H G G G G G D Z 5 @ 9 Z Z Z C B B 4 2 B D Z Z D D G G ^ G G Z S G S D G ( H G K a.a.a.( ( ( H ( H H H ( ( ( ( ( a._ a.a.a.j.j.j.j.j.j.k.k.k.k.k.k.k.k.k.l.l.l.d.' ^ 5 P ! ! E E R u # . . . $ & : u i j j j I E W ~ W T Y Y I I j s s p I W 2.2.2.,.W ,.W T I j p s I Y I j j j j I I I Y Y Y Y T T W T Y Y I I z s i i I ~ W W ! ~ ~ ~ ,.,.,.2.3.>.,.,.,.,.,.,.,.,.,.,.,.,.,.,.,.,.,.,.,.,.,.,.~ W W W T W W W W W W ! ~ ~ ~ ~ ~ ~ ~ ~ ~ ~ ~ ~ ~ W T T Y Y Y Y W W W W W W T T T T T Y Y Y Y Y Y T T T W W W ,.,.,.W W W T T ,.,.,.,.,.,.,.,.,.,.,.! T T z s i p s s i i s z I z j i u 6 * * 6 i p s s L L R L s u u s L R E E W ` ` ` E L a p p p p L L I E R R R R R R R R L L m s i 7 * & $ & 6 a P I E E E I ' M.U.Y.G.A.D.S.M.B.B.U.M.M.B.c.m.M.M.F.U.U.U.F.F.B.B.B.B.B.B.B.B.B.m.m.c.c.d.d.z.j.c.c.j.d.d.j.2 ) d.d.d.z.d.d.d.j.G ^ ( ( _ d._ d.d.j.d.c.n.n.v.n.v.j.l.s.a.d.s.a.j.j.a.( d.d.d.j.l.j.k.k.k.k.k.k.k.k.k.j.k.j.j.j.j.j.j.j.d.d.j.d.d.s.s.s.a.a.",
"B C C B C C C C C C B C B B B 5 @ 0 Z C C C A D D D D C C C C C Z 8 , b S C D G G H G G H H G G G H G D G G Z 8 , 0 Z Z S Z B B 4 2 v C C Z S S D ^ G D S Z Z S D G H H H G K a.a.a.a.a.( H H ( H ( a.a.a.a._ _ ( ( a.a.s.j.k.k.j.k.k.j.k.k.k.k.k.k.k.l.l.l.d.^ 0 E ! ! ~ E E L 6 . # . $ & : i a j j I I I E ~ ~ W T Y Y I I j s p p T ~ ,.2.2.,.W W W T z i z I Y W I s j j j j j j I I Y Y Y Y I I I I z j j a i s Y ~ W W ! ~ ~ ~ ,.,.,.2.3.>.>.,.,.,.,.,.,.,.,.,.,.,.,.,.,.,.,.,.,.,.,.,.~ ~ W T T W W W W W W ! ~ ~ W W W W W W W W W W W W T Y Y Y Y Y W W W W W W T T T T T Y Y Y Y Y Y Y T T T T W T T ;.T T T T T ,.,.~ ,.,.,.,.,.,.,.,.T T T z d i i i p i r i z I I s i u 7 6 * 6 i p p s L R E R m u u a L R R E W ` ` ` W L p i i u p s L R E R R R R R R E R L L L s a i : & & X ; a L I P E I L Q ) M.F.A.A.D.F.F.F.F.B.B.m.B.c.m.b.c.M.N.B.B.B.B.B.B.B.F.B.B.B.M.c.m.M.b.m.b.c.c.j.c.c.j.d.d.j.2 ) d.d.z.z._ _ d.d.d.d._ _ G _ d.k.d.k.c.j.l.n.v.v.l.k.j.j.j.s.a.j.j.j.j.d.d.d.a.j.j.k.k.k.k.k.k.k.l.k.k.j.k.j.s.d.j.j.j.d.d.d.d.d.s.s.s.s.a.a.",
"C C C C C C C C C B C B B B B 5 @ 0 S S C A D D D D D D A A C C C 5 , v D D G G G G G G G H G G G H H G G D Z 8 , b Z C S Z B Z 9 3 B C A D Z C D G G G G D C D G G H H G G a.a.a.a.a.( ( J ( _ ( ( a.a.a.( a.( ( ( a.s.j.k.j.j.j.k.k.k.k.k.k.k.a.a.l.l.k.l.d.P P E ! ~ ~ E L u # . . $ : : i s j I I I Y E ! ~ ` ~ W Y Y Y z s s i s W ,.,.,.,.,.,.,.W I s i j Y W Y L j j j j s i i s s z Y T Y I s p p j z j i i j E ~ W W ~ ~ ~ ~ ,.,.,.,.3.3.>.,.,.,.,.,.,.,.,.,.,.,.,.W W W ,.~ ,.,.,.,.~ ~ ~ W T T T W W W W W W W E E E E E W W W W W W W W W W W T W W W W W W W Y Y Y Y Y Y E E Y Y Y Y U T T T T T T T T T T W W ,.,.,.,.,.,.,.,.,.,.! T T l z l i p i z z z z z I Y I I I L L p u i a s s m L L R L p i p s L E E / ` ` ` W R L p u 6 u p L R E R R R R R R E R R L L s s i 6 * & $ & 7 j I E I I I Y Q m.F.G.A.D.F.F.B.F.S.M.c.c.m.M.c.M.m.b.M.B.B.B.B.B.B.B.B.B.B.M.c.m.b.n.n.l.b.n.d.k.c.z._ d.f.2 ) d.j.k.j._ d.j.d.j.d.d._ d.k.d.d.j.k.n.b.n.n.l.n.c.k.j.k.l.d.s.s.j.d.j.k.d.( d.j.j.j.j.k.k.k.k.k.k.l.k.k.j.s.a.d.j.k.j.j.d.d.d.j.d.s.s.s.s.s.",
"B N N C C C C C C B B B B B B 5 @ 9 Z C C D D D D D D D C C B B V 8 < b S A D G H H G G G H G D G G G D D D G 9 , v Z S Z C B Z 9 8 C C A A D Z C S C A D G D G H H H G H H ( a.a._ ( _ ( H H H G G K a.a.a.H H a.a.a.a.s.s.d.j.j.k.k.k.k.k.k.l.k.l.k.k.l.l.) / ` W E ~ W I s * . . $ * : 6 i a j j L L I I I E W W Y Y I I j s p s s W ,.,.,.,.,.,.W T z s i z Y E I j I I j s a i i p s j Y T I I j s s j I s i i j E ~ ~ ~ ~ ~ ~ ~ ,.,.,.,.,.>.,.,.,.,.,.,.,.,.,.,.,.,.,.W W W ~ ~ ,.,.,.,.~ ~ ~ ~ T T T W W W W W W E E Y Y Y Y W W W W W W W W W W W T W W W W W W W T T T T T E E E E T T T U T T T T T T T T T T W W ,.,.,.,.,.,.,.,.,.,.! T T T z z p p s z z Y Y Y T W T T Y E E L s p s s s s L L R R m p p p L R E W ` ` ` W R L p u 6 u p L R E R R I I I I R R R L L L s i 6 ; & $ & 6 h P I I E I Y Q m.F.G.V.D.F.F.U.M.B.U.B.k._ c.b.b.m.b.M.B.B.B.B.B.B.B.B.n.b.M.M.M.b.m.N.N.b.j.z.c.c.z.d.d.z.2 f.x.d.j.z.z.d.d.( _ _ _ ( d.k.j.k.j.k.c.l.n.n.c.l.l.j.d.d.a._ a.a.s.s.j.s.( a.d.j.j.k.k.j.k.k.k.k.k.k.k.j.j.j.j.j.d.d.j.d.d.d.j.d.d.d.s.s.s.a.",
"C N c N C C C C C C B C B B B 0 @ b S C C A D D D D D C C C C C V 5 , v D A A G G G G G G G G D D G G G G G G 8 , b S S C C B B 9 9 Z C C A C C S G D S G G G H H H H H H H K a.a.( ( ( ( H ( H G G ( ( ( ( ( ( _ a.a.a.a.s.d.j.j.k.j.j.j.j.k.k.k.k.l.l.l.k.^ E ~ ! W W Y j u $ . $ : : : 6 u i i i i a a s j j j j z I I z j s p s z W ,.,.,.,.W ,.W I s s s I Y I j j I I j s s j j j j Y W ~ W Y I z z I Y s u u j W ~ ~ ~ ~ ~ ~ ~ ~ ~ ~ ,.,.,.,.,.,.,.,.,.,.,.,.,.,.W W W W W ~ ~ ,.,.,.,.~ ~ ~ ~ T T T W W W W W W E Y Y Y Y Y T W W W W W W W W W W T T W W W W W W T T T T T W E E W W T T U T T T T T T T W T T W W ,.,.,.,.,.,.,.,.,.,.,.T T T z z p i j z I T W W ,.~ ~ W Y E E E L s s s s m L L R E R s u u s L E W / W / E R L s u 6 u p m R E E E E E E E R R L L L L s i 6 ; & $ & : a L P I Y I Y Y f.S.G.V.Z.S.B.F.F.B.F.B.M.b.M.k.c.m.B.B.B.B.B.B.B.B.B.B.b.l.n.b.b.N.N.N.b.b.c.c.c.c.d._ d.j.2 ) j.j.z.c.d.d.j.d.H H a.d.k.j.j.j.d.k.c.l.l.l.c.l.k.s.d.d.d.( H a.a.d.j.j.s.s.d.d.j.j.d.j.k.k.k.k.k.j.s.s.j.j.j.j.k.k.d.j.d.d.d.d.s.s.s.a.a.s.",
"C B B C C C C C C C B B B B Z 0 @ b Z C C C D D D D C C A C C C Z 5 , v D D D G G G G G G D F G G G G G G G G 9 , b Z S C C B Z v 9 Z C S Z C S S D G G D D G H H H H H H K K a.( ( ( ( G D G H G H H H H H ( ( ( a.a.( G J a.j.j.k.k.j.j.k.k.j.k.k.l.l.k.d.b E ~ W W E Y i * . . * u 6 6 6 : : : : : : 6 6 6 i i p s j z j j s s j I ,.,.,.,.,.W W T I s s j I I j j j I I j j j I E W W ~ 3.3.2.W T Y Y T W s u i j W ~ ~ ~ ~ ~ ~ ~ ~ W W W T ~ ~ ,.,.,.,.,.,.,.,.,.,.W W W W W ~ ~ ,.,.,.,.~ ~ ~ ~ T T T W W E T W W E Y Y Y Y Y Y T T T T T T W W W W T T W W W W W W W W W W W W W W W W T T T T T T T T T T W T T T W ,.,.,.,.,.,.,.,.,.,.,.T T T z z i i j z Y T W ~ ,.,.W T I L L E R s s s L m s s L E E L i u a L R E W W W E L L s u 6 6 i s L E E E E E E E R R L L L L s i 6 ; & $ X & 6 h L I E I z Y ^ n.T.V.Z.F.F.F.B.B.M.M.b.b.M.b.b.N.B.B.B.B.B.B.B.B.B.N.b.b.b.N.N.N.N.N.N.N.b.k.c.c.k.d.d.m.8 ) z.k.k.z.d.d.d.d.a.d.d.j.j.j.k.k.l.j.l.v.n.n.c.c.l.d.a._ _ ( J a.s.a.a.a.s.a.s.a.d.a.a.j.j.k.k.k.j.j.j.d.j.j.j.j.j.k.k.d.d.d.s.s.s.s.s.s.s.s.",
"C B C C B B C C C N B B B C C 8 @ 0 S C C C C A D C C A A C C C Z 8 , C D D D G G G G G G D D G G G G G G G G v , b Z S D Z C Z 9 8 C C C Z S S A D D D S S G G G H ( ( K ( K ( ( H G G D D G H ( ( ( ( H G G D G ( _ ( H a.s.s.j.k.k.j.j.k.k.k.k.k.l.l.j.( 5 I ~ W W Y I u $ . $ : r u u 6 : & % $ $ % & & * : u i p s z z j s j I T ,.,.,.,.W W W U d s s I I I j j j j L j L I E W W W 2.3.3.2.W W T W W W s u i j W ~ ! ! ! ~ ~ ~ ~ T T T T T ~ ,.,.,.,.,.W W ,.,.,.,.,.,.,.,.,.~ ,.~ ~ ~ ~ ~ ~ ~ T T W W W E E W T W E E E Y Y Y T T Y Y Y T W W W W W W W W W W W W W W W W W W W W W W W Y T T T T T T T T T T T W W ,.,.,.,.,.,.,.,.,.,.,.,.T T z z i i j Y Y T W ~ ,.,.W I s p p R R L L L L s s s s R E R s p p s R E E W E R L L s i 6 6 i s L R E E E E E E R R L L L L a i 6 ; & $ . & : i L P E I Y z f j.T.V.Z.S.F.F.F.B.B.B.N.M.b.k.c.M.b.b.B.B.B.B.B.M.B.k.c.M.N.N.B.B.N.N.N.N.b.k.c.c.z.d.d.n.8 ) d.j.j.j.d.d.j.d._ a.d.d.k.k.d.l.c.l.v.n.n.l.l.k.k.j.d.a.a.( a.j.d._ d.d.a._ a.d.( a.d.d.s.k.k.k.j.j.j.j.d.j.k.j.j.j.d.d.d.d.s.s.s.s.s.s.a.s.",
"B C C C C C C C C C B B B B C 8 @ 0 S C C A D S C C C A A C C C Z 8 3 B D D D G G G G G G A B Z G D G G G G G v 5 V S Z S Z C Z v 9 C C C Z Z S D D S S D S D G G H _ ( ( _ ( ( ( H G G G G ( H H H ( _ ( ( ( ( a.( ( a.( J s.d.j.j.j.j.j.k.k.k.k.k.l.l.j.B O I ! W W Y I : $ . $ : : i u 6 * $ X . . $ $ $ $ : u i p s j j j j z Y ~ ,.2.2.,.W W W Y s p s Y I j j j j s j j L I I I I I W ,.~ W W W W W W W j u i j W ! ! ~ ! ~ ~ ! W Y Y Y Y T W ,.,.,.,.,.W W W ,.,.,.,.,.,.,.,.W ~ ~ ~ ~ ~ ~ W ~ T T W W W E E W T E E E E E E T T T T Y Y T W W W W W W W W W W W W W W W W W W W W E Y Y I Y T T T T T T T T T W W W ,.,.,.,.,.,.,.,.2.,.,.,.W T I z s p j Y Y W W ~ 2.,.W I p 6 u L E R L L L s s s i s E W R s p a L E E E E L L L s p 6 6 u s L R E E E E E E R R L L L L s i 6 ; & $ . X * 7 L P E I Y z 7 Q G.V.Z.S.F.B.B.B.B.B.B.B.M.M.b.M.M.M.B.B.B.B.B.b.b._ _ c.N.b.b.N.N.N.N.N.b.c.c.c.d.d.d.m.8 ) d.k.k.d._ _ d.d._ d.d.a.d.d.j.l.l.v.v.l.l.c.c.k.k.d.d.a._ _ s.s.d._ d._ a.a.s.d.d._ a.s.s.j.k.k.k.k.k.j.j.j.k.j.s.d.d.d.d.d.s.s.s.a.a.a.a.a.",
"B B C C C C C C C C C B B C C 8 @ 9 Z C C C C A C C C A A S A C C B v B D D D G G G G D G C B C D D G G G G G v 5 V G Z Z S Z B v 9 Z C C C C C S S S C C C D G H H H ( ( ( ( ( ( H ( H G ( H H ( H ( ( ( ( _ ( ( a.a.a.a._ a.j.j.j.d.j.j.k.k.j.k.k.l.k.j.` E ~ ~ W W Y s $ $ $ $ : 6 u u 6 6 6 6 6 : & & * 6 u i i i i p p s j Y W W ~ 2.3.3.` W R s i p j R L j s j L L L I Y I L j s s z Y W Y W W W W W T s u u I W ~ ~ ~ ~ ~ W T Y Y Y Y Y T T W ,.~ ~ ,.~ W ~ ,.,.~ ~ ~ ~ W W W W ~ ~ ~ ~ ~ ~ W T T E T T Y E E T T W W ! W W W W W W W W W W W W W W W W W W W W W ~ ~ ~ ~ ~ ~ W W E Y Y I I I U U U T T T W W ,.,.,.,.,.,.,.,.,.,.,.,.,.,.W W W T I p p s R Y Y W W W W E E R R R W ` ` E L s u 6 6 u p L E W R s p s L R R L L L L L s p 7 u p L L R E E E E E E E R R L L s a 6 ; & $ X X & 6 h E E E L z P Q V.C.Z.U.U.B.B.U.F.B.B.B.b.m.M.M.B.B.B.B.B.B.B.b.k.H ( k.b.b.N.N.N.N.N.N.b.n.c.c.k.d.d.n.3 ) d.k.d.d._ _ d.d.a._ d.d.j.j.l.l.l.v.n.l.j.k.k.j.k.a.d.a.( a.j.j.d.( ^ _ a.a.s.s.d.( a.d.j.j.j.j.j.k.k.j.j.j.j.d.j.j.d.d.d.s.s.s.s.a.a.a.a.a.",
"C C C C C C C C C C C B B C Z 8 @ 0 Z C C C C C C C A A D A C C C C B C D G G G G H G G G C v C F G G G G G G v 5 V S D Z Z B B v 8 B C C C C C C S G S C C G H H J H ( ( ( H H ( K H H S A ( ( ( ( ( H D D a.K ( ( ( ( a.a.d.j.j.d.s.s.j.k.k.j.k.k.k.d.' 3.2.2.~ W W R i # # # & 6 u p p p p p i i 7 < < 6 u i i i u u u u a I W ~ ~ ~ 3.3.` / E L i 6 p L L p p p s m L R E E E L s s s z Y W Y T W W W W T s u u I W ~ ~ ~ ~ ~ W Y Y I Y Y Y T T W W W W ,.~ ~ ~ ~ ,.~ ~ ~ ~ ~ ~ W W ~ ~ ~ ~ ~ ~ T T T T T T Y T T T W W W ! ! ! ! W W W W W W W W W W W W W W W W W W W W W W W W W W E Y Y I I I Y U U T T T W W ,.,.,.,.,.,.,.,.,.,.,.,.,.,.W W W W Y p u s R E E W W W E E E E W W ` 3.3.W E L i 6 * 6 u s R W R L p p s L L L L L L L L s u 7 p m L R E E E E E E E E R R L j a 6 ; & & X X $ : h P E E L Y Y Q / V.D.F.U.B.F.U.U.F.B.b.m.z.n.M.B.B.B.B.B.B.B.b.b.J H k.N.N.N.N.N.B.N.b.b.c.c.c.k.j.d.z.3 ) d.d.d.d.( d.d.d.d.( _ a.k.l.l.v.l.l.n.l.k.k.k.j.j.d.( ( ( a.k.d.d._ ( a._ _ a.a.d.a.( a.s.s.j.j.j.k.k.k.j.j.k.j.j.d.j.d.d.a.s.s.s.a.a.a.a.a.",
"C C C C C C C C C C B C C B B 8 @ 9 Z C C C D D C C D D D D D C C A D D D D G G G G G G G G G G G G D G G G G 9 5 V D D C Z Z S v 8 C C G S Z S D D A S D G G H H H H H K ( H H H ( H H G D H H H ( ( H G ( _ ( ( _ ( ( ( _ j.j.j.d.j.j.k.k.j.j.j.k.j.( ' 3.,.2.` ` W L 6 # # # * 6 p a a a a a a a i p u p p p i u u 6 6 u a R W ` 2.` ` 3.` W E a 6 6 p m p 6 6 6 u p s E W / W R j j j I W W W T W W W T T s u u I W ~ ~ ~ W W T Y Y I Y Y T T T T T ;.T W ~ ~ ~ ,.,.~ ~ ~ ~ ~ ~ ~ ~ ~ ~ ~ ~ ~ W T T T T T T Y T E E T W W W W W W W W W W W W W W W W W W W W W T W W W W W W W W W W E Y Y I I I Y U U U T T W W W ,.~ ,.,.,.,.,.,.,.,.,.,.,.W W W W Y p u a R E E W / E E E E E W ` ` 3.3.3.W R s u 6 6 6 i s E E L p u p s L L L L L L L L p u u s L R R R E E E E E E R R R j a 7 6 ; & & $ $ ; a L E E Y L L L 0 ' Z.F.B.B.U.F.F.B.M.b.b.M.B.B.B.N.B.B.B.B.B.B.M.m.c.b.b.b.b.N.N.B.N.N.b.n.c.c.k.z.d.d.3 ) d.d.d._ _ d.d.d.d.a._ d.j.j.l.l.l.c.l.j.j.k.j.j.j.( ( a.a.s.s.d.d.d.j.d.a.( _ ( _ _ a.s.j.j.j.j.j.j.k.j.k.k.j.j.j.j.d.d.d.d.s.s.s.s.s.a.a.a.",
"C C C C C C C C C C B B C C Z 8 @ 0 Z C C C C C C C A C A C C C B C D D G D D G G G G G G G G H G G H H H G G 9 5 V G D C C B B v b B Z S S C C D G G D C D G H H G G H H H H G G H G H ( ( H H H ( ( ( H ( ( ( ( G ( a.( ( a.d.s.j.j.j.j.j.k.j.j.j.j.H ` 3.,.2.2.` E s & . # & 6 u p a a a a a a s a a a a p p i u u 6 6 u s E ~ 2.3.` 3.` / E R p 6 6 s s u & & * 6 i s E / ` ` W Y I I Y W W T T W W W T T s u u I W ~ W W W T Y Y Y I Y Y T T T T T T T T ~ ~ ~ ,.,.~ ~ ~ ~ ~ ~ ~ ~ ~ ~ ~ ~ ~ W T T T T T T Y T E W T W W W W W W W W W W W W W W W W W W W W W T T W W W W W W W W W E Y Y I I I Y U U T T W W W W ,.,.,.W ,.,.,.,.,.,.,.,.,.W W W W Y s u a L E E E E E E E E E E W / ` 3.3.` W R s u i p p L E / R p u i p s L L L L L L R s u 6 i s L R R R E E L L L L L L s a 7 6 : ; ; & $ & 7 h P E Y I I E P P Z.S.B.F.B.F.N.M.M.M.b.m.B.B.B.M.B.B.B.B.B.B.B.b.N.N.N.b.N.B.N.N.B.N.b.n.n.c.k.j.d.j.3 ) d.d.d.^ d.d.d.a.d._ a.j.j.j.d.j.l.l.l.l.k.k.z.j.a.d.a.s.s.a.j.d.d.d.j.a.a.( H ( _ _ K ( s.s.j.j.j.k.k.k.k.k.j.j.j.d.s.s.s.j.s.s.s.a.a.a.a.a.",
"C C C C C C C C C C C C C C B 8 + b G A C A C C C C D D C C C B C D D D G G G G G G G G G G G G G H H H H H G v 8 Z D D A C C S B b Z C S Z D G D A C C C S G H ( ( ( H G H G D G G G D G ( ( ( ( ( ( ( ( ( ( ( ( _ _ ( ( d.a.d.j.d.j.j.j.j.j.j.k.k.k.H ! 2.,.,.` / R p & . # & 6 p p a s s s s s a a s a a p p p p i i u i j E ` 3.3.3.` ` W R L p u p L s 7 * * 6 p m R W ` 3.3.` W Y Y Y W W Y T W W W T Y s u u I W ~ ~ W T Y Y Y Y I Y E T T T W T T T T ~ ~ ~ ~ ,.~ ,.,.,.,.,.~ ~ ~ ~ ~ ~ ~ W T T T T T T Y T W W W W W W W W W W W W W W W W W W W W W W W T T T W W W W W W W W W E Y Y I I I U U U T T W W W W W W ,.W W W W ,.,.,.,.,.,.W W W W Y I p a L R E E E E E E R L R R E W ` ` ` ` E R L L L L L E ` E s u i p s R R R R R R R L p 7 u p L L R R R E p p p p s s p i 6 6 ; ; 6 & $ & : 7 L E E I I E E P x.M.F.B.F.F.F.b.k.c.b.M.B.B.b.B.B.B.B.B.B.B.N.B.N.N.b.N.N.N.B.B.N.N.N.b.c.c.k._ j.Y.b _ d.d.k.d.d._ d.d.a._ ( d.j.s.j.d.k.a.s.a.d.j.d.( j.k.s.d.j.j.d.d.j.a._ z.a.( d._ _ _ d.d.s.d.j.d.j.j.d.k.j.k.j.j.j.d.s.d.s.s.s.a.a.a.a.a.a.a.",
"C C C C B B C C C C C C C C Z 9 @ b G A C C C C D D D D C B B C Z D D D G G G G D G G G G G G G G H H H G G G 9 5 Z D G G C C Z v 9 Z Z D S C C C C D C D D G H H H G G G G Z x v c c G ( ( ( G H ( ( H G H H ( ( ( _ _ _ a.a.a.j.j.j.j.k.k.j.k.k.j.j.G ! 2.,.,.~ W L u & . # * u p a a a a a a a a a s s s p p s s a a a s L W 3.3.` 3.` ` E R L s s L R s u u u s L E ` 3.3.3.3.` W Y Y Y W T Y T W W W T Y s u p I W ~ W T Y Y Y Y Y I Y Y Y T W ~ ~ ;.T T W W ~ ~ ~ ~ ~ ~ W W W T ~ ~ ~ ~ ~ ~ W T T T T T Y Y T W W W W W W W W W W W W W W W W W W W W W W W W T T W W W W W W W W W E Y Y I I I U U U T T T W W W W W ,.W W W W ,.,.,.,.,.,.W W W W Y I s a m L R E E E E E L L L R E E W / ` ` ` W W E R E L E W W L i p p L R R R R R R R R s u 6 u L L R R R R 6 6 6 7 u u i 7 6 : ; ; 6 * $ $ ; 6 L E E I I E E s ) M.U.F.F.F.N.N.M.M.M.M.N.N.N.M.B.b.M.B.B.B.B.B.N.N.N.N.N.N.N.N.N.b.b.b.n.c.j.d.d.m.8 ) j.j.k.d.d._ d.d.a.a.a.a.k.d.d.j.d.d.d.j.G S G _ k.j.d.j.s.d.d.d.s.a.K a.a.( ( ( d.d.d.s.s.d.j.j.j.j.d.d.k.k.j.j.j.d.s.s.s.s.a.a.a.a.( K K K ",
"C C C C C C C C C C C C C C Z 9 @ 9 Z C C A D D A C C D D C C A C C D D G G G G G G G G D G G G H G A D H G D 8 5 Z G D S C Z S v 8 Z D S S C C D G D D D D G G H ( G G G D D C C Z D G H ( ( H G G G ( H H ( ( ( ^ ^ H a.a.( a.s.s.j.d.j.j.j.j.k.j.s.Z Y ~ ~ W W E m 6 X . # * u p p a a a a a a s s a a a a p a s s s j s I ` 2.3.3.` ` E R s a L E W E L s s L R W ` ` 3.3.3.` W R L I Y Y Y Y Y W W T I s p p j T ~ ~ T T Y Y Y Y Y Y Y E Y T W W ,.,.W W ~ ~ ~ ~ ~ ~ ~ ~ ~ ~ W T T T T T W T T T T T Y Y T T W W T W W W W W W W W W W W W W W W W W W W W W W W W W W W W W W W W W W W Y T T T T U T T T T W W W ,.,.W W W W ,.W W W W W W W W W W W Y m m s m L L R E E R L L L R E E W W ` ` W / / E E R L L L E R s p p s R E E E E R E R s u 6 u s L L L p p & & * * & & : : 6 6 6 7 7 ; & & & ; L E E E I E I I Q n.F.F.B.B.B.M.B.B.M.B.B.N.B.B.B.B.B.M.N.N.N.B.N.N.N.b.b.N.B.N.N.n.b.b.n.l.z.d.z.S.3 ) z.k.k.d._ d.d.d.a.a.a.d.s.s.d.k.d.a.a.d.d.d._ ( d.j.d.j.a.a.a.s.s.a.a.s.a.d._ _ d.a.a.a.s.j.j.j.j.j.j.j.j.j.d.d.d.d.d.s.a.a.a.s.a.a.K K a.a.",
"C C C C C C C C C C C C C C Z 9 @ 0 Z C A D A A C C A A A C C C C C D D G G G G D D G D D G G G H G G G G G G 9 5 Z G D D C B Z v 9 Z Z S S Z D D D D D D D D G H H H H G C C G D B C H H H ( ( H H H ( ( H H ( ( ^ ^ ( ( a.a.a.d.j.j.j.j.j.j.j.j.j.a.B I ~ ! W E R s * . . # * u p p a s s s s s s s s a a p p a s s j j L E ` 2.` ` ~ W E L s p L E W E R L L R E ` ` 3.3.3.3.` W R s j I I Y Y Y Y I j s p i j Y ~ ~ W Y Y Y Y Y Y Y Y Y E Y T T ~ ,.,.,.W ~ ~ ~ ~ ~ ~ ~ ~ W W W T T T T T T T T T T T T T T T W W W W W E W W W W ~ ~ ~ ~ ~ W W W W W W W W W W W W W W W W W W W W W W W W T T T T T T T T T W W W ,.,.W W W W ,.W W W W W W W W W W W W R L m a a m L E E R R R R E E W / ` ` ~ ~ / / E E I L L L R E L i p a L R E E E R E R s u 6 7 p s s s p 7 * * 6 6 * * : 6 6 7 7 i 7 : * & $ & j R E R E E I E ! c.F.B.B.B.B.B.B.b.M.M.B.B.B.B.B.N.B.N.b.b.b.M.N.N.b.b.B.B.B.N.N.b.b.b.n.k.d.d.j.S.3 ) j.z.k.k.a.d.d.d.a.a.d.j.a.d.j.k.j.a.a.H G ) G a.a.s.s.s.a.a.s.s.s.d.a.a.a.a._ ( _ a.s.s.a.s.j.j.j.j.j.j.d.d.d.d.d.d.d.d.s.a.a.a.a.a.K K a.a.",
"C C C C C C C C C C C C C C Z 9 @ 0 Z C A D D C C D D D A D D D C C D D G G G D D D D D D D G G G G H H H G D 8 5 V G G D C B Z v 9 C C Z C C C Z D D A S D D G G G H G G D S H H G G ( ( ( ( H H ( ( H H G ( ( S C ^ ( ( a.a.s.d.j.j.j.j.j.j.j.k.j.( 8 L ~ ~ W Y L u & . . # * u p p a s s s s s m m s s a a p s s s j L I W ` ` ~ ~ W E R L s p L E E E R L R E ` 3.3.3.3.3.3.` W I s z I I Y Y Y z s i i s s Y ~ ~ W Y Y Y Y Y T Y Y Y Y E Y T T W W ,.,.W ~ ~ ~ ~ ~ ~ ~ ~ W W T T Y T T T T T T T T T T T T T W W W W E E W W W W ~ ~ ~ ~ ~ W W W W W W W W W W W W T Y Y Y Y Y E E E W T T T T T T T T T T T W W W ,.,.,.,.W W W W W W W W W W ,.,.W W ` W R L m a a s L R E E E E W W ` ` ` ` ` ` / ` E E R L L L L E R i u p L L R E E E E R m u 6 6 u i p p p u u p p p p i 6 7 i a a a a 6 ; & X & a L E / E Y I Y ! j.F.M.S.B.B.B.N.b.c.M.B.B.B.B.B.N.b.b.b.N.b.c.M.B.N.N.N.N.N.B.N.N.b.b.n.b.j._ j.Z.3 ) d.c.k.d.d.d.d._ ( _ a.a.a.s.s.s.d._ ( a.a.d.( d.a.s.d.s.a.s.j.j.s.d.d.a.( S B G _ a.d.a.a.a.s.j.s.d.j.j.j.d.d.d.d.d.s.s.a.a.a.a.a.a.a.( a.a.",
"C C C C C C C C C C C C C C B 9 @ 0 S C A D A C A D D A D D D C C C D G G G G D D D G G G D D G G H H H G G G 8 , Z G D D Z C S v 8 Z D D S C B C S S S S S D G G H G G G G G ( ( ( ( ( ( ( ( H H ( ( ( D C C C G ( ( ( ( ( a.s.d.j.j.j.j.j.j.j.j.j.S O L T T T R s 6 # . . # * u p p a s s s s s L m m m s a s s s j L L W ~ ` ~ W W W E L s p s L R R R R R E W ` 3.3.3.` ` 3.3.W E I I Y Y Y I j s i i s z I W ~ W T T Y Y Y Y T Y Y Y Y E Y T T W W ,.W W ~ ~ ~ ~ ~ ~ ~ ~ W W T T Y T T T T T T T T T T T T T W W W E E E W W W W ~ ~ ~ ~ ~ W W W W W W W W T W W W T Y Y Y Y Y Y E E Y T Y T T T T T T T T T W W W W ,.,.,.W W W W W W W W W ,.,.,.W W W W E R R L L s p s L E W W W / ` ` ` ` ` ` / ` W E R L L L s E E p 7 p L L R E E E E I L p 6 6 6 6 6 u p p s s s s s a i i h L j j h 7 6 * X & 7 s R / E Y I I Q ) m.M.S.F.F.B.M.M.b.B.B.B.B.B.B.M.N.B.B.N.b.n.M.N.N.B.B.N.N.N.N.b.N.b.n.c.d._ d.m.3 ) j.z.d._ ( _ _ _ ( _ d.a.d.s.a.j.d.a.a.d.d.j.j.j.d.s.d.d.a.s.j.j.s.a._ ( G C H ( _ _ a.a.a.a.s.s.d.d.d.d.d.d.d.d.d.a.s.s.a.a.a.a.a.a.a.a.a.a.",
"C C C C C C C C C C C C C C Z 0 @ 9 Z A C A C C C C D D A D D C C D D D D G D A D D G G G G G G G G G G G G G 4 2 Z G D D Z C S v b G S D Z C Z Z Z A D A D G G G D G ( H H ( ( ( ( ( ( ( ( ( H H J ( ( G D G G G ( _ ( ( _ _ a.s.j.j.j.j.j.j.j.j.j.S 5 I ~ ! T I u & . . . # * u p p a s s s s s L L L m s s a s j j L L W ~ ` ~ W ~ W R s i p s L L L L R E W / ` 3.3.3.` ` ` 3.` E Y Y Y Y I j s s s z I T W W W W T T Y Y Y Y Y Y Y Y Y Y Y T T W W ,.,.W ~ ~ ~ ~ ~ ~ W W W T T T T T T T T W T T T T T T T T T W W E T T W W W W ~ ~ ~ ~ ~ W W W W W W W W T T T T T Y Y Y Y Y Y E E Y T Y T T T T T T U T T W W W W ,.,.,.,.,.W W W W W W W ,.,.,.W W W W W W E R R L p 7 u L E E W W W W W W ~ / ` / W E R L j s s E E s 7 u s L R R E E E R L p 6 6 * * * 6 p s L L L L L L a j L L L L L i 6 * $ & 6 a P / / E z I Y V b.B.F.B.B.B.M.M.M.N.B.B.B.B.M.N.N.B.B.N.N.M.M.b.N.N.B.N.N.B.N.b.b.b.n.k.k._ d.c.2 ) z.z.d._ ( _ d._ ( d.a.d.d.d.j.d.d.d.d.j.d.j.j.d.d.s.d.d.a.a.d.s.d.( D G ( ( _ a.a.a.a.a.a.s.d.s.d.d.s.s.d.d.s.j.s.s.s.s.a.a.a.a.K K ( ( K a.",
"C C C C C C C C C C C C C C Z 9 @ 8 Z C A D A C C C C C D D C C C C G G D D D D G G G D G G D D G G F G H G G 9 , V G D C C B S 9 9 G S S D Z C Z D S A D A D G G G G H ( H H ( ( ( K J H ( H G G H G G G D G G H H ( ( ( ( _ _ s.s.j.j.j.j.j.j.j.a.V / ~ ! ~ E L 7 # . . . & * u p p a s s s s s L L L j s s s s j L L I W ~ ~ ~ W ~ W R s u p m L L L L R E W W ` ` ` ` ` ` ` 3.` E E Y Y I s s i j Y W W T W T T W W Y Y Y Y Y Y Y Y Y Y Y Y T T W W ,.,.W ~ ~ ~ ~ ~ ~ W W W W W T W T W ~ ~ ~ W W W W T W ! W T W ! E T T W W W W ~ ~ ~ ~ ~ W W W W W W W W T T T T T Y Y Y Y Y Y Y Y Y Y Y Y T T T T T T T W W W W W ,.,.,.,.,.W W W W W W W ,.,.,.W W W W ` W E E R R s u u p R E E E E E W ~ ` / ` / / E R L s s j E E s u 6 p m L R E E R R L p 6 6 & & & 6 p L L L L L L L s L P E I L L i 6 * $ & 6 p L W / E I I Y 5 z.N.B.B.B.M.c.B.b.B.B.B.B.n.b.B.N.B.B.N.b.b.l.j.N.N.b.N.N.N.M.N.b.b.b.k.k.a.d.c.3 ^ d.d.d._ d._ d.d._ _ a.a.d.d.k.d.d.s.j.k.j.j.j.j.j.d.j.j.a.( j.a.a.H G G ( H ( ( ( ( a.( a.s.d.d.j.d.j.j.d.d.s.s.d.s.s.a.a.a.a.K a.a.a.a.( a.",
"B C B C B B C C B C C C C C Z 9 @ 9 Z D D C D D C C A C D D D C A D G G G G D D G G G G G G G G G G H H H G G 8 5 V D D C B B Z 9 9 S Z S D C B Z D D D D D D G G G G H ( ( H H G K ( K ( _ ( G S G H ( G G ^ ( H ( H H H ( a.a.s.d.j.j.j.j.j.j.s.B 5 E ~ T ! E L 5 & . . X & 6 i a i i p p p p p a s j j j j j j s p j Y W ~ ~ ~ ~ ~ R L a p s s L L L L I E W W / ` ` ` E E E E E Y W Y j s s p Y W W W ~ ~ W W W W W W W W W W W W W W W W W T T W ,.,.,.W ~ ~ ~ ~ ~ ~ ~ ~ ~ ~ ~ ~ T T T ! ~ ~ T T T T T W W W W W W W E E E Y Y W ~ ~ ~ ~ ~ W W T T Y Y Y T T W W W W Y Y Y Y Y Y E Y E Y Y Y T T T T T T W W W W W W W W W W W W ,.,.,.W W W W W W W W W W W W W W E I R L p u u a L L R E R E ` ` ` / ` W I p p p s I Y I s u p s L E E E E E R L p u . # * p L s L L s s p p s j L L P I L s i 6 & $ & 6 s R E E I Y L 5 d.M.B.N.F.B.M.B.B.B.B.B.B.B.b.N.B.B.B.N.N.N.b.n.N.N.N.N.N.N.b.b.c.c.c.k.d._ d.x.3 ) d.d.d._ d.d.d.d.a.d.d._ a.j.k.a.s.s.j.k.j.s.s.j.j.d.j.j._ ( a.s.a.( _ ( H H ( H ( ( a.a.a.d.j.j.d.d.j.j.d.s.a.C J s.s.s.a.a.a.a.a.a.a.a.a.a.",
"C C B B B B B C C C C C C C Z 8 @ 0 S D D D C D A C A A D D D D D D G G G D D G G G G G G D D D G G G G G G G 9 5 V D D C B B S 9 9 S S S S C C Z C C C D G G G H G G H H H H H ( ( ( ( ( ( H G G A C G A B D ( ( ( a.( ( _ a.a.s.j.s.d.j.j.j.j.a.V a E W ! ! P L 6 @ X . X & 6 7 a a i i a a a a a s j j j j j s s s j Y W ~ ~ ~ ~ ~ E L p p s L m s s L L I E E W W W W E E E E E Y R j s s s j W W W W ~ ~ ~ ~ ~ ~ ~ ~ W W W W W W W W W W W W W ~ ,.,.,.~ W ~ ! ! ~ ~ ~ ~ ~ ~ ~ ~ T T T ! ~ ! T T T E E T W E E W W W E E E Y Y W W W W W W W W T T Y Y Y Y T W W W W Y Y Y Y Y Y E Y Y Y Y Y Y T T T T T W W W W W W W W W W W W W W W W W W W W W W W W E W W W W W E E I j p 6 u s L R R R E ` ` ` ` 2.~ T z p p i z T Y j p p s L R E E E E R L s p # & 6 p L s L s s p p p p s s L L L L s i 7 * # & 6 s L I E E R P h _ M.B.B.B.M.M.N.B.B.B.B.B.b.B.B.B.B.N.N.b.b.c.b.N.b.b.N.B.b.b.c.c.c.c.k.d.d.j.n.3 ) d.d.j.d.( d.d.d._ d.d.d.a.j.d.a.d.d.j.j.j.j.k.j.j.d.j.a.H ( D G C D B H ( _ _ a.a.s.d.a.s.j.j.j.j.d.j.j.d.d.s.s.s.s.s.s.a.a.a.a.K a.a.a.a.a.",
"C B C C C B B C C C C C C C Z 9 @ 0 S S D D A D D D A A D B c C A D G G D D G G G G G G G H G G G H G G G G G 8 5 V D A C v B C v v ^ S S S C C S S C Z S S A S G G G H H H G H ( ( ( ( ( K H G C S ^ ( H ( ( ( ( _ ( _ ( J _ a.j.s.s.j.j.j.j.d.H Q ` / ! E Y P a < @ X X X @ 5 7 0 a i p p a a i a s j L j j s s s s I T W ~ ~ ~ ~ ~ E L u u s L p u p p L R E E E E E E R R R R Y Y I s p s z Y W W W W W W ~ ~ ~ ~ ~ ~ ~ ~ ~ ~ ~ W W ~ ~ ~ ~ ~ ~ ~ ,.,.W ~ W W W W W W W W W W W W T T T ! ~ ! T T T E E E T W W T T E E E E Y Y W W W W W W W W T T Y Y Y Y T W W W W Y Y Y Y Y Y E Y Y Y Y Y Y T T T T T W W W W W W W W W W W W W W W W W W W W W W W W E E E W W W W W Y R s 6 6 u s L L R E / / / ` 2.2.,.T s p u s T W I s p s L R E E R R R R L L * * u s L L m s p p i u p p s s L L L s p 7 * & & 6 p I R R E P P P ) N.B.B.M.j.b.N.N.B.B.N.N.B.B.B.B.B.N.N.N.N.N.N.N.N.N.N.N.M.b.b.c.c.z.j.d._ d.m.3 ) d.d.d.d.d._ d._ ( _ a.d.( ( d.d.a.s.j.j.k.k.k.j.k.j.j.d.a.G D a.d.( _ ( ( ( a.d.s.a.s.a.s.s.s.s.d.s.d.d.a.s.s.d.s.s.s.s.s.a.a.a.a.a.a.a.a.a.",
"B B C C C C B C C B C C C C Z 9 @ 0 ^ S D D D D D D D D A C C D D D D G G G D G G G G G G G G G G G G G G G G 9 5 V D D A C B Z v v S Z S S Z C Z Z Z B v C D D Z G ^ G G H ( ( ( K ( ( K K H D B B D G G G G H ( _ a.a.a.( _ a.s.s.j.j.j.j.j.s.B P ' / W E Y L 0 & @ O X O @ 5 7 a a a a p a a i s s L L L j s s s z Y W W ~ ~ ~ ~ ~ E L u u L L u 7 u p L R W W E E E E R R R R I I j s p j Y ~ W W W W W W ~ ~ ~ ~ ~ ~ ~ ~ ~ ~ ~ W W ! ! W ~ ~ ~ ~ W ,.W W W W W W W W W W W W W W T T T ! ~ ! T T T E E E T E E E E E E E E Y Y W W W W W W W W T T Y Y Y Y T W W W W Y Y Y Y Y I E Y Y Y Y Y Y T T T T T W W W W W W W W W W T W W W W W W W W W W W W W E E W W E W W ~ W E R p 6 6 u s L R E ` ` ` ` 2.2.2.,.I p u s T W Y j p p s L R E E E E E R L u 7 u s L L L L s p u u p p s j L L L L s p * & # * p L R R E E L P ^ k.B.N.B.b.M.b.N.B.B.M.B.M.N.B.B.B.N.N.N.N.b.N.N.N.N.B.N.N.b.b.k.c.c.k.d.d.j.x.3 ) d.d.d.d.d._ ( _ ( G ( a.d._ d.d.a.a.d.k.k.k.k.j.k.j.j.j.K C D H ( a._ ( G H _ a.s.a.a.a.s.s.s.s.d.d.j.d.s.s.s.s.s.s.s.s.a.a.a.a.a.a.a.a.a.a.",
"C B B C C C B C C B C C C C C 8 @ 0 S D D D A D D D D D C D D D D D D D D G G G G G G G G G G G G G G G G G G 9 5 b D D A C B Z v 9 Z Z S Z C B C C C B v B D D C B G G G H ( ( K a.a.( ( ( H D D G ( G C D H G H H ( a.a._ _ a.s.s.s.j.j.j.j.s.0 R ' ` ~ W E a 5 @ O O O O @ 5 7 0 0 a a a s a a s s L L L L s p s I T W W ~ ~ ~ ~ ~ E L u p L s i p p s R E ` ` W W W W E E R L j s s s j I W ~ ~ ~ W W W W W W W W W W W W W W W W W W W W W W W T T T T T W W W W W W W W W W W W W T T ! ~ ! T T T E E Y E Y E E Y E E E E Y Y W W W W W W W W T T Y Y Y Y T W W W W Y Y Y Y Y Y E Y Y Y Y Y Y T T T T T W T T W W W W W W W T T T T T T W W W W W W W W E W E W E E W W W W E L p 6 6 u a R E ` ` ` ` ,.2.2.,.T I s d I T I s p p p s R E E E E E R R p i p a L L R R L s p p p s s L R R R L m i 6 * # * p L L L I I P E n d.B.N.M.M.M.N.N.B.N.N.B.B.N.N.B.B.N.N.N.N.N.N.N.N.N.N.M.N.b.c.k.k.l.j.d.d.d.x.3 ^ d.d.j._ _ _ _ _ ( G ( _ d.G ( ( G a.j.k.k.k.k.k.k.k.j.j.( G ( a.( G C H _ ( ( a.a.a.s.a.s.d.d.s.s.j.j.j.j.a.s.j.j.s.s.s.a.a.a.a.a.a.a.a.a.a.",
"B B C B C C C C C C C C C C Z 8 @ 0 G S D D D D A C D D D D D D D D D G D D D D G G G G G G G G G G D D G G G 9 < b Z A C B B C v 8 C C C C C C C C C Z B B S G D G G S G H ( ( ( a.a.( K K H G G H H H G G H ( G H ( ( a.a.a.a.s.s.s.j.j.j.j.a.Q ` 3.` W W I i 5 @ X @ @ O @ 5 7 0 0 a s a a a a s s L L L L a p s I W W W ~ ~ ~ ~ ~ E m u p L s a a s L W ` 3.` ` ` ` / E E R L a p s j Y W ~ ~ ~ ~ W W W T Y T T T T T W W W W W W E E E E T T T T T T T T T W W W W E W W E E E T W T T ! ~ ! T T T E Y Y Y Y Y Y Y Y Y E E Y Y W W W W W W W T Y Y Y Y Y Y Y T W W W Y Y Y I I R E R R I Y Y Y T T T T T W T W W W W W W W W T T T T T T W W W W ,.W W W E E E W W W W W W W E R L p 6 6 u L E ` ` ` ~ ,.,.,.,.,.,.T I I I z s u u p s R E E W W E E R s p u p L L E E R L s a s s L L R E R R L p 6 * # & u s L L R E I P 7 ) B.N.N.N.N.B.B.B.B.B.N.B.B.N.B.B.N.N.N.N.N.N.b.N.c.b.N.M.b.k.k.j.k.j.d.d.d.n.2 ^ d.d.d._ _ _ _ ( ) _ _ d._ d.G ) H a.j.j.j.k.k.k.j.j.d.j.a.a.d.a.a.( ( H ( H ( a.a.s.a.a.s.d.d.j.d.s.j.j.s.j.s.s.s.s.s.a.a.K J _ a.a.a.( _ a.",
"C C C C B C C C C C C C C C Z 8 @ 0 G S D D D D A C D D D A D D D D D G D D D D G G G G G G G D F G G G D D G 8 , b Z A C C C S v 9 Z C S C Z Z C C C C B C C G G G S C G H H H ( ( a.K J K ( ( H H H G H G F G G H ( a.a.s.a.a.s.j.j.j.j.j.j.( Q ` 2.` W T E 7 5 @ X @ & 5 6 0 L L L L j s i i i i a s L L s p p j T W W W W W W ~ ~ L i p p p s s m L R E / ` ` ` ` ` W E R L s p s L I Y W W ~ ~ ~ W W T Y Y Y Y Y Y Y Y Y Y Y Y Y I Y Y Y Y Y Y T T T T T Y Y I Y Y Y W E E W W T W T T T T T T T T T Y Y Y Y Y Y Y Y Y E Y Y Y Y W W W W W T Y Y Y Y Y T W W W W W W Y Y I I I I R R I R I Y Y T T T T W W W W W W W W W W T T U U T T T T W W W ,.,.~ W W W W W W E E E E E E E E R s p p p L E E E W ~ ,.,.,.,.,.W W Y I I I p u u s R E E E E E E E L p 6 u s L E E E E L L L L L R E E R R j p u * # & 6 L R E R I I E P j.B.B.B.M.M.N.N.N.B.N.M.N.B.B.N.N.N.N.N.N.n.n.l.b.b.n.N.M.b.k.k.j.d.j.d.d._ z.2 ^ ) d._ ( _ _ _ ( ( ( d.a.( d.H ( ( a.s.j.d.j.j.j.k.d.s.s.a.d.s.a.H ( H D H ( _ a.a.s.s.a.a.s.d.d.d.d.d.j.s.j.j.d.s.s.s.s.a.( K ( _ a._ ( K a.",
"C C C C B C C C C C C C C C Z 8 O 0 Z D D D D D D D D C C A A D D A D D G G G G G G G G G G H G G G D D D D D 8 , b Z C B B Z C 9 9 C C S C C C B B B C C C D D D G D D H H J ( a.a.a.( J J ( ( ( ( H H H H F G H H ( a.a._ _ a.a.j.j.j.j.s.a.S ! ` ` ` W Y I 7 & @ X @ < 6 0 n L P P L L s i i i a s m L L L p s j T ~ W W W W W W W s 7 p s s L L L R E W ` ` ` ` ` W E E L s p s j R Y Y W W ~ W W W T Y Y I I I I I I Y Y Y Y Y Y R I I I I I Y Y T T T T Y Y I I Y Y E W E W W T W T T T T T E T T T Y I Y Y Y Y Y Y Y Y Y Y Y Y Y W W W W T Y Y Y Y Y T W W T W W T Y I I L L I L I I R Y Y T T T T T W W W W W W W W W W W T T T T T T T W W W W W W W W W W W W E E E E E E W W E R L s p p L R E W W ,.,.,.W W ~ W T T Y Y s u u s R R E E E E E E L a 6 7 a L R R E E R L L R R R R E R R s a u * # & 6 s R E L I I E E x.B.B.B.N.N.b.b.B.B.B.B.N.N.N.N.N.N.N.N.b.b.b.n.b.c.b.b.b.n.c.d.a.( d.d._ _ x.2 ^ ) _ _ _ d._ S D ( H ( _ K ( a._ _ d.d.j.a.d.j.j.j.j.d.s.s.s.s.s.( ( a.( ( ( ( a.s.s.s.a.a.s.s.s.d.d.a.s.s.s.j.s.a.a.a.a.a.K _ _ K ( K K ( K ",
"C C C C C C C C C C C C C C Z 9 O 0 G D A C A D D D D D D C C C D D A D D D D G G G H H G G G G G H G G G G G 8 , b B C B B S S 9 9 Z C C C C C B v v B B C S D D G G G H H ( ( K ( a.a.K K H ( ( ( ( G G H G G ( J ( ( J J a.a.a.s.j.j.j.j.J 8 ! ` ` W W Y R 6 & X O & 5 0 n L P P P P L L n s a s n L L L L s s I W ~ ~ W W W W W T p 6 s L L R R R E E W ` ` ` W W E R L s p a L I Y Y Y W W W W T Y Y I I z z z z z z I I I I I I R I I I I I I Y T T T T Y Y Y Y Y Y W T T W W T T T T T T T Y Y Y E Y I Y Y Y Y Y Y Y I I I I Y Y Y W W W T Y T T T Y T W T T W T Y I I I j j L L I I R I Y W W W W T W W W W W W W W W W W T T T T T T T T T T W W W W W W W W W W E E E E E W ` W E E E s i p s Y W W W W W W W ~ W W W W W j p u p L R E E E E E E R s 7 7 p j L L R R R R R R R E E E R R m a u * # # * p L E L L P I E x.B.B.M.b.M.b.b.M.N.N.b.b.N.N.N.N.N.N.N.b.b.b.b.b.b.b.b.l.c.k.j.d.H a.d.d._ j.2 ) _ _ _ _ _ ( S B ^ S ( a.a._ d.d.a.a.j.j.d.j.j.j.j.j.j.s.s.j.j.s.( H ( a.( d.a.a.s.s.( a.s.s.s.s.s.j.s.a.a.s.a.s.d.s.a.a.K K _ a.K K J J ( K ",
"C C C C C B B C B B C C C C Z 0 # 0 G D D D A D D D D D D D D D D D D G S D G G G G H H H G G G G F G G D G G 8 @ v B C C C S S v 3 B C C C C Z B v v Z C G G D G D D H H H ( ( ( a.( K K ( ( ( a.a.a.H G G H H H ( ( ( ( ( a.a.s.s.j.j.j.j.H @ ~ ` ` W T Y R < @ O & 5 7 L L P P P P R R P L m n m m L R L m s s I W ,.~ ~ ~ W W Y Y u 6 L R E E E E E W W W W W W E R L s p p s L Y Y Y Y T W W T Y Y Y I I z z z z z z I I I I I I R I I I I I I Y T T T T Y Y Y Y Y Y W W T W W T T T T T T Y l Y Y E I I Y Y Y Y Y Y Y Y Y I I Y Y Y W W W T W T T W T Y Y Y T T Y I I I j j j L L I R I I Y W W W W W W W W W W W W W W W W W W T T T T Y T T T T T W W W W W W W E E E E E E E W E E E E E s u u s R W W T T T T W W T T W W R p u p L R E W W W W E I s u 6 i s L L L R E E E E E E E E R R m s u * & & & u s R L L P P I ' c.B.B.M.N.N.b.N.N.l.b.M.N.N.N.N.N.N.N.N.b.b.n.k.b.c.n.l.n.z.d.d._ d.j.d._ n.2 ^ d._ ( ) d.^ D G B G d.d.( s.j.z.d.a.s.d.k.k.k.j.j.s.s.s.d.s.j.j.a._ H a.a.d.a.a.s.s.a.a.s.s.s.s.j.j.s.a.a.a.s.s.s.s.a.a.a.K a.a.a.a.( ( ( ( ",
"B C C C C C C C C C C C C C S 0 # 0 S D D D A C D A C C A D D D D D D D G D A D D G G G G G G G G G G A A A Z 8 , b B B B B Z Z 9 3 B C D G Z B Z Z C G D A D G G ( ( H H ( ( ( K p.a.K H K ( ( a.a.( H G _ _ H ( _ ( a.a.a.a.a.s.j.j.s.s.s.G X ~ ` ` W T Y I ; @ O & 0 L L P P P R E R E E R R n n L R P R m s j Y ~ ,.~ ~ ~ W T I I i u L E E E R E E E E E W E E R L s p s L R I Y Y Y Y T T T T T Y Y Y I I I I I I I I I I I I I I Y I I Y Y Y T T T T T Y Y Y Y Y Y W W W W W T W T T T T Y Y Y I Y Y Y Y Y Y Y Y Y z z z z I Y Y T W W Y Y Y Y Y Y Y Y T T T Y Y I z j j j j L L I R I I Y T W ,.~ W W W W W W W W W W W W W W T T T T I I Y T T T T W W W W W W E E E E E E E W E E E E W R a u p s Y W T T T T Y I I I T W Y s 7 i m R W W W W W W E L u 6 u a L L L L R E E E E E E E R R m s u * & # # 6 s L L L L L P Q ^ b.B.N.N.N.M.N.l.b.M._ v.b.N.N.N.b.b.N.b.b.n.n.k.j.k.k.c.j.d.a.( d.d.d._ m.3 ) d._ _ d._ ( ^ _ d.) ) ( ( a.d.j.k.s.p.s.k.k.k.j.j.s.d.s.s.j.j.j.s.d.d.d._ ( _ _ s.j.a.a.s.s.s.s.s.s.s.s.s.a.s.s.a.a.a.a.a.a.a.a.a.( ( ( ( ( ",
"C B C C C C C C C C C C C C S 0 & 0 S A D D D D D A C C A A A D D C Z C B C B B D G G G G D G F D G G G D D S 8 < V Z S C B C C 9 2 B S D B B S G D S A D D D G G H H ( H H ( ( p.p.a.K K K K K a.a._ J G H _ H H H J a.a.a.a.s.s.s.s.j.s.s.G X E ~ ` W T Y I ; & & < a L L L P E E E R / / / P L L L R P R m s j Y ~ 2.,.~ ~ W T I I p i R E E R E E E E E E E E Y L s p p s R E E Y Y Y Y Y Y Y W T Y Y Y I Y Y Y Y Y Y Y Y Y Y Y Y Y Y Y Y Y Y Y T T T T T Y Y Y Y Y Y W W W W W T W T T T Y l z I z Y I Y I I Y Y Y Y z z I Y I Y W T T W Y Y Y Y Y Y I I I I I I I I I I I L I I L I R Y Y Y W ~ ,.,.~ W W W W W W W W W W W W W T T T T Y I Y Y Y Y Y E E E E W W E E E E E E W W W E E E E E R s p p I Y T Y Y Y z z j z I Y E s 7 u s R W / / / / / E L u 6 u p L L L L R E W W W E E E R R j s u * * # # 6 p L L L L L P Q B b.M.M.B.N.b.M._ k.m.c.c.b.N.N.b.b.b.b.v.j.k.c.c.k.k.d.a.j.d.d.d.d._ d._ x.2 ^ ) d._ z.d._ ( _ _ _ _ a.d.a.d.s.j.j.s.s.k.k.j.j.j.s.s.s.s.j.j.j.s.J H d.( H ( a.s.j.j.a.s.a.s.d.s.s.a.s.s.a.a.s.a.p.a.a.a.a.( a.a.K ( ( a.( ",
"C C C C C C C B C C C B B C Z 0 @ 0 S A D A D D D C B B C C C C C C D C C B c C G G G G G G G G G G D C C C Z 5 , b Z C S C B C 9 , v D G S Z G G A A S A C C D H ( ( ( K ( ( ( p.a.a.( ( ( K ( ( ( ( H G H G F H J _ a.s.s.s.s.s.s.s.s.s.s.) / W W ~ W T I i % # & 6 a L L L L R R R R E E R L L m L L m s p p L W 2.~ 2.~ ~ W T I s p s R R R E E Y E R R R E Y I s s s L I Y E E W W W W W W W W W T Y Y Y T T T T T T T T T T Y Y Y Y Y Y Y Y Y Y Y T T T W W E E Y Y Y E W W W W W T T T T T Y Y Y Y Y I I z I Y Y Y Y z z I Y Y T T W W W T Y Y Y Y Y Y I I I I I Y Y Y Y Y Y I I I I I I E ! ~ ~ ~ ~ ~ ~ ~ ~ ~ ~ W W W W W W W W W W T Y I I I I I I I I Y Y W W W W W W W W W W W W W W W W Y I p u s L E R L j s s p p p s R L i 6 a R E W W ` W W W L p 6 u p s L L L R E W W ~ W W E Y I I s i u * $ . & u a j j I I R P 8 c.b.b.b.b.b.n.l.a.z.j.a.b.N.b.N.b.b.b.b.n.l.c.c.d.k.a.d.k.a.d.a.d._ _ ( m.3 Z _ d.d.d.( ( _ _ _ G G H a.d.d.d.j.j.d.s.k.k.j.j.k.j.j.j.d.j.j.j.a.a.a.K ( ( ( a.s.s.s.s.a.s.s.s.s.s.a.s.s.s.K a.a.a.a.a.a.a.a.a.( ( ( K ( K ",
"C C C B C C C C C C C C B C Z 0 O b G A D D A C D D C C C C C C C Z Z D C B B Z G G G G G G G G G D A A D C Z 5 , b Z C S C C C 9 , 3 C D S C B S D C S Z C D G G H H ( ( H H J K a.a.a.K K ( ( a.a.a.J G G H H J ( a.a.a.s.s.s.s.s.d.s.s.a.) / / / ~ W E I u $ # & 6 p L L L L L L L R E E R L L m m L s p p p I W 2.~ ,.~ ~ W T z s i s L L L Y Y R E E R E W Y L s s s I Y Y Y Y W W W W W W W W W T Y Y Y T T T T T T T T T T T Y Y Y Y Y Y Y Y Y Y T T T W E E Y Y I Y E W W W W W T T T T T T Y Y Y z z z z I Y Y Y Y I I Y Y T W W W W W Y Y Y Y Y Y Y Y Y Y Y Y Y Y Y Y T T Y I Y Y Y Y W ! ~ ~ ~ ~ W W W W W W W W W W W W W W W W W Y Y Y Y I I I I Y Y Y T W W W W W W W W W W W W W W W Y I s i i s L L L L L L s p p s L L p 6 p R E E W W W W W L p 6 6 p s L L R E E W W W W W Y Y Y I j i p * $ . . & i j j I I I I L c.N.b.b.B.k.k.b.l.d.d.c.N.N.N.b.b.b.b.n.c.l.c.k.c.k.a.d.d.d.d.( a._ _ d.n.2 V ) ( _ _ G _ _ _ _ _ ( a.a.d.d.d.j.j.d.a.j.k.k.j.j.j.j.j.j.j.j.j.j.s.a.F ( ( _ a.a.s.s.s.s.s.s.s.s.s.s.s.s.a.a.a.s.a.a.( a.K H ( ( ( K J J K ",
"C C C C C C C C C C C C C C Z 8 O b G D D D D C D D D C C D D A C C B C C B C D D G G G G G G D D D D D S Z Z 2 , V S C S Z B C 9 2 b Z C S S Z Z Z S S S C A G H G G K K ( ( ( ( ( ( ( ( ( K K ( a.a.( H G D G ( ( a.a.a.s.s.s.s.s.s.s.s.H ^ / / / W E I j : $ # & 6 i s m m s s s s L R E E R L s s s s p i s I W 2.~ ~ ~ ~ W Y j p p s s p s I R R R R Y R Y I j s j I Y Y Y W W W W W W W W W W W Y Y Y Y T T W W T W W W W T T Y Y Y Y Y Y Y Y I Y T T T T E Y Y Y I Y E T W W W T T T T T T T Y Y I z z z z I Y Y T Y Y Y Y Y T W W W W W Y Y Y Y Y Y Y Y Y Y Y Y Y Y Y Y Y Y Y Y Y Y Y E W W ! W ! W W W W W W W W W W W W W W W W W W W T Y Y Y Y Y Y Y Y T T T W W W W W W W W W W W W W W T I j s u i s m L L R R R m s s L L a u p L R E E W E E E L u * * 6 s L R E E W W W W W T Y Y Y I j s i * $ . . & u s j I I I I Q z.b.M.b.b.J a.k.b.H k.b.b.b.b.b.b.b.n.c.k.l.l.j.k.k.d.d.d.d.d._ d.d._ _ d., V ) ( ( _ _ _ a._ _ ( ( ( a.a.a.s.j.j.j.k.k.k.k.j.j.j.j.j.j.d.j.s.s.d.d._ _ ( a.a.s.s.s.s.s.s.s.s.s.s.a.a.a.a.a.a.a.a.a.a.a.a.( J K K J K K K ",
"C C C C C B B C C C C C C C Z 0 O b G A D D D C A D C C B C D C C B B C A C C D D D G G G G G G G D D D D S Z 8 , V S C S S C Z 9 2 b B C C S D Z C A A C A A G H ( H H K K K ( ( ( ( ( ( ( ( a.( ( ( ( H G G G H J _ a.s.s.s.s.s.s.s.s.s.Z P / / / W Y I j : $ # & 6 u p p p p u u 7 s L R R L s s p p i i u s I ~ 2.~ ~ ~ ~ W Y j i p s p p s I R Y R R R Y I j s j I Y Y Y T W W W W W W W W W ~ W W T Y Y T T T W W W W W T T T Y Y Y Y Y Y Y Y I Y Y T T T Y Y Y Y Y Y T T T W ! T T T T T T T Y Y I z z z z I Y Y Y Y Y Y Y T W W W W W W Y I Y Y Y Y Y Y Y Y Y Y Y Y Y Y Y Y Y Y Y Y Y E W W ! W ! W W W W W W W E W W W W W W W W W ~ ~ W W T Y Y Y Y T T T T T W W W W W W W W W W W W W W W Y I z i u u s L L E E E R L m L L s u u a L R E E E E E R p 6 * 6 p m R E E W W W W W Y I I I I z s p : $ $ . $ : i j I I I I E ) c.N.N.b.c._ j.b.J k.c.n.b.N.b.b.b.n.n.b.c.k.l.l.k.k.d._ _ d.( d.d._ ( _ , V ^ ( D ) ( d.a.a._ _ a.( a.a.a.s.j.j.k.j.k.k.k.k.k.j.j.j.j.j.s.s.s.s.( _ ( ( a.a.s.s.s.s.s.a.s.s.s.s.a.a.F K s.a.a.a.a.a.( a.K K a.K K ( K K ",
"C C C C C B B C C C C C C C Z 0 O 0 G C A D D C C C C C C C A D C C C C C S C D G D F G D D D D G G D D D S Z 9 5 V Z C Z C B B 3 2 v B B B S C B Z D D D D D G G H H K K J ( ( ( ( K K K K a.a.K ( a.a.( G D H H K ( a.a.s.s.s.s.s.s.s.s.B P / / W W Y z h % . # & 6 7 u u u 7 6 6 6 p s L R L p p i u 6 6 6 s I ~ 2.~ ~ ~ ~ W I s p p s s s I E W E E W E Y j s s j Y T T T W W W W W W W W W W ~ ~ ~ W W T T T T T T T T T T T T Y Y Y Y Y Y Y I z I Y Y Y T Y Y Y Y Y Y T T T W ~ W T T T T T Y Y Y I z z z z I Y Y Y Y Y Y Y T W E W W W W Y Y Y Y Y Y Y Y Y Y Y Y Y Y T T Y Y Y Y Y Y Y W W W W W W W W E E E E E E W W W W W W W W W ~ ~ ~ W W W W W W W W W T T W W W W W W W W W W W W W W W W T Y s u u p L L I E W E L L L L s p 6 u L R R E E R R R L u * * i s R E E E W W W T Y I z I z j s p : * $ . $ : i s j I I E E ^ b.N.M.b.z.v.k.b.k.k._ l.b.b.b.n.b.v.c.c.k.l.j.d.j.j.j._ _ d.( a.( ( _ d., Z ) G D ( G ^ _ a.a.a._ a.a.d.d.j.k.k.k.k.k.j.j.k.k.j.j.d.j.j.s.s.s.s.( ( _ ( a.d.s.s.s.s.s.s.s.s.a.s.s.s.a.a.a.a.a.a.a.a.( ( ( K K ( ( K J J ",
"C C B C C B B B C C C C C C Z 0 O 0 Z C D A A C D D C C C D D A D C B C B C D D D D D G G D D D D D D D S C C Z C C C Z D C B B 3 2 v B C C S S B C D D F D D G H H H H J K J ( ( K K K K K K K K K K ( K ( ( ( ( H H ( s.s.s.s.s.j.s.s.s.B L / / W ~ E j i $ . # & 6 6 6 i p u 6 6 6 u p L L s p u 7 6 * * 6 s I ~ 2.~ W ~ ~ W I s u p s L R W 2.` ` ` W E I s p s z T W T W W W W W W W W W W W 2.2.~ ~ W W T T T T T U U Y Y T T Y Y Y Y Y Y Y z z I Y Y Y T Y Y I I Y Y T T T T W T T T T T Y Y Y Y I z z z z I Y Y Y Y Y Y Y Y T E W W W W Y Y Y I Y Y Y Y Y Y Y Y Y Y T T Y Y Y Y Y Y Y Y W W W W W W W Y Y Y Y Y E W W W W W W W W W W ~ W W W W W W W W W W W W W W W W W W W W W W W W W W ~ ~ W W L p 7 p L L R E W E L L L L L p 6 u L L R E R R R E R p < * 7 s L E E E W W W Y I j j j j j s s p : * $ % : u s j j I E R P k.M.N.b.b.M.N.c.a.j.l.n.b.N.b.n.n.n.v.k.l.k.k.j.j.j.j.d.d.d._ a._ ( ( z.2 ^ ) _ _ _ ( ( a.a.d.a.a.a.( a.j.k.k.k.k.k.k.k.j.k.d.j.j.j.j.s.s.s.s.s.a._ _ _ a.a.d.s.s.a.s.s.s.s.a.s.s.a.s.a.a.a.a.a.a.a.a.H H J ( K ( ( K H ",
"C B C C C C C C C C C B C C Z b & 0 Z A D D C D D A C C C C D C C C C C C C A D G D D G D D D D D D C B C C B B B C C Z G Z B Z v , 9 B C C C D Z C D D D G G G H H K J H K ( ( ( K K ( ( K H ( a.( ( ( K H G H H ( _ a.a.a.s.s.s.s.s.s.s.B L / W W ~ E h : $ . . # * 6 u p p u 7 6 6 u p s p 6 6 # & * * * 6 L Y W ,.~ W ~ ~ W I s s s I Y W W ` ` 2.` E Y L s j z I W W W W W W W W W W W W W W ,.~ ~ ~ ~ ~ T T T T Y I U T T T T Y Y Y Y Y Y Y z z z z z I Y I I I I I Y T T T T T T T T Y Y T Y Y Y I z z z z z I Y Y Y Y Y Y Y Y E E E W E Y Y Y Y Y Y Y Y Y Y Y Y Y T T T T Y Y Y Y Y Y E E W W W W W W W W W W W W W W W W W W W W W W W W T T T T T W W T T T T Y Y W W W W W W W W W W W T T T W W E L p u s L E E E E R L L L L s 7 7 p L R R R R E E E L 7 6 7 s L L L Y Y Y Y Y I z p p s s s s i 6 * $ $ : i s j z I R P 0 d.n.N.n.l.k.k.b.c.l.c.n.b.b.b.b.n.j.k.j.k.( k.d.a.d.a._ _ d.( ( d.d.( _ 2 Z ) ( ( ( ( _ _ a.d.s.s.a.a.s.j.k.k.k.k.k.k.k.k.j.d.k.j.a.s.j.a.a.s.s.( ( ( _ a.s.s.s.s.s.s.s.s.s.s.s.a.a.a.a.a.a.a.a.a.a.a.H J K J H ( ( ( K ",
"C B B B C C B C C B C C C C Z 0 & 0 Z A C C D C D D C C D A D A C C D D C C D D D D D D D D D D D D C C B B B B Z S C Z Z B B B 3 > 3 B C Z D D Z Z C D F G G G H H K J K ( ( ( ( ( K ( ( ( ( K a.a.a.( ( ( ( H ( ( a.a.a.a.s.s.s.s.s.j.s.b P / W W W Y j : X . . # * 6 u i u u u 7 6 6 u p 6 * & # & & & * 6 L Y W ,.~ W ~ W W z i s m I Y E W W W ` W E R s I I Y W W W W W W W W W W W W W W W ~ ~ ~ W W W T T T T Y Y T U U T T Y Y Y Y Y Y Y I z z z z z Y I I I I I I T T T T T T T T Y Y Y Y Y I I z z z z z I Y Y Y Y Y Y Y Y Y Y Y E E Y Y Y Y Y Y Y Y Y Y Y Y Y Y T T Y Y Y Y Y Y Y Y Y E W W W W W W W W W W W W W W W W W W W W W W W T T T Y Y W W T T T T Y T T W W W W W W W W W W T T T W W E R s u p L R R R E R R L L L s u 7 p L R R R R R E E L 7 7 6 s L L L R Y Y Y Y I z s s s j z j i 6 % $ $ * i s j I I L P 0 ^ b.N.N.B.B.N.N.b.b.b.b.b.b.n.b.v.l.c.c.l.k.a.( _ j._ ( _ d._ _ ( ( _ d.2 V ( ( a.( ( _ a._ ( ( s.j._ d.j.k.d.k.k.k.k.k.j.j.j.j.j.j.s.j.j.d.s.s.a.a.a.a.a.s.s.s.s.s.s.s.s.s.s.s.a.a.a.a.a.a.a.a.J ( a.a.a.a.a.K H J ( ( ",
"B B B C C C C C C C C B C C C 9 & 0 Z A C D D D D D A A A D A C C C D D A D D D D D D D D D D D D A D D C B B B C B C Z C B B C 9 8 V C S S Z Z C C C A D H H H J J J K J H H ( ( ( ( ( ( K ( ( ( ( ( ( H G D G ( ( ( a.a.a.s.s.s.s.s.s.s.v n / E W E R h ; . . . # & 6 6 u u u u u u 7 u 7 < & # # & & & * 6 L Y W ,.~ W ~ W W z i j j I Y E W E E E E R L j R Y T W W W W W W W W W W W W W W W W W W W T T T T T T T Y T T T T T Y Y Y Y Y Y Y I I I z z z T U U U U I T T T T T T T T T Y Y Y I I I z z z z z z Y Y Y Y Y Y Y Y Y Y Y Y Y E Y Y Y Y Y Y Y Y Y Y Y Y Y Y Y Y Y Y Y Y Y Y Y Y Y Y W E E Y E W W W W W W W W W W W W W W W W W W T T T Y Y Y Y Y Y Y Y Y Y Y T T W W T T T T T W W T T W W E E L i u a s m L R R R L L L s u 7 p s L R R R E E E m 7 7 7 p L L L I Y Y Y Y I z j j z z z z i 6 $ $ $ * i s j I R L E 7 V k.M.b.b.b.b.N.b.b.n.n.n.n.b.n.n.c.j.c.l.k.j.a.( ( ( a.d.d.( d.a._ ( j.2 ^ ( _ _ ( ( _ ( ( J _ a.d.j.j.k.k.j.d.k.k.j.j.k.j.d.k.j.d.j.j.s.s.s.s.H ( a.a.a.a.a.s.s.s.s.s.s.s.a.s.a.a.a.a.a.a.a.a.a.a.a.p.K p.a.( ( a.( ( ",
"B B B C C B B C C C C C C C Z 9 O 0 Z A A C C D D C C C A D A C C A D D C D D D D D D D G G D D D D G F D D C B B C Z Z C C C B 9 9 Z Z Z C Z D S Z C D G G G H H J H J J ( ( ( ( ( ( K J ( ( ( ( ( ( ( H H G H ( ( a.a.a.s.a.s.s.s.s.s.a.v L E E E Y I i ; . . . # & * 6 6 7 u u p p p a p 6 * & & * * & * u L Y W ,.~ W ~ W Y j p j L R Y E E W W E R L s j E W W ~ ~ W W W W W W W W W W W W W W W W T Y Y T T T T T T T T T T T I Y Y Y Y Y Y I I I Y Y I T U U U U U U T T T T T T T T Y Y Y I z z z z z z z z Y Y Y Y Y Y Y Y Y E Y Y E E Y Y Y Y Y Y Y Y Y Y Y Y Y Y Y Y Y Y Y Y Y Y Y Y Y E W W E Y T W W W W W W W W W W W W W W W W W W T T T Y Y Y Y Y Y Y Y Y Y Y Y T W T T T T T T W W W W W W E E R a u u i p m L R E R L L L p u u s L R R E E E E m 7 7 7 p m L L I Y Y Y Y I z z z z z z z i : % $ $ * i s j I I L L P P _ M.b.j.b.N.c.b.b.b.b.b.c.b.n.b.l.l.l.l.l.k.d.d.d.a.d.d.d._ d._ ( _ z.3 ^ ( _ _ ( ( _ ( ( ( a.a.d.j.j.k.j.j.j.j.j.d.j.k.j.k.j.d.d.j.j.a.s.s.s.J ( a.a.a.a.a.s.s.s.s.s.s.s.a.a.a.a.a.a.a.a.K K a.a.a.a.a.a.a.a.( ( ( ( ",
"B B B B B B B C C C C C C C Z 0 O 0 S C A C C C C C C C A A A C C C A D D D D D D D D D D D G G D D D D D D C B B C C C C C C C 9 8 C C C C C C S D A D D G H H J J H H J ( ( ( ( ( K K K ( ( ( ( ( ( ( ( J H G K ( K ( a.a.a.s.a.s.s.s.a.V P E I R R L i $ . . . # & * * 6 6 u p p s m m s i 7 u 6 7 6 * : i I Y W ,.~ W ~ W I s i s I R Y E W W W Y L s s I W W ~ ~ W W W W W W W W W W W W W W W W W T T T T T T T T T T T T T T Y Y Y Y Y Y Y Y Y Y Y Y I I U U z z U U T T T T T T T T Y Y I z z z z z z z z z I Y Y Y Y Y Y Y Y Y Y Y Y Y Y Y Y Y Y Y Y Y Y Y Y Y Y Y Y Y Y T Y Y Y Y Y Y Y E W E E T W W W W W W W W W W W W W W W W W W T T T T Y Y Y Y Y Y Y Y Y Y Y Y T T T Y Y Y Y Y W W W W W W W E I j p u u u s L L R E L L L p u u a L L R E E E E m 6 6 6 i s L L L Y Y Y Y I z z j j s s s i u & $ $ * i s j I I L L P P ( b.b.b.b.b.b.b.n.n.b.b.n.n.n.n.v.l.l.l.c.k.k.j.d.a.d.a.d.a.a._ _ _ j.3 ^ ) _ _ a._ ( _ ( _ a.s.s.d.j.k.j.j.j.j.k.j.k.j.j.j.d.d.d.d.s.a.a.s.s.a.a.d.d.s.a.a.a.s.s.s.s.s.a.a.s.a.a.a.a.a.a.a.a.a.a.a.a.a.a.a.a.a.( K K ",
"C B C C C B B C C C C C C C Z 8 O 0 S A A A C C C C C C C A A C C C A A D D D D D D D D D D D G D D C C C C C B B C B C C C C C 4 8 C B C C C C A D D D D G G H H J H K J ( ( ( ( ( K K ( K K ( ( ( ( ( ( K J K K K K ( _ a.a.a.s.a.s.s.( ^ R R I Y Y L u $ . . . # & * * 6 6 u p s s L L L s p p p p u 6 6 p I Y W ~ ~ W ~ W I s i s I R Y R E W W R m s s R W W W W W W W W W W W W W W W W W W W W W W W T T T T T T T T T T T T Y Y Y Y Y Y Y Y Y Y Y Y I T T T U z U U T T T T T T Y Y Y I z z z z z z z z z z z z z Y Y Y Y Y Y E Y Y E Y Y Y Y Y Y Y Y Y Y Y Y Y Y Y Y Y T T Y Y Y Y Y Y Y E W E W T W W W W W W W W W W W W W W W W W W T Y T Y Y Y Y Y Y Y Y Y I I Y Y Y T Y Y Y Y Y Y W W E W W W W E Y L p u 6 u a j L L E L L L p u u p L L R E E E E m u 6 6 u a L L L Y Y Y Y I I s s s p p i i : & $ $ & i h j I I L R L P ( b.b.b.b.b.b.l.c.c.n.n.b.n.v.c.l.l.l.k.k.d.d.k.z.d.d.d.d._ _ ( _ _ d.2 ^ ( _ _ ( ( _ ( ( d.a.s.s.d.j.k.j.j.j.j.k.k.k.j.k.j.d.d.d.d.a.s.s.s.s.a.a.s.s.s.s.s.a.a.s.s.s.s.a.a.a.a.a.a.a.a.a.a.a.a.a.( K K ( ( K ( K K K ",
"B B C C C B B B B B C B C C Z 8 O 0 G D A C C C C C C B C D C C C C C D D D D C C D D D G D D D D D S A A D S C C C B B C B B Z v 8 B B C C B B C D D D D D G H H K K K H J ( ( ( ( ( K ( ( ( ( ( J ( a.( ( J ( ( K K K _ a.a.a.a.a.s.a.S Q R R I E Y L : $ $ $ $ & : : : 6 i a h h L L L L L L L s s 7 6 u s W W W W W W W Y s p p j I R R E W W E m p s R E W W W W W W W W W W W W W W W W W W T W W W W W T T W W W W T T T T T T T T T T T T W T T T T T T T T T l U U T T T T T Y Y Y Y Y Y z z j z z z z z z z z z I Y I T Y T T T T T T T T Y Y Y Y I I I I I I I I I I I I Y Y Y Y Y Y Y Y Y E W W W W W W W W W ! ! ! ! ! ~ ~ ~ ~ W W T Y Y Y Y Y Y Y Y Y Y Y Y Y Y Y Y Y Y Y Y Y Y Y I I Y Y Y Y W W T Y j s u u i s j R R L L L p u u i s L R E R E E m u < * * * u s L L R E W E L * * * & & & * & $ $ X X i h j L L L R L P ) c.b.l.c.b.n.c.c.l.c.n.n.n.n.n.k.k.l.k.k.k.d.c.c.d.a._ j.( ( ( ( ( _ 2 ^ ( ( _ D H _ ( ( a.a.a.s.d.j.j.j.j.j.j.d.j.k.j.j.d.s.d.d.d.s.s.s.a.a.a.s.s.s.s.a.s.s.a.s.a.a.a.a.s.a.a.a.a.( a.a.a.K K K K K ( ( a.K K ( J J ",
"B B C C C C C C B C C C C C C 8 O 0 G A A C C C C D C C C C C C C A C C D C D A C D D D D D D D G D S A D D C C C C B B B B B C 9 9 Z B C C B B C D D D A D G G H K K K J K ( ( ( ( ( ( ( J J ( J ( ( ( ( ( J ( ( K K K K a.a.a.a.a.a._ V E R R I Y Y L : $ $ $ & : 6 6 6 7 i a h j h L L L L L L s s 7 6 u s W W W W W W W Y s p s j R Y E W E W R m p m Y W W W W W W W W W W W W W W W W W W W W W W W W W T T W W W W T T T T T T T T T T T T T T T T T T T T T Y l I U T T T T T Y Y Y Y Y Y z z z z z z z z z z z z z I Y T T T T T T T T T T Y Y Y Y I I I I I I I I I I I I I Y Y Y Y Y Y Y I Y E W W W W W W W W W W W W W W ~ ~ W W T T Y Y Y Y Y Y Y Y Y Y Y Y Y Y Y Y Y Y Y Y Y Y Y I I I I Y Y T Y Y Y I j i u u s I Y L L L L p u u p s L R E E E E L u * & # & * 6 i L L E E E L & & & & & $ $ $ X X X X 7 a j L L L R R P ^ k.c.v.v.b.n.c.n.n.c.n.n.n.n.l.l.l.k.j.a.j.k.k.k.j.a._ d.( ( _ _ ( ( 2 ^ ( ( _ G ^ ( K H H a.a.s.s.d.j.d.j.k.j.j.j.k.j.d.d.d.d.d.d.s.a.s.a.a.s.a.s.a.a.a.a.a.a.a.a.a.s.a.a.a.a.a.a.a.a.a.a.a.K K K ( ( ( K ( K ( ( K ",
"N C C B B C C C C B B C C B Z 8 O 9 D C A C C C C D A C C C A C C C D A C A A D C C D D D D D D G D A C A D C C C C B B B B B C 9 8 B B C B B B C S Z S D D G G H J J J K K ( J J K ( ( ( ( K H H ( ( ( ( ( ( ( a.a.K K K a.a.a.a.a.a._ B E R R I Y I m : $ $ ; : 6 7 7 i 7 i a a h h L L L L L L s a 7 6 u s W W W W W W W Y s p s j Y W W ` W E R s s R W W W W W W W W W W W W W W W W W W W W W W W W W W T T W W W W T T T T T T T T T W W W T T T T T T T T T T Y I U T T T T T Y Y Y Y Y Y I z z z z z z z z z z z z I Y Y T T T T T T T T T Y Y Y Y I I I I I I I I I I I I I Y Y Y Y Y I I Y Y Y Y E W W W W W W W W W W W W ~ W W W Y Y Y Y Y Y Y Y Y Y Y Y Y I I Y Y Y Y Y Y Y Y Y Y I I I Y T Y Y Y Y Y Y Y s u u p z I L I R L p u u p s L R E E W E L u * # # # # * * p m R E R m & & & & & & X . X . . X 6 a h P L L R L L ^ c.k.c.n.b.b.c.c.n.n.n.n.n.n.l.k.k.j.k.j.k.k.k.k.j.a._ j.( H ( _ _ _ 2 ^ _ ( ( _ ( H ( ( H _ d.a.s.s.j.j.s.j.k.j.j.j.j.j.j.j.j.j.s.a.a.a.a.a.a.a.a.a.a.a.s.a.a.a.s.a.a.s.a.a.a.a.a.a.( K K K K K ( K K K K K K ( K K ",
"B B C C C C C C C C C C C C Z 8 O 9 G C C C C C C D C C B v c B S D A D D A C D D D D D D D D D D S C C A D C C C B B B B B C C 9 2 v C C B B C C C B B S G G H H H ( J J K K K K K K K ( ( ( ( ( ( ( ( ( ( ( ( a.( K _ K a.a.a.a.a.a._ 9 I R R I I R s : . $ ; : 7 i i i 7 7 7 a a h L L L L L L s s 7 6 u s W W W W W W W I p u s z Y W W ` E R m s s R W W W W W W W W W W W W W W W W W W W W W W W W W W T T T W W W T T T T T T T T T T W W T T T T T T T T T T T U T T T Y Y T Y Y Y Y Y Y Y z z z z z z z z z z z z I Y Y T T T T T T T T T Y Y Y Y I I I I I I I I I I I I I I I Y Y Y Y Y Y Y Y Y E W W W W W W E E E W W W W W W Y Y Y Y Y Y Y Y Y Y Y Y Y Y I Y Y Y Y Y Y Y Y Y Y Y I I Y Y Y Y Y Y Y Y Y T j p u i j I L L L L p u u p s L R E E E E L p * & # # # & & u p m L L a * * * * 6 6 ; ; $ X . . 6 i h L L L R L L B j.c.c.c.n.b.n.c.n.b.n.n.n.n.l.l.k.k.j.j.j.k.j.d.d.d.a.d._ ( ( ( a._ 2 ^ ( ( ( G G ( _ H ^ _ d.s.s.s.s.j.d.s.j.k.k.j.j.d.j.d.s.j.s.s.a.a.a.s.a.H ( a.a.a.a.a.a.a.a.s.a.a.a.a.a.a.a.a.( a.( K a.a.a.a.K ( K K ( K J J ",
"C C C C B B C C C C C B B B Z 8 O 0 Z C C C C B A A D A A C C B c c C C C D C C A D C C D D D D S C C C A A C B B B B B v B B B 9 9 B B C B B C C C S C B D G G G H ( J K J K K J J K ( K ( ( ( ( a.a.( ( H H ( a.a.a.H H a.a.a.a.a.a._ 8 I R R I R L s & . . & ; 6 7 i i 7 7 7 a h h L L L L L L s s 7 6 7 s W W W W W T T I i u s z Y W W W R I s p m E W W W W W W W W W W W W W W W W W W W W W W W W W W T T W W W W T T T T T T T T T T T T T T T T T T T T T U I I U T T Y Y T Y Y Y Y Y Y I z z z z z z z z z z z z I Y Y T T T T T T T T T Y Y Y Y Y I I I I I I I I I I I I I I Y Y Y Y Y Y Y Y Y E W W W W W W E E E E E W W W W Y Y Y T T Y Y Y Y Y I I Y Y Y Y Y Y Y Y Y Y Y Y Y Y I I Y Y Y Y T Y Y Y Y W I s u u s z L L L L p u u p s L R E E E E R s 6 & & & & & & 6 6 u p a p 6 6 u u p i a i : & X . ; 7 h Q P L R L L S z.k.j.k.c.n.n.c.n.n.c.n.n.n.n.k.j.k.j.d.a.d.j.j.a._ ( ( ( _ _ _ a._ 2 Z ) ( ^ ( G ^ ( ( _ _ d.s.a.s.j.j.s.s.j.j.j.j.j.j.d.s.j.s.s.s.s.s.s.s.a.H H a.s.a.K a.s.a.a.s.a.a.a.a.a.a.a.K a.a.a.a.a.a.a.K K K p.K a.a.K K ",
"B C C C B B C C C C C B B B C 8 O 9 Z C C B C C C C D C c v C C C C D D D A C D S D D D C C A A D S C C C C C C B B Z C B C Z C 4 9 B B B v B C C S C C B C D G G H ( ( H H J K K K K K K J ( ( ( ( a.a.( ( J ( a.( a.a.a.a.a.a.a.a.a.( 8 I R R I R L s & . . & ; 6 7 7 7 6 6 7 a h h L L L L L L s s 7 6 7 j W W W W W T Y I i u s z R W W W R s p s R E W W W W W W W W W W W W W W W W W W W W W W W W W W W W W W W ,.T T T T T T T T T T T T T T T T U T T T T I I I U T T T T Y Y Y Y Y T Y Y Y z z z z z z z z z z z I Y Y T T T T T T T T T Y Y Y Y Y I I I I I I I I I I I I I I Y Y Y Y Y Y Y Y Y W W W W W W W Y Y Y Y Y Y Y T T Y Y T W W T Y Y Y Y Y Y Y Y Y Y Y Y Y Y Y Y Y Y Y Y I I Y Y Y Y W T T T Y W Y j i u i j L L L j p u 7 p s L R E E E E R L u 6 6 6 6 6 6 6 * 6 u i p u p p s s j j h i : ; $ ; 7 h Q P L R P L Z k.b.n.n.n.n.c.c.c.c.c.c.n.l.l.j.k.j.d.j.j.a._ d.a.a.( a.a._ d.d.( _ 2 ^ ( ^ _ S G G ( ( d._ a.a.a.a.s.s.s.j.j.j.j.d.j.j.s.s.j.j.s.s.a.a.a.s.a.K ( a.a.a.a.a.a.a.a.s.s.a.s.a.a.a.a.a.K K a.a.a.a.( K K K ( a.a.a.K K ",
"B B B B C C B B C B C C B B C 8 O 0 Z C B C C C C C C C C C C C C C C D D D D A Z C D D D A C Z C C C C A C C D C B C C B C C Z 9 3 v B C v c B S C B C B B S D H H J J H J J J J K ( ( K K J J ( ( ( a.( J ( ( ( a.a.a.a.a.a.a.a.a.a.K 8 E E E I I L i & . . : 6 6 6 6 6 : : 6 i h h L L L L L s s 7 * 6 i L ~ ~ ~ ~ W W Y I i p s I R E E E I s s R W ` W W W W W W W W W W W W W W W W W W W W W W T W W ~ ,.,.,.W W W W T T T T U T T T T T T T T T T T T T T T T U T z z z z z I Y T Y T Y Y Y Y I z z z z z z z j j z I Y T T T T T T T T T T Y Y I z z L I I I I Y I I I I L I I I I I I Y Y I I I Y E E E E E E Y Y Y Y Y Y E W T T T T T W W T Y Y Y Y Y Y Y Y Y Y Y Y Y Y Y Y Y Y Y Y T Y Y Y Y Y Y Y Y Y T Y I I s p p s L L L m p 7 6 p L E E E E E E E L 6 6 6 6 u p s p p p i u 6 p s L L L L j h a 6 & X : i h Q I I R E P Q j.c.b.c.n.n.c.l.k.c.n.n.n.l.l.k.k.d.d.k.d.d.j.j.a._ _ _ a.d.a.a._ _ 4 V ^ ^ ( G G ^ ( G _ H ( _ _ a.s.j.d.d.j.j.d.j.j.d.s.a.s.s.j.j.s.s.a.a.a.s.( a.s.a.a.a.a.a.a.a.a.a.a.a._ a.a.( a.a.a.a.a.a.( K ( ( ( a.a.a.K K ",
"B B C B C C C C C C C B B B C 8 O 0 Z C B B C C C C B C C A A C C C C D A A A C Z A C A D D D A A A D D A C C C C C C B B B C B 4 4 v v v v v B B v B C C C C A G H H H J J J J J J ( ( K J J J ( ( ( ( ( ( ( K H J a.a.a.a.a.a.a.a.a.( 8 E E E I I L i $ . . : : 6 6 6 6 : 6 7 a h h L L L L L s p 7 * 6 i R ~ ~ ~ ~ W W Y I i p s Y Y W W R s s m Y W ` W W W W W W W W W W W W W W W W W W W W W W W W ~ ~ ,.,.,.,.W ,.W T T T T U T T T T T T T T T T T T W T T T T T z z z z z I T T T T T Y Y Y Y I z z z z z z j z z I Y T W W T T T T T T T Y Y I z z j I I I I Y I I I I L I I I I I I Y Y I I Y Y E E Y Y Y E E Y Y Y Y Y E W T T T T T W W T Y Y Y Y Y Y Y Y Y Y Y Y Y Y Y Y Y Y T T T Y Y Y Y Y Y Y Y Y Y T I Y z i p p s L L m p u 6 p L E E E E E E E L u 6 6 6 u p s m s s p p i p s L L L L j h a 6 & X : i h Y E I E E L P d.b.b.c.c.c.c.c.c.l.l.l.l.l.k.k.j.j.j.j.j.j.s.j.d.d.d._ a.d.a.( _ _ 4 Z ^ D G S ^ G ^ ^ _ ( ( ( ( ( a.s.j.j.j.j.d.s.j.s.s.a.s.s.s.s.a.s.a.a.a.a.K K a.a.a.a.a.a.a.a.a.a.a.a.a.a.( K K ( a.a.a.a.a.( ( ( a.( ( a.K p.",
"B B B B C C C C C B C C C C Z 8 + 0 Z C B C C C C C B B C C C B C C C A C A D C A C C A D A D C A D D C C C C C D C B C B B B Z v 9 B v v B C C B B B C S D C C C D G H K H H H J ( J J J J J J J ( ( H H H H K K K a.( ( _ a.a.a.a.a._ 8 E E E I R L p $ . $ ; : 6 7 7 7 7 i a h h P L L L L L s i 7 * 6 s I ~ ~ ~ W W W Y j i p j Y E W E I s s R W W ` W W W W ~ ~ ~ W W W W W W W W W W W W W W W ~ ~ ~ ~ ,.,.,.,.,.,.W T T T T U T T T T T T T T T T T T W T T T T T z z z z z I T T T T T T T Y Y Y I I z I I z z z z Y Y T W W T T T T T T T Y Y z z z j I I I I Y I I I I L I I I I I I Y Y Y Y Y Y Y E E E E Y Y Y Y Y Y Y Y T T T T T T W W T Y Y Y Y Y Y Y Y Y Y Y Y Y Y Y Y T W W W W Y Y Y Y Y T Y Y Y Y T Y Y I s i p p s L s p u 6 p L E E E E E E E L u 6 6 6 p s L L L s s s s s L L L L L j h a 6 & X : i L Y Y I E E L V ( c.c.k.l.c.c.c.l.v.l.k.j.j.j.j.j.j.l.k.j.j.j.s.s.d.d.( a.d._ _ _ d.4 B Z C S C G ( ^ D G ( _ _ _ H s.s.j.j.j.s.a.d.s.d.s.s.s.s.a.a.s.s.a.J K K H K a.a.a.a.a.a.a.a.a.a.a.a.a.a.K K K ( a.a.a.a.( K K K ( a.( ( J J ",
"B B B B B B C C B C C B C C Z 8 + 0 Z B B B C C C C C C C C C C B C C C C C A D C C C D A A A D D D D D D D A D D C B B B B B C 4 8 V v B B B v B C C C D G D C D G H J H H H J J ( K K K J J J K ( ( ( ( ( ( ( K K K K ( ( a.a.a.a.a._ 8 E E E I I L u $ . $ : : 7 i a i h h h L P P P L L L L s p 6 * 6 s E W W W W W W Y j p p I Y W W Y s s s R W ` ` W W W ~ ~ ~ ~ ~ W W W W W W W W W W W W W W ~ ~ ~ ~ ,.,.,.,.,.~ W T T T T U T T T T T T T T T T T W W T T T T T z z z z z Y T T T T T T T Y Y Y Y Y I I z z z z I Y Y T W W T T T T T T T Y Y z z z j I I I I Y I I I I L I I I I I I Y Y I Y Y Y Y Y Y Y Y Y Y Y Y Y Y Y Y T T T T T T W W T Y Y Y Y Y Y Y Y Y Y Y Y Y Y Y Y Y W W ~ W Y Y Y Y Y T Y Y Y Y T Y Y Y z p u u p s s p i 6 p L E E E E E E E R u 6 6 7 p s L L m p p s L L L R R L L j h a 6 & X ; 7 h P Y I E E L 8 ( c.c.c.n.l.c.n.l.l.l.l.j.k.k.l.l.l.l.j.j.j.j.j.s.d.d.a.a.( ( ( _ _ 3 Z ^ G G Z ^ _ _ G D ( a.( ( a.s.s.d.j.d.d.d.j.d.j.d.s.s.s.s.s.s.s.a.a._ a.a.a.a.a.a.a.a.a.a.a.a.a.a.a.K ( K K ( a.a.( a.( ( K ( ( ( ( ( ( K J ",
"C B N B B B C C B B C C C C Z 8 O 9 Z B B C C C A C C C C C C C C C C C C A A A C C A A A A D D D D D D D D C A D C B B B B B C 4 2 v B B B B v B C C S G G G G F D G H H H K J J ( J J J K J K ( J ( ( K K ( J H K ( a.a._ a.a.a.a.a.K 5 Y E E I L s u & . $ : : 7 i h h j L L P I Y P L L L L s 7 * * 6 j E W W W W W W Y s p p z I W Y j p s L W ` 2.W W W ,.~ ~ ~ ~ ~ W W W W W W W W W W W W W W W W ~ ~ ~ ,.,.W W W W T T T T T T T T T T T T T T W W W W T T T T T z z z z z T T T T T T T T T T T Y Y Y Y I z z z z I Y T T W T T T T T T T Y Y I z z L L I I I Y I I I I L I I I I I I Y Y Y Y Y Y Y Y Y Y Y Y Y Y Y Y Y Y Y Y Y Y Y Y T T T Y T T Y Y Y Y Y Y Y Y Y Y Y Y I I Y T W W W Y Y Y Y Y Y Y Y Y Y Y Y Y Y I s i u i p s p p 6 p L E E E E W W E R p 6 6 u p L R L p u u p L L L R R I L j h i 7 & X & 7 j P I I E E P 2 G c.c.c.c.l.l.l.l.l.l.l.j.k.j.k.j.l.j.j.j.j.j.d.j.j.j.d._ _ _ ( _ j.3 v S G G S G G G ^ ( _ a.a.( ( G a.j.s.j.j.j.j.j.j.s.s.s.a.s.s.s.s.s.a.a.a.( ( a._ a.a.a.a.a.( K K K K K ( K K ( a.a.K ( ( K K ( K K K K ( K J ",
"B B C B B B C C B C C C C C Z 8 O 8 C B B C B C C C C C C C B C C C C A D D D C C C C C A D A D D D D D D D D A D C B B B B B Z 9 2 v v B B B c v Z C D G G G G H H H H J H H H J J J J K ( J J J K K K ( ( H G H ( a.a.a.a.a.a.a.a.( S 5 I Y E I L s 7 & # & : : 7 a h j L L I I E E I L L L L s 7 * * 6 L W W W W W W W Y s u i j z Y I s i s I W ~ ~ W W W ~ ~ ,.~ ~ ~ W W W W W W W W W W W W W W T W W W ~ ~ W W W W W T T T T Y Y Y Y Y Y T T T W W W W W T T T T T z z z z z T T T T T T T T T T T T T Y Y Y I z z I Y Y T T T T T T T T T T Y Y I I z I I I I I Y I I I I I I I I I I I Y Y Y Y Y Y Y I I I I I Y Y Y Y Y Y Y Y Y Y Y Y T Y Y Y Y T Y Y Y Y Y Y Y Y Y Y Y I I I I Y T W T Y Y Y Y Y Y Y Y Y T T Y Y I I j s u u p s p p 6 p L E E E E W W W R i 6 6 u p L R s p 6 6 i s L R Y E R L j j a 7 % $ $ : j I I I R E E O S k.l.l.c.l.j.l.l.l.l.l.l.j.s.k.j.j.j.j.j.j.j.j.d.j.j.d.( _ ( ( _ d.2 Z S G G G G G G ( ( a.a.a.a.a.a.s.j.s.j.j.j.j.j.j.s.s.s.s.s.s.a.s.a.a._ d.a.( a._ a.a.a.a.a.( a.( ( K K K a.K K K ( K ( a.( K K a.( ( ( a.J J ",
"N N B N N B B C B B C C B B Z 0 O 9 Z C B B B B C C A A C B v B C C C C A A D C C C A A C C D D D D D D D D D D D C B Z B B B C 9 3 b B C C C B B C A A G H G G G G H J J H H J J J J J ( J J J ( K K K H ( H G G ( a.a.a.a.a.a.a.a.H P Y z I I I j p & # & 6 6 6 7 a s j L I E E E E E E I L L s 6 * & 6 s W W W W W W W Y s p p z Y I s u i j Y W W W W W W ~ ~ ~ ~ ~ ~ ~ W W W W W W W W W W W W W W W W W W W W W W T T T T T T Y Y Y Y Y Y Y Y T T W ~ ~ ~ ,.,.T T T T U U U U T W T W W W T T T T Y Y Y Y Y Y I I I z I Y T T T T T T T T Y Y Y Y Y Y I I I I I I I I I I I I I Y Y Y I Y Y Y Y Y Y Y Y Y Y Y Y Y Y Y Y Y Y Y Y Y Y Y Y Y Y T Y Y Y Y Y T Y Y Y Y Y Y Y Y Y I I I I Y Y Y Y Y Y Y Y Y Y Y Y Y Y Y I I I I z j u 7 p a p u 6 p L E E E / / W W R L 6 6 6 u s L s u 6 7 p L I R R R R I j s i u * $ * u s I Y Y E L L O B k.c.c.n.l.l.l.l.j.k.l.l.j.j.j.j.k.j.j.k.k.j.j.d.j.j.d.d.d.( ( _ j.3 v S G ( d.( ( _ ( ( a.a.a.s.a.s.j.s.d.s.s.s.s.s.s.s.s.s.s.s.j.s.s.a.a.( _ ( ( a.a.a.a.a.a.a.( a.a.a.K ( ( K K ( ( ( K a.( ( K a.( K ( K K J J ",
"N B B B B B B C C B C C C B Z 0 + 9 Z B C C C C C C C C S B B C B C C A A D D D C C D D C C D D D C C D D D D D D C C B B B B B 9 8 C B C C B B B C A D G H G G G H H H H J J J J J J K J J H H H ( ( K H A B C G ( a.( ( a.a.a._ a.G P Y z I I I j p & O O 6 6 7 i s h L L E E E E ` / W E L L p 6 * & 6 m W W W W W W W Y s p p z I j p u p I W W W W W W W ~ ~ ~ ~ ~ ~ ~ W W W W W W W W W W W W W W W W W E E E Y W T T T T U T Y Y Y Y Y Y Y Y T T T W ~ ,.,.W T W T T T T T T T W T T W W T T T T T Y Y Y Y Y Y Y Y Y Y Y T T T T T T T Y Y Y Y Y Y Y Y Y Y Y Y Y I I I I I I I Y Y Y Y Y Y Y Y Y Y Y Y Y Y Y Y Y Y Y Y Y Y Y Y Y Y Y Y Y Y T Y Y Y Y Y Y Y Y Y Y Y Y Y Y Y I I I Y Y Y Y Y Y Y Y Y Y Y Y Y Y Y Y I Y Y Y I j i 6 u a s u u p L E E E W W W W R L u 6 6 i s L L a i i s R I I R R R I j s i r * $ % : s I Y Y I Y L o 9 a.k.c.c.l.v.l.l.j.j.k.k.j.k.j.j.j.j.j.j.j.j.d.j.d.d.a.d._ H ( _ x.3 ^ _ ( ( ( ( ( d.( H a.s.s.a.s.j.j.j.s.s.s.s.s.s.j.j.s.s.s.s.s.s.s.s.a.A c G ( ( a.a.K a.a.a.a.a.a.a.a.( a.( ( ( ( a.( a.a.( K ( a.p.K K K J J ",
"B C B N B B B C C C C C C C C 0 @ b Z B C C C C C C C A C c B C C C D D C C C C D A A A C C D A C D D D D D D D D C B v B B B C 4 2 b B C B B B B C A A D G G G G H J H J J J J H J K K K K H H G J ( J H G G A G ( ( K K a.( K _ a.H L Y Y I I I j u & # < 6 0 0 i s L L P E E E E ` / W E L m p 6 * * 6 L W W W W W W W Y s p p s j p u p j T W W W W W W W ~ ~ ~ ~ ~ ~ ~ W W W W W W W W W W W W W W W W W E Y Y Y T T T Y T T T Y Y Y Y Y Y Y Y Y Y T T W W W W T T T T T T T T T W W W W W W T T T T T Y Y Y Y Y Y Y Y Y Y U U T T T T T Y Y Y Y Y Y Y Y Y Y Y Y Y I I I I I I I Y I Y Y Y Y Y Y I Y Y Y Y Y Y Y Y Y Y Y Y Y Y Y Y Y Y Y Y Y Y Y Y Y Y Y Y T Y Y Y Y Y Y Y Y I I Y Y Y Y Y Y Y Y Y Y Y Y Y Y Y Y Y I Y Y Y I I i 6 6 p s p u i j I W W W W W W E L u 6 6 p s L L j s s L Y Y I R R I I z j i u * $ $ : i z Y Y I Y P a V j.k.l.l.l.l.l.j.j.k.k.j.j.j.k.k.k.k.k.k.k.j.j.j.s.s.a.( _ _ ( _ d.2 B ^ ( G ( _ _ ( _ _ a.a.a.s.j.s.j.j.s.s.s.d.j.s.s.s.s.s.s._ a.s.s.a.a.( H H H H ( a.a.a.a.a.a.K a.( a.( ( K ( ( K a.a.( ( ( K ( K ( ( ( J J K ",
"N N N N B B B B N B B B C B C 0 @ b S C C C C C C C C D D S A C C A D C C C C C A A A D D D A S S D D D D D D D D A B B B B B B 9 2 9 v B B B C C S S S G G H G G G H H J J J J H ( J J J J J H H ( ( ( H G G G ( ( ( ( K a.a.( a.a.H P Y I I I I j i * # < 6 0 i a s L L E E E E E ` W W E L m p 7 < * u L ~ W W W W W W Y s p i i s p u p I W W W W W W W W W ~ W W ~ W W W W W W W W W W W W W W W W W W W Y Y Y Y Y Y Y I T T T Y Y Y Y Y Y Y Y Y Y E T T T T T T W W T T T T T T W T W W W W T T T T T Y Y Y Y Y Y Y Y Y T U I U U T T T Y Y Y Y Y Y Y Y Y Y Y Y Y I I I I I I I Y I Y Y Y I Y I I Y Y Y Y Y Y Y Y Y Y T Y Y Y Y Y Y Y Y Y Y Y Y Y Y Y Y Y T Y Y Y Y Y Y Y Y I Y Y Y Y Y I Y Y Y Y Y Y Y Y Y Y Y Y I Y Y Y Y I p u 6 i a p u p j I E W E E W W E L 6 6 6 u s L L L L L R E Y I R R I I z j s p * % $ : i z Y Y E L P L b d.l.v.c.l.j.l.k.k.k.j.l.j.j.k.l.k.j.j.j.k.j.j.j.j.d._ a._ ( ( ( d.2 v G ( ( ( ( ( ( ( a.a.s.a.a.a.s.s.s.s.s.s.d.s.s.s.s.s.s.s.s.a.a.a.a.a._ ( ( G H ( a.a.a.a.a.a.a.a.a.( ( ( K K ( ( ( ( ( ( ( ( ( ( ( ( K K K K ",
"B B B B B B B B N N B B C C C 8 @ b S C C C C C C C C C C S C C C C C A C C C C C D C C D D S C D C C D D D A D D C B B B B B B 4 , 9 B C C B B B Z S D G G G G G G H H J J J J J H J ( K J J H H ( ( J H G H ( ( ( ( ( a.a.a.a.a._ G P Y Y I I I j i * # & 5 0 i s L L R E E E E E ~ W W E L m p u 6 * u I ~ W W W W W W Y s p p i i u u s T W W W W W W W W W W W W W W W W W W W W W W W W W W W W W W W Y Y Y Y Y I Y Y I T T T Y Y Y Y Y Y Y Y Y Y Y Y Y T T T W ~ ,.W W W W W W T T T W W W W T T T T Y I I Y Y Y Y Y Y T U U T T T T T Y Y Y Y Y Y Y I I Y Y Y Y I I I I I I I Y I I Y Y Y Y I I Y Y Y Y Y Y Y Y Y Y Y T Y Y Y Y Y Y Y Y Y Y Y Y Y Y T T T T Y Y Y Y Y Y Y I Y Y Y Y I I I Y Y Y Y Y Y Y Y Y Y Y I Y Y Y Y Y j i 6 u i p u i L I E W E E W W E R 6 * * 6 p s L L L R I Y Y I R R I I z z s p : * $ : p z I I I I Q P P ) j.l.l.l.j.l.l.k.j.j.k.k.j.k.j.k.j.k.j.j.j.s.j.j.j._ _ ( ( ( ( _ 2 b ^ ( ( ( ( H H ( _ a.s.s.s.a.s.s.s.s.s.s.s.s.s.s.s.s.s.s.a.a.a.s.a.a.H H G ( ( ( a.a.a.a.a.a.a.a.a.a.( a._ ( ( K K ( ( ( ( ( K K K ( K K K K ",
"C B B B B B B B C N B B B C Z 8 @ 9 Z C C C C C C C C C C C C C C C C D A C C C C A C C C C C A D C A C D D A D D C B v v v v B 4 , 9 B C C C C C C S D G H H G G H J J J J J J J J J J J J J J H H J J H H H H H H J ( K K ( a.a.J S P Y Y I I I j i * # & 5 p i s L L E E E E E E ~ W E E L m a u 6 6 u I ~ W W W W W W I s p p i p u i j W ~ W W W W W W W W W W W W W W W W W W W W W W W W W W T Y Y Y Y I I I I Y Y Y Y T T T T Y E E Y Y Y Y Y Y Y Y Y T T T W ,.,.,.,.,.,.,.,.T T T W W W W T T T T Y I I I Y Y Y Y Y T T T T T T T Y Y Y Y Y Y Y I I I Y Y Y Y I I I I I I I Y Y I Y Y Y Y Y Y Y Y Y Y I Y Y Y Y Y Y Y Y Y Y Y Y Y Y Y Y Y Y Y Y Y Y T Y Y Y Y T Y Y Y Y I Y Y Y Y I I I Y Y Y Y Y Y Y I I I I I I Y Y T T I p 6 u i u u i j I E E E E E W E R * * * < u p j j L I R R Y I I R I I z z s i u * $ : p z z I I L Y E f Z d.l.l.l.j.k.l.k.k.l.l.j.j.j.k.k.j.k.k.k.j.j.j.s.j.a.( H ( H ( _ 2 9 G ( ( ( _ ^ H ( _ a.a.s.s.K a.s.s.s.s.s.s.s.s.s.s.s.s.s.s.s.a.a.a._ H G H ( ( ( a.a.a.a.a.K ( a.a.( ( K p.p.( K a.( ( ( K K ( K K K K K K J ",
"B B N B B B B N C N B B B C B 8 @ 9 Z C C C C C C C C C C C C C D C C C C C C C A D A C C D D A A D D D D D A A C C B v v B v B 3 + 3 B B C C Z Z A A D G G H H H H J J J J J J J K J J K J J H H H J J H H H H H J ( ( ( H H ( a.H 4 h I I Y Y Y j 7 * & * 7 i i s L L L L E E E E E E E E R L s u 6 6 p L E W W W W W W I p u u u u u s I W W W W W W W W W W W W W W W W Y Y Y Y T W W W W W T T Y Y Y Y R I I I I Y Y Y T T T T T T Y Y Y E E E Y I Y Y I Y Y T T W W ~ ~ W T T T T T T T T T T T T T T Y I I I Y Y Y Y I I U U U T T U I Y Y Y Y Y Y Y Y Y Y Y Y Y I I I I I I I Y Y Y Y Y I I I I I I Y Y I I I I Y Y Y Y Y Y Y T T T Y Y Y Y Y Y Y Y Y Y Y T T T Y Y Y Y Y Y Y Y Y Y Y Y Y Y Y Y Y Y I I z z I I Y Y Y Y T W R s u 6 u u : u s I Y E W W W W E R 6 & # & 6 p j L L R R I Y Y R R I I I z j p u * % : p j I I z I Y Q E Q a.l.l.l.k.l.l.k.k.l.j.j.j.j.k.j.k.k.k.j.j.d.d.j.d.a.( ( ( H ( _ , 9 G ( ( ( ( ( H ( ( a.a.a.s.s.s.s.s.s.s.s.s.s.s.s.s.s.s.a.a.a.a.a.a.( ( ( H ( ( a.a.a.( K a.( a.( ( ( ( K K K K K K ( ( ( K K ( J ( K ( ( K K ",
"B C B B B B B N B N B C C C C 0 @ 9 Z C C C C C C C C C C C C A D D D C C C C C C D A A C D D C C C C D D D A C C C v c v v v B 3 + 3 B B C C C C C D D D G H H H H H H H J J J J J H H H J J H H H H J H H H H H ( ( ( G C G ( a.D @ h I I Y Y Y j 7 & & * 7 i i s L L L L E E E E E E E R L L p u 6 6 p L E W W W W W W I i u u p u p s Y W W W W W W W W W W W W W W W W Y Y Y Y T W W W W W T Y Y Y Y Y I I I I I I Y Y Y T T T W T T E Y Y Y Y I I I I I I Y Y Y T W W T T T T T T T T T T W W T T T T T E E E E T T Y Y T T T T T U U U Y Y Y Y Y Y Y Y Y Y Y Y Y I I Y Y Y Y Y Y Y I Y Y I I I I I I Y Y I I I I Y Y Y Y Y Y Y Y T T Y Y Y Y Y Y Y Y Y Y Y Y T T Y Y Y Y Y Y Y Y Y Y Y Y Y Y Y Y Y Y I I z z I I Y Y Y T W W I j p u 6 6 * u s I E E W W W W E R 6 & & & 6 p L L I R I Y Y Y R R I I I z j i u * $ : p j I I z I Y Q Q Q d.l.l.l.l.l.k.k.k.k.l.j.j.j.k.l.k.k.j.j.j.j.j.s.a.( ( G ^ ( ( _ , 3 S ( ( ( ( ( ( ( ( a.a.a.s.s.s.s.s.s.s.s.s.a.a.s.s.a.a.a.s.a.a.a.a.( ( ( ( ( ( ( J D A H ( a.a.a.( ( ( ( ( H H K ( ( ( ( ( ( ( ( K K J J J J ",
"C C B B B B B C B B B N B C C 9 @ 0 Z C C C C C C C C C C C C A A D D A C C C C C C C C C D D C C C A D C C C C C C B x c B v v 3 + 4 C B C C C S D D D G G G H H H H H H H J J H H H H H J H H H H H H H H H G H ( ( ( G G _ a.( Z o h I I I I Y j 7 & $ * 7 i i s L L L L L L E E E E E R I j p u 6 6 p L Y E W T T T T I i u r p u p j Y Y Y W W T T T Y T W W W W W W W Y Y T Y T W T T T T Y Y Y Y I I I I I I I I Y Y Y T T T T T T T Y Y Y E I I I I I I Y Y Y T W W W W W T T Y T T T T T W W W W W W ! ! W W W T Y T T T T T T T T T T Y Y Y Y Y Y Y Y Y Y I Y I I Y Y Y Y Y Y Y Y Y Y I I I I I I Y Y Y Y I I Y Y Y Y Y Y Y Y Y Y Y Y Y Y Y Y Y Y Y Y Y Y T T Y Y Y Y Y Y Y Y Y Y Y Y Y Y Y Y Y Y I I z z I I Y Y Y T W W I L s i 6 6 * 6 s I E E W W W W E R 6 * & * 7 p L L I R I Y I I R R I L I z j p u * % : i j I I I I Y Q Q Q d.l.l.l.j.l.k.k.k.j.k.k.j.j.j.j.j.k.k.j.j.j.s.s.a.( ( G G ( H ( , 2 S ( ( H H ( ( ( ( a.a.s.s.s.s.s.s.s.s.s.s.s.a.a.a.a.a.a.a.a.K a.a.K ( a.( ( ( ( D G H ( a.K K a.a.( ( ( F G ( ( ( ( ( ( ( J ( ( J ( J J J K ",
"B B B B c B C B B B B N B B B 0 @ 0 Z C C C C C C C C C C C C C C C C C C C C C C D C C C C C C C D D C C C C C C B v v B B B v 2 o 3 C C C Z D D A A D G G G H H H H H H J H H H H H H H H H H H H H H H H H H ( ( ( H G H a.a.( C o s I I I I Y j 7 & $ & 6 i a n L L L L L L L L E E E E R s s p u 6 p I E W W T T T T z i : r i p p I Y Y Y W W T T T Y Y W W W W W W W Y Y T Y T W T T T T Y Y Y Y I I I I I I I I Y Y T T T T T T T T T Y Y Y I I I I I I I Y Y T T W W W W T Y T T T T T W W W W W W W W W E E T T Y T T T T T T T T T T Y Y Y Y Y Y Y Y Y Y I I Y Y Y Y Y Y Y Y I Y Y Y I I I I I I Y Y Y Y Y Y Y Y Y Y Y Y Y Y Y Y Y Y Y Y Y Y Y Y Y Y Y Y Y T Y Y Y Y Y Y Y Y Y I I Y Y Y I I Y Y I I z z z I Y Y Y W W W Y I j p u 6 : u s I E E W W W W E R u * * * 7 p L L L R R Y I R R R I I I z j p u * $ : i j I I I I Y Q Q Q j.k.l.l.j.j.j.j.k.l.k.k.j.j.j.k.l.k.k.k.j.j.j.j.( ( G G G H _ ) , 2 G ( ( ( ( ( ( H ( a.a.s.s.s.s.s.s.s.s.a.s.s.s.a.a.a.a.a.a.a.a.a.a.( a.a.( ( ( ( ( ( H K ( _ a.K K K ( K H ( ( ( ( ( ( ( ( J ( ( ( J H H J J ",
"B C B B B B N B B B B B B C B 0 & 0 Z C B B C C C C C C C C C C C C C C C C C C C C C C C C C C C C C C C C C C C B v v v B B B 3 o 2 C C Z S D Z A A C D G G H H H H H J H H H H H H H H H J J J H H H H J H H G H ( H G H a.a.( S 0 L I I I I I j u & $ & 6 i s m L L L L L L L L E E E E I m s u u u p I Y W Y Y Y Y Y j p : u i i j I Y Y Y T T Y Y Y Y Y T W W W W W Y Y Y Y Y Y T T Y T Y Y Y Y I I I I I I I Y I Y T T T T T T T T T T Y E Y I I I I I I I Y Y E W W W W W W Y Y T T T T T W W W W W W W W W T T T T T T T T T T T T T T Y Y Y Y Y Y Y Y Y Y I I I I Y Y Y Y Y Y Y I I I I R R R R R I I Y Y Y Y Y Y Y Y Y Y Y Y Y Y T T Y Y Y Y Y Y Y Y Y Y Y Y Y Y Y Y Y Y Y Y Y Y Y Y I I I I Y Y I I z z I I Y Y Y W W W E Y I s u 6 * 6 s I E E W W W W E R p 6 * * 6 p j L L R R Y Y R R R I L I I j p u * % : p j I I I Y Y E Q ) d.l.j.l.j.k.k.j.j.l.d.d.k.j.j.j.j.j.j.j.j.j.j.j.a.( ( D G H ( ^ + > D ( ( _ ( ( ( ( ( a.a.a.a.a.s.s.a.s.s.s.s.s.a.a.a.s.a.a.a.a.a.a.a.( a.a.( ( ( ( H K a.( ( ( K K ( a.( K J H K ( ( J ( ( ( ( ( ( ( ( ( ( ( K ",
"N B B B N N N N N B B B N B B 0 & 0 Z C C C C C C C C C C C C C C C C C C C C C A C C B B B C C C C D C C C D D C B v v v B v 4 2 o 2 B C C S D D D D D D G G H H H H H J H H H H H H H J H H H H H H H H H H H G G G H H ( ( a.K S P E I I I I I j 6 & $ * 7 i s m L L L L L L L L L R E R R m s u u u p I Y E E Y W Y Y j u : u i p L I I Y Y Y Y Y Y Y Y Y Y Y Y Y Y Y Y I I Y Y Y I I I I I I z I I I I R I I R Y Y I U T T T T T Y Y Y Y Y I I I I I I I I I Y Y T W W W W W T Y Y T T T T W W W W W W W W W W T T T T T T T T T T T T T T Y Y Y Y Y Y Y Y Y Y I I Y I I I I I Y E Y Y I I I I R R I R I I Y Y Y Y Y Y Y Y I I Y Y Y Y T T Y Y Y Y Y Y Y Y Y Y T T Y Y Y Y Y Y R Y Y Y Y Y I I I I Y Y I I z z I I Y Y T T W W W E R s i 6 * u s R E E W W W W E I p 6 * * 6 p j I I R R E Y Y R R R L I I j p u : * : i j I I I I Y E E Q d.l.l.k.j.k.l.k.j.k.j.j.j.j.j.j.k.j.j.j.s.j.s.s.a.( G ^ ( G D G + 3 G ( ( ( _ ( _ H ( _ a.a.a.a.s.s.s.s.s.s.a.a.a.a.s.a.a.a.( a.a.a.a.a.( a.H G ( H H H H ( K ( ( ( K ( ( K J ( K K K K K J K ( K J J J ( ( ( J ",
"N N B B B B N N B B B B B B B 0 & 0 V C C C N B C C C C B B C C C C C C C C C C C C C C C A C C C C C C D D D D C B B v v v v 9 2 o 2 B C C C A C D D C A G H H H H H H H H H H H H J H H H H H H H H ( H H H ( H H H J ( ( ( a.K Z E E I I E E E s 7 * & 5 a m L L L L L L L L L L R R R R R s s u u p s I R E E E E E E s 6 * : u p L I Y Y Y T T T T Y Y Y T T T T T T Y Y Y Y Y Y I I I I I I I z z z I I I z I I Y Y T T T T T T I I z z z I I I I I I I Y Y Y T T T T Y Y Y Y T T T T T T T T T T T T W W W W T T Y I I T U U T T T T T Y Y Y Y Y Y I Y Y Y Y Y I I I I Y I I I E E E I I L L I I I I I I Y Y Y Y Y Y Y Y Y Y I I I I I I I I I I I I I I I I I I I z z z j j I I I I I I I I I I R R I z z I I I Y Y W W W W W W Y L i 6 : 6 u Y E ~ W W W ~ W W s i : : i j I I I I R R I I I I L L I L j s i i p a s j I I Y I I I I Q d.j.l.k.k.j.k.k.k.k.j.j.j.j.j.j.j.j.d.j.s.s.j.s.a.( ( H H H ( ^ , 9 ^ ( ( ( ( ( ( ( J _ a.s.a.a.a.a.s.s.s.a.a.a.a.a.a.a.a.a.a.a.a.a.( ( ( a.a.( ( ( a.H H H ( ( a.a.( ( K K ( ( ( K ( K J K K ( ( J J ( ( ( J J ",
"N N B N B N B N B B N N N B B 0 @ 0 Z C C C C C C C C C C C C C C C C C C C C C C C C C C C C C C C C C C C D D C B B v v B v v 2 + 3 B B C C C D D D C A D H G H G H H H H H H H H J H H H H H H H H G H H H H H H H H K K ( ( H b E E I I E E E L i 6 6 0 n n L L L L L L L L L R R R R R R L s p p s L R E E E E E E E s 6 * 6 u a L R Y Y Y T Y Y Y Y Y Y Y Y Y Y Y Y I I I I I I I I I I I I I z z z z z I z I I Y Y T T T T T T I I I z z z z z I I I I Y Y Y T T T T T T T T T T T T T T T T T T T T T W W T T T T Y Y T U T T T T T T Y Y Y Y Y Y Y Y Y Y Y Y I I I Y Y I I I E E Y Y I I L I I I I I I Y Y Y Y Y Y Y Y Y Y I I I I I I I I I I I I I I I I I I z z z z j j I I I I I I I R R R R R Y I z I I I E W W W W W W W Y L i 6 : 6 u Y Y W W W W W W W j p p p p j I I I I I I I I I I I I I I j j s s s s j I I I Y I I I I Q d.k.l.l.l.l.j.k.j.k.k.d.s.j.j.s.s.s.j.j.j.s.s.s.a.a.( H S G G ) , b G ( ( ( H ( ( ( ( a.a.a.a.a.a.a.a.a.a.a.a.a.a.a.a.a.a.a.a.a.a.K ( ( K ( ( J ( ( K H ( K K ( a.a.( K K J ( ( a.( ( ( J K J J K K J J J H H J ",
"N N N B N N N B B B B N N B B 0 @ 0 Z C C C C C C C C C C C C C C C C B C C C C C C A C B C C C C C A A C C D C C C B B B v v v 2 + 3 B v B C C C A D D D F G G H H H H H H H H H H H H H H H H H H ( H H H H H H H H H J ( ( ( D 9 E E I I E E E L s i 0 a n L L L L L L L L L L R R R Y Y R I m s s L R E W E E E E E E s 6 * 6 7 s L R Y Y Y T Y Y Y Y Y I Y Y Y Y Y Y Y I I I I I I I I I I I I z z I I I I I I I Y Y T T T T T T U z z z z z z I I I I I I I U T T T T T T T T T T T T T T T T T T T T W W W W W T T Y Y T T T T U T T T T Y Y Y Y Y Y Y Y Y Y Y I I I I I Y Y I Y Y Y Y Y R I I I I I I I Y Y Y Y Y Y Y Y Y Y I I I I I I I I I I I I I I I I I I z z z z j z I I I I I I I R R R I I Y Y I I Y Y E W ! W W W W W Y L i 6 : : 6 R Y E Y T W W W Y I j s s j I I I I I R I R R R R R R I I L L L L j L I R I Y I I I I E Q d.k.j.j.j.j.j.j.j.j.k.j.s.j.j.s.s.s.j.j.a.s.s.s.d._ ( ( G G ^ ) , v G _ ( _ ( ( ( ( _ a.a.a.a.a.s.s.a.a.a.a.a.a.a.a.a.a.a.a.a.a.( ( a.a._ H H H J ( a.( ( ( ( ( K ( ( K K K J J K K ( ( K J ( J ( ( J ( H H H H ",
"N N B N N N N B B B B B B B B 0 @ 9 Z C C C C C C B B B C C C C B C C C C C C C C C C B B C C C C A A D C A C C C C B B B B v v 2 > 4 B B B C C C C S D D G G G G G G G H H H H H H H H H H H H G H ( H H G G H H H ( ( ( ( ( ( C 5 E E I I E E E L L s n n P R L L L L L L L L L L R R R R Y R I L I R R W E E E E E E E s 6 * : 7 s L R Y Y Y T Y Y Y I I I Y Y Y Y Y Y Y Y Y I I I I I I I I I I z z I z I I I I I Y Y T T T T T T U z z z z z z I I I I I Y I U T T T T T T T T T T T T T T T T T T T T W W W W W T T Y T T T T T T T T T T T T T T T Y Y Y Y Y Y Y I I I I I Y Y Y Y Y Y Y I I I I I I I I Y Y Y Y I Y Y Y Y Y I I I I I I I I I I I I I z z z z z z z z z z z I I I I I I I R R R I I Y Y Y Y Y E W W W ! W W W E Y L i 6 : * : R I E Y Y W W Y Y Y I I z I I I R I I I I R R R R R R I I I I I I L L R R Y Y I I I I E Q d.j.k.l.k.j.k.k.j.k.j.j.j.j.j.j.j.j.j.j.s.s.s.s.s._ ( _ _ _ ^ ) , b ^ ( ( ( ( _ ( ( _ _ K a.a.a.a.a.a.a.a.a.a.a.a.a.a.a.a.a.a.a.G J a.K a.H ( ( ( ( K K ( ( ( ( K K ( a.J K K K K H a.G H K ( J J J H H H H H H ",
"N N N B N N N N N N B B B B B 8 @ 9 Z C C C N v C B B C C C C C C C C C C B B C C C C C C C C C C C C C C D D D D C B B v v v x 2 + 9 C B B C A S C C D D G G G G H H H H H H H H H H H H H H H H H H H G H H H H H K J J ( ( J v 5 E E I I E E E R L L L P P P L L L L L L L L L L R R R R R Y R R R R E W W E E E E E E s 6 * 6 7 s L R Y Y Y T Y Y Y I I I Y Y Y Y Y Y Y Y Y I I I I I I I I I z I z z z z z z I I I Y T T T T T T U U I z z z I I I I I I Y Y U T T T T T T T T T T T T T T T T T T T T W ! W W W T T Y T T T T T T T T T T T T T W W T Y Y Y Y Y E Y Y Y I Y Y Y T Y Y Y Y I I I I I I I Y I I Y Y Y Y Y Y Y I I I I I I I I I I I I I z z z z z z z z z z z z I I I I I I R R R R I I Y Y Y Y E W W ~ ~ W ! ~ W W Y L i 6 * & * R R I Y Y T T Y Y T Y Y I I Y I R R R I I Y Y Y Y R R I I I L L L L I I R I Y I I Y I I Q d.j.j.k.j.j.j.j.j.j.j.a.j.k.j.j.j.j.j.j.s.j.s.s.s._ ( ^ ( ( G f.2 b G ^ G ( ( _ ( ( ( ( a.a.a.a.a.a.a.a.a.a.a.a.a.a.a.a.a.a.a.( ( ( K H ( ( ( ( ( ( ( ( ( ( ( ( a.K ( ( ( a.K K K H a.( ( ( ( J J J J J H J H H ",
"N B B B N N B N c N N B B B B 0 @ 9 S C C C C C C C C B B N c N C C C C B B C C C C C C C C A C C C C C A C D D D C B B B B v v 2 + v C B B C C C C D D D D G G G H H H H H H H H H H H H H H H ( ( H G G H H G H J J K J H H J 4 @ E I I I E E E E I E R R R R P L R L R L L L L L R R R R E R Y Y Y R E E W E E E E E E s 6 * 6 i s L R Y Y Y Y Y Y Y I I I Y Y Y Y Y Y I I I I I I I I I I I I z z z z z z I I I I I Y T T T T T T U U U z z l I I I I I I Y Y T T T T T T T T T T T W T T T T T T T T T W W E E E Y Y Y T T T T T T T T T W ~ ~ W ~ ~ W Y E E Y Y Y Y Y Y Y E E Y T T T T Y I I I I I I I Y I I Y Y Y Y Y Y Y I I I I I I I I I I I I I z z z z z z z z z z z z I I L L L R R R R R I I Y Y Y Y E W W W W W W W E E E L p 6 : * * R I Y Y Y T T T T T Y Y Y Y Y R R R R R R R R R Y Y Y I I I L L j L L I I R I Y I I I I Q j.j.j.j.j.j.j.j.j.j.j.j.j.j.j.d.j.j.j.j.j.s.s.s.a.( ( G H G G ) , b G ^ ( ( _ ( ( ( ( ( a.a.a.a.a.a.a.a.a.a.s.a.( a.a.a.a.a.p.a.a.( H H H ( ( ( a.( ( ( ( ( ( J K ( a.( ( K ( K K K ( H K ( J J ( J H H J J H H ",
"N B B N N N B N c N B B N B B 0 @ v S C C C C C C C B B C C C C B B C C C C C C C C C C C C C C C C C C C C D D A C B B v B v x 2 o 2 v B C C C C D D D D G G G H G H H G H H H H H H H H H H H H ( H D G H H G G H K K ( J J J 9 @ E I I I E E E E R R R R R R R R R R R R R R R R R R Y Y E E R R E E W W W E E E E E E s 6 & 7 s L L R Y Y Y Y Y Y Y Y Y Y Y Y Y Y Y Y I I I I I I I I z z z I I I I I I I I I I Y Y Y T U U T T T U I I I z Y z z I I I I I T T T T T T T T T T T T T T T T T T T T T T Y E Y Y I Y I Y Y T T T T T W W W ~ ~ ,.~ ~ ~ W W E E Y Y Y Y Y Y Y Y Y Y T T T T T T T T Y Y Y Y Y Y Y Y Y Y Y Y Y Y I I I I I z z I I I I I I z z I I I I z z z z z z j j L L L R I L I I I R Y Y Y E W W W E E E E E E E Y L p 6 : * : L I R Y Y Y Y T W Y Y Y Y Y I Y Y R R R R R R R R Y Y I L L L L L L L L L R I I I I I I Q a.j.j.j.s.s.j.j.j.j.j.j.j.j.j.s.j.j.j.j.j.s.j.j.s.( ( ( H ^ ( ) , , Z D H H H ( ( ( _ a.a.a.a.a.a.a.a.a.p.a.a.a.( a.a.a.a.( ( a.a.( ( H H ( ( ( ( ( ( J ( ( K ( K a.( K ( ( K K K ( d.( H H J J J J J J H J J J ",
"N B N N N N B B B N B B B B B 0 @ 9 Z C C C C C C C B B N B C C C C B B C C C C C C C C C A C C C C C C C C D D A C B B B B B v 2 o , x c C Z D C C A A D G G G G D G H G H H H H H H H H H H H H H G H H H H H H H K K ( ( ( J 4 @ R R I L I E R E E E R R R R R R R R R R R R R R R E E E E E R R E E W W W E E E E E E s 6 * i L L L I I I I Y Y I Y Y Y Y Y Y Y Y Y Y I I I I I I I I I z z I I I I I I I I I I Y Y Y T U U T T U U I I I I Y I I I I I I I Y T T T T T T T T T T T T T T T T T T T T T T E Y Y I Y I Y Y T T T ,.,.,.,.,.,.,.,.~ ~ ~ W W Y Y Y Y Y Y Y Y Y Y Y T T T T T T T T T T T Y Y Y Y Y Y Y Y Y Y Y I I I I I I z z z I I I I I z z I I I I z z z z z z j j L L I R I L I I I R Y Y Y Y W W W E Y E Y Y E E E L p 6 : * : L R R Y Y Y Y T W T T Y Y Y Y Y R R R R R R R R R R Y R I I I I I L L I R I Y Y Y Y I I Q a.j.j.j.j.j.j.j.j.j.j.j.s.s.s.s.j.j.s.s.j.j.j.s.s.( H H ( ( H V + + Z G ( ( ( ( H H ( a.a.a.a.a.H K a.a.a.a.a.a.a.a.a.a.a.a.a.( ( ( ( ( J ( ( H ( a.( ( ( ( K K J ( ( ( ( ( ( K K ( ( J J H J J J J J J J J H H ",
"B B N N v B B B N N B B B B B 8 + 9 Z C C C C C C B B C C C C C B B B B B B B C B C C C D D C C C A D D D C C D A C B B B B v v 3 o 2 B C C C C C C A D D G G G G G G H G G H G G H H H H H H H H G H H G H G G H H H K ( ( ( J v & E R L L L L R R E E R R R R R R R R R R R R R R R E E E E E E R E E W W W E E E E E E s 6 * i L L R I I I z I I I I Y Y Y Y Y Y Y Y Y Y I I I I I I I I I I I I I I I I I I Y Y Y I Y U U U Y Y T U Y I Y Y Y z I I I I I I I I T T T T T T T T T T T T T T T T T T T T T E Y Y I Y I I Y T T T T T T W ,.,.~ ~ ~ ~ ~ W W Y Y Y Y Y Y Y Y Y Y Y T T T T T T T T T T T Y Y Y Y Y Y Y Y Y Y Y I Y I I I z z z z I I I I I z z z I I I z z z z z z j j L L I R I L I I I R Y Y Y Y E W E E Y E Y Y Y E E I s u 6 * * L I R Y Y Y Y T W W W W T Y Y Y Y Y Y Y Y R R R R R R R I I I I I L I I I I I I I I I P Q a.s.j.d.j.k.j.j.j.j.j.j.j.s.j.j.j.j.s.s.j.s.s.s.a.( ( ( ( G ( B + , S ( ( ( ( ( _ H ( a.a.a.a.a.a.a.a.a.a.a.a.a.a.a.a.a.a.a.a.a.J ( J ( ( _ H H H ( ( ( K J ( J ( a.a.( K K K K K J ( ( J J J J ( J J H J H H H ",
"B B B B N N B N N N B B B B B 5 O 0 Z C C C C C C C B C C B C C C C B B B B C C C C C C C C D D C C D D A C C D A C C B B B B B 3 + 3 B B B C C C C D D D G G D D G G G G G G G G H H G H H H H G G G G G H H H H H H H J ( ( ( C 5 E R L L L L L L L L P P P R R L L L L L L L L L L R E E R R R Y E E E W W E E E E E E s 6 * s R R R R Y I I z z I I Y Y Y Y Y Y Y Y Y Y Y Y Y Y Y I I I I I I I I I I I I I Y Y Y Y Y U U U Y U U U Y Y Y Y Y z I I I I I z z I Y T T T T T T T T T T T T T T T T T T T T E Y Y I Y I I I I T T T T W ,.,.,.~ ~ ~ ~ W W Y Y Y Y Y Y Y Y Y Y Y Y T T T T T T T T T T T Y Y Y Y Y Y Y Y Y Y Y I I I I z z z z z I I I I I z z z I I I z z z z z z j L L L I R I L I I I R Y Y Y Y Y E E Y Y Y Y Y Y E E R j i : * : L I R Y Y Y Y T W Y Y Y I I I R R R R R R R R R R Y Y L L L L L L s j j j L L L L L L L Q s.s.s.d.d.j.d.( s.j.j.d.s.j.s.j.j.s.j.d.s.j.s.s.a.a.( ( H H ( S > 8 G ( G G G ( ( H ( a.a.a.a.H K a.a.a.a.a.a.( p.K a.a.a.a._ ( ( ( J K ( H ( ( H J ( ( J ( ( a.( ( ( ( K K K K K K ( ( ( J J H J J J H H H H H ",
"B B B v B N N N B B B N B v C 5 O 0 Z C C C C C C C C B B B B B C C C B B B C C C C C C A A A D C C C C C C A A C C C C B B B B 3 + 2 B B C C C C C C D G G G D G G G G G D F H H H H H G G G G G G G G G G G G H H H H H J ( ( G b E L L L L L L L L L L L P L L m L L L L L L L L L R R R R R R R R E E W W E E E E E R a 6 * L E E E E Y Y I I I I I Y Y Y Y Y Y Y Y Y Y Y Y Y Y Y Y Y Y Y Y Y I I I I I I Y Y Y Y Y Y T T T Y Y Y I U I I I Y z z I I I I z z I Y Y T T T T T T T T T T T T T T T T T T T E Y Y Y Y I z I U U T T T W ~ ,.~ ~ ~ ~ W W W Y Y Y Y Y Y Y Y Y Y Y Y T T T T T T T T T T T Y Y Y Y Y Y Y Y Y Y Y Y Y I I z z z z z I I I I I z z z z I I z z z z z I L L L L I R I L L I I R Y I Y Y Y E Y Y Y Y Y Y I Y E I L s 6 * : L I R Y Y Y T T W z z j s s s s s s s s s L L L L L L s p p p p s i i p a a a s s s s h ^ d.d.j.d.d.a.a.a.s.d.j.j.j.j.j.j.j.s.s.j.d.j.s.a.a.a.( ( J H ^ G > , Z ( ( ( ( H ( ( ( K a.a.a.a.a.s.s.a.a.a.a.a.a.( a.K a.K ( ( ( H J J G H H H K H J K K K J H H H ( ( K K K K K K ( ( K J J J J J J J J H H H ",
"B B B B B N N N B B B B B v B 5 @ 9 Z B C C C C C C B B B B B C C C C C C B C C C C C A A A A A A A S B B C C A C C C C C B B B 3 + 2 B B C C C C C C D G G G G G G G G G D D H H H H G H G G G G G G G G G G G G H H H H ( ( ( ( Z L j j h h h L s a s a n n n a s s s s s s s s s s s s s s s s L R R R W W E E E E Y R s u u R E E E W E Y R Y I I I R Y Y Y Y Y Y Y Y Y Y Y Y Y Y Y Y Y Y Y Y I I I I I I Y Y Y Y Y Y T Y T Y Y I z I I z I I I I I I I I z I I I Y Y Y T T T T T T T T T Y T W W W T T T E E E Y Y I I I I U T T T W ,.,.W ~ ~ W W W W Y Y Y Y Y Y Y Y Y Y Y Y T T T T T T T T T T T Y Y Y Y Y Y Y Y Y Y Y I Y I I z z z z I I I I I I I I I I I I I I I I I I L L L L I R I I I I I R Y Y Y Y Y Y I I I I I I I I E I R L i : : j I R Y Y T T W W s u * * * : u u 7 7 7 7 i i i i i i 7 7 u u u u : 6 6 6 6 6 u 7 i i P ^ d.j.j.j.a.s.a.d.s.j.j.j.j.j.s.s.s.s.s.j.j.s.s.s.a.a.H ( J H ( _ , 2 G ) _ ( ^ H ( J ( a.a.a.a.a.s.a.a.( H G K a.a.( ( ( a.K K K ( K K K H H H H J J J J K K J J J ( ( K K K K K K K K J J J J J J J J J H H H H ",
"B v x v B N B N B B B B B B B 5 O 0 Z C C C C C C C C B B B C C C C C C C B C C C C C C A A D C B P P.: @ , 3 B C C C B B B B B 4 + 2 B C C C C C C D D G G G G G G G G A C D G G H H H G G G G G D G H G G H H H H H H J ( ( ( ( G 9 5 6 ; ; & 5 @ @ @ @ @ & & * & & & & & & & & & & & & & & & & * * u I R U E Y Y E R I s p i R W W E E E E R L L L L L L L I I Y Y Y Y Y Y Y Y Y T Y Y Y Y Y Y I I I I I I Y Y Y Y Y Y U T T T U z z z z z z z Y Y Y Y I I I I I I Y Y Y Y T T T T T T T T Y Y E E E E T ! ! ! W T T T T T T T T T T T T T T W W W W W E Y Y Y Y Y Y Y Y Y Y Y Y Y T T T T T T T T Y Y Y Y Y Y Y Y Y Y Y Y Y Y Y Y I I I I I I I I I I I L L L L L R L L L L L L L I I I I I R R I I Y Y R I Y Y Y Y I I I I I I I I I I I I s 6 6 s R R Y Y W W W W i * # # # $ . X X X X X . X X X X O O O O X X X . . $ . X X & & 5 9 G a.j.j.j.j.d.d.d.d.j.d.j.s.s.s.s.s.s.s.s.j.s.s.s.s.a._ H H H ( ( _ , 9 ^ ( ( ( ( H ( ( K a.a.a.a.a.a.a.a.J G H ( a.a.K a.a.a.a.J H J K J K H H H ( ( K ( ( K J K J J ( K K K J K J J K K J J J J J J H H H H H H H ",
"v B B B B B B B B B B v v v v 8 O 8 C B C C C C B B C C B B C B B C C C B B B B C Z C C A A C 9 w.P.1Xi.>XP.P.Q C C C B B B B C 4 , 4 B C B B C C C D G G G G G G G G G F G G G G H H G G H G G G D D G G F D G H H H H J ( ( ( ( ( H S 9 2 @                                 . . . . . . . . . . . . * p R W E Y W E R I s p i R ~ W E E E E R L L L L L L L I Y Y Y Y Y Y Y Y T T T Y Y Y Y Y Y Y Y Y Y Y Y Y Y Y Y Y Y U T T T I I z z z z z z Y Y Y Y I I I I I I I Y Y Y T T T T T T T T Y Y Y Y Y E E ! ! ! W T T W T T T T T T T T T T T W W W W E E Y I Y Y Y Y Y Y Y Y Y Y Y T T T T T T T Y T Y Y Y Y Y Y Y Y Y Y Y Y Y Y Y R R R R R I I R R R R L L L L L L L L L L L L L L L L L I R R R I I I I Y Y Y Y I I I I I I I I I I I I I s 6 6 s R R Y Y W W W W p * . . . .                                                 & 5 b G a.j.j.j.j.d.d.d.a.a.s.d.d.j.d.s.s.s.s.s.s.s.j.s.s.s.a._ ( ( H ( ( d., 9 ^ ( ( ( ( ( ( ( ( a.a.a.a.a.a.a.p.K ( ( ( a.a.a.a.a.a.K K ( J H H ( ( G G ( ( ( ( ( K K J J J K K K K J J J K K ( K J J J J J J H H H H H H ",
"v B B B B B B B B B N c c c v 5 + 5 B B v B B B B B B C C C B B B B B C C B c B S C A D C A B h >X1X1X2X1X1X>XQ B B B B B B B C 4 2 v B C C C Z C C D G G G G G G G G G G G G G G G G G G H H G G G C C D D S B C G H H ( ( ( J J ( ( J H S v = o                                         . . . . . . # p I E W W W Y Y I s p i I W W E E E E R L L L L L L L I Y Y Y Y Y Y Y Y Y Y Y Y Y Y Y Y Y Y Y Y Y Y Y Y Y I Y Y Y U U T T U z z z z z z I Y Y Y Y I I I I I I I Y I Y Y T T T T T T T Y Y Y Y Y E E T ! T T T T T W T T T T T T T T T T W W W E Y E Y Y Y Y Y Y Y Y I I Y Y Y T T T T T T T Y T Y Y Y Y Y Y Y Y Y Y Y Y Y Y Y R R R R R R I I I R R R L R R R R L L L L L L L L L L I I R I R I I I Y Y Y Y I I I I I I I I I I I I I I s 6 6 s I R I Y T W W Y u $ # . . .                                             = + @ 9 G a.d.d.j.j.j.s.j.d._ d.s.s.d.d.j.s.d.d.s.s.j.j.s.s.s.a.( H ( ( H H ( d., V ) ( ( ( ( ( ( ( ( a.a.a.a.a.a.a.a.( a.a.a.a.a.a.( ( K K ( ( ( H G D D D B C G K K K K K K ( ( ( ( K K K J H J J J J K J J H H H H H H H H H ",
"B B B B B B B B B c N v v v v 5 @ 8 v v v B B v v B C C C B B C C C C C C B C C C C C A D C Q >X&X%X<X<X<X<X$XQ B B B v B B B B 3 , 4 B C B B C C C D G G G G G G G G G G G G G G H G G H G G H G F D G D D Z B D G H ( ( ( ( ( J ( K K J H S 9 = o                                         . . . . . # p L Y Y Y Y Y I z p u i I W W E E E E R L L L L L L L I Y Y Y Y Y Y Y Y Y Y Y T T T Y Y T Y Y Y Y Y Y Y Y Y Y I Y U U T T U z z z z z z I Y Y Y Y I I I I I I I Y I Y I Y T T T T T T Y Y Y I I I E E E T ! W T T W T T T T T T T T T T T T E Y Y E Y Y Y Y Y Y Y Y I I Y Y Y W T T T T T T Y Y Y Y Y Y Y Y Y Y Y Y Y Y Y Y Y R R R R R R I I I R R R L L R R R L L L L L L L L L L I I R I I I I I Y Y Y Y I I I I I I I I I I I I I I s 6 6 s I R I Y Y Y Y Y : $ # # . .                                           = 2 f 2 S a.s.j.d.j.j.s.s.s.d.a.s.s.s.d.d.s.s.j.j.s.j.j.d.a.H ( ( ( ( G ( H G G _ , b ( _ ( ( ( ( ( ( ( a.a.a.a.a.a.a.( a.a.a.a.a.a.a.( ( ( a.( ( ( H H G G G G D G H ( K ( K H K J J K K K K H J J H H J H H J H H H H H H H H H ",
"v B B B B c B B B B N c v v v 5 @ 8 B v B v B v v B B B C C B B C C C C C C C C A C C C D C P $X$X%X#X@X#X#X+XQ v x c B B v B Z 9 2 v B B C Z C C C D F G G G G H G G G G G G G G G H H G G G G G G H G G G D G G G G G H H J K ( ( K K ( K G B 5 = @ o                                       .   . . & p R Y Y T T Y I z i u p z W T E E E E R L L L L L L L I Y Y Y Y Y Y Y Y Y Y Y W W W T T W T T T T T T Y Y Y Y Y Y U Y Y T I z z z z z z I Y Y Y Y I I I I I I I Y I I I I Y T T T T T I Y Y I I I I Y E T T T T W T T T T T T T T W W T T T Y Y Y Y Y Y Y I I Y Y Y Y I Y Y Y W T T T T T T Y Y Y Y Y Y Y Y Y Y Y Y Y Y Y Y Y R R R R R R R I I R R I L L L L L L L L L L L L L L L L I R I I I I I Y Y Y Y Y Y I I I I I I I I I I I I s u 6 s R R I I Y Y Y Y : $ # $ $ $ .                                     O   = = > 4 ( a.a.d.j.j.j.j.d.j.s.d.s.s.s.d.j.j.j.s.s.s.s.s.s._ ( a._ G D H G H D ( ) , b ^ ) ( G ( ^ ( ( K a.a.a.a.a.K K a.a.a.a.a.a.a.a.( K ( a.a.( ( H G G H ( G G H ( J ( K K H ( J H K K K K J ( H H J ( H H H H H H H H H H H H ",
"B B B B B B B B B N B B v v v 5 @ 8 B B B B x x B B B C C C B B C C C C C C C C C C C C C C P $X$X@X#X#X#X#X+XQ v B B B B B B B 3 2 b B C C C B B C A F G G G G G H G G G G G G G G G H H G G G G G G H G G G G G G G H G H K J ( J K K ( K H Z > 5 5 @                                 . . . . . . X * s R Y E W T Y I z p r u j Y Y E E E E R L L L L L L I I Y Y Y Y Y Y Y Y Y Y Y W W W W W W W W W W W W T Y Y Y I I Y Y Y T I z z z z z z I Y Y Y Y I I I I I I I Y Y I I I Y T T T T T Y Y Y I I I I Y E E E E T T W W T T T ;.,.W W W W T Y Y Y Y Y Y Y I I I I Y Y Y Y Y Y Y T T T T T T T Y Y Y Y Y Y Y Y Y Y Y Y Y Y Y Y Y R R R R R R R I R R R R L L L L L L L L L L L L I I I I I R I I I I I I Y Y Y Y Y I I I I R R I I R R R R s 6 : p L I I I I I I I : $ % * : : & @ @ @ @ @ O X O X X X o o                   @ v H a.a._ s.d.d.j.j.s.d.d.s.s.s.d.j.j.j.j.j.s.s.s.s.a.a.J ( H ( H H H G ( ( , b ( H H ( ( ^ ( H J _ a.a.a.a.a.a.a.a.a.p.a.( ( a.( ( ( ( a.a.a.( H H ( H Z D H G ( ( H J ( ( J H J J K ( ( J H H H H H H H H H H H H H H H H ",
"v B B B B B B B N B B B B v v 5 @ 5 Q Q 8 v v c 4 c B B B B B C B C C C C C C C C C C C C B L $X%X#X@X@XOX@X+XQ B B B C B B v B 8 , 9 B v B B 4 c C C D G G D F G G G G G G G G G G G G G G G G G G G G G G D D G G G H H G H H H H J ( ( ( H S 2 5 5                 O X = @ = @ = ; 5 5 5 ; ; ; : 6 7 p L E E W Y Y I z p u u j Y Y E E R L L L R R R R R R Y Y Y Y Y Y T T T Y Y Y W W W W T W W T T T T T W T T Y Y U U T Y T I z z z z I Y Y Y Y Y Y I I I I I Y Y Y Y Y Y Y Y U T T T T Y Y Y Y I I I I I Y Y Y T T W W W W ,.,.,.,.W W T T Y Y Y Y Y Y I I I I I I I I I R R Y T T T T T T T Y Y Y Y T T Y Y Y Y Y Y Y Y Y Y Y Y Y Y Y Y Y R R R R R I L L L L L R R R R R R R I I I I I R I I I R I Y Y Y Y Y Y I I I I I R R I I I I I a 6 : i L L Y Y I I I I u * * u r u 6 6 5 5 5 5 5 5 5 5 ; ; @ @ O X         = = = 2 Z J a.a.a.a.d.j.j.j.j.s.j.s.j.s.j.j.j.j.s.s.j.s.s.s.a.a.( ( H H ( ( H H ( _ , b ^ G G ( D G H ( K a.a.a.a.a.J ( a.a.a.a.( ( ( ( a.( ( a.( ( ( ( ( H H G C D H H J J H H ( J ( ( K K K J J J J H H H J H H H H J H H H H H G ",
"c B B B B B B B B B B B B B v 5 & w.i.i.y.y.9.3 x B B B B C B B B C C C C C C B C C C C C B P $X@X@XXXXX7.XXu.E v B B B B B v B 9 , 4 4 3 v B B B C D D G G G G D D D G G G G G G G G G G G G F G G G G G G C S G G H H H H H H ( ( ( J ( ( ( D > = =       O @ @ ; ; ; ; 5 5 6 6 5 6 7 7 7 7 7 7 7 u i s L E E W Y Y I z p u u j I Y I R L L L L R R R R R R Y Y Y Y Y Y Y T T Y Y Y W W W W T W W W W T T W T T U Y Y U U T T T U z z z z I Y Y Y Y Y Y Y Y Y I Y Y Y Y Y Y Y T T T T T T T Y Y Y Y Y I I I I Y Y Y T T W ~ ~ ,.,.,.,.T T T T Y Y Y Y Y Y Y I I I I I I I I I R R Y T T T T T T T Y Y Y Y T T Y Y Y T Y Y Y Y Y Y Y E E E R R R R R R R R I L L L L L R R R R R R R R I I R R I I I I R I E E E E E E Y I I j L L R I I I I I a 6 : i L L Y Y I I I I i * * u u u 7 7 7 7 7 7 7 7 7 7 7 5 5 5 ; @ @ O O @ = = = 4 H _ a._ _ a.s.s.d.s.j.d.s.s.s.s.j.j.j.j.s.s.s.s.s.s.a.a.a.( ( ( ( G H H G _ 2 b Z v S ( ( G ( ( K a.a.a.a.J K a.( a.a.a.a.a.a.a.( ( ( J J H ( ( H H H D C G H H ( J ( K ( ( ( ( K K K J H H H H H H H H H H H H H H H H G G ",
"B B v 4 x B c N N N N N B B v 5 : >X%X%X,X>Xi.7 4 B B B B v v C C C C C C B C C C C C C C B P $X@XOX7.7.&.7.t.E B C B B B v v B 3 2 9 v v c v B C C C D D F D D G G G G G G G G G G G G G G G D G G G G G G D D G G G H H H ( J H ( ( ( ( a.K C 2 = = o = = = ; 5 6 6 7 7 7 7 7 7 7 7 7 7 7 i i a i i p s L E E W W Y I j p u u j Y Y R L L L L L R R R R R R Y Y Y Y Y Y Y Y Y Y Y Y W W W W W W W W T W W W T T T Y Y U T T T T U U z z z I Y Y T Y Y E E E E E E Y Y E Y Y T T T T T T T T Y Y Y Y Y Y I I I I Y Y Y T W ~ ~ ,.,.,.,.T T U Y Y Y Y Y Y Y Y I I I I I I I I I I I Y T T T T T T T Y Y Y Y Y Y Y Y Y Y Y Y Y Y Y Y Y E R R R R R R Y R I I I L R R L L R R R R R R R R R I R I R I I I R I E W W W W T Y I L j L L I I I I I I a 6 : u j L Y Y I I I I p u : u u u 7 7 7 7 7 7 7 7 7 5 5 5 5 5 5 5 ; ; 5 @ ; ; 5 V J J a.H J a.s.s.j.j.j.s.s.s.s.s.j.j.j.j.s.s.j.s.j.s.s.a.a.a.( ( _ ( H D G _ , V ^ Z G ( G H ( ( K a.a.a.a.K _ ( a.a.a.a.a.( ( a.a.a.( J H H ( H D ( H G A G G H H K ( ( ( J ( K J J K ( H H H H H H H H H H H H H H H H H H ",
"v v v c c c v N N N B B B B v , : >X%X%X%X$X$Xy.8 B B v B v v C C C C C C C C C C C C C C N L $XoXXX7.&.&.6.6.Y v B C B v x x v 3 , 3 x v v v B C C A D F G D D G G F G G D G F G G G G G G G G G G H G G G G G G Z C G H ( ( ( H ( ( ( ( ( H v 5 = = = = = = 5 6 7 7 f f f f f f f a 7 7 a a a a i i i s L E E W W Y Y I p u u j Y Y L L L L L L R R R R R R Y Y Y Y Y Y Y Y Y Y Y Y W W W W W W W W T W W W T T T Y Y T T U T T U T U U T T T Y T Y Y E E E E E E Y Y E T T T T T T T T T Y Y Y Y Y Y Y I I I I I Y Y Y T T T T T T T T T U I Y Y Y Y Y Y Y I I I I I I I I I I I Y T T T T T T T Y Y Y Y Y Y Y Y Y Y Y Y Y Y Y Y Y E R R R R R R Y Y I I I L R R R L R R R R R R R R R R R R I I I R R I E W W W W W Y I I j L L R I I I I I a 6 : u j L Y Y Y Y I I i : * : * : : 5 5 5 5 6 5 5 ; ; ; ; 5 5 5 & ; & ; ; ; ; ; V H J d.( ( d.j.s.j.s.s.j.s.s.s.s.s.s.s.s.s.s.j.s.s.s.s.a.( a.J _ ( G D C D _ , b S G G H D H ( ( ( a.a.a.H a.a.a.a.a.a.a.a.a.K a.a.( ( ( H H G 9 < V.` 8 9 B C D H H ( ( K J J J J K ( J J H H H H H H H G G H H H H H H H G ",
"v v B B c c B B B B B B B B b O : >X#X#X@XoXoXi.7 B B B B B B B C C C C C C C C C C C C C B P $XoXt.*.O.O.@.<.Y v B B B v c v B 3 , 8 v v B B B C B C D D D F D G F F G G D D F F F G G G G G G G G H G G G G G G D S G G G H H ( ( J ( ( ( G 8 = = = = = = ; ; 5 5 7 7 7 7 7 7 0 7 7 7 7 7 6 7 7 6 6 7 a L E E W W Y R I p 6 u s I Y L L L L L L R R R R R I Y Y Y Y Y Y Y Y Y Y Y T W W W W W W W W W W W W T T T U Y T T T T T T U U T T T T Y T E E W E E E E E W T W W W W T T T T T Y Y Y Y E E Y Y Y Y I I I Y Y Y Y T T T T T T T T T Y Y Y Y Y Y E Y I I I I I I I I I I Y Y Y T T T T T T T Y Y I I I Y Y Y Y Y Y Y Y Y Y Y Y Y Y Y Y Y Y Y Y I I I L R L L L R R R R R R R R R R R R I I R R R I Y T W W T T Y I I j L L R R I R R R a 6 : u L L Y Y Y Y Y Y p * % * $ $ & @ @ @ @ ; ; & & @ @ @ @ @ @ @ @ @ @ & X X ; V ( d.j.a.( s.j.j.s.j.s.s.j.s.s.s.j.s.j.j.s.s.d.s.s.j.s.s.K a.( ( H ( D B S ^ , b Z G G ( H ( H H ( ( a.( a.a.a.a.a.a.a.a.a.a.a.a.( J ( a.( H 9.H.y.i.u.u.u.H.w.V D H J H K K ( J J J ( J J J H H H H H H H G H H H H H H H G ",
"v v v v N v B B v B B B B B b 6 k +X@X@X@XoXi.y.7 B B B B B B C C C C C C C C C C C C C C B L $XoXr.@.o.o.+.$.l 3 B B B B B v v 3 + 2 v C B B C S S D D D D D D D G F F G D D G G G G G G G G G G H G D D G G G G D G G ( H H H H ( J ( ( ( D 0 = = = = = X ; ; ; 5 5 5 5 5 5 5 5 5 5 ; ; ; ; * ; * * : i L E E E E Y I j p u u s R Y R R I R R I R R R R R I Y Y Y Y Y Y Y Y Y Y Y T T T T T T T T T T T T T T T T T T T T T T T T T T T Y Y Y Y T W W W W W T W W W W W W W W W W W T T T Y Y T Y Y Y Y Y Y Y I Y Y Y Y Y Y Y T T T T T T T T Y T Y Y Y Y Y Y Y Y Y Y Y Y Y I I Y Y Y Y Y Y Y Y Y Y I I I I I R R Y Y R R I I I I Y Y Y Y Y Y Y Y I I I I I R R R I I R R R R R R R I I I I I I I R R R Y Y E E W E W E I I I L I I R R R I I p 6 : i L I I I I I I Y u * $ % $ $ X . X . X X X X X X X X X X X X X   X X . X ; S a.j.j.s.d.a.d.j.j.j.s.s.s.s.s.s.s.j.j.s.s.s.s.s.s.s.s.s.K a.( ( ( H G D N D , 8 S ^ ( ( ( ( ( H ( a.( ( a.J a.a.a.a.a.J a.a.a.a.( ( ( K ( H w.y.t.t.XX@X@X+XJ.z P ^ H K ( J J H J H J J J H H H H H H H H H H H H H H H H G ",
"B c c c N B B B B v B B B B v ! y.t.t.t.t.r.y.y.6 B B v v B C B C C C C C C C C C C C C C B L $Xt.*.@.o.o.o.#.l 8 B B B B B v b 3 + 3 v B B B B C S S D F G D D G G F F F F F F F G G G G D G G H H H G G G G G G D D G H H J ( H J ( a.K ( G f = = = @ X X X @ @ @ @ @ @ @ @ @ @ @ @ X X X X X X X X & 7 L I E R R R L m p 6 7 s R R Y Y Y Y Y Y Y Y Y Y Y Y I Y Y Y Y T T T Y Y Y Y T Y Y Y Y Y Y Y Y Y Y Y T T T T T T T T T T T T Y Y Y Y Y Y Y W W W W W T W W W W W W W W W W W W W T Y Y T T Y Y Y Y Y Y Y Y Y Y Y Y Y Y T T T I U U I U Y T T T T T T Y Y Y Y Y Y I Y I I I I L L L L L I L L L L L I R R R R R R I I I z I I Y Y Y Y Y I I I I I I R R R Y Y I I Y Y Y I I I I Y I I I Y Y Y Y Y I Y Y E T E W E Y Y Y I I I I I I I L i 6 : i j I I I I I I I u & $ $ . . . . . . .   . . . . . .             o   X = 9 G a.s.a.s.s.s.d.j.s.s.s.s.s.s.s.s.s.j.s.s.s.s.s.s.s.s.s.a.K a.a.( H H ( G S G , 8 G ( H ( G H ( ( _ _ J J ( H a.a.K K ( ( a.( ( a.a.( K K J ( ! q.7.7.{.XXXXOXi.y.y.w.Z J J J J H H J J J J H H H H H H H H H H H H H H G G G ",
"B c c B N N B B B N N B B B b ! e.0.*.*.*.r.r.r.5 B B B B B B B B B C C C C C C C C C C C B P $Xu.6.+.o.o.o.+.>.Q B B B v 4 3 9 2 , 3 v B B B B C S S D G F F F D A D D F G G G G G G G G G G G H G H G G G H H G G G G H ( J K J ( ( ( ( ( H V @ X X       X     O               o                 X ; a L P E R R R L s u 6 6 s L R Y Y Y Y Y Y Y Y Y Y Y Y I Y Y Y Y T T Y Y Y Y Y Y Y Y Y Y Y Y Y Y Y Y Y T T T T T T T T T T T T Y Y Y Y Y Y T W W W W W T W W W W W W W W W W W W W T Y T T T Y Y Y Y Y Y Y Y Y Y Y Y Y Y Y Y I I I I I I Y T T T T T T Y Y Y Y Y Y I Y I I I I L L L L L I I L L L L L L L L L L L L L I z I I Y Y Y Y Y I I I I I I R R R Y Y I Y Y Y Y I I I I Y Y I I Y Y Y Y I I Y Y Y Y E E Y Y Y I I I I I I I I L i 6 : i j I I I I I I I u $ . . . . . .                                   O @ 2 S _ d.d.d.a.a.a.s.s.a.d.s.s.s.a.s.a.s.s.s.s.s.s.s.s.s.a.a.a.( a.G D G G ^ G G ^ , 3 Z G G H G H ^ H H ( ( ( ( K ( K K K ( a.a.a.a.a.( H K ( ( ( Z r <.6.6.7.t.t.u.y.y.y.w.( ( ( J H H J J H H H H H H H H H H H H H H H H H H H ",
"B B c B v B B B B c B v B B v k e.0.*.&.%.%.%.e.7 v B B B B C C C C C C B C C B C C C C C B P i.y.6.+.o.o.o.o.#.Q v v v c 4 v B 2 , 3 4 v B C C C B B D D D D D D D G G G G G G H G G G G H G G G G G G G G G G G H H H H J J J K ( ( ( ( ( J Z 2 X X                                               . & a L I I R R R L s u 6 6 s L R Y Y Y Y Y Y Y Y Y Y Y Y Y Y Y Y Y T Y Y Y Y Y Y Y T Y Y Y Y Y Y Y Y Y Y T T T T T T W W W W W W W T Y T T Y T W W W W W W W W W W W W W W W W W W W T Y Y Y T T T T T Y Y Y Y Y Y Y Y Y Y Y Y Y Y Y Y Y Y Y U T T T T T Y Y Y Y Y Y I Y I I I I L L L L L L I I I L L L I I I L L L L L I z z I I Y Y Y Y I I I I I I I R R Y Y Y Y Y Y Y Y Y Y Y Y Y I I Y Y Y Y Y Y I I Y Y Y Y Y Y I I I I I I I I L L i 6 : u j I I I I I I I u $ . . . . .                                   O O 2 C ^ a.d.s.j.s.s.s.a.a.a.s.s.s.s.a.a.a.a.s.s.a.s.a.s.a.a.s.a.s.a.( ( ^ G G G G G ) 2 v B G G H ( H G G H ( ( K a.a.a.a.a.K a.a.( a.a.( a.J ( J J a.( ^ l >.%.*.*.6.r.r.r.r.r.! H H H H J J J J H H G H H H H H H H H H H H H H H H ",
"v c v v N v c c v B N B B v v k %.%.*.@.@.@.%.#.5 B B B B B B B B B C C C C C B C C C C C C P y.y.$.@.o.o.+.+.%.>.9 v v B B B B 3 , 9 v B B C C C B B C D D D D C D G G G G G G G G G G G G G G G G G G G G G G G H G H J H J J J ( J ( ( ( J C 2 5 ; X                                               & i L I I R R R L s u 6 6 s L R W Y Y Y Y Y Y Y Y Y Y Y Y Y Y Y Y T T Y Y Y Y Y Y T Y Y Y Y Y Y Y Y Y Y T Y Y Y Y T W W W W W W W W W W T T W W W W W W W W W W W W W W W W T T W W T Y Y T Y T T Y Y Y Y Y Y Y Y Y Y Y Y Y Y Y Y Y Y Y Y Y U T T T T T Y Y Y Y Y Y I Y I I I I L L L L L L I I I L L L L L L L L L L L j z z I I Y Y I I I I I I I I I R R Y Y Y Y Y Y Y Y Y Y Y Y Y I Y Y Y Y Y Y Y I I I Y Y Y I I I I I j I I I I I L i 6 * u j I I I I I I I 6 # . . . .                                     @ 5 V H a.a.s.a.s.s.a.s.s.s.a.s.a.s.s.s.a.a.a.a.s.s.a.s.s.a.a.a.a.s.( ( G S G H H G B ) , 8 Z G G ( H ( G D H ( ( ( ( K H ( a.a.a.a.a.a.( ( ( ( ( ( ( ( ( H Z j +.+.$.%.r.r.r.r.r.! H H H J J J J H H H G H H H H H H H H H H H H H H H ",
"c v v B v N N N N N N B B B b k %.%.%.@.@.@.+.#.5 B B B B B B B B B C C C C C C C C C C C C 9 - q.%.@.@.@.%.6.y.y.8 v B B B B B 3 + 2 v C B C C C C C C D D D D D D G G G G G G G G G G G G G G G H G G G G H G G G H H H H H J J K ( ( ( ( ( H C V P 7 ; X                                           X 7 L P E R R R L s u 6 6 s L R W Y Y Y Y Y Y Y Y Y Y Y Y Y Y Y Y T T Y Y Y Y Y Y T T Y Y T T Y Y Y Y Y Y Y Y Y Y Y T T T T T T T W W T T W W W W W W W W W W W W T T T W W Y Y W W T Y Y Y Y Y Y Y Y Y Y Y Y Y Y Y Y Y Y Y Y Y Y Y Y Y Y Y U T T T T T Y Y Y Y Y Y I Y I I I I L L L I I L L I I L L L L L L L L L L L j j z I I Y Y Y I I I I I z z I I R Y Y Y Y Y Y Y Y Y Y Y Y Y I Y Y Y Y Y Y Y I I I I I Y I I I I I I I R I I I L i 6 : i L I I I I I I I 6 # . . . . .                                 O 8 Z H a.j.a.a.s.s.a.a.a.s.a.s.a._ a.s.s.a.s.a.a.a.a.a.a.s.a.a.a.a.a.( D G G G H H H C ( 2 8 Z G H H H ( H G H ( ( J H K ( ( ( ( ( ( a.( a.( ( K K ( J ( ( ( H V r g g +.#.q.r.6.r.E G H J J H H J H H H H H H H H H H H H H H H H H H H ",
"c v v v N N N N N c c B B B b k q.%.%.@.O.@.@.l 5 B C C B B B B B B C C C C C C C C C C C C b h q.%.*.&.6.t.i.>XP.Q v B B v v v 3 2 v B C C C C A C C C A A D D G G G G G G G G G G G G G G H H G G H H H H H G G G H H H J K J H J ( ( H ( ( ( H ^ ^ V 5 O o o                                     . X 6 h L I R R R L s u 6 6 a L R Y Y Y T T T Y Y Y Y Y Y Y Y Y Y Y T T Y Y Y Y Y T T T Y Y T T Y Y Y Y Y Y Y Y Y Y Y Y Y Y Y Y Y T W W W W W W W W W W W W W W W W Y T Y T T Y Y W T T Y Y Y Y Y Y Y Y Y Y Y Y Y Y Y Y Y Y Y Y Y Y Y Y Y Y Y T T T T T T Y Y Y Y Y Y Y Y I I I I L L L L I L L L L L L L L L L L L L L j j z z I I Y Y Y Y I I I I z z I I I R Y I I Y Y Y Y Y I I I I I I I I I I I I I I I I I I I I I I I I I R I I I L i 6 : i L I R R R R R R u # . . . . . . .                       o o O 8 S H s.s.s.a.s.s.s.a.a.a.a.s.a.a.a.a.s.s.s.s.s.a.a.a.a.a.a.a.a.a.a.a.D G G G G H G G B _ 2 b S G H H H H ( H ( ( ( ( ( ^ ) ( a.a.a.( ( a.a.( ( ( J J J ( ( ( J D 0 g g o.g l o.$.<.>.^ H J K K J H J H H H H H H H H H H H H H H H H H H ",
"v v B B N v N N N B B B B B b k q.%.%.O.O.@.+.;.5 B C C B B B B B B C C C C C C C B C C C C S A.P.i.OXOX+X+X,X>X>XP.Q B B B v v 3 3 v v C C C C D C C A C C D D G G G D G G G G G G G G G G G H H H G G G H H H H H H H J J J J H J J ( ( ( ( ( ( H G S v 3 o @ O                       X X X .     . & 7 h L R R L R L s u 6 6 p L I R Y Y Y Y Y Y Y Y Y Y Y Y Y Y Y Y Y Y Y Y Y T T T Y Y Y Y T Y Y Y Y Y Y T Y Y Y Y Y Y Y Y Y Y W W W W W W W W W W W W W W W W W W Y Y Y Y Y Y Y Y Y Y Y Y Y Y Y Y Y Y T Y Y Y Y Y Y Y Y Y U Y U T U U T T T T T T T T T Y Y Y Y Y I I I I z j L L L L L L L L L L L L L L L L L L L L L j j z I I Y Y Y Y I I I I I I I I I I I I I Y Y Y Y Y I z z z z z z z z z z z I I I I I I I I I I I I I I R I I L i 6 * i L R I I I I I I u $ . . . . . . . . .   . .           X @ + 9 G a.s.s.s.a.a.s.s.a.a._ a.a.a.s.a.a.a.a.s.s.a.s.s.a.a.a.a.a.s.a.a.a.a.H G G G H H G D D ( 2 C G G H H H ( H ( ( ( G Z Z h w.0 H ( ( K ( ( a.( ( ( ( ( ( J ( ( ( H V t g g t r t o.#.q.w.D J H H J H J H H H H H H H H H G H H H H H H H H ",
"N v B v v v B B B B v B B B v k q.%.@.O.O.O.+.;.5 B B B B B B B B B C C C C C C B B B C C C B 5 y.>X-X-X-X-X-X>X>XP.' B B B v B 3 2 v v C C C C C C C D C A D D D D G G G G G G G G G G G G G H H G G G G H H H H H H H H J J J H H J H ( ( ( ( ( K ( H H D v 3 @ O O O @ O @ @ @ @ @ @ & * & & X . X & 7 h L R R R R L s u 6 6 p L I R Y Y Y Y Y Y Y Y Y T Y Y Y Y Y Y Y Y Y Y T T Y Y T T Y Y Y W W W W W W T Y Y Y Y Y I Y Y Y T W W W W W W W W W W W W W T T T T T Y Y Y Y Y Y Y Y Y Y Y Y Y Y Y Y Y Y T Y Y Y Y Y T T Y T T T T T T T T T T T T T T T T Y T Y Y Y I I I I j j j L L L L L L L L L L L L L L L L L L L L j j z I I I I I I I I I I I I I I I I I I I Y Y Y Y Y I I I I z z z z z z z z I I I I I I I I I I I I R R I I L L i : : u L R I I I I I I u $ . . . . # # # X X X X X . .       @ 2 v H a.j.s.j.s.s.a.a.s.a.a.a.s.a.a.a.a.a.a.a.a.s.a.a.s.a.a.a.a.s.a.a.a.a.a.( ^ ^ H H G G S D ^ 2 b G ( ( H H ( H G S ' >.<.>.<.q.#.Y H K ( ( K ( ( ( ( ( ( J ( ( J J H S k g t r r t o.$.q.y.B H H J J H J J H H H H H H H H G G H H H H H H H ",
"N v v v v v v v B v v B B v v k q.%.O.@.O.O.+.#.i v B B B B B B B B B C B B B C C B C C C C B 3 w.J.+X+X+X+X-X>X>XP.9.c B v v C 8 8 C v C C C C C C C C D D D D D D G G G G G G G G G G G G G G H G G G D G G H H G G H H H H J J J H H K K ( a.K ( ( ( ( ( G B 3 @ @ 5 5 5 5 5 5 5 5 5 6 6 6 ; X . X & 7 h L R R R R L s u 6 6 p L I R Y Y Y T Y Y T T Y Y Y Y Y Y Y Y Y Y Y Y Y Y Y Y T T Y Y Y W W W W W W T Y Y Y Y Y I Y Y Y T W W W W W W W T T T T T T Y T Y T Y Y Y Y Y Y Y Y Y Y Y Y Y Y Y Y Y Y Y T Y Y Y Y Y T T Y T T T T T T T T T T T T T T T T Y T T Y Y I Y I I j j L L L L L L L L L L L L L L L L L L j j L j j z I I I I Y Y I I I I I I I I I I I I I Y Y Y I Y I I I I I I I I I I I I I Y Y Y Y Y I I I I I I I R R I I L i : : i L R R Y R R R Y u $ . . . . # & & & & & $ X X X X   O 2 B ^ a.d.d.j.d.s.a.a.a.a._ a.a.a.a.a.a.a.a.a.( ( a.a.a.a.a.a.a.a.a.a.a.a.( ( G D H G G G G D G ) 2 v G G H G ( ( H S j r.r.r.6.6.%.%.#.P K ( ( ( ( ( ( K K J J J ( ( H H G P >.l g r t o.%.r.i.9 D H J J H J H H H H H H H H H H H H H H H H G G ",
"c v v B v v v v N v v B B v b z q.%.@.O.o.O.O.+.T P B B B C B B B B C B C B B C C B C C C C C 4 C.J.+XOXOXXX+X,X>XP.w.4 v v v B 8 8 C B C C A A C C C C A D D D D D G G G G G G G G G G G G G G G H G G G G G G H H H H H H H H H J J J K K K ( K ( J ( ( ( K G B 5 5 5 5 5 5 7 7 7 7 7 a 7 6 ; & X X & 7 L L R R R R L s u 6 6 p L I R Y Y Y T Y Y Y T Y Y Y Y Y Y Y Y Y Y Y Y Y Y Y Y Y Y Y T Y W W W W T W T Y Y Y Y Y I Y Y Y T W W T T T T T T T T T T T Y Y Y Y Y Y Y Y Y Y Y Y Y Y Y Y Y Y Y Y Y Y Y T Y Y Y Y Y T T Y T T T T T T T T T T T T T T T T Y Y Y Y I I I I I j j L L L L L L L L L L L L L L L L L j j j j j j z I I I I I Y Y I I I I I I I I I I I I I I Y Y Y I I I I I I I I I I I I I Y Y Y Y Y I I I I I I I R I L L L i : : i L I R Y Y Y Y Y u $ . . . . # & & & & & $ X X X X X 2 v H a.j.d.d.s.d.s.s.a.s.a.a.a.a.a.a.a.a.a.a.a.a.a.a.a.a.a.a.a.a.a.a.a.a.a._ a.H D D G G G G C C ) 2 V ^ G G H ( H G 7 q.r.7.7.7.6.6.%.%.w.G K ( ( ( ( K K K J ( H H ( J ( G b w.q.k g g +.6.r.i.; 9 G J J H H H H H H H H H H H H G H H H H G G G ",
"N c c v v v B B v v N B B v v z q.%.@.O.o.o.@.%.#.k v B B C B B B B B B C C B C B C C B B C C c X d OXu.t.t.OX-X>X>Xw.2 x x v B 8 8 v v B B C C C C C C D D D D D A D G G G G G G G G G G G G G H G G G G G H G G G H H H H H H H H J J J J J J J ( J ( ( ( ( J D 9 ; 5 5 5 5 5 5 7 7 7 i i 6 ; @ X X & i L L R R R L L s u 6 6 p L I R Y Y Y Y Y Y Y T T T Y Y Y Y Y Y Y I I I I I I Y Y Y Y T Y T T Y Y Y Y T Y T Y Y Y I Y Y Y T W W Y Y Y Y Y Y Y Y Y Y Y Y Y Y Y Y I I I I I I Y Y Y Y Y Y Y Y Y Y Y Y T T T T Y Y Y Y T T T T T T T T T T T T T T T T T Y Y Y Y Y I Y I I j j L L L L L L L L L L L L L j j j j j s j j j j z z I I I I I I I Y Y Y Y I I I I I I I Y Y Y Y Y Y Y Y Y Y Y I I I I I I I I I I I I I z I Y Y Y I R I I I L p 6 : i j I I I Y Y Y Y u $ . . . . $ # $ & $ $ X . . . . X 3 S _ s.d.j.d.j.d.d.a.s.a.a.a.a.a.a.a.a.s.a.a.a.a.a.a.a.K a.a.a.a.a.a.K K a._ J H ( ( H G G D A G ) 2 Z G G H ( H H ^ h +.@.&.6.6.<.<.#.>.w.V K K ( ( ( ( J ( ( ( ( H ( ( J H B >.#.k k l >.6.r.i.P.3.v G H H J H H H H H H H G H G H H H H H G G G ",
"N c v v c v B B v v N c N B b k q.%.@.O.o.O.O.%.%.>.v B v B B B B B B B C B C C B B C C C C C v h $.u.t.t.t.XX+X>X>Xe.h v v v B 3 2 B B C C C C C C C C D D D D D D G G G G G G G G G G G G G G G G G G H H H H H H G H H H H H H H J ( J ( ( ( H G J ( ( ( a.( H C 5 5 ; ; 5 5 5 5 6 6 6 : ; & X . X & i L L I R R R L s u 6 7 p L I R Y Y Y Y Y Y Y Y T T Y Y Y Y Y Y Y I I I I I I Y Y Y Y Y Y T T Y Y Y Y Y Y Y Y Y Y I Y Y Y Y T Y Y Y Y Y Y Y Y Y Y Y Y Y Y Y Y Y I I I I I I I Y Y Y Y Y Y Y Y Y Y Y Y Y T T T Y Y Y Y Y T T T T T T Y Y Y T T T T T Y Y Y Y Y I I I I I j j j L L L L L L L L L L L j j j j j j s s j j j I z I I I I I I I Y Y Y I I I I I I I I Y Y Y Y Y Y Y Y Y Y Y Y Y I I Y Y I I I I I I z z I Y Y Y I I I I I I s 6 : i I I Y Y T T Y Y p $ . . . . . . X X X X . . . . . . 8 G a.d.d.s.s.a.j.s.s.a.a.a.a.a.a.a.( a.a.a.a.a.a.a.a.a.a.a.a.a.K a.a.K a.( K ( H H H H G ^ ^ D G ^ , Z G G ( G H G Z i g t o.o.@.+.l l #.>.i H K K ( ( ( J ( ( J J ( ( J ( H C l k k k l >.4.r.i.>Xy.T Q P ^ ^ H G H H G G G G H H G G G H G G G F ",
"N c c c v c B B v v B B B B v T r.r.*.O.o.O.O.*.r.q.5 v c c B B B B B B B B C B B C C C C C C v w.i.t.7.7.7.u.+X$X$XP.P.3 2 3 v 3 8 B B C C C C C C C C D D D D D D G G G G G G G G G G G G G G G H G G G G G G H H H H H H H H H H H H ( ( ( ( ( ( J J J ( a.( H D f 5 = = = @ @ & & X X X X X X   . & 7 h L R R E R L L p 6 u p L I Y Y Y Y Y Y Y Y Y T T Y Y Y Y Y Y Y Y Y Y Y Y Y Y Y Y Y Y T T Y Y Y Y Y Y Y Y Y Y Y Y Y Y Y Y Y Y Y Y Y Y Y I I I I I I Y Y Y Y Y Y I I I I I I Y Y l l l l Y Y Y Y Y Y Y Y Y Y Y Y Y T Y Y Y Y Y Y Y Y I I Y Y Y Y Y Y Y Y Y Y I I I I I I I j z z z z z z z z z z z j j j j j j s s j j L L L I I I I I I I Y Y Y Y Y Y I I I I I I Y Y Y Y Y Y Y Y Y Y Y I I I I I Y I Y Y Y I I I I Y Y Y I I I I I I j 6 * i I I Y T T T T Y u # . . . . . . .     . . . . . . X V ( j.d.j.j.j.s.s.s.s.a.H J G ( _ a.a.a.a.a.a.a.a.a.a.a.a.K a.a.a.K a.a.( a.K ( ( H G H S D B B B ^ , Z ^ ^ ( H H H G b j g t t t t l g k l l P K K K K K K J J J J J J J ( H v k k k k k #.<.r.u.#X,X1X>X>Xi.y.! S G H G H G H H G G G G H H G G G ",
"c c c c v c v B v v v N B v 9 #.r.r.6.O.O.O.@.0.i.>Xy.V B v v B B B B B B B C C B C C C B C C v w.i.u.t.&.&.7.OX,X$X>XP.8 v v v 3 2 v B B C C C C C C C D D D D D D G G G G G G G G D D G G G G G H G G G G G G G G G H H H H G H H H H K J ( ( ( J J J J J ( ( ( H Z f = o       . .     .         . & 7 j P R R E R L L p 6 u p L I Y Y Y Y Y Y Y Y Y Y Y Y Y Y Y Y Y Y Y Y Y Y Y Y Y Y Y Y Y T T Y Y Y Y Y Y Y Y Y Y Y Y Y Y Y Y Y Y Y Y Y Y Y I I I I I I Y Y Y Y Y Y I I I I I I Y Y Y Y Y Y Y Y Y Y Y Y Y Y Y Y Y Y Y T T Y Y Y Y Y Y Y I I Y Y Y Y Y Y Y Y Y Y I I I I I I I j z z z z z z z z z z z j j j j j j s s j j L L L I I I I I I I Y Y Y Y Y Y I I I I Y I Y Y Y Y Y Y Y Y Y Y I I I I I I I I I I I I z I I Y Y Y I I I I I I j 6 * i I I I T T T I Y u # . . . . . .       . . . . . . @ S a.s.d.j.j.s.j.s.s.s.a.( _ G H ( a.( a.a.a.( a.a.a.a.a.K a.a.a.a.a.a.a.( ( ( ( ( ( G G G G Z C Z ) , v G H H ( H H H G 9 i r r r r r r r t l h H K K K K K H J J J J J J H G f k k k k k #.<.6.r.t.$X,X>X>X>X$Xi.y.w.^ G G G G H G G G H G G G G G ",
"N B B B B c c c c c B B B c j q.i.u.t.6.@.&.&.t.+X>Xi.Y V B v c B B C B B B B C C C B B B B C v ! q.OX7.&.&.7.u.#X$X>X>X5 4 v v 3 9 Z B B C C C C C A C D D D D D D F G G G G G G G G G G G G G G G H G G H G G G G H H H H G G G H H H K K J J J ( ( ( H J ( H J H G V =                           . & 6 j L R R R R L L p 6 u p L I Y Y Y Y Y Y Y Y Y Y Y Y Y Y Y Y I Y Y Y Y Y Y Y Y Y Y Y Y T T Y Y Y Y Y Y Y Y Y Y Y Y Y Y Y Y Y Y Y Y Y Y Y I I I I I I Y Y Y Y Y Y I I I I I I Y Y Y Y Y Y Y Y Y Y Y Y Y Y Y Y Y Y Y Y T Y Y Y Y Y Y Y I I Y Y Y Y Y Y Y Y Y Y I I I I I I I z z z z z z j j z j j j j j j j j j s s j j j j j I I I I I I I Y Y Y Y Y Y Y Y Y Y Y Y Y Y Y Y Y Y I I I I I I I I I I I I z I I I I I I Y Y Y I I I I I I j 6 * i I I I T T T Y Y u # . . . . . .       . . . . . . 6 ^ s.s.s.s.s.s.s.s.s.s.a._ ( G G ( a.( a.a.a.a.a.( ( a.a.a.a.( _ ( a.( a.a.K ( ( ( ( D D G D v C C ^ , G G ( H G ( H H H D 5 - r r r r r r r h h G K K K ( K J J J J H H H H S h t k k k g +.%.%.*.0.t.+X,X$X+X+X+X+Xi.q.Y Q Q Q Q G G H G G G G G G ",
"c B c c c c c B v v B B v 9 P.>X,X-XOXu.t.7.7.t.t.u.y.y.Q B v B B B B B B B B C B C B B B B C B 5 d OXt.7.&.&.t.oX%X>X>X; 2 v v 3 8 Z B B B C C C C C A D D D D D D F G G G F G G G G G G G G G G G G D G G G G G G H H H H H G H G H H K K J J J ( ( ( J J H H J J H S 9 +   .                     . & 6 j L R R R R L L p 6 u p L I Y Y Y Y Y Y Y Y Y Y Y Y Y Y Y Y I Y Y Y Y Y Y Y Y Y Y Y Y T T Y Y Y Y Y Y Y Y Y Y Y Y Y Y Y Y Y Y Y Y Y Y Y I I I I I I Y Y Y I Y Y I I I I I I I I I I I Y Y Y Y Y Y Y Y Y Y Y Y Y Y Y T Y Y Y Y Y Y Y I I Y Y Y Y Y Y Y Y Y Y I I I I I I I j z z z z z j j j j j j j j j j j j s s j j j j L I I I I I I I Y Y Y Y Y Y Y Y Y Y Y Y Y Y Y Y Y Y I I I I I I I I I I I z z z z I I I I Y Y Y Y I I I I I j 6 * i I I Y T T T Y Y u # . . . . . .       . . . . . & P _ j.s.s.s.s.s.s.s.s.a.a._ _ H H ( ( ( a.a.a.a.a.a.( a.a.( a.a.( a.p.a.a.( K ( ( ( ( H G G Z v B S ^ , Z ^ ( H G H H H H G , X r r r r r r i i a G K K J ( J J J H J H H H H Z h r r h i g +.%.*.*.*.r.u.+X+X+XoXoXoXoXi.i.i.i.i.y.Q G G G G G G F F ",
"v B N B c c c v N v B B 4 5 i.,X2X<X+XOX+XXXt.u.t.t.u.y.! c c c B B B B B B B B B C C B B C C B 9 d t.t.7.&.&.*.t.oX+X>Xq.f 4 9 2 3 B B B B C A D C A D D D D D D D G G G G G G F F G G G G G G G G D C D D G G D G H H G G G G H H G G K K ( ( J J ( ( J J H J J ( J H Z 8 X X O X O               . & 6 j L R R R R L L p 6 u p L I Y Y Y Y Y Y I I I I I I Y Y Y I I Y Y Y Y Y Y Y Y Y Y Y Y T W Y Y Y Y Y Y Y Y Y Y Y Y Y Y Y Y Y Y Y Y Y Y Y I I I I I I Y I I I I Y I I I I I I Y Y Y Y Y Y Y Y Y Y Y Y T T T Y Y Y Y Y Y T T Y Y Y Y Y I I Y Y Y Y Y Y Y Y Y Y Y Y I I I I z j z z z z z j s s s s s s s j j j j s s j j j j j z I I I I I I Y Y Y Y Y Y Y I Y Y Y Y Y Y Y Y Y Y I Y I I I I z z z I z z z z z z I I I Y Y Y Y Y Y Y Y Y j : * i I I Y T U U Y Y u # . . . . . . . .     . . . . ; ) a.j.d.j.d.s.s.s.s.a.a._ a._ G H H ( ( ( a.a.a.a._ ( a.a.K K a.a.a.a.a.p.K ( ( ( ( ( G G D 4 B B S S > C G H H G H H H ( H 3 @ r - r r r r r r 7 A K ( J ( J H J H H J H G G V h r r i r g +.$.%.*.6.t.y.y.r.y.t.t.t.y.y.i.y.y.y.e.z C G G G G H G G ",
"B v B v c c c v v v B v V >.+X,X1X,X@XOX+XXXt.XXt.t.u.y.>.3 c c B B C C B B B B B B B B B C C C v j t.t.7.7.&.t.u.oX$X,Xi.P 4 4 , 2 B C C C C D D D D D D G D G G D D G G G G G G G G G G G G D G G D D D D H G G G H H H G G G H H G H J H ( ( ( J J H H G D G H J J H S B = O @ O O . . . . .     . & i j I R R R R L L u 6 6 p L I Y Y Y Y Y Y I I I I I I Y Y I I I I I I I I I I Y Y Y Y Y Y Y Y Y Y Y Y Y Y Y Y Y Y Y Y Y Y Y Y I I I I I I I I I I I I I I I I I I I I I I I I Y Y Y Y Y Y Y Y Y Y Y Y Y Y Y Y Y Y Y Y Y Y Y Y Y Y Y Y I I Y Y Y Y Y I Y I I I Y Y Y Y I I z j j j j j j j s s s s s s j j j j j j j j L L L I I I I I I I I I I Y Y I Y I I Y Y Y Y Y Y Y Y Y Y Y Y Y Y I z z z z I I z I I I I I I Y Y Y Y Y Y Y Y Y Y j 6 * i I I Y T U U Y Y u # . . . . . . .       X . . X 6 ) d.j.s.s.s.s.s.a.s.a.a.a._ ( ( H J ( ( a.a.a.a.a.( ( K K H J K K K a.p.K K ( ( H ( ( G G Z v v v c G > Z ( H H H H H ( K ( Z 5 r r r r r r r r i Z J ( ( J J J H J H H H H G f - r r r r k +.$.%.%.6.u.r.r.%.%.<.%.q.r.r.y.r.e.e.e.k P D G G G H G G ",
"c c B B B B B c B v c 3 w.>X+X#X#XOXXXXX+Xt.7.7.t.t.t.t.<.@ c B B B B B B B B B B B B B C C C C B h i.t.XXOXt.u.+X,X,X>X>XP 4 v , 2 B B C C C C A D D D D D D G G G D D G G G G G G G G G G G G G G G D D G G G G G H H G G G G G H G G J H H ( J H G Z 9 2 2 9 G J J H G Z 8 @ X @ @ X . . .       X & i L P E R R R R m u * 6 p L I R Y Y Y Y Y Y Y Y Y Y Y I I I I z z I I I I I I Y Y Y Y Y Y Y Y Y Y Y Y Y Y Y Y Y Y Y Y Y Y Y I I I I I I I I I I I I I I I I I I I I I I I I I Y Y Y Y Y Y Y Y Y Y Y Y Y Y Y Y Y Y Y Y Y Y Y Y Y Y Y Y Y I I I I I I I I I I I I Y Y Y Y Y I z z z z z z z z j j j j j L j j j L L L L L I I Y Y I I I I I Y I Y Y Y Y Y Y Y Y Y Y Y Y Y Y Y Y Y I I Y Y I z z I I I Y I I I I I Y Y Y T Y Y Y Y Y Y Y Y j r : i I I I U I I Y Y p $ . . . . . .         . X X * * ) a.s.s.s.a.s.a.s.s.a.a.( a.( H ( ( _ a.a.a.( a.( a.( ( K K K a.p.a.a.( K a.( a.J J H ( B C 9 3 v B v + Z G H H H H ( ( K K G 8 r r r r r r r r h P G ( H H J J H H H H H H G B - r r r r k +.$.$.$.<.y.r.q.#.k l l #.%.%.<.%.%.%.e.q.! 9 S G G G G G ",
"c B B c c B B c c c v w.J.,XOXOXXXt.t.t.t.7.7.7.t.t.u.u.y.w.B c B B B B B B C C B B B B B B B C B L y.oX+X+X+XoX+X,X1X,X>XY 3 4 , 3 B B C C C C C D D D D D D D D G G D D G G G D D D G G G G G G D D D G G G G D G H H G G G H G H G G H H ( ( H ' A.P.P.P.P.7 C H J H G G v @ @ < < O X . . .     X & i L P E R R R R m u * 6 p L I R Y I Y Y Y Y Y Y Y Y Y I I I I z z I I I I I I Y Y Y Y Y Y Y Y Y Y Y Y Y Y Y Y Y Y Y Y Y Y Y I R I I I I I I I I I I I I I I I I I I I I I I I I Y Y z z I Y Y Y Y Y Y Y Y Y Y Y Y Y Y Y Y Y Y Y Y Y Y Y I I I I I I I I I I I I Y Y Y Y Y I z z z z z z z z j j j j j L j j j L L L L L I I Y Y Y I I I I I I Y Y Y Y Y Y Y Y Y Y Y Y Y Y Y Y Y Y Y Y Y I I I I Y Y Y Y Y Y Y T Y Y Y Y Y Y Y Y Y Y Y Y j : * i I Y I I I I I Y p $ . . . . . . . X X X X X X 6 < ) d.a.a.a.s.s.s.s.a.a.a.a.d.G H _ ( ( ( a.a.a.a._ ( ( K a.p.K a.a.( a.a.a.a.a.a.J ( H H G V 9 9 2 Z ^ > v G G G H H ( ( ( K H 0 g r r r r r r r h P S J H K K H H H H H H H H v - - r r r g +.$.$.$.%.r.y.B Z Z Z S B k #.#.#.%.#.#.#.q.w.S D G H G G ",
"c v c c v v B c c B z y.+X+XXXXXt.7.7.t.t.7.7.*.7.t.u.u.i.y.z v v B B B B B C C B B C C C C C C C V w.+X+X+X+X+X,X,X<X<X>XE + 3 , , v B C B B C D D F G D D D G G G G G G G G G G G G G G G G D D G G D C B B B C G G H H H H G H H G G H H K H ^ w.i.i.>X>XP.7 C H H J H G B 5 < < < & & $ X .   . X & i L P E R R R R m u * 6 p L R I Y I I I Y Y Y Y Y Y Y I I I z z z z z z z z I Y Y Y Y Y Y Y Y Y Y Y Y Y Y Y Y Y Y Y Y Y Y Y Y R I I I I I I I I I I I I I I I I I I I I I I I Y Y Y Y Y Y Y Y Y I I Y Y Y Y Y Y Y Y Y Y Y Y Y Y Y Y Y Y I I I I I I I I I I I I Y Y Y Y I I I z z z z z z z z z z z j L j j L L L L L L I R Y Y Y Y Y Y I I I I Y Y Y Y Y Y Y Y Y Y Y Y Y Y Y Y Y Y Y Y I I I Y Y Y Y Y Y Y Y Y Y Y Y Y Y Y Y Y Y Y Y Y j u * i I Y U U I Y Y Y p $ . . . . # O O @ @ @ X X & & < ) s.s.j.s.s.s.s.s.a.a.a.a.^ ( ( ( ( _ ( a.a.a._ J ( ( ( J J K a.a.( a.( ( K a.( H H H D C Z Z 8 2 > b > v D D G G H ( ( ( ( ( V k g t r r r r r i P Z ( ( K H H H H H H H H D 9 - r t t g g #.<.%.%.*.q.` A G G H H G S h g g +.o.o.o.#.q.P C G G D D ",
"c v c c c v v v c P r.y.u.t.t.7.7.7.7.7.7.7.7.*.0.t.t.u.u.y.y.P B B B B B B C C B C C C C B C C C C w.+X+X+X+X+X-X,X<X<X>X! 2 9 , 2 v B C C C C D D D F D D D D G G G G G G G G G G G G D G D D D G G C C D C C G H H H H H H H H H D C H H H H w.y.i.i.$X$X>Xi C J K H H G S 5 0 6 0 5 ; & & X . . X & i L P E R R R R m u * 6 p L R I Y I I Y Y Y Y Y Y Y Y I I z z z z z z z z z z I Y Y Y Y Y Y Y Y Y Y Y Y Y Y Y Y Y Y Y Y Y Y Y R I I I I I I I I I I I I I I I I I I I I I I I Y Y Y Y Y Y Y Y Y Y Y Y Y Y Y Y Y Y Y Y Y Y Y Y Y Y Y Y Y I I I I I I I I I I I I Y Y Y Y I I I I I I I I z z z z z z j L L L L L L L L L I R Y Y Y Y Y Y I I I I Y Y Y Y Y Y Y Y Y Y Y Y Y Y Y Y Y Y Y Y Y Y Y Y Y Y Y Y T T Y Y T Y T Y Y Y Y Y Y Y Y Y j u : p z I I I I Y Y Y p $ . . . X & & & < @ @ X & ; X 5 ) s.s.s.s.s.s.s.s.a.a.a._ ( _ _ ( H K ( ( a.( H K J H ( K K p.p.K ( ( ( ( K K ( H H G G G D v 2 2 3 S , C G G H H H K ( J ( ( Z w.k g r r r r t j z B H H K H H H H H H H G F B h r l l l +.<.6.6.6.r.! B A G G H H G F Z h g g o.o.o.+.#.i 4 G G G G ",
"c v c c c v B v 3 T r.r.6.6.6.&.&.&.*.7.7.7.7.r.0.t.t.t.u.u.y.! v v B B B B B B B B B B B C C B B B 8 r.i.+X+X+X-X,X,X1X1XP.Q 3 2 2 v v B C C C D D D D D G G D G D D G G G G G G G G G D D D D D D D D D F G D A G G G H G G G H G G G H H J G w.e.y.i.$X$X$Xi C H H H H G Z 0 0 n b 0 7 6 & $ . . X & i L I E R R R R s 7 * 6 p L I R Y Y Y I I I Y Y Y Y Y I I z z z z I I I z z I Y Y Y Y Y Y Y Y Y Y Y Y Y Y Y Y Y Y Y Y Y Y Y Y I I I I I I I I I I I I I I I I I I I I I I I R I I I I I I I I I I I I Y Y Y Y Y Y Y Y Y Y Y Y Y Y Y Y Y I I I I I I I I I I I I Y Y Y Y Y Y I I I I I I z z z z z z j L L L L L L L L L I I I I Y Y Y Y I I I I I I I I I I Y Y Y Y Y Y I I Y Y Y Y I I Y Y Y Y Y Y Y Y T Y Y Y Y Y T Y Y Y Y Y Y I I I j u : i j z I I I I I Y p & . . . X < < < 5 5 ; & & 5 X 5 ) s.j.a.a.s.s.s.s.s.a.a.J K ( ( G H ( ( a.( ( H ( ( ( ( K K K K K a.( ( ( K ( ( J H G G D Z v 9 4 4 S , C G ( H H G H K K a.( S w.>.l t r r d d z L b G H H J H H H H G H G G V h l +.+.#.<.6.u.u.u.y.~ B A G H H H H G G V g g g g +.+.#.i 3 D G G G ",
"c c B v N v v v h #.r.r.6.@.@.o.o.@.@.6.&.&.*.*.0.0.t.XXu.t.u.<.V B c c B B B B B B B B B C B B B B v w.y.i.+X+X-X,X,X1X1X>Xw.4 , , v B B C C D D D D D D G D G D D D G G G D G G D G G G D G D D D D D D C C C G G G G H G G H G H G G H H H S e.y.y.i.+X$X$Xi S H H H H H S P m m n a i 7 : & X . X * i L I I L L L L s 7 * 6 p L L R Y I I I I I I I I I I I I z z z I I I I I I I I I I I I I I I I I I I Y Y Y Y Y Y Y Y Y Y Y Y Y Y Y I I I I I I I I I I R R R R I R R R R R R L L I I I I R R R R R Y Y Y Y Y Y Y Y Y Y Y Y Y Y Y Y Y Y Y I I I I I I I I I I Y Y Y Y Y Y Y Y I I I I I I I I I I z j L L L L L j L L L I I I I R R R R I I R R R R I R I R R R I I I I I I I Y Y Y Y I Y Y Y Y T T T T T T T T Y Y Y Y Y Y Y Y I I I z s r * p j j I I I I I I u $ . . . X 6 6 5 5 5 ; & ; 5 X 5 ) a.a.s.a.s.a.a.s.s.a.( a.K ( G H H ( ( ( H ( ( ( ( J H ( ( K K K ( ( ( _ ( ( ( ( G D D G D S 3 4 v ^ , V G ( H H ( ( K p.( K S e.w.>.#.l d l ;.;.T h S H J H H H H H H H G G V z >.#.>.<.<.r.u.u.+Xi.` C D G H H G G H G S +.o.g g o.+.+.k V G F F G ",
"c c c v v c c 9 >.q.<.%.$.@.o.t t l #.<.%.&.&.7.*.t.t.XXt.t.u.y.3.v v B B B B B B B B B B B C B B C B Q y.i.+X+X#X,X<X1X1XqXw.3 , + v B C C C D D D D D G D D D D D D D G G D G G D D G G G G G G D D G D D F G G G G G G G G H H H H H H H G 7 y.y.y.y.i.$Xi.f D H H H H H D P L I I m s i 6 * $ . $ ; i L I L L L L j p 6 < 6 i L L I I I I I I z z I z I I I I I I I I Y Y I I Y Y L L L L L L L L L L L I Y Y Y Y Y I Y Y Y Y Y Y Y Y Y Y Y Y Y Y Y Y Y Y E R L L L L L L L L L L L L L L L R R R R R R R Y Y Y Y Y T T T Y T T Y Y Y Y Y Y Y Y Y Y Y Y Y Y Y Y Y Y T T Y Y Y Y Y Y Y Y Y Y Y Y Y I I z j j j L L L L L L I I R R R R R R R R R R R R R L L L L R L L L L L L j I Y Y Y Y Y Y Y Y Y Y Y T W W W W T Y Y Y Y T T Y I I I I z s u * u s j I I I I L L 6 $ . . X $ : 6 6 6 : ; ; ; ; @ 5 ) a.a.s.a.s.s.a.s.a.a.a.a._ ( ( ( ( ( ( ( ( ( ( ( ( H ( ( ( K K ( ( ( ( K K ( ( H H H G G D C 3 2 4 ^ , C G ( ( H ( J K K K J P y.e.q.<.>.+.+.;.>.>.>.Q H J H H H H H H G G G V z ;.>.<.:.6.6.u.u.i.i.' D G H H H H G H G V q.%.@.+.#.+.#.#.w.D F G F ",
"c B c c c c c 5 q.q.%.$.+.l j 6 & < 5 u #.$.*.7.7.t.t.u.t.XXOXi.y.8 B B B B B B B B B B B B C C C C C v k y.+X+X#X,X,X1X1XqXP.3 , , v B B C C A C C D D D D D D D D D D D G G G G G G D D G D D D D D G G D D D F G G G G G H H H G G H H G ) q.r.r.r.r.y.i.y.f G H H H H H D P R I I L L a 7 6 * . X ; i L I L L L L j p 7 < 6 i L L I I I I I I z z I z I I I I I I I I Y Y Y Y Y Y L L L L L L L L L L L I Y Y Y Y Y Y I Y Y Y Y Y Y Y Y Y Y Y Y Y Y Y Y Y E R L L L L L L L L L L L L L L R R R R R R R R Y Y Y Y Y Y Y Y Y Y Y Y Y Y Y Y Y Y Y Y Y Y Y Y Y Y Y Y T T T T T Y Y Y Y Y Y Y Y Y Y Y I I z j j j j j j L L L I I R R R R R R R R R R R R R R L L L L L L L L L L j R Y Y Y Y Y Y Y Y Y Y Y T T T T T T Y Y Y Y T T Y I I I I z s u * u s j I I I I I L u $ . X X & : 6 6 6 6 6 ; ; ; ; < ) a.a.s.s.a.a.s.s.a.a.a.a.( H ( ( ( ( ( ( ( ( ( ( ( ( ( ( K K K ( K ( ( ( ( J ( ( H H G G G Z 9 4 v B > Z G G H H J K K J K K P y.r.q.q.<.>.>.>.>.>.>.! H H H H H H H G G G G b T ;.>.<.$.<.6.r.u.i.P.) F G H H H H H G G q.y.r.%.#.#.+.$.>.w.D F F F ",
"v c c v B c 9 z q.%.#.#.l h 0 5 @ 8 v v 0 +.$.*.7.t.t.u.u.XXOX+Xi.T Z B B B B B B B B B C C C C C B C B f r.i.+X+X,X,X,X2XqX>X! 2 , v B C C C C C C D D D D D D D D D D D D D D D D G D D G G D D D G G G G D D F G G G G G G G H G G H H ^ w.y.r.r.0.r.r.t.y.V G H H H H H G P I I I L L h i 6 : X X ; i L I L L L L L a 7 6 6 i j L I I I I I I z z z I I I I I I I I I I I I Y Y Y L L L L L L L L L L L I Y Y Y Y Y Y Y Y Y Y Y Y Y Y Y Y Y Y Y Y Y Y Y Y R I R L L L L L L L L L L L L R R R R R R R R R E Y Y Y Y Y Y Y Y Y Y Y Y Y Y Y T T Y Y Y Y Y Y Y Y Y Y Y Y Y Y Y Y Y Y Y Y Y Y Y Y Y Y I I z j j j j j j j L I I I I R R R R R R R R R R R R R L L L L L L L L L L j R Y Y I I I Y Y Y Y Y Y Y Y Y Y T T Y Y Y Y Y Y Y I I I I I s u * u s j I I I I I L u & X X $ ; : 6 6 6 6 7 6 6 7 5 & ) a.a.s.a.a.s.s.a.a.a.a.a.( ( ( ( ( ( ( ( _ _ ( ( H H ( ( ( ( K _ K ( ( ( ( H H H G H H G D B v 3 3 b , C G G H H J J J J H H S y.e.q.q.<.>.>.>.>.>.>.! H H H H H H H H H G G V T ;.:.$.@.@.6.6.y.y.Q G G H H H H G G G Q i.u.r.<.$.#.#.$.#.w.D F F F ",
"v c c c c c P w.#.#.#.g g 7 b 5 @ 8 v B v z #.&.7.t.t.u.u.oXOX+Xi.i.w.v B B B B B B B B C B C C B B B B V y.t.+X#X,X,X,X2X2XqX>X5 , v B C C C C D D D D D D D D D D D G G G D D D D D D G D G D D D D D D D G G D F D D G H H H H H H H H 9.e.r.r.0.0.r.0.r.r.V H H H H H H Z Q I R Y I L h i 7 : X X ; i L I L L L L L s 7 6 6 i j L I I I I I I z z I I I I I I I I I I I I I Y Y Y L L L L L L L L L L L I Y Y Y Y Y Y Y Y Y Y Y Y Y Y Y Y Y Y Y Y Y Y Y Y E I R L L L L L L L L L L L L R R R R R R R R R E Y Y Y Y Y T Y Y Y Y Y Y Y Y Y Y T Y Y Y Y Y Y Y Y Y Y Y Y Y Y Y Y Y Y Y Y Y Y Y Y Y Y I I z j j j j j j j z z z I I R R R R R R R R R R R R R L L L L L L L L L L L R Y Y I I I Y Y Y Y Y Y Y Y Y Y Y T Y Y Y Y Y Y Y I I I I I s u * u s j I I I I I L u & . X ; : 6 6 6 7 7 7 f 7 7 7 ; ^ a.a.s.a.a.s.a.a.a.a.a.a.( ( ( ( a.( H a.a.( ( ( ( K ( ( ( K ( K K K ( ( K H ( H H H G G G Z b 9 8 9 > B G G H K J K J J H H S y.y.q.<.>.>.>.>.+.+.#.! H J H H H H H H H H G V l >.<.@.@.@.<.%.q.' G G G H H H H G H C ,.+Xi.y.r.q.<.$.$.>.w.D F F F ",
"v c c c c c P w.#.l l g r 0 B 5 + 8 v B B 9 : O.&.7.t.i.i.+X+X#X+Xi.y.4 B B B B B B B B C C B B B B C C C w.i.oX#X,X,X,X1X2XqXqXI @ v v B C C C C A C D D D D D D D D D G G D D D D D G G D D D D D D D D C C C D D D G G G G H H H H H G w.e.e.r.0.0.*.0.r.q.V H H H H H H S Q E E R L L s 7 6 ; X X ; i L I L L L L L a 7 6 6 i L L I I I I I I z z I z I I I I I I I I I I I Y Y Y L L L L L L L L L L L I Y Y Y Y Y Y Y Y Y Y Y Y Y Y Y Y Y I I Y Y Y Y Y I R L L L L L L L L L L L L L L L L R R R R R Y Y Y Y Y Y Y T Y T T Y Y Y Y Y Y Y Y Y Y Y Y Y Y Y Y Y Y Y Y Y Y Y Y Y Y Y Y Y Y Y Y Y Y I I z j j j j j j j z z z I I R R R R R R R R R R R R R L L L L L L L L L L L R Y Y I I I I I I I I I Y Y Y Y T T Y Y Y Y Y Y Y I I I I I s u * u s j z I I I L j i & X & ; 6 6 6 6 7 a h h 7 h f 5 ^ a.a.s.a.a.a.a.a.a.a.a.a.a.G H ( _ G H ( a.( ( ( ( ( ( ( ( K K K ( K ( ( ( ( ( H H G H G Z B v b 3 + o C G F G J H J J J H H S y.y.q.<.>.;.>.:.:.:.<.~ H J H H H G G H H H G V #.>.+.+.+.+.@.#.z A H G G H H H H H H B ;.i.t.r.<.%.#.$.$.>.w.D G F G ",
"c c c c B 4 j w.T k g t r 0 b 8 @ 8 v B B B 5 @.O.&.t.+X+X-X-X-X,X$Xi.Y v B B B B B B B B C B B C C C C B P r.+X%X,X,X%X<X2XqXqXi.h v B C C C A D D D D D D D D D D D D D D D G D D G G G D C C D D D D D C A A G G G G G G G G H H H H V q.e.0.0.*.*.0.*.0.q.V G H H J H H Z Q E E R L L s 7 6 * X X ; a L I R L L L L s 7 6 6 p L L I I I I I I z I I z z I I I I I I I I I I I I I L L L L L L L L L L L L R I I I I I Y Y Y Y Y Y Y Y Y Y Y I I I I I I I I R R L L L L L L L L L L L L L L L L L L R R R Y Y Y Y Y Y Y Y T T Y Y Y Y Y Y Y Y Y Y Y Y Y Y Y Y Y Y Y Y Y Y Y Y Y Y Y I I Y I I I I I I z z j z z j j z z z z I Y R R R R R R R R R R R R R L R R L L L L L L L L I R I I I I I I I I I I Y Y Y Y Y Y Y Y Y Y Y Y Y I I I I z i u * r s j z I I I j j u & X & ; 6 6 7 7 i a h h h h h 5 ^ a.a.a.a.s.a.a.a.a.( a.a.( ( H H K ( ( a.a.a.( H ( ( J J J H ^ H ( ( ( K ( J J ( H H H G C Z v v 9 2 o Z G H H H J ( J J H H S y.y.r.<.1.>.>.:.:.:.<.~ G H H H G G G H H G A L >.<.$.+.o.o.o.o.h G H G H G H H H H G ^ <.u.*.*.$.$.#.$.%.#.w.D F F G ",
"B c c c c 4 h k k g r r r 0 b 8 @ 5 v v B B 9 $.O.&.t.+X+X-X-X-X,X$X$Xi.h B C B B B B C C C B B B C C B B v w.i.%X,X,X%X,X2XqXqXqXP.0 B C C C C C D D D D D D D D D D D D D C D D D G G G G D D D G G G D C C D G G G G G H H H G G G H 0 q.0.0.6.*.*.*.%.0.q.S H H H H J H Z Q E E P P L h 7 6 & X $ ; a L I E L L L L s u 6 6 s L L R Y Y Y Y I I z z z z I I Y Y Y Y I I I I I I I L L L L L L L L L L L L I I I z z z I Y Y Y Y Y Y Y Y Y Y Y Y I I I I I E R R L L L L L L L L L L L L L L L L R R R L I Y Y Y Y Y Y Y Y Y T T Y Y Y Y Y Y Y Y Y Y Y Y Y Y Y Y Y Y Y Y Y Y Y Y Y Y Y Y Y I I I I I z z z z z z z z z z z z I Y I R R R R R R R R R R R I L L L L L L L L L L j I I I I I I I Y I Y Y Y Y Y Y Y Y Y Y Y Y Y I Y Y I z z z z s u * u s s I I I I L j i & X & ; 6 7 7 a a h h h h h h 7 ^ a.a.a.s.a.a.a.a.a._ a.a.( a.( ( ( ( ( a.a.( a.( ( ( ( ( K G 9.S K ( ( K ( K H H H G G D C C Z v 3 9 + v G G H J H K K J J J P i.y.r.4.<.>.:.>.@.@.$.W G H H H H H G H H G v h q.<.$.+.o.t g g L G G G D G H G G G B w.y.r.*.O.O.%.$.#.%.<.w.D D F G ",
"B c v c c 3 h k k r r r r f B 5 @ 5 v v B B v T @.*.u.+X+X-X-X-X-X$X$X$Xy.Q B B B B B C C C B B C C C C C B w.i.%X,X,X,X,X1X2XqXqXqXP.^ C C C A D A D A D D D D D D D D D C C D D D G G G D D D D G G D C C A D D A D D G G H H G G H G 7 e.0.6.6.*.*.%.%.%.q.S H H H H H G C Q Q P E E P h i 6 & X $ ; a L P E L L L L s u 6 6 s L L R Y I Y Y I I z z z z I Y I I Y Y I I I I I I I L L L L L L L L L L L L I I I z z I I Y Y Y Y Y Y Y Y Y Y Y Y I I I I I E R R L L L L L L L L L L L L L L L L L R L L R Y Y Y Y Y Y Y Y Y T T Y Y Y Y Y Y Y Y Y Y Y Y Y Y Y Y Y Y Y Y Y Y Y Y Y Y Y Y Y I I I I I z z z z z z z z z z z z I Y I R R R R R R R R R R R I L L L L L L L L L L j I I I I I I I I I I I I Y Y Y Y Y Y Y Y Y Y I Y Y I z z z z s u * u s s I I I I L j i & X $ & ; 6 7 7 a a h h h h h 5 P _ a.s.a.a.s.a.a.a.a.a.a.a.a.J ( ( ( ( ( ( ( ( ( ( ( ( J D 5 >.f G ( ( ( ( ( ( H D G H G G D S B B V + b G G ( J J J J J J H P i.y.y.6.:.:.<.<.$.@.$.W G H H H H G H H H G ' e.y.r.<.+.o.t t t P G G G G H H G G G 9 e.y.r.%.O.O.$.$.$.$.#.q.D G G F ",
"B c B v v 3 h k g r r r k P 9 5 @ 8 v v B B v b #.r.+X#X+X+X-X-X,X$X$X$X$Xy.Q B B B B B B B B B B C C C C B Q y.,X,X,X,X,X<X1X2X2XqXqXP.^ C C D D D A A A C A D D D D D D C C C G D G G D D D D D G G D D A C C C C C D G G G G G G G G ! 0.r.*.*.%.%.$.%.%.q.S H H H H G ^ ^ Q E Q E L L a 7 ; & X X ; a L P P L L L L s 7 6 6 s L L R Y Y Y Y I I I z I I I Y I I I I I I I I I I I L L L L L L L L L L L L I I z z z z Y Y Y Y Y Y Y Y Y Y Y Y Y I I I I I I R L L L L L L L L L L L L L L L L L L R L L R Y Y Y Y Y Y Y Y Y T Y Y Y Y Y Y Y Y Y Y Y Y Y Y Y Y Y Y I Y Y Y Y Y Y Y Y Y Y Y I I I I I z z z z z z z z z z z z I Y R R R R R R R R R R R R L L L L L L L L L L L j I I I I I I I I I I I I I Y Y Y Y Y Y Y Y Y I I Y I I I z z s u * u s s I I I I L L i & . X $ & : 6 6 7 7 7 h f f f 7 V ( a.a.a.a.a.a.a.a.a.a.a._ _ ( _ ( ( ( ( ( ( ( ( ( ( ( H P h >.k P D H ( ( K J G G H H H H G S Z Z ^ + b G G J J J K K J J H P i.y.y.6.<.:.<.<.@.@.$.T G H H H G G G H G A w.y.y.r.%.+.g g t t S G G G G G H G G G 8 y.y.r.*.O.O.@.$.$.$.#.>.D G G D ",
"v v c c c 3 h k k t t k T ~ 5 5 @ 8 v B B B B v P r.+X#X+X+X+X-X-X+X+X$X$X>XP.V B B B B B B B B B C B C B B Z w.,X,X,X%X%X<X<X1X1XqXqXqXP.V C C D D A D C C D D D D D D D D D D D D D D D D D D D D D D D C B v c B D G G G H G G G G ^ q.r.6.6.%.@.@.@.$.%.q.S H H H H D S P P P P L a i 6 ; & X . X ; a L P P L L L L s 7 6 6 s L L R Y Y Y I I I I I I I I Y I I I I I I I I I I I L L L L L L L L L L L L I I z z z z Y Y Y Y Y Y Y Y Y Y Y Y Y I I I I I I R L L L L L L L L L L L L L L L L L L R L L I Y Y Y Y Y Y Y Y Y Y Y Y Y Y Y Y Y Y Y Y Y Y Y Y Y Y Y I I I Y Y Y Y Y Y Y Y Y Y I I I I I z z z z z z z z z z z z I Y R R R R R R R R R R R R I L L L L L L L L L L j I I I I I I z z z I I I I Y Y Y Y Y Y Y I I I I Y I I I z z s u * u s s I I I I I L p & . X X @ & & * ; 5 5 6 ; ; ; 5 f ( s.a.s.a.a.a.a.a.a.a.a.a.( K K ( ( ( ( ( ( ( ( ( H H G Q >.#.>.! B H J J J H H H H H H H D Z B Z S + 9 Z G H H K J K J J H P y.y.r.6.<.@.<.<.@.&.<.T Z G G H H H H H G f e.y.i.r.%.+.o.t t i S G G G G F G G G G 8 y.u.6.*.O.O.@.$.$.$.>.3.A F G D ",
"B B c c c 3 h k l l #.>.>.>.! 5 @ 5 v B B B B B 8 u +X+X+X+Xu.-X-X+X+X+X>X>X>XJ.Q B B B B B B B B B C B B B B I >X,X%X%X%X,X,X,X,X1X1X1X1XP.^ A A A D A A C C A A D D D D D D D D D D D D D D G D D D D A C S S S D G G G G G G G H G Q q.*.*.*.@.@.o.+.@.%.<.) H H H H G S P V 0 0 5 5 ; & $ . . . X ; i L I I L L L L s u 6 6 s L R R Y Y Y Y Y I I I I I I Y I I I I I I I I I I I L L L L L L L L L L L L L L j j j z Y Y Y Y Y Y Y Y Y I I Y Y I I I I R R R R L L L L L L L L L L L L L L I R L L L L R Y I Y Y Y Y I I Y Y Y Y Y Y Y Y Y Y Y Y Y Y Y Y Y Y Y I I I Y Y Y Y Y Y Y I Y Y I I I I I z z z z z z z z z z z z Y Y R R R R R R R R R R R R L L L L L L L L L L L L I I I I I I I I I I I I I I I Y Y Y Y Y Y Y Y Y Y I I I z z s u * u s s I I I I L L p & . . . X X X $ X & & X X X X X 5 ( a.a.a.a.a.a.a.a.a.a.a.K ( K ( ( ( H ( ( ( ( ( ( ( J G Q #.#.k k 9 G K J H H H H G H H H G Z Z Z V + 2 Z G H H K J K K H H P i.y.y.6.<.@.@.$.$.6.6.l V G H G G H G G H w.i.i.u.t.r.#.o.g g h G G G G G G G G G G 9 i.u.7.&.O.O.O.@.@.$.>.>.D F F D ",
"c c B c B 4 h k #.>.>.>.>.>.>.j & 5 v B B B B B V #.+X+X+XOXt.t.t.u.+X+X>X>X>X>XH.Q B B B B B B B B B B B B B P >X,X%X%X,X,X,X,X,X%X,X<X1X1Xy.Q C D D A C C B B C D D D D D D D D D D D D D D D D G D D C C S D C A D G G G G G G H A ! q.%.%.%.@.o.o.+.+.$.>.^ H H H H G C 5 @ @ @ O @ X X . . . . X ; 7 j L R R L L L s 7 6 7 s L L R R I I I I L L L L I I I I I I I I z I I I I I L L L L I L L L L L m L L L L L L L I I I I I I I I I I I I I I I I I I R R R R R L L L L L I I L L L L L L L L L L L R R I I I I I I I Y Y Y Y Y Y Y Y Y Y Y Y Y Y Y Y Y Y Y Y I Y Y Y I I Y Y Y I Y Y I I I I I I I I z z z z z z z z z I Y I R R R R R R R R R R L L L L L L L L L L L L L L L L L L L L L L L L L I I I I I I I I I I I I Y I I I I I s u * p s j I I R R I L i $ . . . . . . . . . .         X 0 ( a.a.a.a.a.a.a.a.a.a.a.( ( ( K ( ( J ( J ( ( ( ( ( H D Y #.#.l k h G J J K H H H H H H H G G S C B + 2 Z G H H K J K K K H P i.y.r.6.$.@.@.$.$.%.%.#.Q G H H G H H H Q i.i.$X+Xu.r.$.+.g g h G G G G G G G G G ^ >.+Xu.6.&.O.@.@.@.@.$.#.! G G D D ",
"B c c B B 4 h k #.>.#.#.#.#.#.l 6 5 v B B B B v ! y.i.oXOXu.6.6.<.6.t.u.+X,X>X>X>XP.9 B B B B B B B B B B B B P $X$X%X%X%X,X,X%X,X%X,X<X<X1X1XH.B C D A C C B B C D D D D D D D D D D D D D D D D D D D C D D D A D D D D G G G H G C z %.%.%.%.+.o.o.o.+.#.>.S H H H G G B @ O                     . & 6 h L L R L L m s 7 * u L L L L L L L L L L L L L L I I I I I I z z I I I j j I I I L L I m L L L L m L L L L L L L L L L L L I z z I z I I z z z z I R I I R R R I L I I I I I L L L L L L L L L L L L I I I I I Y Y Y Y Y Y Y Y Y Y Y Y Y Y Y Y Y Y Y Y Y Y Y Y Y Y Y I I Y I I I I I I I I I I I I Y Y Y Y Y Y I z z I I I L L L L R L L L L L L L L L L L L L L L L L L L L L L L L L L L L L L L L L L L L L L L L L L R R R R Y Y s u * i I L I I I I L L p & . . . . . . .             X = V _ _ a._ a.a.a.( a.a.K a.( ( ( J J ( ( ( ( ( ( ( ( ( H 9 g #.#.+.T T S K J H J H H H H H H G C C C Z > 3 Z G H H H J K K J J P i.y.r.<.@.@.@.$.$.$.%.$.>.G H H G G G H ) $X$X$X$Xi.y.6.$.o.l S F G G G G G G G S ! i.i.t.*.@.@.o.O.O.@.+.l P G G G D ",
"B c c c B c h k #.#.#.+.+.#.+.+.i , v B B B C v >.y.t.OXOXu.6.%.@.<.6.r.u.+X,X,X,X>XH.^ B B B B B B B B B B B P +X$X#X#X%X%X$X$X%X%X,X,X1X1X1X>XH.S C C C C C C D D D D D D D D D D D D D D D D D D D D A C C B C D D D D G G G G G B T %.%.%.$.+.o.o.o.+.#.>.D H H H H G B o                   .   . & 6 h L L R L L L L u < u L R R L L L L L L L L L L L I I I I I I z z z z I j j I I L L L I m L L L L L L L L L L L L L L L L j I I z I I I I z z z z I R I I R R R I I I I I I L L L L L L L L L L L L L R R I I I Y Y Y Y Y Y Y Y Y Y Y Y Y Y Y Y Y Y Y Y Y Y Y Y Y Y Y Y I I I I I I I I I I I I I I I I I Y Y Y I z z I I I L L L L L L L L L L L L L L L L L L L L L L L L L L L L L L L L L L L L L L L L L L L L L L L R R R R Y Y L u * p I I I I I I L L i & . . . . . .               = = P _ a.s.a.a.a.a.H ( ( K _ ( ( ( J J ( H ( ( ( ( ( J ( S ! #.#.:.+.#.T S H J J H H H H H H G ^ H G D G , 9 G H H H K H H H H H P i.i.u.6.@.@.@.$.$.%.$.#.>.G H H H H H H ) >X$X$X$X+Xi.y.<.#.>.C G G D G G G G G ' y.i.i.r.6.%.@.+.+.o.@.$.i b G G D D ",
"c c c c c c h #.#.+.+.+.+.+.+.+.g 5 v B B B B P r.i.oX+X+XOX6.%.o.+.<.6.y.i.+X$X$X>X>Xw.4 B B v B B B B B B B P +X#X@X@X$X+X+X$X$X$X%X,X<X1X1X1X>XQ C C D C D D C D D D D D D D D D D D D D D D G D F D D D B c C D D D D G G D D A P >.%.%.%.$.o.t t t g +.>.S H H H H G B O   X X   X X X         . ; 7 h P L L L L L L u 6 u L R R L L L L L L L L L L L I I I I I I I z z z I j L I I I L L I m m L L L L L L L L L L L L L L L L I I I I I I I I I I I I I L I I I I I I I I I I L L L L L L L L L L L L L R I I I I Y Y Y Y Y Y Y Y Y Y Y Y Y Y Y Y Y Y Y Y Y Y Y Y Y Y Y Y Y Y I z I I I z z z z I I I I z z z z z z z z j z I L L L L L L L L L L L L L L L L L L L L L L L L L L L L L L L L L L L L L L L L L L L L L L L Y Y R R R R L p * p L L I I I I L L u # . . . . . .               = ; ^ _ a.a.a.a.a.a.H H ( ( J a.( ( H H H J ( ( H ( K ( ^ z #.#.$.>.+.T z S H J J H ( H H ( H ( ( D ^ S G 2 , 4 D H H H H K J H H P i.>X-Xr.<.$.<.$.%.<.%.$.<.G H H H H H H ! $X$X$X$X+X+Xi.y.q.>.C D D G G G G G C w.i.u.t.r.6.%.@.+.+.O.@.#.0 C G D D D ",
"c c v c v c V T >.#.+.#.#.+.+.+.g 5 v B v v B w.y.oX@XOXOXOXt.%.o.o.+.<.<.r.u.+X$X$X$Xq.6 b B B B B B B B B B P +X@X@X@X+X+X+X#X#X#X#X%X1X2X2X2X2X<.V C C C C D D D D D D D D D D D D D D D D D D D D D D C C B C D D D D G G G G Z >.%.%.%.<.@.o.t t t t l ! D H H ( ( H C @ X X X X X = X X X     . ; 6 h P L L L L L L i 6 p L R R L L L L L L L L L L L I I I I I I I z z z I j L I I I I I I m m L L L L L L L L L L L L L L j L I I I I I I I z I I I I L L L L L L I I I I I I L L L L L L L L L L L L L R R I I I Y Y Y Y Y I I Y Y Y Y Y Y Y Y Y Y Y Y Y Y Y Y Y Y Y Y Y Y Y I z z z z z z z z z z z z z z z z z z z z j j I L L L L L L L L L L L L L L L L L L L L L L L L L L L L L L L L L L L L L L L L L L L L L L L R Y R R R R L p * p m m I I R I L L u # . . . . . . .       o     = ; ^ _ a.a.a.a.a.a.H J H J K a.a._ ( J J ( ( ( ( ( ( G T <.%.@.+.+.l T P ( H H K J ( H G H H H G G G D G 2 , Z G H H J H H H G H P >X>X>X-X6.6.6.<.<.<.<.%.<.P G H H H G G ! $X$X$X$X$X>X>Xi.y.w.G G G D G G G G V y.u.t.r.*.6.@.@.@.+.o.+.l Z G G G G D ",
"v c B B v v x 5 ;.;.#.#.#.+.+.+.l j v v x Z ! r.i.OXOXXXXXu.6.@.o.o.t +.<.6.t.t.oX+X+X>Xi.w.^ B B B B B B B v L +X@X@X@XoX+X+X@X+X+XoX+X#X<X2X2X1X>Xy.B C C C C D D A A D D D D D D D D D D D D D G D D D C C C C D D C D D G D G V q.*.%.$.<.@.o.t t t t l ! S H H H H H C 5 ; ; ; ; - ; ; X X X   X ; 6 h L L L L L L L p 7 p L L L L L L L L L L L L L L I I I I I I z j s j j L L I I I I L I L m L L L L L L L L L L L L L L L L I I z z z z j z j z z I L L L L L L I I L L L I L L L L L L L L L L L L L I I I I I Y Y Y Y Y Y Y Y Y Y Y Y Y Y Y Y Y Y Y Y Y Y Y Y Y I I Y Y Y I z z z z z z z z z z z z z z z z z z z z j j I L L L R R R R L L L L L L L L L L L L L L L L L L L L L L L L L L L L L L L L L L L L L L L L R R R R R R L p * p m m I I R R I L u # . . . . . X X X     .     = 5 ^ _ _ _ a.a.a.a.( ( ( ( _ ( ( ( ( ( J J ( J ( ( G w.q.6.<.$.#.+.l l C K J H H H H H H H H H G G G D D 2 > v G H J J H H H G G P >X2X7X>Xu.6.6.6.<.<.%.%.q.w.Q H H H G w.i.+X$X%X,X,X$Xi.i.y.w.S G G G G G G C 7 r.t.t.r.*.*.%.$.@.+.+.l 8 D G G G G D ",
"c c c c c c c 3 6 l >.#.#.+.+.+.+.l z P L ~ <.r.6.t.t.7.7.7.6.@.o.t t o.$.6.r.u.oXoX+X+X>Xi.3.v B B B B B B V >.i.+X@XoXoXoX+X@X@XoXoXoXoX%X2XqXqX1X>Xw.S C C C C D A D D D D D D D D D D D D D D D D D C C C C C D D D D D G G S f 6.6.6.<.$.+.t t t t t g k S H H H H G Z 7 6 6 6 6 6 ; ; ; X X   X ; 6 h P L L L L L L p 6 u m L L L L L L L L L L L L L R I I I I I j s s j j j L I I I I L I m m m L L L L L L L L L L L L L L j I I z z z z j j j j j z L m m m m L I I L L L L L L L L L L L L L L L L L I R Y I I Y Y Y Y Y Y Y Y Y Y Y Y Y Y Y Y Y Y Y Y Y Y Y Y Y I I I Y Y I z z z z z z z z z z z z z z z z z z z j j j L L L L L L L R L L L L L L L L L L L L L L L L L L L L L L L L L L L L L L L L L L L L L L L L R R R R R R s u * u s m I I R R I L u & . . . . X X X X X X X X X = ; ^ _ a.a.a.a.a.a.( H J ( ( ( ( ( ( H H J ( ( J ) ` r.r.r.<.+.+.+.l l F J J H H H H D H H H G G G D C S 2 , B G H H H H H H H G P >X2XeX7XJ.6.6.6.6.<.$.%.%.q.>.Q Q ' 2.y.y.t.oX+X%X,X$X$Xi.y.y.S D G G D G ^ ` <.u.t.t.*.%.%.$.$.$.+.l Y C D G G G D D ",
"c c c c c c c c 2 z #.#.>.+.@.+.+.g #.>.>.<.<.%.*.&.*.6.6.7.6.@.o.t t g +.<.r.i.oXoX+X+X+X+Xq.7 b v B B v v >.y.i.+X@X+X+XoX@X#X@X@X@XoXXX@X1X2XqXqXqX>X9.C C A A D D D D D D D D D D D D D D D D D D C C C B c B D D D D D G G Z a 6.6.6.<.$.+.t t t t t g k S H G G H G S 7 7 7 7 7 6 6 ; ; = X   X ; 6 h L L L L L L L p 6 u s L L L L L L L L L L L L L L I I z z z j s s j L I L I L L I I I I L L L L L L L L L L L L L L L L j I I z z z z z z j j j I L L L L L L L L L L L L L L L L L L L L L L L L L R Y Y Y Y Y Y Y Y Y Y Y Y Y Y Y Y Y Y Y Y Y Y Y Y Y Y Y Y Y Y Y Y Y I I z z z z z z z z z z j j z z z z j j j j j j j j L L L L L L L L L L L L L L L L m m L L L L m m m m m m m m L m m m L L L L L L L L L L L L I I I I I L s 6 * u s m I I R R L L p & . . . . $ X X X X X X X X = ; ^ _ a.a.a.a.a.a.a.H J ( ( ( ( ( H H H H ( K H ` y.r.r.<.:.+.+.+.l z G H H H H H ( G H H H G G D D C C 2 2 B G H H H H H H G H P >X2X7X6X-X6.6.6.<.%.$.%.%.q.q.q.e.y.i.i.y.u.oX+X#X%X,X$Xi.i.i.P G G G D D A.i.+XXXt.7.&.O.O.+.#.#.#.k ^ D D D G D D D ",
"c c c c c c c c 4 h >.#.#.+.+.+.+.g #.%.#.$.%.%.@.O.O.@.&.7.6.6.o.t t g +.%.r.i.+XoX+X+XoXi.y.r.q.w.w.e.e.y.i.i.i.+X@X+X+X@X#X#X#X%X#XoXXXoX%X1X2X1X1XqX>X9.C A C C A D D D D D D D D D D D D D D D D D D C C C C D D D D D D D Q w.6.r.6.<.$.+.t t t t t g ! S H H H H G Z 7 7 f f f 7 7 6 5 ; X . X ; 6 h L L L L L L L p 6 7 s L L L L L L L L L L L L L L I I z z z z s j j I I I I I I I I I I L L L L L L L L L L L L L L L L L I z z z z z z z z j j I L L L I I L L m m L L L L L L L L L L L L L L L L R Y Y Y Y Y Y Y Y Y Y Y Y Y Y Y Y Y Y Y Y Y Y Y Y Y Y Y Y I I I I I I I I I I I I I I I I I j j z z z z j j j j j j j L L L L L L L L L L L L L L L L L m m m L L L m L m m L m m L L m m m L L L L L L L L L L L L I I I I I I s 6 * u s m I I R R I L p & . . . . $ $ X X X X X X = = 5 ^ _ _ a.( ( a.a.a.( ( ( ( ( J ( J H H H ( J Z >.y.r.6.%.+.+.l l l z G J H H H G G C D H H G G G D C C , 3 Z G H H H H H H H H P #X<X2X>X-X6.6.6.<.%.$.$.%.%.q.r.y.i.i.i.+X+X+X#X%X%X>X$X>X$Xi.C.) D G D B P.$X@XXXt.&.O.O.o.#.#.#.#.h D G D D D D D D ",
"c c c c c N c N c 9 i l #.@.+.o.o.o.+.%.%.$.%.@.O.O.O.O.&.7.t.6.$.g g g o.%.r.i.i.oXoXoXi.u.t.0.0.y.e.y.i.i.i.$XoX+X@X+X%X%X#X#X%X%X%X@XXXt.oX%X<X1X2XqX1XP.C A A C A D D D D D D D D D D D D D D D D D C C C C C D D D A D D C ! y.r.r.6.<.$.+.t t t r r k h S H H H G G S h h h h h f 7 7 6 ; ; X X ; 6 h L L L L L L L p 6 6 s L L L L L L L L L L L L L L I I I I I I j j I I I L L I I I I I I L L L L I L L L L L L L L L L L L I I I z j I I I I I I I L L I I I I L L L L L L L L L L L L L L L L L L L R Y Y I Y Y Y Y Y Y I Y Y Y Y Y Y Y Y Y Y T Y Y Y Y Y Y I I I I I I I I I L L L L L L L L L j j z z j j j j j j j j j L L L L L L L L L L L L L L L L L m m L L L L L L L L L L L L L L L L L L L L L L L L L L L L I I I I I I s 6 * u s m I I R R L L p & . . . X $ $ $ & ; ; & @ = = 5 ^ _ _ a.a.a.a.a.a.( ( ( ( ( ( ( ( H H H ( H w.r.r.r.6.$.+.l l l k z G H H H H G C D D H H H G H G C C , 2 C G H H H H H G H H P +X,X>X-X6.@.$.$.$.$.$.$.%.<.r.r.i.i.$X>X>X,X,X%X,X,X<X,X>X>X>X>XP.w.w.w.y.>X+X@XXX0.%.O.o.o.+.#.k f S F D G G D D D D ",
"c c c c B N c c c x ; l +.@.+.o.o.o.+.$.<.%.%.%.@.O.O.O.*.r.u.u.q.#.g g g #.0.y.u.i.u.t.t.t.t.t.t.t.t.+X+X$X+X$X+X#X$X%X,X<X<X&X&X&X%X@X7.0.XX$X%X,X1X2XqX>Xf C D A A D D D D D D D D D D D D D D D D A C C B B B D D D D D D V >.r.6.6.<.<.#.t t r r r r h 9 G G G G G G S P h h h h h h h 7 6 ; X X ; 6 h L L L L L L L p 6 6 s L L L L L L L L L L L L L L I I I I I I L L I I I L L L L I I I I L L L I I L L L L L L L L L m m L I L I L L I I I I I I I L L I I I I L L L L L L L L j L L j L L L L L L L I Y Y I Y I I Y Y Y I Y Y Y Y Y Y Y Y Y Y T Y Y Y Y Y Y I I I I I I I I L L j L L L L L L L j j z z j j j j j j j j j L L L L L L L L L L L L L L L L m m m L L L L L L L L L L L L L L L L L L L L L L L L L L L L I I I I I I s 6 * u s m I I R R L L u & . . . X & & & ; ; ; ; ; = = 5 ^ ( _ a.a.a.a.a.a.( ( ( ( ( ( ( J H H H J G H.y.r.r.%.@.o.t d l l z G J H H G D G F H H H G G G D D D , 2 Z G H H H H H G G G P +X-X-Xi.@.@.$.@.%.$.$.$.%.6.r.y.i.>X>X>X>X,X,X,X,X1X1X1X1X1X1X1X>X>X>X>X>X>X+X+Xt.*.O.o.g g k k Q A D G D D D D D D D ",
"c c c c c B B c c c 9 l o.o.o.o.o.o.o.$.r.0.*.%.@.@.@.O.*.t.u.i.y.q.k k g o.*.0.t.t.t.t.t.u.XXu.oX+X#X,X,X,X,X%X%X%X,X<X<X<X<X<X<X<X&X@Xt.0.XX#X%X1X2X2X2X1XP.^ C A A A D D D D D D D C D D D D D D D D C C C B C D D D D D D w.r.r.6.6.<.$.g t r r r r k h C H H H H G G S P h h h h h h h h 7 ; X X ; 6 h L L L L L s s p 6 6 s L L L L L L L L L L L L L L s j j L I I j j j I I L I I I I I I L L L L L L L L L L L L L L L L L L L L L L L L j j j j j L L L L L L I I I I L L L j j j j j s j j j j j L L I Y Y Y Y Y Y Y Y Y Y Y Y Y Y Y Y Y Y Y Y Y Y Y Y Y Y Y I z z z I I L L L L L L L L L L L L j z j j j j j j j j j j j L L L L L L L L L L L L L m m m m L L L L L L L L L L L L L L L L L L L L L L L L L L L L L L I I I I L L s u * u s m L I R I I L p & . . . X * * ; ; ; ; ; ; = = 5 ^ ( K K a.a.a.a.a.a.( ( ( ( ( ( J ( H ( ( G w.r.r.<.$.+.t d d d z I Z J H H H G H D G H H G G G D C S , 2 Z F G H H H H G H H P +X-X-Xt.@.@.@.%.%.%.%.%.%.r.y.i.>X>X>X>X,X,X<X1X1X1X2X2X2X2X1X<X<X>X,X,X%X+X+X+Xt.*.+.g g t k f A G G D G D D D D D D ",
"c B c B c c c c c c c h +.o.o.o.o.o.O.<.r.r.r.%.$.@.+.@.*.t.OXr.i r - - k #.%.0.0.t.t.t.XXoXoX+X%X,X,X<X<X<X<X1X1X1X1X2X2X2X1X<X<X<X&X#X@X@X#X%X,X1X2X2X2X1X>Xw.^ D D D D C D D D D D D Z D D D D D D A C C C B C D D D D D S q.r.r.r.<.#.l t r r r r r k P G H G H G H S S P P P h h h P h h 7 ; X X ; 7 h L L L L L L s p * 6 p L L L L L L L L L L L L L L L s s L L L L L L L L L R R L L L L L L L L L L L L L L L L L L L L L L L L L L L L L m m L m m L L L L L L L L L L L L L L s s s s j j L j j j I I I Y Y Y Y Y Y Y Y Y Y Y Y Y Y Y Y Y Y Y Y I I I I I I z j j j L I L L L L L L L L L L L L L j j j j j j j j j j j L L L L L L L L L L L L L L m m m m L L L L L L L L j j j j j j j j j L L L L L L L L L L L L L L L L L L L s 6 * u s L L L R I L L p & . . X $ ; ; : ; ; ; : ; ; = 5 ^ ( a.a.K a.a.a.a.( ( ( ( H H H H ( ( H ( G w.q.q.$.+.g t t d l l T P G J J J H G G G G G D D G C B C 2 2 C G H H H H G G G G L i.OXi.t.@.@.@.%.%.%.%.6.r.y.i.>X>X>X>X>X,X<X<X1X1X1XqXqXqX2X2X1X1X<X,X,X%X#X+Xu.r.%.o.t r h 5 A G D F G D D G G D D D ",
"c c c c c c c c c c v L l g o.o.o.o.o.@.<.r.r.%.$.@.@.@.*.7.XX6.$ $ X   k k q.y.t.oXoXoXoX@X#X%X<X1X1X1X1X1X1X2X2X1X2X2X2X2X1X<X<X1X1X1X<X<X<X<X1X1X2X2X1X1X1X>XC.Z A A D A S D D D D D D D D D D D D D A C C C D D D D D D Z q.r.r.r.<.#.g t r r r r i h P G H H H H G A S P P P P j P P h h 7 ; X X ; 7 h L L L R L L L u * 6 p m m L L L L L L L L L L L L L L L L L L L L L L L L R L L L L L L L L m m m m L L L L L L L L L L L L L L L L L L L L L L L m m m m m m L L L L L L L L s s s s j L L j j j z I I I I Y Y I I Y Y Y Y Y Y Y Y Y Y Y Y Y Y I I I I L L L L j j L L L L L L L L L L L L L L L L L L L L j j L L L L L L L L L L L L L L L L L L L L L L L L L L L L L j j j j j j j j j j j L L L L L L L m L L m m m L L L L m s 6 & 6 s L L L L L L L i & X X # $ ; ; : : : ; * * ; = 5 ^ ( a.K K ( K ( a.( ( H H ( ( ( K J ( H K H ' w.#.+.g t r r r l l >.>.P H H H H G D G G G G G D D D C , 2 Z G H H H H H G G S h y.y.y.6.@.O.@.@.%.%.r.y.i.+X>X>X>X>X,X,X<X1X1X1X1X1XqXqXqXqXqX2X1X1X,X,X%X+X+Xt.*.@.o.t i L B F G D F D D D D D D D D ",
"c c c c c c c c c c c 3 h l l o.o.o.O.O.@.%.<.%.$.$.@.@.@.6.t.OXi.P.H.. . r y.i.oX@X#X#X#X%X%X%X1X1X1X2X2X2XqXqX2X2X2X2X2X2X1X1X<X1X2X2X2X1X1X1X1X1X1X1X1X<X<X,X>XH.^ C C A S C D D D D D D D D D D A A D C C C C D G D D G ! r.r.r.<.#.l g g t r r r k 5 B G G H H H H A S P P P P j P L h i 7 ; X X $ 7 h h L L R L L L u * 6 p m m L L L L L L L L L L L L L L L L L L L L R R R R R L L L L L m L L L m m m m m L L L L L L L L L L L L L L L L L L L L L m m m m m m m m m L L L m s s s s s j j j j j j I I I I Y Y Y I I Y Y Y Y Y Y Y Y Y Y Y Y Y Y I I I I L L L L L L L L L L L L L L L L L L L L L L L L L j j j L L L L L L L L L L L L L L L L L L L L L L L L L L L L j j j j j j j j j j j j L L L L L L L L L L m m m m L L L m s 6 & 6 s L L L L L L L i * X X # $ ; ; : : : : * * ; = 5 ^ ( K a.K ( ( a.a.( K ( H H ( K J H H H F H C z #.l g r r r r l #.>.q.e.' H H H G G G G G A D D C C C > 2 Z G H H H H H H D w.i.i.t.6.@.o.o.O.@.6.r.u.i.+X,X>X>X,X,X,X,X1X1X1X1X1X1XqXqXqXqXqX2X1X1X,X,X#X+Xt.6.@.o.t t i Z D F F F D D D D D D D D D ",
"c c c c c c c c c c c c 9 6 l o.o.o.O.o.o.@.$.%.%.$.$.+.@.&.7.t.u.i.i.q.q.q.i.+X+X#X#X%X%X%X%X&X<X1X1X1X1X2X2X1X1X2X2X1X2X2X1X1X<X<X1X1X1X<X<X<X<X<X<X,X,X&X<X<X,X>Xw.Q C C A A D D D D C D D A D D D D D D A C C D G G D P <.6.6.6.<.#.+.g t t r r g T f G G G H G G G C V P P P j j j L h a 7 ; X X & 7 h L L L R L L L u * 6 p m L L L L L L L L L L L L L L L L L L R R R R R R R R L L L L L L L L L L L L L L m m L L L L L L L L L L L L L L L L L L L m m m m m L L L L L L L s s s s p s j j j j s j I I I I Y Y I I I Y Y Y Y Y Y Y Y Y Y Y Y Y Y Y I I L L L L L L L L L L L L L L L L L L L L L L L L L L L L L L L L L L L L L L L L L L L L L L L L L L L L L L L L L j j z z z j j z j j j j L L L L L L L L L L m m m m L L L L s 6 * 6 s L L L L L L L p & X X # $ * ; * * * & * * ; = 5 ^ _ _ ( ( ( ( a.( J J ( J H ( ( J H H H J H D h +.l g r r r r l #.$.%.r.w.H G H H G G G G D D F D D C > 2 Z G G H H H H G 3.i.i.u.r.*.@.O.o.@.6.t.u.i.+X+X,X>X,X,X,X>X,X1X<X1X1X2X2XqXqXqXqXqX2X1X<X%X%X+Xi.r.%.O.o.t t 7 B D D D F D D D D D D D D D ",
"c c c c c c c c c N c v x 2 l l o.o.o.o.o.+.$.$.<.$.$.+.O.O.&.7.t.oX+Xi.i.i.+X%X$X#X<X<X<X&X&X&X&X<X1X1X1X1X1X1X1X1X1X1X1X1X<X<X<X&X<X<X<X<X<X<X<X&X%X%X%X%X%X,X,X%X$Xy.V C A A D A D D A C D C C D D C D S C C C D D G Z ! *.6.6.6.<.#.o.g t t r r k ! S G H H H H G H C V P P P j j j L h i 7 ; X X & 7 h L L L R L L m u * 6 p m m L L L L L L L L L L L L L L L L R R R R R R R R R L L L L L m L L L L L L L L m m L L L L L L L L L L L L L L L L L L L m m m m m s s s s s s s s s a p p p s s s s s s z z I I I I I I I I I I I I I I I I I I I I Y I I I L L L L L L L L L L L L L L L L L L L L L L L L L L L L L j j L L L L L L L L L L L L L L L L L L L L L L L L L L j j j j z z z z j j j j L L L L L L L L L L m m m m L L L m s 6 * 6 s L L L L L L L p & X X # $ * * * * : : * * ; = ; ^ ( ( ( a.( ( a.( J J J ( H J ( J H H J K J G h l k t r r r t l +.+.%.0.q.D G G G H G G G G G G G C C > 2 C G G H H H H ^ i.$X+XoXt.t.t.r.r.r.t.u.+X+X+X+X+X,X,X,X,X>X,X1X<X1X1X2XqXqXqXqXqXqX1X1X<X%X+X+Xy.r.%.o.g t i 0 C D D D D D D D D D D D D D ",
"c c c c c c c c c c c B c x L l l g o.o.@.+.$.<.<.$.$.+.+.O.&.&.t.OXoXoX+X+X%X,X%X&X<X1X1X1X<X&X&X<X<X1X1X1X1X1X1X1X<X<X&X<X&X&X&X&X&X&X<X<X<X<X<X%X%X#X#X#X#X#X#X#X#X$Xy.P C C A D S D D C C D A D A C A C C Z C D D S ' q.r.6.6.6.<.#.o.g t t t i z Q G G H G G G G G C P P Q Y Y Y P L h i 7 ; X X & 7 h L L L R L L m u * 6 p m m L L L L L L L L L L L L L L L L R R R R R R R R R L L L L L L L L L L L L L L m L L L L L L L L L L L L L L L L L L L L m m m m m s s s s s s s p a p p p p s s s s s j z z z I I I I I I I I I j j j j j j j j j z I I I L L L L L L L L L L L L L L L L L L L L L L L L L L L L L j j j L L L L L L L L L L L L L L L L L L L L L L L L L L L j j j j z z j j j z I L L L L L L L L L L L L L L L m L m s 6 * 6 s L L L L L L L u & X X # & * * : : : : * * : = ; ^ ( ( ( ( ( ( a.( H ( ( J K ( ( J H H K K H H P l i r r r r r t g +.$.*.<.V G G G G G G G G G D G D S > , Z G G G H H H j $X$X+XoXoXoXoXi.u.y.t.u.+X+X+X+X+X#X,X,X,X,X,X<X1X1X2X2XqXqXqXqX2X1X1X<X,X%X+Xi.y.6.$.o.g g z V D D D D D D A D D D D D D D ",
"c c c v c c c c c c c B c v b 5 - l o.+.$.$.<.<.<.$.#.+.o.o.O.*.7.XXOX+X+X#X#X%X%X<X1X1X2X1X1X<X<X<X<X<X1X1X<X<X1X1X<X&X&X&X&X%X%X%X%X%X%X%X<X<X<X%X%X#X@X@X@X@X#X#X#X#X+Xe.' G A A A D C C C D D C C C D D Z C C A S ! q.r.r.6.6.6.<.#.g g g g k z P Z G G G G G G G G B P Q Q Q Y Y j h h i 7 ; X X & 7 h L L R R L L m u 6 6 p L L L L L L L L L L L L L L L L L L R R R R R R R R R L L L L L L L L L L L L L L L L L L L L L L L L L L L L L s s s s s s s s s s s s s s s s s s s s s s s s s s j j j j z z I I I I I I I I I I I I I I z I I I I I I I I L L L L L L L L L L L L L L L L L L L L L L L L L L L L L j j L L L L L L L L L L L L L L L L L L L L L L L L L L L L L L L L L L L L L L j L L L L L L L L L L L L L L L L m m s 6 * 6 s L L L L L L L u * . X $ & * * : : : 6 6 6 ; = ; ^ ( ( ( ( ( ( ( ( J ( J H ( ( ( J H J K J H H G ; h r r r r r r t +.$.%.%.! G H G H H H G G G G D C S , 2 Z G G G H H ) y.$X$X+X@X+XoX+X+XoXt.t.t.t.t.oXoX+X#X,X,X,X,X,X1X1X2X2XqXqXqXqXqX2X1X<X,X,X#X+Xi.r.%.+.g l j h C F D D D D D D D D D D D D C ",
"c c c c c c c c c c v c v v v 5 @ i k l #.>.<.q.<.<.#.+.o.o.O.&.7.t.OX+X+X#X#X,X%X&X1X2X2X1X1X1X1X1X1X1X1X1X1X1X1X1X&X&X&X&X&X%X#X#X#X#X#X%X%X%X%X%X#X@XoXoX@X@X@X#X#X@X+Xi.y.w.P S A D D A C C D C C C C C Z Z C C T r.r.*.r.6.6.<.<.+.o.g l l l z ^ D G G H H G G G H B P Q Q Q Q Y h h h 7 6 ; X X & 7 L I L R R L L m u 6 6 p L L L L L L L L L L L L L L L L L L R R R R R R R R L R R L L L L L L L L L L L L L L L L L L L L L L L L L L L s s s s s s s s s s s s s s s s s s s s s j j j j j j j L L z z I I I I I I I I I I I I I I I I L L L L I I I I L L L L L L L L L L L L L L L L L L L L L L L L L L L L L L L L L L L L L L L L L L L L L L L L L L L L L L L L L L L L L L L L L L L L L L L L L L L L L L L L L L L m m m L s 6 & 6 s L L L L L L L 7 * . X # & * * : : : : 6 6 : - 6 ^ ( ( a.( ( ( ( ( ( J H ( J J J ( H ( ( ( H H H B l t r r r r r t l @.%.%.%.j G G G G H G G G D C D G > > C G G H H G H.$X$X+X@X@XoXoXoX+XoXt.t.t.t.t.t.u.oX#X,X,X,X,X1X1X2XqXqXqXqXqX2X2X1X<X<X,X,X+X+Xu.r.$.o.g g i 7 D F D D D D A D D D D D D D C ",
"c c c v v c c c c c v c c v v 8 O , f k #.>.<.q.q.<.+.o.g t o.@.6.7.XX+X+X#X#X,X%X&X1X1X2X2X1X1X1X1X1X1X1X1X1X1X1X1X1X&X<X<X&X#X#X#X#X#X#X#X#X#X#X#X@XoXoXoXoX@X@X#X@X@X#XoXi.y.q.9.B C C C C C C C C C C C C B b 3.r.r.7.7.7.6.<.<.#.+.o.o.+.#.T 7 C G G H G G G G H G B P Q Q Q Q Y j h h 7 6 ; X X & 7 L Y P R R L L m u 6 6 p L L L L L L L L L L L L L L L L L L R R R R R R R R L R R R L L L L L L L L L L L L L L L L L L L L L m L L L m s s s s s s s s s s s s s s s s s s s m s j j j j j j j L L z I z I I I I I I I I I I I I I I L j j j j z z I I L L L L L L L L L L L L L L L L L L L L L L L L L L L L L L L L L L L L L L L L L L L L L L L L L L R L L L L L L L L L L L L L L L L L L L L L L L L L L L L L L L L m L L L s 6 & 6 s L L L L L L L 7 * . X & & * * * : : : * * : - 7 ^ _ K ( ( ( ( ( J H ( H ( ( H ( H H ( ( J J H H G E l t r r r i l +.@.%.@.%.%.Q S D G H G H G C D D G , > Z G G G H D y.$X@X@X+XoXoXoXoXoXoXt.t.t.t.t.t.t.oX#X,X,X,X,X<X1X2XqXrXqXqXqX2X2X<X<X%X%X,X#X+Xy.%.+.g g t j b D D D D D D D D D D D D D A C ",
"c c c c c c c B v c c v v v v 5 + 5 v 5 ; l >.q.q.%.+.g t t o.+.%.7.t.OX+X#X#X#X%X%X<X1X1X2X1X1X1X2XqXqX2X1X1X1X1X1X1X1X<X<X&X%X#X#X#X#X#X#X#X#X@X@XoXoXXXXXoXoX+X+XoXoX+X+XoXi.y.y.>.>.>.,.;.T T T ! ! ,.,.>.>.>.r.r.t.t.7.6.6.<.<.+.+.+.+.+.#.! C D G G G H G G G G G B P Q Q Q P P j h h 7 : ; X X & 7 L I R R R L L m u 6 6 p L L L L L L L L L L L L L L L L L L R R R R R R R R L R L L L L L L L L L L L L L L L L L L L L L L m m m L L m s s s s s s L L L L L m s s s s s s s m s j s j j j j L L L z z z z I I I I z z z I I I I I I L j j j j z I I I L L L L L L L L L L L L L L L L L L L L L L L L L L L j L L L L L L L L L L L L L L L L R R L L L L L L L L L L L L L L L L L L L L L m m L L L L L L L L L L L L L L L L m L s 6 & 6 s L L L L L L L u & . X # & * * * : 6 6 * 6 : - i ^ ( K a.( ( ( J ( ( ( H H H J H H H H H H H H J H V i l t t d l l o.@.%.%.%.<.q.Q S G G D G B C D C G 3 , B G G H G 3.i.+X+X+XoXoXoXoXoXoXoXt.t.t.t.t.t.t.oX+X,X,X,X,X,X1X2XqXqXqXqXqX2X2X<X&X%X,X,X+Xi.r.@.o.t l h j C D D D G D D D D D D C C D C C ",
"c c c c c c c c c v v v c v b 5 + 2 v c 2 j ,.>.<.%.+.g t t t o.O.*.7.u.OX+X+X#X%X%X<X1X2X2X2X2XqXqXqXqXqXqX1X1X1X1X1X1X1X<X&X%X#X#X#X#X@X#X#X#X@X@XoXoXXXt.XXoX+X+X+X@X@XoXt.t.t.t.i.u.t.r.6.6.6.%.6.r.r.r.r.r.r.0.t.t.7.6.6.6.<.$.$.>.+.+.>.>.` S D F F G G H G G G G v P P Q Q Q Y h h h 7 : ; X X & 7 L I R R R L L L u 6 6 p L L L L L L L L L L L L L L L L L L R R R R R R R R L L L L L L L L L L L L L L L L L L L L L L L L m m m L L m s s s s s s L L L L L L s s s s s s m m m m s s s s L L L L z z z z z z z z z z z z I L L L L L L L L j j L I I L L L L L L L L L L L L L L L L L L L L L L L L L j j j L L L L L L L L L L L L L L L L R R L L L R L L L L L L L L L L L L L L m L L L m L L L L L L L L L L L L L L L L L L s 6 * 6 s L L L L L L L u & . . # & * * * : : 6 u u : : i P ( ( a.( ( ( H H H H ( H H H ( J J ( ( ( H J H J G P l +.o.+.l +.+.@.%.%.*.*.<.q.i B S G G D D G G C , , Z G ^ S z i.oX+XoXoXoXoXXXoXoXoXoXt.t.t.t.t.u.u.+X+X#X,X,X-X,X,X1X2XqXqXqXqX2X2X1X<X<X,X%X+Xt.%.o.t t l i P C D D D 2 B D D G A D D A D D A ",
"c c c c c c c c c c c v c c v 5 O 5 v v c V Q T <.<.+.g t t t t o.$.6.7.u.+X+X+X$X%X<X1X2X2XqXqXqXqXqXqXqXqX1X1X1X1X1X1X1X<X<X%X#X@X@X#X@X@X@X@X@XoXOXXXXXXXXXXXt.t.t.XXXXoXt.t.XXt.t.t.t.7.&.*.*.*.*.*.*.7.*.7.t.t.7.t.7.6.6.<.<.<.#.>.;.;.#.>.` G G G D G G G G G G H v P P P Q Q P P L h 7 6 ; X X & 7 L I R R R I L m u 6 6 p L L L L L L L L L L L L L L L L L L R R R R R R R R L L L L L L L L L L L L L L L L L L L L L L L L L L L L L L s s s s s s L L L L L L L L L L L L L m m L m s s s m L L j I z z z z z z z z z z I L L L L L L L L L L L L L I L L L L L L L L L L L L L L L L L L L L L L L L L L L L L L L L L L L L L L L L L L L L L L L L R L R L L L L L L L L L L L L L m m m L L L L L L L L L L L L L L L L L L L L s 6 & 6 s L L L L L L L u & . . # & * * * * : : * * : $ 7 / ^ ( ( ( ( ( ( a.J H H H J J J J H J K ( J K ( J K ^ ! +.+.+.;.+.+.$.$.<.6.*.r.r.r.r.w.S D D D D B B + , Q y.y.i.i.i.oXXXoXoXoXXXXXXXoXoXoXoXOXu.u.u.u.u.+X+X+X+X+X#X,X,X1X2X2X2X2X2X2X2X2X1X1X,X,XoXr.@.o.t t g r b Z S D S 2 v G D D C D D D D D A ",
"c c c c c c c c c c c c c c v 5 O 5 v v v v v 8 6 : - i g r t t t +.<.6.u.i.i.+X+X#X,X1X2X2X2XqXqXqXqXqXqXqX2X1X1X1X1X1X1X<X<X%X#X@X@X#X@X@X@X@X@XoXOXt.t.t.t.t.t.t.t.t.XXt.t.t.XXt.t.t.7.7.&.&.*.*.&.&.*.7.7.7.7.t.7.7.7.7.6.6.6.6.<.<.>.>.>.>.' G D G G G G G G H H G v P P Q P P P P L h 7 6 ; X X & 7 L I R R R R L s u 6 7 s L L L L L L L L L L L L L L L L L L L L R R R L L L L L L L L L L L L L L L L L L L L L L L L L L L L L L L L L m L m m m L L L L L L L L L L L L L m m m m m s s s m L L I I z z z z z z z z L L L L L L L L L L L L L L L L L L L L L L L L L L L L L L L L L L L L L L L L j j j j j j j L L L L L L L L L L L L L L L L L L R R R L L L L L L L L L L L L m m m m L L L L L L L L L L L L L L L L L L L L s 6 & 6 a m L L L L L L u & X X # & * * * * * * * * * $ u / G ( ( ( ( ( ( ( ( J H H H J H H H H H H J J J ( K G i #.#.l #.#.@.$.%.%.*.6.7.r.t.u.u.q.3.>.3.3.,.>.>.>.y.y.i.i.i.oXoXoXoXoXoXu.t.t.oXoX+X+XOXOXu.u.u.u.u.+X+X+XOX+X,X,X<X2X2X2X2X2X2X2X2XqX2X<X$Xt.r.@.o.t t g - 9 b C C Z 3 9 C Z A C C C D D D C ",
"c c c c c c c c c c c c c v v 5 O 8 v v v v v v c 4 , 7 i r r t t o.@.<.r.u.u.+X+X+X%X,X1X2X2X2X2X2XqXqXqX2X2XqX2X1X1X<X<X<X<X%X#X#X#X#X@X@X@X@X@XOXoXt.t.t.t.t.t.t.t.t.t.t.t.t.7.7.7.7.7.7.7.7.&.7.7.&.7.7.7.7.{.7.XXt.t.t.7.r.r.6.6.<.<.<.>.,.' G G G G G H G G G H G v P Q P P P P L L h 7 6 ; X X & 7 L P I Y Y I L s u 6 7 s L L L L L L L L L L L L L L L L L L L L L L L L L L L L L L L L L L L L L L L L L L L L L L L L L L L L L L L L L L L L L L L L L L L L L L L L m m m m m m m s s s m s j L I z z z z z z z z L L L L L L L L L L L L L L L L L L L L L L L L L L L L L L L L L m m m m m j j j j j j j j j j j j L L L L L L L L L L L L L L L L L L L L L L L L L L L L L L L m m m m L L L L L L L L L L L L L L L L L L L s 6 * 6 p s L L m m m m 7 & # # # & * * * * < < * * * & u ` G ( ( ( ( ( ( ( ( ( ( H K J J J H H H H H H J J J H Z >.>.#.#.$.$.%.%.%.<.6.7.7.t.XXXXu.u.y.y.i.i.i.i.i.i.i.i.oXoXoXoXoXoXoXu.u.u.u.u.OX+X+XOXu.u.t.t.t.u.u.i.u.OX+X,X<X1X2X2X2X2X2X2X2X2XqX2X,XoX0.%.o.o.g g g 6 5 8 5 5 5 o + , B S C D A D D A A ",
"c c c c c c c c c c c c c c v 5 O 5 v v v v v v v v x 2 @ i r t t t o.@.<.r.u.i.+X+X+X%X,X1X1X1X1X1X2X2X2X2XqXqXqX2X1X%X,X<X<X%X#X#X#X@X@X@X@X@X@XOXt.t.t.t.t.t.r.t.t.t.t.t.t.7.7.7.7.7.7.7.7.7.7.7.7.7.7.7.7.t.{.{.XXXXt.t.t.t.u.r.6.<.<.>.>.~ ) G G G G G G H G G G G v P Q P P P P L L h 7 ; ; X X & 7 L P I Y Y R L s u 6 7 s L L L L L L L L L L L L L L L L L L L L L L L L L L L L L L L L L L L L L L L L L L L L L L L L L L L L L L L L L L L L L L L L L L L L L L L L m m m m m m m s s s s s s s I z z z z z z z z L L L L L L L L L L L L L L L L L L L L L L L L L L L L L L L L L m m m m m j j j j j j j j j j j j L L L L L L L L L L L L L L L L L L L L L L L L L L L L L L L m m m m L L L L L L L L L L L L L L L L L L L s 6 * 6 p s L L L L L L u & # # # & * * * * * * * < * & u ` G ( ( ( ( ( K ( ( J H ( ( J H H H H J H H G H J J K G ! >.>.>.<.<.<.%.<.<.6.6.t.t.XXXXXXt.t.t.t.y.u.$Xi.i.i.oXoXoXoXi.u.u.u.u.t.t.t.u.OX+X+XOXu.t.t.t.t.t.t.u.u.OX+X,X<X1X1X2X2X2X2X2X2X2X1X<X$Xt.*.@.o.o.g g k 7 @ + + + + o o 8 V Z D D D D C A D ",
"c c c c c c c c c c x x c x v 5 + 2 v v v v c v v v v v 3 @ 6 r r t t o.@.<.r.u.i.+X+X$X%X,X1X1X1X1X1X1X1X2X2XqXqXqX1X%X&X<X<X%X#X+X#X@XOXOXOX+X+XOXt.t.0.0.r.t.t.t.t.t.t.t.7.7.7.7.7.7.7.7.7.7.7.7.7.7.7.7.7.XX{.t.t.XXu.t.t.t.r.r.<.<.>.>.>.Y S G G G G G G G G G G F v P Q Q P P L L L s 7 : & X X & 7 L P R Y Y R L s u 6 7 s L L L L L L L L L L L L L L L L L L L L L L L L L R L L L L L L L L L L L L L L L L L L L L L L L L L L L L L L L L L L L R L L L L L L L L L L m m m m m m m s s s s s s j I z z z z j z z z L L L L L L L L L L L L L L L L L L L L L L L L L L L L L L L L L m m m m m j j j L j j j j j j j j L L L L L L L L L L L L L L L L L L L L L L L L L L L L L L L m m m m L L L L L L L L L L L L L L L L L L L s 6 * 6 p s m m L L L L u & # # # & * : * * * * * * * & 7 ` G ( ( ( ( ( J J K J H ( H H H H H H H H H H J J J J H V ! q.<.<.<.<.<.r.r.r.r.r.t.t.XXXXt.t.t.t.t.u.+Xi.i.i.u.u.oXoXu.u.u.t.t.u.u.t.t.u.OX+XOXu.7.7.7.r.r.r.t.t.OX+X,X<X<X<X1X1X2X2X2X1X<X,X$XoXt.*.%.o.o.g g k V B Z Z B Z 2 + , 3 B D D D D A C D ",
"c c c c c c c c c c c c x c v 5 O 2 v v B B c c v v v v c 2 ; - r r t t o.$.r.u.i.+X+X+X$X%X<X1X1X1X1X1X2X2X2XqX2XqX2X&X&X<X&X%X#X#X#X+XOXOXOXOXOXoXt.r.0.0.t.r.t.t.t.t.t.t.XX{.XX{.{.{.7.7.7.7.7.7.7.7.t.XXXXXX7.7.t.t.t.t.r.r.r.6.<.>.#.+.k ^ G G G G G G G G G G G G v P Q P P P L L L s 7 6 & X X & 7 L R R Y Y R L s u 6 7 s L L L L L L L L L L L L L L L L L L L L L L L L L R L L L L L L L L L L L L L L L L L L L L L L L L L L L L L L L L L L L R L L L L L L L L L L m m m m m m m s s s s s s j I z z z z j j z z L L I L L L L L L L L L L L L L L L L L L L L L L L L L L L L L L m m m m m j j j j j j j j L j j j L L L L L L L L L L L L L L L L L L L L L L m m L L L L L L L m m m m L L L L L L L L L L L L L L L L L L L s 6 * 6 p s L m L L L L u & # # # & * : * * * * * * * & u ` G ( ( ( J ( J ( K J J J H H J H H H H H H H H J J H H D ! q.q.q.q.q.r.r.r.r.u.t.t.t.XXXXt.t.t.t.t.u.+Xi.u.oXu.u.XXoXu.u.t.t.t.u.u.t.t.u.OXOXOXu.6.7.7.7.6.7.t.t.OX#X,X<X<X<X<X1X1X1X1X<X,X,X#XoXr.*.O.o.g g #.h B D F F D G 3 V 3 + v G D D D D D A ",
"c c c c c c c c c c c c x x v 5 + 5 v B B B B v v v v c c x , X r r r t t +.<.r.u.i.+X+X$X%X<X<X<X1X1X1X2X2X2X2X2X2X2X&X%X%X#X#X#X+X@XoXoXXXu.OXu.t.t.r.0.0.r.r.t.t.t.t.XXXXXXXXXXXXXX{.7.7.7.7.7.7.7.XXXXXXXXXXt.7.7.7.7.7.6.6.6.<.<.+.l k P S G G G D G G G G G G G F v P Q P P P L L L s 7 6 & X X & 7 L R R Y Y R L s u 6 7 s L L L L L L L L L m L L L L L L L L L L L L L L R L L L L L L L L L L L L L L L L L L L L L L L L L L L L L L L L L L L L R L L L L L L L L L L m m m m m m m s s s s s s j I z z z z z z z z z z I L L L L L L m L L L L L L L L L L L L L L m m L L L L L L L m m m m m j j j j j j j j L j j j L L L L L L L L L L L L L L L L L L L L L L m m L L L L L L L m m m m L L L L L L L L L L L L L L L L L L L s 6 * 6 p s m m m m L L u & # # # & * : < < * * * * * & 7 ` G ( ( ( ( J J ( ( H ( ( K J H H H H H H H G H J J J J H Q w.w.q.r.r.y.y.y.u.u.XXXXXXXXOXOXXXXXt.t.t.oXoXoXoXu.u.XXXXoXoXu.u.u.u.t.t.t.u.i.OXu.t.6.6.6.6.*.7.7.t.OX#X,X,X<X<X<X<X<X<X<X,X,X,X#XoX0.*.O.O.+.#.k   + B D G D D v Z 8 o 8 Z D D D D D D ",
"c c c c c c c c c c c x c v v 2 @ 8 v v B B v c c c c c c c 4 2 - r r t t t o.%.r.i.i.+X$X%X<X<X&X<X1X1X1X1X1X2XqX2X2X<X%X#X#X#X#X#X@XoXoXt.t.t.u.u.t.r.0.0.r.r.t.t.u.#X,X+XOXXXXXXXXXXXt.7.t.t.7.XXXXXXXXXXXXXXt.7.7.7.7.6.6.6.6.<.<.l k i Z D D G D D G G G D G G G G v L P P P P P L L s 7 6 * $ X & i L I R R R R L s u * 7 i h j L L L L L m m m L L L L L L L L L L L L L L L L R L L L L L L L L L L R L L L L L L L L L L L L L L L L L L L L L L L L L L L L L L L L L L L L m m m m m m s s s s s j I z z z z z z z z z z I L L L L L L m L L L L L L m m m L m m m m m m m L L L L L L L L L L L L L L L L L j j j j j j L L L L L L L L L L L L L L L L L L L L L L m m L L L L L L L L L L L L L L L L L L L L L L L L L L L L L L s 6 * 6 p s m m L L L m u & # # # & < < < < < < * * * * 6 E G ( ( ( ( ( J J K J H H K H H H H G G H H H H H H H H H G h q.q.q.r.y.r.t.t.t.t.u.XXXXOXOXOXXXXXXXXXoXoXoXoXXXXXXXXXXXXXu.u.u.u.r.r.r.u.u.u.t.6.6.*.6.6.6.6.7.t.OX#X,X,X,X<X<X<X%X#X%X,X,X,X#Xu.0.0.%.%.#.#.! 5 @ V v v v Z v Z 8 o 8 C C D D D D A ",
"c c c c x x c c c c c c c c v 2 O 2 v B B B v c c c c c c c v 3 7 r r t t t t +.%.r.i.+X%X<X1X1X1X1X1X1X1X1X1X2X2X2X2X<X%X#X#X#X#X#X+XoXu.t.t.t.u.u.t.r.r.r.r.r.t.t.OX-X,X+XOXXXXXXXXXXXXXXXXXXXXXXXXXXXXXXXXXXX7.7.7.7.7.6.6.6.6.<.<.#.g h S G G G D D D G G G G G H G v P P P P P P L L s 7 6 * X X & 7 L R R I I I L s u * 7 i s j j L L L L m s m L m m L L L L L L L L L L L L L L L L L L L L L L L L R L L L L L L L L L L L L L L L L L L L L L L L R L L L L L L L L L L L L L L L L L L L L L L L L I z z z z z z z z j L L L L L L L L L L m m m L m m m m m m m m m m m L L L L L L L L m m m m L L L L j j j j j j j j L L L L L L L L L L L L L L L L L L L L m m m m L L L L L m m L L L L L L L L L L L L m m m m m L L L L L L s 6 & 6 p s m L L L L m u & # # # & * * * * * * * * * * 6 E S ( ( H H ( J K J J J H K H H H G G G H H H H H H H H H H Z ! >.q.q.y.r.r.r.t.t.t.t.XXOX+X+X+XOXOXOXXXXXXXXXXXXXXXXXXXOXu.u.u.t.r.6.6.r.u.u.r.6.%.%.*.6.7.6.6.t.OX#X,X,X<X<X<X<X%X#X#X%X,X,X#XoXr.0.%.%.%.#.7 0 , 9 , o o v Z C 3 + 8 C D D D A C A ",
"c c c c c c c x c c c v v v v 2 X 2 v v v v v v c c v v c c c x 5 i r r t t t g +.<.u.i.,X<X2X2X2X2X1X1X1X1X1X2X2X2X2X<X&X#X#X#X%X#X#X+XOXt.r.r.r.r.y.r.r.r.r.r.t.t.u.+X+XOXOXOXOXOXXX7.t.t.XXXXXXXXXXXXXXXXXXt.7.7.7.7.7.6.6.6.6.<.<.#.h Z A G D D D D G G D G G G G G v P P P P L P L L s 7 6 * X X & 7 j L R I I R L a u * 6 i s j L L L m m m s m L m L L L L L L L L L L L L L L L L L L L L L L L L L R L L L L L L L L L L L L L L L L L L R R R R R R L L L L L L L L L L L L L L L L m L L L L L L L I z z z z z z z z L L L L L L L L L L L L L m L m m m m m m m m m m m L L L L L L L L m m m m L L L L j j j j j j j j L L L L L L L L L L L L L L L L L L L m m m m m L m m L L m m L L L L L L L L L L L L m m m m m L L L L L L s 6 & 6 p s m L L L L m u & # X # & * * * * * * * * * * 6 E S ( ( ( ( J H K H J J H H H H H H G G H H H H H H H H H H G Q ! >.q.r.6.r.6.r.r.t.t.t.OX+X+X#X#X+X@XoXOXXXt.XXXXOXXXXXu.u.u.t.r.6.6.6.6.r.r.6.%.%.%.*.7.7.6.7.t.OX#X,X,X<X<X1X1X,X#X#X%X%X,X+Xt.*.0.0.%.%.k @ 0 , b 2   o b C C 3 o 2 B C A A A C C ",
"c c c c c c x c c c c c c c v 2 o 2 v v v v v v v c c c c c v v 3 6 r r r t t t o.$.r.u.+X,X1X2X1X1X1X1X1X1X2X2X2X2X2X1X<X#X#X#X%X#X#X#X+Xu.t.r.r.r.r.r.r.r.r.r.r.t.t.t.u.t.t.t.XXOXXX7.7.7.t.t.t.t.t.t.t.t.t.7.7.7.6.6.6.6.r.6.<.<.<.l h S D D D G G G F G G G G G G G c L P P P P I L L s 7 6 * X X & 7 L L R I I I L a u * 6 i s j L s s m m m m m L m m L L L L L L L L L L L L L L L L L L L L L L L L R L L L L L L L L L L L L L L L L L L R R R R R R L L L L L L L L L L L L L L L L m L L L L L L L I z z z z z z z z L L L L L L L L L L L L L L L m m m m m m m m m m m L L L L L L L L L L L L L L L L j j j j j j j L L L L L L L L L L L L L L L L L L L L L m m L L m s s s m m m m L L L L L L L L L L L m m m m m L L L L L L s 6 & 6 p s m L L L L m u & # # # & * * * < < < * * * * 6 E S H ( ( ( H J J H J H H H H H H H G H H H H H H H H H H H H S h T q.q.r.r.r.r.r.7.7.7.XXOX+X+X#X+X+X+XOXt.7.t.XXXXt.t.t.t.r.r.6.<.<.<.<.r.r.<.$.%.%.*.6.7.7.7.t.OX,X,X,X<X<X2X1X<X%X#X#X#X#XoXt.0.0.*.q.<.h 8 9 @ b 2 > V Z C C 4 + 5 B C C C C C C ",
"c c c c c c c x x c c c c c v 9 8 v v v c c c c c c x c c v c c x 8 i r r r r t t +.6.r.i.+X,X,X,X<X1X1X1X<X<X1X1X1X1X<X<X#X#X#X#X,X,X#X+Xi.u.r.r.r.r.r.q.r.r.r.r.r.r.t.u.OX+X+XOXOXt.7.7.7.7.7.7.7.7.t.t.t.7.7.7.7.*.*.6.6.r.6.<.<.>.l P A D D D G G D G G G G G G G G c L P P P P P L L h 7 6 ; X X & i j L R I I I L a u * 6 i s j L m m m s s s s m m m L L L L L L L L L L L L L L L L L L L L L L L L R L L L L L L L L L L L L L L L L L L R R R R R R L L L L L L L L L L L L L L L L L L L L L L L L I z z z z z z z I L L L L L L L L L L L L L L L m m m m m m m m m m m L L L L L L L L L L L L L L L L L j j j j j L L L L L L L L L L L L L L L L L L L L L L m m L L s s s s s s m m L L L L L L L L L L L m m m m m L L L L L L s 6 & 6 p s m L L L L m u & # # # & * * * < < < * * * * 6 E S ( ( ( ( H J K H K H H G H H H G H H H H H G H H H H H H H G S h q.q.q.r.r.r.r.t.7.t.t.XXOXOX+X+X+X@XOXt.7.t.t.t.7.7.7.r.6.6.<.<.<.%.<.6.6.<.%.%.%.*.6.7.7.7.t.+X,X,X,X<X<X2X2X1X,XoXoXoX+Xt.r.r.0.%.%.l V 9 , > v Z Z Z C C C v + 5 B C C C C C C ",
"x x c c c c c c c c c c c c c v v v v v c v v v c c c c c c c c v 4 ; r r t t t t o.@.6.t.i.+X%X,X,X<X,X<X<X<X<X<X<X<X<X,X#X@X@X#X,X,X,X,X+Xi.y.r.r.q.q.q.<.<.q.6.6.6.r.u.OX,X,XOXOXt.7.7.7.7.7.7.7.7.7.7.7.7.7.7.6.*.6.<.6.r.r.<.<.>.j Z D D D D D A G G G G F G G G G v P P P E I P L L s 7 6 * $ X & i j L R R R R L s u * 7 i s j L L L L s s s j j j L L L L L L L L L L L L L L L L L L L L L L L L L R L L L L L L L L L L L L L L L L L L R R R R R R L L L L L L L L L L m L L L L L L L L L L L L j I I z z z z z I I L L L L L L L L L m m m m m m m m m m m m m m m m m L L L L L L L m L L L L L L L L j j j j j j j j L L L L L L L L L L L L L L L L m m L L L m L L s s s s s s L L m L L L L L L L L L L m m m m m L L L L L L s 6 * 6 p m L L L L L m u & # # # & * * * * * * * * * * 6 E S ( ( ( ( H H J J H H H H H H G H H H H H H G H H G H H G G H G 5 >.q.q.r.r.r.r.r.r.t.t.t.t.XXXXOXOXOXXXXXXXt.t.t.7.*.%.<.<.<.<.<.$.$.$.<.<.%.$.%.%.6.r.r.7.t.t.+X,X<X<X1X2X2X2X1X,XoXt.0.t.t.0.0.0.%.#.5 Z B B Z Z S Z C C C C v + 3 B C C C C C C ",
"x c c x c c c c c c c c c x c c x c c c c v c c v v c c v c c v v c 3 ; r t r t t t o.%.r.t.u.+X+X#X#X#X%X%X<X<X<X<X<X<X#X#X#X@X#X,X,X,X,X>X$Xi.r.q.q.r.q.q.q.q.<.%.%.6.r.r.u.u.OXOXu.t.t.7.7.7.t.7.7.7.7.7.t.7.6.6.6.<.<.<.r.<.<.>.;.P S D G G C C D G G G G G G G G G v P E R E E E R L j i 6 & $ X & 7 h L R R I R L p u 6 7 i L L L L L L L z I z z z L I L L L L L L L L L L R L L L L L L L L R R E E E L L L L L L L L L L L L L L L L L L R R R R R R L L L L L L L m L m m L L L L m m L L L L L L L s L L L L L L L L L L L L L L L L L L L L L m s s s s s s s s s s s s s m L L L L L L L L L L L L L L j j m m L L L s s j L L L L L L L L L L L L m m L L L L L L L L m m m s m m L L L L L L L L L L L L L L L L L L L L L L L L s 6 * 6 p s s L m m m m 6 & X # & & * * * * : 6 * * < * 6 R S G ( G H H H J H H H G H H H G H H H H H H H H H H G H H H H G S #.q.r.y.y.y.r.r.6.r.t.t.t.u.u.XXXXOXOXXXXXOXXXt.7.*.$.$.$.$.#.#.#.#.#.$.$.$.@.%.*.6.t.t.t.t.t.+X,X2X2XqXqXqX2X2X1X@Xt.0.*.*.*.*.%.#.>.B S S Z Z S S Z C C C C v + 2 B C C C C C C ",
"x x c c c c c c c c c x c x c c c v v v c v v c x c c c v c c v v v x 2 - r t t t t t O.%.r.r.u.OX+XoX+X#X#X,X2X2X<X<X,X#X#X#X#X#X,X,X,X>X>X>Xi.r.q.q.q.q.q.q.<.%.%.%.%.%.%.6.r.r.y.t.t.t.t.7.7.t.7.7.7.7.7.t.r.6.6.<.<.<.<.<.<.>.;.l V D G G D D D D G G G G G G G G G v P E E E E E R L L a 6 & $ X & 7 h L I R R R m p u 6 7 i L L L I z z z z z z z j L I L L L L L L L L L L R R L L L L L L L R E E E E L L L L L L L L L L L L L L L L L L L R R R R R L L L L m L L L L m m m L L L m m L L L L L L L m L L L L L L L L L L L L L L L L L L L L L m s s s s s s s s s s s s s m L L L L L L L L L L L m L L L L m L L L m s s s s L L L L L L L L L L L L L L L L L L L m m L m m m m m L L L L L L L L L L L L L L L L L L L L L L L L s 6 * 6 p s s m m m m m 6 & X # & * * * * * 6 6 * * 6 * * E ^ ( H H ( H H H H H G G H H H G G H H H G H G G H H H H H H H H G ! q.q.y.y.y.r.r.*.7.r.t.t.t.u.t.XXXXXXXXOXXXt.t.6.%.@.#.#.#.#.#.+.+.+.+.+.+.$.*.6.r.t.t.u.t.XX+X<X2XqXqXqXqXqX2X1X@XXX0.*.&.&.%.%.+.P v C V V v v 3 3 B C C C v + 2 B C A C C C C ",
"c c c c c c c c c c c c c c c c v v v v v v v v c c c c v v c c c c c 4 7 k t r t t t o.%.*.r.t.t.OXoXOX+X+X,X2XrX2X<X,X#X,X#X#X#X,X,X,X>X>X>Xi.y.r.q.q.q.q.q.%.%.%.#.#.#.+.$.%.%.6.7.t.t.XXXXXXt.t.7.t.7.7.0.r.6.%.%.$.<.<.<.<.>.;.L C G G G D D D G D G G G G G G G G v P R E E E E R L L a 6 & $ X & 7 h L I R I R m p u 6 7 i L L L I z z z z z z z j z I L L L L L L L L L L R R L L L L L L L R E E E E L L L L L L L L L L L L L L L L L L L R R R R I L L L L m L L L L m m L L L L m m L L L L L L L m m L L L L L L L L L L L L L L L L L L L L m s s s s s s s s s s s s s m L L L L L L L L L L m m L L L L m m s s s s s s s L L L L L L L L L L L L L L L L L L L m m L m m m m m L L L L L L L L L L L L L L L L L L L L L L L L s 6 * 6 p s s m m m m m 6 & X # & * * * * * 6 6 * * 6 * * P S ( H H H H J H J H H G G H H H H H H G G H G G G G H H G H H H H Q >.q.y.y.y.r.r.r.*.7.r.t.t.t.t.t.OXXXOXOXXXt.7.6.%.o.+.+.+.+.+.+.+.+.+.+.+.%.6.r.t.u.u.u.oXoX,X2XrXrX2X2XqXqX2X1X%XoXt.*.&.%.%.#.r @ + + + o o 3 2 v C C C C v + 2 B C C C C C C ",
"c x c c c c c c c c c c c c c c v v c c c c c c c c c c v v v v v v v v 3 : k t t t t o.+.%.*.r.u.t.u.oXOXoX#X2XrXrX2X<X,X#X#X#X#X,X,X<X1X1X>X>Xy.r.q.q.q.q.q.q.q.%.#.#.#.+.+.@.$.%.6.t.t.XXXXXXXXt.t.t.t.0.t.r.6.%.$.#.#.#.#.#.;.l L D D D G G G D G G D G G G G G G G v P E E E E E R P L a 6 & $ X & 7 h L R R R R L p u 6 7 a L L L L j j j z z z z z z I L L L L L L L L L L R R L L L L L L L R E E E R L L L L L L L L L L L L L L L L L L L L L L L L L L L L L L L m m m m m m L L L L L L L L L L L L L L L L L L L L L L L L L L L L L L L L L m m m m m m m s s s s s s s m L L L L L L L L L L m m L L L s s s s s s s s s s s m L L L L L L L L L L L m m m L L L L L m m m m m m L L L L L L L L L L L L L L L L L L L L L L L L s 6 * 6 p s s m m m m m 6 & . # & * & * * * 6 6 * * 6 * * E Z H H H H H H J H G G H G H H H H H G H H H H H H H H H G H H H H Z Y w.r.r.r.r.0.0.*.6.r.r.t.t.t.XXOXOXOX+XOXt.7.6.%.o.o.o.+.+.#.#.#.+.+.o.@.6.r.t.u.u.u.OXoX#X<XqXrXrXqX2XqX2X2X1X%X+XoX0.&.&.%.q.i , 2 , o o v ^ G S S S C C v + , B C C C C C C ",
"x x c c c c c c c c c v c c v v c c v c v c c v c c c v c c c c v c v B x 2 i g t t o.t o.%.*.r.t.t.t.t.XXXX@X<XrXrXrX2X<X#X#X#X,X,X,X1X2X2X>X>Xi.y.q.<.<.<.<.q.q.q.#.#.#.o.o.+.%.r.u.u.oXoXXXXXXXXXXXXXt.t.r.r.6.$.#.#.#.#.#.#.l j V G G G G G G D G G G G G F G G G D v P E E E E E R L L a 6 & $ X & 7 h L I R I R m p u 6 7 i L L L L j z j z z z z z z I L L L L L L L L L L R R L L L L L L L R E E R R L L L L L L m L L L L L L L L L L L L L L L L L L L L L L L L m L m m m m L L L L L L L L L L L L L L L L L L L L L L L L L L L L L L L L L m m L L L L L s s s s s s s m L L L L L L L L L L m m L L L s s s s s s a p s s s s m L L L L L L L L L L m m m L L L L L m m m m m m L L L L L L L L L L L L L L L L L L L L L L L L s 6 * 6 p s s m m m m m 6 & . # & * & * * * 6 6 * * 6 * * P Z ( H H H H H H H H H H ( ( H ( H H H G G H H H H H G H H H H H G C S T q.q.q.<.%.%.%.6.6.r.t.t.t.XXOXOXOX#X#XXX7.*.%.o.o.o.+.+.+.#.+.#.+.+.$.6.t.u.u.+X+X+X+X,X2XqXrXrXqX2X2X2X2X1X%X%XoXt.*.*.%.q.P Z S ^ Z ^ Z D G D D Z Z Z v o 0 ^ Z Z C C C C ",
"c c c c c c c c c c c c v c c x c c c c c x x c c c c c c v v v v c v v c 4 ; t t t o.o.o.%.*.*.r.r.t.t.t.t.XX,XqXrXrX2X<X#X#X,X,X,X,X1X2X2X>X>Xi.y.%.%.%.<.<.q.<.<.#.#.+.o.o.+.<.u.+X+X+XOXXXXXXXOXXXXXXXt.t.r.6.%.#.#.#.#.+.l z h Z D D D D G D D D G D D G G F G G G v P E E E E E R P L a 6 & X X & 7 h L R R I R L a u 6 7 i L j L I z z z z z z z z z I L L L L L L L L L L R R L L L L L L L R R R R L L L L L L s m m m m L L L L L L L L L L L L L L L L L L L L L L L m L L m L L m m L L L L L L L L m m L L L L L L L L L L L L L L L L L L L m L L L L L L m s s s s s s m L L L L L L L L L L L L L L L m s s m L s s p p a s s s L L L L L L L L L m m m L L L L L L L m m m m m L L L L L L L L L L L L L L L L L L L L L L L L s 6 * 6 p s m m m m m m 6 & . # & & & * * * 6 6 * * 6 * * P Z G ( H H H G H H H H H H H H H H G H H G H H H H G H H H H H H G G D 0 q.q.<.%.%.%.%.%.6.r.t.7.t.XXXXXXOX,X,X+Xr.*.%.@.@.+.+.+.+.+.#.#.$.%.r.r.u.u.+X+X#X#X+X,X2X2X2X2X2X2X2X2X2X1X%X#X+XoXr.*.%.>.S Z G S B B Z Z S Z C b 9 +   o o + + > v C C C ",
"c c x x c c c c c c c c c c c c c v c c c c v v c c c c x c c c c c v v v 4 @ l o.o.o.o.o.%.*.*.r.r.*.7.t.XXXX#X<X2X2X2X<X,X#X#X,X,X#X,X1X2X1X>X>Xi.r.q.$.<.q.q.q.#.#.#.+.o.#.%.r.y.,X,X+Xt.t.t.XXOXXXXXXXt.t.6.6.%.#.#.#.+.+.l z V A D D D G G G D G G G G G G G G G G v P E / E E E E L h a 6 & X $ & 6 h L R R R R L s p 6 7 s L L L z j j j j z z z z z I L L L L L L L L L R R R L L L L L L L L L R L L L L L L s s s s s s s L L L L L L L L L L L L L L L L L L L L L L L L L L L L m m L L L L L L L L m m m L L L L L L L L L L L L L L L L L L m m L L L L L m s s s s s s m L L L L L L L L L L L L m s s s s s s s s s s s s s s s L L L L L L L L L L L L L L L L L L L L m m L L L L L L L L L L L L L L L L L L L L L L L L L L a 6 * 6 p s L m m m m m 6 & X # & & & * * * * 6 < * * * & L S H ( J H H H H H H G H H G H ( H G H H G G H G G G G H H H G G G G G S #.#.#.%.%.%.%.r.r.r.t.t.XXXXt.XXOX#X<X#Xt.*.%.$.$.$.$.#.#.#.#.$.%.r.r.y.u.u.i.+X,X,X#X,X1X<X<X2X2X2XqXqX2X1X%X#X+XoXt.%.$.7 S ^ Z b 8 2 + o o o o o     + V S S S Z C C C C ",
"c c c c x x c c c c c c c v c c c c c c c c v v c c c c c c v v c x x x c v 3 T ;.+.+.o.+.%.%.*.*.*.*.&.t.XXoX#X,X<X<X<X<X<X#X#X,X,X#X,X<X2X1X>X>X+Xi.y.q.%.%.%.#.#.#.#.#.%.<.r.r.u.,X,XoXt.7.7.t.XXXXXXt.t.7.6.6.<.$.#.#.+.#.l I Z D D D D D G G G G D G G G G G G G G B P E / E E E E L h a 6 & X $ * 6 s L I R R R L s i 6 7 s L L L z z j j j z z z z z I L m L m L L R R R R R L L L L L L L L L L L L L L L L L s s s s s s s L L L L L L L L L L L L L L L L L L L L L L L L L L m L L m L L m m m m L m m m m m L L L L L L L L L L m m L L m m m m m m m m m m m m m m m m m m L L L L L L L L m m s s m m m s s s s s p s s s s s s s m L L L L m L L L L L L L L L L L L L L L L L L L L L L L L L L m m L m L m m m m m L L L L L L a 6 * 6 p s s m m m m m 6 & X # & & & * * * * 6 6 * * * & L S ( H H H H H H H H G H H H H H H H G G G G G H G H G G H H H G G G D G Q l +.#.%.%.%.r.r.r.7.t.t.7.t.t.t.OX+X+Xr.7.6.*.6.<.%.%.$.%.%.<.r.r.u.u.u.u.+X,X<X<X#X#X<X<X<X1X2X2XqX2X1X<X%X#X+XoXr.*.>.o + + + + + + + o o o o     o > v C S S C C A C C ",
"x c x x c c c c c c c c c c c v v c c c c c c v c c c c c c c c v v v c c v x ! 3.>.@.@.$.%.%.*.*.&.&.&.t.OX+X#X<X<X<X2X2X<X#X#X#X#X#X%X,X1X2X2X>X>X$Xy.r.%.%.%.%.%.%.<.<.<.y.y.i.i.,X+Xu.t.7.7.t.XXXXXX7.7.7.6.6.<.<.$.$.+.+.z L Z D D D D D D D G G D G G G G G G G D B P E / E E E E L h a 6 & X $ * 6 s L R R R R L s p 6 7 s L L L z z j j j z z z z z I s m m m m L L R L R L L L L L L L L L L L L L L L L L L L s s s s s s L L L L L L L L L L L L L L L L L L L L L L L L L L L m L m L L m L m m L m m m m m L L L L L L L L L L m m L L L L m m m m m m m m m m m m m m m m L L L L L L L m m m s s m m m s a a s a p a s s s s s s m L L L L L L L L L L L L L L L L L L L L L L L L L L L L L L L L L L m L m m m m m L L L L L L a 6 * 6 p s s m m m m m 6 & X # & & & * * * * 6 6 * * * & L S ( H H H H H H H H G H H H H G G H G D D G H G G H G G G G G G H H G G P k k +.#.%.0.r.r.t.7.7.7.7.7.7.t.OX,X,X+Xt.t.7.6.6.6.6.6.6.r.r.r.u.u.u.OXu.+X,X2X2X,X@X%X<X<X1X2X2X2X1X1X&X%X#X+Xu.0.%.Y 2 3 b v V Z Z Z Z Z C b + + V C B C C C C A C C C ",
"c c c x c c c c c c c c c c c v c v v c c v B v v c c x c c x x c v v v v v v 8 i >.+.$.$.%.%.%.@.@.&.*.t.+X#X#X<X<X<X2X2X2X,X#X#X#X#X#X#X,X2X2X1X>X>Xi.y.0.%.%.%.%.<.r.r.r.y.i.i.+X,X#Xi.t.&.7.t.XXXXXXt.7.7.7.6.r.r.<.>.+.+.z V A D D D D G G D G D D G D D G G F D F B P E / E E E E L h a 6 & X $ * 6 s L R R R R L s p 6 7 s L L L j j j j j z z z z z I s m m m s L L L L L L L L L L L L L L L L L L L L L L L L s s s s s s L L L L L L L L L L L L L L L L L L L L L L L L L L L m L L L L L L m m L m m m m m L L L L L L L L L L m m L L L L m m s s s s s s s s s s s s s m m L L L L L L L m m m m m s s s p p p p p a s s s s s s m L L L L m L L L L L L L L L L L L L m L L L L L L L L L L L L L L L L L m m m m m L L L L L L a 6 * 6 p s s m m m m m 6 & . # & & & * * * * 6 6 * * * & L S H H H H H H H H H G H H G G D G H G G G G G G G G G H G G G G G H G G Z h k #.%.%.6.6.t.t.t.t.7.7.7.7.7.t.+X#X+XXXt.t.t.t.r.r.r.r.t.r.t.t.u.u.u.oX#X<X2X2X<X@X#X<X1X2X2X2X2X1X<X%X%X%X+Xi.r.l b Z C Z Z D D S S S D G S 2 > v Z C C C C C C C C C ",
"x x c x c c c c c c c c c c c c c c c c c v v v v v c x c c c c c v v v c v v 9 7 >.#.#.$.$.%.@.O.O.&.t.OX#X,X,X,X#X#X<X2X2X<X,X#X#X#X#X+X#X<X2X1X1X>X>Xi.r.0.0.r.r.r.r.r.r.y.i.u.+X,X+Xt.7.&.&.t.t.t.XX7.7.7.7.7.t.r.6.<.>.;.I V A D D D D D D D D D D D D D F F F F G B P E E E E E E P h a 6 & X $ * 6 s L R R R R L s p 6 7 s L L L j j j j j z z z z z I s m m m m L L L L L L L L L L L L L L L L L L L L L L L s s a s s s m L m m m m m m L L L L L L L L L L L L L L L L L L L L L L L L L L L m m L m m m m m L L L L L L L L L L m m L L L L m m s s s s s s s s s s s s s m L L L L L m s s s s s s s s s s p p p p p a s s s s s s m L L L m m L L L L L L L L L L L L L m m m L L L L L L L L L L L L L L L m m m m m L L L L L L a 6 * 6 p s s m m m m m 6 & # # & & * * * * * 6 6 * * * & L S H H H H H H H H H H G G H D D G H G G H G H G G G G G G H G G G G H G G h k #.%.%.r.r.t.t.t.7.7.7.7.7.7.7.7.t.t.t.t.t.u.u.t.t.t.t.u.u.OXu.t.t.XXoX,X2X2X2X2X#X@X%X1X1X2X2X1X1X%X%X$X$X+Xi.r.Y Z D D D D D D S S S D Z D 2 > v C C C C C C C C C C ",
"x c x x x x x c c c c c c c c c c c c c c c v v v x x v c c c c c c c c v v v c 9 w.#.#.#.$.$.O.O.O.6.u.-X,X,X<X<X,X#X<X1X2X1X,X#X#X#X+XoX+X,X1X1X<X>X>Xi.u.t.r.r.r.r.r.r.r.y.t.r.t.u.t.6.*.&.&.&.7.7.7.7.7.7.7.t.7.r.r.6.<.;.I C A D D D D D D D D D D D F G G D F G D B P R E E E E P L a a 6 ; X X ; 6 h L I R R R L s p 6 7 s L L L j j j j j z I I I I L s m m m s L L L L L L L L L L L L L L L L L L L L L L L L s p a s s m L s s m m m m m L s s L L L L L L L L L L L L L L m L L L L L L L L m m m m m m m m L L L L L L L L L L L L L L L L L m s s s s s s s s s s s s s s s s s s s s s s s a p s s s s s s a p p p a s s s s s s m L L L L L L L L L L L L L L L L L L L L L L L L L L L L L L L L L L L L m m m m m L L L L L L s 6 * 6 p s L L L L L L u * # X & & & * * * * 6 < * * * & L S H H H H H H H H G H C G H G G G G G D G G G G G G G G G G G G G G G G G S T >.<.r.r.t.t.t.7.7.7.7.7.7.7.7.7.7.t.t.t.t.OXOXOX+X+X+X#X#X#XoXt.XXoX#X<X2X2X2X2X,X#X%X<X1X2X1X1X%X%X%X$X$X+Xi.r.P A D A D D D A A D A D D Z 3 > v C C C C C C A C C C ",
"x c x c x c c c c c c c c c c c c c c c c c v v v x 4 x c c c c c c c c c v v x x 3 w.q.#.#.@.O.O.O.*.i.,X,X,X<X<X<X<X<X<X<X2X2X#X+X#X+XXXXX@X,X,X<X,X,X+Xu.t.t.y.y.r.r.r.y.y.t.t.t.t.7.6.*.&.&.&.&.7.7.7.7.7.7.7.t.t.6.6.:.;.P C D D D D D D D D D D D D D D D D D D D B P R E E R E L L a 7 6 & X X & 7 h L R R R R L m u 6 6 p L L L L L L L L L L L L L L s m m m m L L L L L s s m L L L L L L L L L L L I L L L j s s s s s j L L L L m s s s s s s s s L m m m m L m L L m m m L L L m s s L L L m m m L L L L L L L L L L L m m m m m m m m m m m m s s s s s s s s s s s s s s s s s s s p p p p p p p p p p p p p p p p p a s s a a s s s s s s s m L L L L L m m m m m m L L L L m L L L L L L L L L L L m L L L m m L L L L L L L L s 6 * 6 p s L L L L L L u * # X & & * : : : 6 6 6 * * 6 * s Z H H G H H H H H H H G G G G G G G G G D G G D G G G G G G D D G G G G G G : #.<.6.7.7.7.t.7.t.7.7.7.6.6.7.7.7.t.XXOXOX+X+X+X+X+X+X#X#X#X@XXXXXoX,X1X2X2X2X2X<X,X,X1X1X1X1X%X%X%X$X$X$Xi.y.: C A A A D D D D A A A A D A 4 , v C C C C C A A C C C ",
"c c c c c c c c v c c v c c c c c c c c c v v c v c c c c x x x x c c c v v v v B x P k #.#.+.O.O.@.r.i.#X,X,X<X1X<X<X<X,X,X<X2X%X@X#X%X#XoXoX+X,X<X,X,X#X#XoXi.i.y.y.y.y.u.u.t.t.u.t.6.6.6.6.&.5.7.7.7.u.7.7.7.t.t.u.t.6.:.T V C A A D D D D D D D D D D D G D D D D D v P E E E E E L L a 7 5 & X X & 7 h P R R R L L m u 6 6 p L L L L L L L L L L L L L L m m m L L L L L L L m s L L L m m L L L L L L L L j j j s s s s s s s j L L L m s s s s s s s s L L L L L L L L L L L m L L L m s s m L L L L L L L L L L L L L L L L m m m m m m m m m m m m s s s s s s s s s s s s s s s s s s s p p p p p p p p p p p p p p p p p a s s s s s s s s s s s m L L L L L m m m m m m L L m m m m L L L L L L L L m m m m L L L L L L L L L L L L s 6 * 6 p s L L L L L L u * # # & & * : : : 6 6 6 6 * * * s Z H H G G H H H H H G H G H H G D D G G G D G G G G G D G G D G G G G G G G V #.6.7.7.t.t.t.7.7.7.7.*.*.*.*.7.7.t.XXOX@X+X#X+XoX@X#X#X<X,X#X@X@X@X<X2X2X2X2X2X<X<X<X<X<X<X<X%X%X$X$X$X+Xi.q.f A D A C D D D A A A A A A C v , b C C C C C C A A C C ",
"x x x x c c c c v c c c c c c c c c c c c v v c c c c c x x x 4 4 4 x c v v v v v B x 5 >.#.#.O.O.*.t.+X+X#X,X,X1X<X<X<X,X,X2X2X,X+X,X<X<X#XoXOXoX#X,X,X,X,X#X+X+Xi.i.i.u.t.t.u.u.u.u.7.6.6.6.6.5.7.7.u.u.7.7.7.7.t.t.7.6.:.T v C D D C D D D D D D D D D D D D D D D D v P E R R E E L L a 7 5 * X X & 7 L P L R R L L m u 6 6 p L L L L L L L L L L L L L L L L L L L L s s s s m m L L L m m L L L L L L L L L j j s s a s s s j j L L L m s s s s s s s s L L L L L L L L L L L L L L L m s s m L L L L L L L L L L L L L L L L m m m m m m m m m m m m s s s s s s s s s s s s s p p p p p a p p p p p p p p p p p p p p p p p a s s s a a s s s s s s m L L L L L m m m m m m L L m m m m L L L L L L L L m m m m L L L L L L L L L L L L s 6 * 6 p s L L m L L L u * # # & & * : : : 6 6 6 6 < * * a S H H H H H H H H G G G G G H G G G C D D G G G D D G G G G G G G G G G G G C >.<.r.7.t.t.t.t.7.7.*.*.*.*.*.7.7.t.XXOX@X@X#X+XoX@X#X<X<X<X#X#X#X#X<X2X2X2X2X2X<X,X<X,X,X%X%X%X$X+X$X$Xi.y.w.C A C A C D A C A A A A A A C B , b C C C C C C C C C C ",
"x x x x x x c c c c c c c c c c c c c c c x c c c c c c c c c x x x x c c c c v v v v 4 ; k %.O.%.*.t.oX+X+X#X,X<X<X1X1X<X<X2X2X#X#X<X2X1X,X+Xt.t.OX+X#X,X,X,X,X,X+X+X+Xi.u.u.u.u.u.t.7.6.6.6.6.6.7.7.7.7.7.7.7.7.8.8.6.6.>.E B A C A D D D D D D D D D D D D D D D D D v P P E E E E L L a 7 6 ; X X & 7 L L L R R L L m u 6 6 p L L L L L L L L L L L L L s m m m L m s a s s s s m L L L m m L L L L L L L L L L j s s a s s s j L L L L m s s s s s s s s L L L L L L L L L L L m L L L m s s m m m L L L L L L L L L L L L L L L L L L L L L m m m m m s s s s s s s s s s s s s s p p p p p p p p p p p p p p p p p p p p p p a s s s s s s s s s s s m L L L m m m m m m m m L L m L L L L L L L L L L L m L L L L m L L L L L L L L L L s 6 & 6 p s L L m m L L u * # # & & * : : : 6 6 6 6 6 < * s Z H H H H H J G G H G G G H H G G G G D D D G D D D G D G G G G G G G G G G S ! <.r.t.t.t.t.t.t.t.*.*.*.*.*.7.7.t.OXOX+X#X#X@X@X#X<X<X<X<X#X@X#X,X<X2X2X2X2X1X,X,X%X%X$X$X$X$X$XoXoXi.y.y.w.C D D D C D D D D A C A A A D Z 2 b C C C C C C C C C C ",
"x x x x x c c c c c c c c c c c c c c x x x c c c c c c c c c 4 4 x c c c c c v c c v x 3 k #.%.*.7.t.oX+X+X#X,X,X<X<X<X<X<X1X,XoX#X1X2X2X<X#XOXt.t.XXoX,X<X,X,X,X#X,X,X,X#XoXXXt.t.t.7.6.6.6.6.6.6.6.7.7.7.7.7.7.8.6.6.<.>.P C A A A A D D D D D D D D D D D D D D D D v L P E E E P P h a 7 6 ; X X & 7 L L L R R L L L u 6 6 p L L L L L L L L L L L L L s s s s s s s p p s s L L L L L m m L L L L L L L L L L j s s a s s s s j L L L m s s s s s s s s L L m L L L L L L L L m L L L m s s m L L L L L L L L L L L L L L L s s s s s s s s m m m m m s s s s s s s s s s s s s p p p p p p p p p p p p p p p p p p p p p p p a s s s s a s s s s s s m L L L m m m m m m m m L m L L L L L L L L L L L L L L L L L m m m L L L L L L L L s 6 & 6 p s L L m m L L u * # # & & * ; : : 6 6 6 < < 6 * a S H J H H H H H H H H H H H G G G D D G D G G D D D G G D G G G G G G G G D G V $.*.t.7.t.7.t.t.r.*.*.*.*.*.*.t.t.OX+X+X#X#X#X#X<X<X<X<X#X#X@X#X<X<X2X2X2X2X<X,X#X#X+X+X$X+X+X+XoXi.y.r.>.P C C D C C C D D D A A C A A C Z 2 b C C C C C C C B C C ",
"c x x x x c c c c x c c c c c c c c c c c c c c c c c c c x x x x x c c c c c v c v v v x P #.%.*.0.t.oX+X+X#X#X,X,X<X<X<X<X<X#XoX#X1X2X2X<X,X#XOXXXt.OX,X<X<X,X,X#X#X,X,X+XOXXXt.t.7.7.6.6.6.6.*.6.6.t.u.t.u.u.u.u.6.6.<.T Z C C C C C D D D D D D D D D D D D D D D D 4 L E E E P P P L a 7 6 * X X & 7 L L R R R L L L u 6 6 p L L L L L L L L L L L L L s p s s p p p p p p s s s L L L L L L L L L L L L L L j j s s s s s s s j L L L m s s s s s s s s L m m m m L L L L L L L L L L m s s L L L L L m s m L L L L L L L L s s s a p p s s m m m m m s s s s s s s s s s s s s p p p p p p p p p p p p p p p p p p p p p p p a s s s s s s s s s s s m L L m m m m m m m m m m m L L L L L L L L L L L L L L L L L m L m m m L L L L L L s 6 & 6 p s L L m m m L u * # # & & * ; ; ; 6 6 6 * * * * i S H H H H H H H H H H G H H G G G G G D D G D D D D D G G D G G G G G G G G G B #.r.7.7.7.7.t.r.7.6.*.7.7.*.*.t.t.OX@X#X#X#X#X<X<X<X<X<X%X#X#X#X&X1X2X2X2X<X,X#X+X+X+X+X+X+Xi.i.i.i.y.r.l v C A D D C C A A A A A A C A A S 2 v Z C C C C C C C C C ",
"x x x x x x c c c c x x c c c c c c x x c c c c c c c c c x c x x c x c c x c c c c v v c 4 i %.0.0.t.OX+X+X#X#X#X,X,X<X,X<X,X#XoX%X2X2X2X1X<X<X#X@X@X@X,X<X<X,X,X#XoXXXt.XXOXXXu.t.t.6.6.6.6.6.*.*.6.6.r.t.u.u.t.t.6.6.$.a B C C D A C D A A D A D D S D D F F D D D D 4 L P E R L P L L a 7 6 & X X & 7 L L R I L L L s 6 * 6 p s s L L L L L L L L L L s s p p p p i p p p p a s s L L L L L L L L L L L L L j s s a a s s s s s j m m m m m s s s s s s s L L L L L L s s s s s s s s s s s s L L m s s s p s s L L L s s s s a p p p p p p s s s s s s s s s s s s s s s s s s s p p p p p p p p p p p a s s s s s s s s s s s s s s s s s s s s s s s s s s s s s s s s s s s s m m m m m L m m L L L L L L L L L L m m m m m L L L L L L a 6 & 6 p s L L L L L m u * # # & & * ; ; ; 6 6 6 * * * * i Z H H H H H H H H H H G H G G G G D A D D D D D D D D G G D G G D G G G G G G C l 6.*.7.7.7.7.6.6.6.6.r.6.r.t.t.OX@X@X#X#X#X,X<X<X<X<X<X<X%X#X#X<X<X2X2X1X,X,X+X+X+Xi.i.i.i.i.i.y.y.r.q.P C D C C C C C A D A A A C C C C S 2 b Z C C C C C C C C C ",
"x x x x x x x c c c c c x x c c c c c c c c c c c c c c x c x x c x 4 x x x c v v v c c c x 8 l %.*.t.OX#X+X+X#X#X#X#X%X%X%X%X#X#X<X2XqX2X2X1X<X#X@X@X#X,X<X<X<X<X,X+XOXXXOXOXXXXXt.t.6.6.6.6.6.%.6.6.6.6.6.6.6.6.6.6.6.#.0 C C C C C C A D A C C D C S D D D D D D D A 3 a L L L P P L L a 7 6 ; X X & 7 L L L L L L L s 6 * 6 p s s m m L L L L L L L L s s p p p i u u p p p p p s s L L L L L L L L L L L j s s a a p p a s s s s m m m m m s s s s s s s L L L L L L m m m m m m m m m m m L L L m s s s p s s L L s s s s s p p p p p p p a s s s s s s s s s s s s s s s s s p p p p p p p p p p p p s s s s s s s s s s s s s s s s s s s s s s s s s s s s s s s s s s s s s m m m m m m L L m m m L L L L L L L m m m m m L L L L L L a 6 & 6 p p L L m s s s u * . # # & * ; : : 6 6 6 * * * * i Z H H J H H H H H H H G H G G G F D C C D D Z D D F G G G D G D G G G G G G G D P #.*.6.*.&.6.6.6.6.6.6.r.r.t.u.OX+X#X#X#X,X<X<X<X<X<X<X<X<X#X#X<X<X1X1X<X,X+Xi.i.i.y.y.y.y.y.y.e.r.<.l V C C C C C C C C A A D D C D 4 B G 2 9 Z C C C C C C C C C ",
"x x x x x x x c c c c c c c c c c c c c x c c c x x c c c x x x 4 x x x c x x c c v c x x c x 2 >.%.t.+X+X+X+X#X#X#X#X%X#X%X%X%X,X<X2X2X2X2X2X<X#X#X@X#X%X,X<X<X<X,X#X#X@X@XOXOXXXt.r.6.6.6.6.<.$.%.%.%.%.%.<.$.%.%.%.%.l b C C C C C C C D D A C D A A D D D D A D C D 4 a L L L P P L L h 7 6 ; X X & a L L L L L L L s 6 * 6 p s s m L L L L L L L L s s s p i u u u 6 i p p p p p s m L L L L L L L L L L j s s s a p p s s s s s m m m m m m s s s s s m L L L L L L m m m m m m m m m m m L L L m s s s p s m L L L s s m s s p p p p p a a s s s s s s s s s s s s s s s s s p p p p p p p p p p p p s s s s s a s s s s s s s s s s s s s s s s s s s s s s s s s s s s s s s m m m m m m L L m m m L L L L L L L m m m m m L L L L m L s 6 & 6 p p L m s s s p u * # # # & * ; : : 6 6 6 * * * * p Z H H H H H H H G G H H G F G D D D C D D D D D D D D D D D D G G G G G G D G D S r @.%.*.*.*.6.6.6.6.6.r.r.t.OX+X+X+X#X#X,X<X1X1X<X<X1X1X<X%X,X<X<X<X<X,X#X+Xu.t.y.y.y.y.r.r.r.r.r.>.; v C C C D C C C A A D A C A Z 3 v G 2 9 C C C C C C C C C C ",
"x x x x x x x c c x 4 4 x x c c c x c c x c x x x x x c x x x c 4 4 c c x c c c c c c v c v v 4 T q.y.u.+X+X+X+X+X#X#X#X#X#X#X#X%X,X<X2X2X2X2X<X,X#X#X#X#X%X<X<X<X,X,X%X#X+XoXOXXXt.r.6.6.6.6.<.$.$.%.$.$.$.@.@.@.@.+.+.L B C A D C C C C A C C A A C C D D D D D D D C 9 s L L L L L L L h i 6 ; X X & a L L L L L L L p 6 * 6 p s s m L L L L L L L L s s p u u u u u u u i p p p a s s s L L L L L L L L L j s s a p p p a s s s s m m m m m m m m m m m L L L L L L L L L L L L L L L L L L L L L m s s s p s s L L L m m L m s a p p p p p a s s s s s s s s s s s s s s s s s p p p p p p p p p p p p s s s s a a s a s s s s s s s s s s s s s s s s s s s s s s s s s s s s s m m m m m L L L L m L L L L L L L L m m m m m L L m m m m a 6 & 6 p p L s s s s s u * # # # & * ; ; : 6 6 6 * * & * p Z H H G G G H H G H G F G F G G D D D D D D D D D D D G D G D D G G G G G G G G G B +.+.%.%.6.6.6.6.6.r.r.t.u.u.+X+X+X#X#X<X1X2X1X<X1X2X2X<X<X#X<X<X,X,X#X+Xi.r.r.r.0.0.r.r.e.q.e.q.>.9 C C C C C A C C C A A C C C S 2 v G 2 b C B C C C C C C C C ",
"x c x c x x x x x x x c x c c c c c c c c c c c c c c x x c c x x c c c c c c x x x x c c x c c b k r.y.i.oX+XoX+X+X+X#X#X#X#X#X#X#X,X<X2X2X2X2X<X#X#X#X%X%X<X<X<X<X<X,X%X#XoXoXt.t.r.6.6.6.6.<.$.$.$.$.@.@.@.+.+.+.o.k P C C C C C C C C C C A D D A C D D A D D C C C 9 n L L L L L L L h 7 6 ; X X & a L L L L L L m p 6 * 6 p s s m m L L L L L L L s s p u u u u u 6 u u i p p p p s s m L L L L L L L L j s s s p p p a s s s s m m m m m m L L L L L L L L L L L L L L L L L L L L L L L L L L m s s s s s L L L L L L L s s a p p p p s p s s s s s s s s s s s s s s s s s p p p p p p p p p p p p s s s s a a a a s s s s s s s s s s s s s s s s s s s s s s s s s s s s s m m m m m L L L L L L L L L L L L L m m m m m L L m m m m s 6 & 6 p p L m s s s p 7 * # # # & * * 5 6 6 6 6 < * * < p Z G H H G G G H G H H G G F G F D D G D D F D D D D D G G G D D G G G G G G G D D D h l #.%.%.<.<.6.6.r.r.u.u.i.+X+X#X#X#X<X2X2X2X2X2XqX2X<X<X<X,X,X,X#X+Xu.t.r.*.*.*.%.*.<.%.%.e.q.>.B D D C C C C C A A C C C C C D 2 > v 2 + o b Z B C C C B B C ",
"x x x x x x x c x c x c x x c c c c c c c x c c c x c x x c x x x x x c c c c x x x c c c c c v c 9 q.e.y.i.i.i.+Xi.oX+X+X+X+X@X@X+X#X,X<X2X2X2X<X%X#X#X%X%X<X<X1X1X<X<X,X#XoXoXt.t.r.6.6.6.6.<.$.@.@.+.+.+.+.+.o.+.l h C C C C C C C D A D D C C D C C C D A C A D D C 9 L L L L L L L L h 7 6 ; X X * a L L L L L L s p 6 * 6 i s s L L L L L L L L L s s p p i u u u u u i i a p a a s s s L L L L L L L L j j s a p p p a s s s s m m m m m m L L L L L L L L L L L L L L L L L L L L L L L L L L m s s s s m L L L L L L m s s a p s a a s s s s s s s s s s s s s s s s s s s a p p p p p p p p p p p p s s s s a s s a s s s s s s s s s s s s s s s s s s s s s s s s s s s s m m m m m L L L L L L L L L L L L m m m m m m L L m L L L s 6 * 6 p a L m s s s s u * # # # & * < 6 6 5 7 6 < < * < i C G H G H G G G H G H G G F D G F D F D D F D F D C D D D G G G G G G G G G D C D G C h l +.#.%.<.6.r.r.y.u.u.i.+X#X#X#X#X<X2X2X2X2XqXrXqX<X<X,X,X,X#X+Xu.t.r.*.%.%.%.%.%.%.%.%.%.#.! B D D C C D C C C C C C C C C Z 2 o b 3 o o 9 Z C C B C C C C ",
"x x x c x x x x c c x x x c x c c x x x c x c x c c x c c x x c x x c x c c c c c c c x c c c c c c 5 #.e.t.t.i.y.y.y.t.t.u.oXoXoXoX+X$X,X1X2X2X<X<X%X#X#X%X<X<X<X<X<X<X,X#X+XoXt.t.r.r.r.6.6.<.<.$.#.#.+.+.o.+.l l j Z C C C C C C C C C C C C C C A A D D D C D D A B P h L L L L L L h a 7 6 & X X & 6 h L L L L L s a 6 6 6 i s s s s s m m m s L L L L s s a i i i u i i i p p s s s s s s j L L L L L L L L s s p p p p p s s s s s s L L L L m L L L L m m m m m m m m m m L L L L L L m L L L L L L L L L L L L L L L L L m s s s s s s s s s s p p s s s s s s s s s s s s s s s s s s s s s s s s s s s s s s s s s s s s m s a a a a a a a a s s s s p p p p p p p p p p p p a s s s s s m m m m L L L L L L L L m m L L L s s s s a p 6 & 6 a s m m m m m s 0 & O # # & < 6 6 5 6 7 6 6 6 * 6 7 Z G G G G H G G H G G G G G G G G D C D G D D D D D D D D D D D D G G G G D D D D D C B & k l +.%.6.r.u.u.u.u.i.+X+X#X#X,X<X2X2X2XrXrXrX2X<X,X,X,X,X#X+Xt.r.6.%.%.%.%.%.%.#.#.%.#.k 9 C C C C A D C C C C C C B B C B 2 o , b 2 + 9 B C C C C B B C ",
"x x x x x x x x x x x c x 4 x c c c c x x x x x c c c c c c x x 3 x x c c c c c c c x c c c c c c c 4 k e.e.t.y.y.y.y.t.t.t.t.t.t.t.oX+X%X,X<X1X<X<X<X%X#X%X,X<X<X<X<X<X,X#X+Xu.t.r.r.r.r.6.6.<.<.$.#.+.+.+.l g k h 0 B C C C C C C C C D C D D C C C C D D D D D D D v P h L L L L L L j a 7 6 & X . & 6 h L L s s s s p 6 * 6 7 a a s s s s s s s L L L L s s s i i i i i i i a a s s s s s s j j L L L L L L L s s a p p s s s s s s s s s L L L m L L L L m m m m m m m m m m L L L L L L L L L L L L L L L L L L L L L L L L m s s s s s s s p p p p p s s s s s s s s s s s s s s s s s s s s s s s s s s s s s s m L L m L m m s a a a a a a a a a a s s p p p p p p p p p p p p a s s s s m m m m m L L L L L L L m L L L L L s s s s a p 6 * 6 a s m m m m m s 0 & O # # & < 6 6 6 6 7 7 6 6 * 6 7 B G H G G G G G H H G G G G G D D D C D D D D D D D D D D D D D D G G G D G D D D D C B 9 g g +.%.6.r.r.y.y.u.u.OX+X#X#X,X<X2X2X2XrXrXrX2X,X,X#X,X#X+Xu.r.6.*.%.%.%.%.%.#.#.#.%.#.h B C C C C C C D C C C C C C B C B 3 , @ o o 9 B B C C C C B B C ",
"4 4 x x x x x x x x 4 x x 4 x c c c c c c x x x c x x x c x 4 3 4 4 x c c c x c c c x c c c c c c c v P #.e.y.y.y.y.y.t.0.t.t.t.t.t.t.+X#X,X,X<X1X1X<X%X#X,X1X1X1X<X<X<X,X#X+Xu.t.r.r.r.r.6.6.<.<.$.#.+.+.l l t i f B C C C C C C C A D D D D D D D C A A C C D D D C 9 j h L L L L L L h a 7 : & X . & 6 h L L m s a s a 6 * : 7 a a s s s s s s s L L m s s s a i i i i i i i i a a s s s s s j L j j j j j s s s s s s s s s s s s s s s s m m m m m L L L m m m m m m m m m m m L L L L L L L L L L L L L L L L L L L L L L L m s s s s s s s p p p p p a s s s s s s s s s s s s s s s s s s s s s s s s s s s s L L L L L L m m s a a a a a a a a a a s s p p p p p p p p p p p p a s s s s m m m m m L L L L L L m L L L L L L s s s s a p 6 * 6 a s m n m n n m p & # # # & < 6 6 6 6 7 7 6 6 * 6 i B G G G G G G G G H H H G G G G C C G D D D D D D D D D Z D D G D G G G G G D G D D C C b i t g $.<.6.r.r.y.u.u.u.+X+X#X,X<X1X2X2XrXrXrX1X#X#X#X#X+XOXt.6.%.%.%.%.$.$.%.#.%.#.%.#.h C C C C D D C C C C D D C C C C C B @     2 B C C C C C C C B B ",
"x x x x x x 4 x x x x x x c c x c c c c c x x x c c x x x x 4 4 3 3 4 x x c x x x x x c c c c c c c c x 7 #.y.y.y.y.y.y.0.0.r.0.t.0.t.u.+X+X%X,X<X1X<X,X%X1X2X2X2X1X<X<X,X#X+Xu.t.r.7.6.6.6.6.<.$.$.#.#.l l i r i f C C C A C C C C D A A A D D D D D A A C C A D D C 9 j h L L L L L h h a 7 ; & X . & 6 h L L s s s s s 6 * ; 7 a a s s s s s s s L L L j s a a i i u u i i i i a s s s s s j j j j j j j j a s s s s s s s s s s s s s s s m m m m m m s m m m m m m m m m m m L L L L L L L L L L L L L L L L L L L L L L L L m s s s s s s s p p p p p p s a a a s s s s s s s s s s s s s s s s s s s s s s s s L L L L L L m s s s a a a a a a a a a a a s s a p p p p p p p p p a s s s s s m m m m s L L m L L L L L L L L L s s s s a p 6 * 6 p s m n n m n m p < . # # & < 6 6 6 6 7 6 6 6 * < i C G G G G G H D G G G G F F G G S Z D C D D D D D D D D D D D D D G G D D F F D D S C C B h r g +.%.<.q.r.r.r.u.u.i.+X+X+X,X,X,X2XrXrX2X<X#X+X#X+XoXt.7.*.%.$.@.$.$.#.$.#.<.<.#.>.S C C C C D C C C C C C C C C C C C Z , o @ v C B C C B B C C C B ",
"x x x 4 x x x c x x x x x x x x x c c x c c x x c c x x v v 4 3 3 3 4 4 x x x c c c c c c c c c c c c c 4 h r.y.y.y.y.e.0.0.r.0.0.0.t.t.u.+X#X%X<X<X,X,X%X<X2XqX2X2X<X<X,X#X+Xu.t.r.7.6.6.6.<.<.#.#.+.+.l k r r f B C C C C C C C C C A A A D C A A A C C C C A A D C 9 j h L L L L L h a a 6 ; & X . & 6 h L L s s s s s 6 * ; 7 a a s s s s s s s L L L j s s i i i u u i i i i i s a s s s s j j s j j j j s s s s s s s s s s s s s s s s m m m m m s s s s s s s s s s s s s s s L L L L L L L L L L L L L L L L L L L L L L m s s s s s s s p p p s p s s a a p p s s s s s s s s s s s s s s s s s s s s s s s s m m s s s s s s s a a a a a a a a a a a s s a p p p p p p p p p a s s s s s L m m s s s m s L s L L L L L L L s s s s a p 6 * 6 p s m n n m n m p < # # # & 6 6 6 6 6 7 6 6 6 * < p C G G G G G G G G G G F F D G D D D D D D D D D D D D D F D D D D D D F D D D C C C C C B 0 h i l #.$.<.<.r.r.r.y.u.OX+X+X,X,X#X<X2X2X2X,X#X+X#X+Xu.t.*.%.@.@.+.+.#.#.#.#.<.<.>.P C C C C C C C C D C C C C C C C C C B 2 , v B C C C C C C B B C B ",
"x x x x x x x x c x x x x x x x x c c x c x c c c c c x v x x 4 4 4 4 4 x c x x x c x x x c c c c c x c 4 @ #.y.y.y.y.e.r.r.r.r.r.0.0.t.t.oX+X#X,X,X,X,X%X,X2XqXqX2X2X<X,X#XoXt.t.r.6.*.%.%.<.$.$.#.#.l l i r 7 f C C C C C C C C C C C A C A D D A D C C D D D C C C 9 z h L L L L L h a i 6 ; & X . & 6 h L L s s s s s 6 * ; 7 a a s s s s s s s L L L s s s i i u u u i i i i a a a a a s a s s j j j j j s s s s s s s s s s s s s s s s m m m m s s s s s s s s s s s s s s s s s s s L L L L L L L L L L L L L L L L L L L m s s s s s s s p p p s s a p p p p p p s s s s s s s s s s s s s s s s s s s s s s s s s s s s s s s s a a a a a a a a a a a s s s s p p p p p p p p a s s s s m L L s s p p s s s s s m m m m m L s s s s a p 6 * 6 p s m n n m L m p < # # O & 6 6 6 6 7 7 6 6 6 * < i B G G G D G F G F G G G D F D D D D S D C Z D D D D D D D D D D D G D D D D D Z Z S C C B b h i g +.#.$.<.<.<.r.y.u.u.i.u.+X+X+X,X<X<X<X,X#X+X+XOXt.7.*.@.@.@.+.+.#.#.#.#.#.>.' C C C C C C C C D C C C C C C C A C C C B Z C C C B C C B B C B B B ",
"x c x x x 4 x x x c c x x c c x c c c c c x x c c c x x x 4 4 4 4 4 4 3 x x x x c c x c c x c v c c c c c 3 q.e.y.y.e.e.r.0.r.0.0.*.0.0.t.t.u.+X#X,X,X,X%X%X<XqXrXqX2X,X%X+XoXt.t.r.*.*.%.%.%.$.$.#.#.l g r i 7 v C C C C C C C A C C D A D A A C C D C C C C A D A C 8 z h L L L L L h a 7 6 ; & X $ * 6 i s s s s s s a 6 ; ; 7 a a s s s s s s L L L L L j j i i i i i i i i i i a a a a a a s s s s s s s s s s s s s s s s s s s s s s s s s s s s s s s s s s s s s s s s s s s s s m L L L L L L L L L L L L L L L L m m m m s s s s s s s s a p a p p i p p p p s s s s s s s s s s s s s s s s s s s m s s s p p p p p p a a a a a a a a a a a a a a p p p p p p p p p p p p s s s s s s s L s s s s s s s s s s s m m m s s s s s s s p 6 * 6 p s m n n m m m p < # # O < 6 6 6 6 6 6 6 6 6 * < 7 B G G G F D D F F D G G D D D D D G S D D C D D D D D D D D D D D D D D D D D G Z C C B B v f h g l #.#.#.<.<.q.r.r.u.u.u.u.i.+X+X#X#X#X#X+XOXXXt.6.*.%.@.@.+.+.+.#.#.#.#.#.l b D C C C C C C C C C D C C C C C C C C C C C C B C B B B B C C B B B ",
"x x x x 4 4 4 4 4 x x x x x x x x c x x c x x x x c c x x 4 x x 4 x x x c c c c c c c c c c c c c c c x x 3 ! e.y.y.y.e.r.r.r.r.0.*.*.0.r.r.t.oX+X#X,X,X%X%X%X2XrXqX1X,X+XoXt.t.r.r.*.*.%.$.#.#.#.#.l l r i i 7 v C C C C C C C C C C C C D D D C C C A C C A A C C C 8 L h L L L L L j a i 6 ; & X X * 6 a s s p p s i i 6 ; ; 7 a a s s s s s s s L L L L j j j h i i i i i i i i i a a a a a a a s s s s s s s s s a a s s s s s s s s s s s s s s s s s a s s s s s s s s s s s s s s s m m L L m L L L L L L L m m m m m m m m s s s s s s s s s a p p p i u p p s s s s s s s s s s s s s s s s s s s L L s s s p p p p p a a a a a a a a a a a a a a a p p p p p p p p p p p p s s s s s s s L s a a p s s s s s s s L L m L s s s s s s p 6 * 6 p s m m n n n m u < # # O < 6 6 6 6 6 6 6 6 6 * * 6 C G F G D D D D G G D G G G D G S S D D D Z D D D D G D D F D D D G D D D D C C C C B B B B f h g l +.#.#.>.<.<.r.r.r.r.u.y.u.OXOXOXOXOXOXOXu.t.7.&.%.@.@.+.+.+.#.#.#.#.$.>.h B C C C A A C C C C C C C C C C C C C C C B C C C C B B C C B B C C C ",
"4 x c x 4 4 4 4 x 4 x x c c x x x x x x c x c x x x x x x x x x 4 x x x x x x x c c x c c c c c c c c c 3 2 P q.e.y.y.e.r.r.r.0.*.*.*.*.r.r.t.u.oX+X,X,X%X%X#X,X2X2X<X#XoXXXt.t.t.*.*.%.$.#.#.+.+.+.l g r i i 7 b C C C C C C C C C C C C A C D D A C A C C A C C C C 9 L h L L L L L j h i 6 ; & X X * 6 a s s p p s i i 6 ; ; 7 a a s s s s s s s m L L L j j h i i i i i i i i i i a a a s s a a a a a a a s s s s a s s s s s s s s s s s s s s s s s s s s s s s s s s s s s s s s s m m m L L L L L L L L L L L m m m m m m m s s s s s s s s s a p p p p i p a s s s s s s s s s s s s s m L L L L L L L s s s p p p p p a a a a a a a a a a a a a a a p p p p p p p p p p p p s s s s s s s s s p p p p s s s s a s m L m m s s s s s s p 6 * 6 p s n n m n m m u < # # # < 6 6 6 6 6 6 6 6 6 * * 6 Z D G G G G G D D G G G G G D D D D D D D D D D D D D G D F D D D D D D D D C B C B B B v v b h g k l #.>.<.<.<.<.r.r.r.r.y.u.t.t.t.XX{.7.t.7.7.*.@.@.@.+.+.+.+.#.$.$.$.$.>.P C C C C C C C C C C C C C C C C C C C C C C C B B B B C C B B B B C C ",
"x x x 4 4 4 4 4 x 4 x c x x x x x x x x c x x x x x x x x c x x x x x x x x x c c c c c x c c c c c c c v 3 2 i r.y.y.y.r.r.r.0.*.%.%.%.*.r.r.t.u.+X+X$X#X#X#X#X<X1X,X+XoXt.t.t.r.*.%.$.$.+.+.+.l l k t r i i 7 b B C C C C C C C C C C C C D D D A A C A A A C D C C 9 L h L L L L L L j a 6 : & X X * 6 i s s p p p p i 6 * ; 7 a a s s s s s s s s m m s j j j h i i i i i i i i i a s s s s a a p p p p a s s s a a s s s s s s s s s s s s s s s s s s s s s s s s s s s s s s s s s s L L L L m L L L L L L L L m m L m m m m s s s s s s s s m s p p p p p p s s s s s s s s s s s s s s s L m m L L L L L s s s s s a s s a a a a a a a a a a a a a a p p p p p p p p p p p p s s s s s s p s s p p p p p p p p p s L L m m s s s s s s p 6 * 6 p m n L n n n n p < # # # < 6 6 6 6 6 6 6 6 6 * * 6 B D G G G G G D G G G G G G D D D D D D D D D D D D D D D D D D D D D D D D C C B B B v v v v 7 k l #.#.>.<.<.<.<.<.6.r.r.r.t.t.7.7.7.7.7.7.6.*.%.@.+.+.+.+.+.#.#.#.$.$.<.>.Z C C C C C C C C C C C C C C C C C C B C C C C C C B B B B B B B B B B ",
"4 x x x 4 4 4 x x x x x x x x x c c x x x x x x x x x x x x x x x x x x c c x c c c c c c c c c c c c c x 3 3 7 q.y.y.y.y.r.r.r.%.%.%.%.%.%.r.r.u.i.+X+X+X+X+X+X+X#X#XOXu.t.t.r.r.6.%.$.+.+.+.+.l l g t r r i i 0 B C C C C C C C C C B C C C D A C C C A A D D C A C 9 L j L L L L L L j a 7 6 * X X * 6 i s s p p p p i 6 * ; 7 a a s s s s s s s s s s s s j j i i i i i i i s a a s s s s s a p p p p p p s s s a a s s s s s s s s s s s s s m m m m m m m m m m m m m m m m m m s s s s L L L m L L s s L L L L m L L m m m m s s s s s s s L L s s s a p p p s s L s s s s s s s s s s s s L m L L L L L L s s s s s s s s a a a a a a a a a a a a a a p p p p p p p p p p p p s s s s s p p a p p p p p p p p p p s s s L L s s s s s s p 6 * 6 p m m m m n n n 0 & # # # & 5 6 6 6 6 6 6 6 6 * * 6 B G G G G G G G G G G G G G G D D D D D A D D D D D D D D D D D D D D D D D D C B C B v v v v 8 k #.>.q.<.<.<.<.<.<.<.6.6.6.6.7.6.6.6.6.6.6.*.%.@.@.+.+.o.+.+.#.#.#.$.$.>.j B C C C C C C C C C C C C C C C C C C C C C B B C C B B B B C B B B B B ",
"x x 4 x x x x x x x x x x x x x x x x x c x x x x x x x x x x x x x x x c c x c c c c c c c c c c c c x x 4 3 5 T r.y.y.y.r.r.r.<.%.%.%.$.%.%.r.r.y.u.i.OXOXOXOXOXOXOXu.t.r.r.r.6.%.$.$.+.+.+.l l l g t t r i i 0 v B C C C C C C C C C C C A C C C D A D D C D C C C 8 I L I L L L I L j a 7 6 * X X & 6 i a s a p p p i 6 * ; 7 a a s s s s s s p s s s s a j j a a i i i i a s s a a s s s s s p p p p p p s s s s s s s s s s s s s s s m m m m m m L L L m m m m m m m m m m m m s s s s s s L s s s a s L L L L L L m m m m m s s s s s s s L L s s a p p p a s L L s s s s s s s s s s s s L L L L L L L s s s s L L L L m s a a a a a a a a a a a a a p p p p p p p p p p p p s s s s s p p p p p p p p p p p p p p s s s s s s s s s s p 6 * 6 i s L m L L L s 7 & O O # & 6 6 6 6 6 6 6 6 6 * * 7 C G G G G H H G G G G F D G D D G G D D D D D D D D D D D D D D D D D D D D A C C C B C v B B 8 k #.>.q.q.q.q.<.<.<.<.<.<.6.6.6.*.*.&.&.%.%.%.@.@.@.o.o.o.o.+.+.#.$.$.$.>.5 v C B C C C C C C C C C C C C C C C C B C B C B B B C B C B B B C C C C ",
"x x x x x x x x x x x x x x x x x x x x x x x x x x x x x x x x x x c c c c x c c x x c x c c c c c c x x 4 3 2 @ >.y.y.y.r.r.e.%.%.%.%.#.%.%.<.6.r.u.u.u.u.u.t.t.t.t.t.7.6.6.6.<.%.#.+.+.+.l l l g t t r r u i h 3 C C C C C C C C C C C C C A A C D D C C C C C C C 0 Y R R I I I I L L s 7 : & X X $ : i p p p p p p i 6 * 6 a j j h s s s s p p p a s s s a s s s s a a p p a a a s s s s s s a p p p p s a p a s s s m m m m m m L L L L L m m L L L L m m m m m m m m m m m m m s s s s s L s s s s s s s s s s L m s s s s s s s a a a a s s s s a a s s s s s s s s s s s s s s s s s s s s s s s s s m m m m L L m L L L s s s s s p a s s s s s s a p p p p p a s a a p p a s s s s s s p p p p p p p p p p p p p s s s s s s m s s s s 7 * 6 i s s n L L L s 7 * $ X & & < 6 6 6 6 6 6 6 6 6 6 7 Z G G G G G H G F G G G D D D D D D D D D D D D D D D D D D D D D D D A D Z C Z C C C C B B v 9 ! #.#.q.q.q.q.<.<.<.<.<.<.<.6.<.$.@.@.@.@.@.@.@.@.+.o.o.o.+.+.+.#.$.$.$.>.b B C B B B C C C C C C C C C C C C B B B B C C B B B C C C C B B C C C B ",
"x x x x x 4 x x x x x x x x x x x x x x x x x x x x x x x 4 x x x 4 c c x c c c c c x x c c c x c c c x x 3 2 2 2 7 #.y.y.r.r.e.<.%.%.#.#.$.%.%.6.6.6.r.u.u.u.t.t.t.7.7.6.6.6.<.<.$.#.+.+.+.+.l l l l t i u r l z V B C C C C C C C C C C C C C C C C C C C C D C C C 8 R M R I I I I L L h 7 : & X X $ : i p p p p p p i 6 * 6 i L h j j s s a p p p p p a s s a a a a a p p p a a s s s s s s s a p s p p p p p p s s s m m m m m L L L L L L L L L L L L L m m m m m m m m m m m m s s s s s s s s s a p p p s s s s s a s s s a s s a s s a s s s s s s s s s s a a s s s s s s s s s s s s s s s s s s s m m m m L m m m m L s s s s a p p s s a a a a p p p p p p s s s s p p a s s s s s s s a p p p p p p p p p p p p s s s s s s s s s a 6 * 6 i s s s L L L s 7 * # X & & * 6 7 7 6 6 6 6 6 6 6 7 Z G G G G G G G G F G D F D D D D D D D D D D D D D D Z S D D D D D D D S Z C B B B C C v B v 9 w.q.q.q.q.q.r.q.<.<.<.<.<.<.<.<.$.@.@.+.+.+.+.+.+.o.o.o.o.o.+.+.#.$.$.$.>.v C C C B B B C B C C C C C B B B B B B B v v v v B B B B C B B C C C B B ",
"x x x x 4 4 x x x x x x x x x x x x x x x x x x x x x x x x x x x x x x c c c x c c c x x c c x c c c x x 3 3 2 + @ i y.y.r.r.e.<.%.%.#.#.%.%.$.<.<.6.6.r.u.u.t.t.7.7.6.6.6.<.<.<.$.#.+.+.#.l l l l l l l i i l T P C C C C Z C C C B B C C C C C C D C C C C D C C C 8 U M R I I I I L L h 7 : & X X $ : i p p p p p p i 6 * 6 i L h L j s s s p i i i p s s s s s s s s p a s p p s s s s s s s s p s p p a p p p s s s m m m m m L L L L L L L L L L L L L m m m m m m m m m m m m s s s s s m s s s s p p p p p a s s a s s a a s s s s s s s s s s s s s s s a a a s s s s s s s s s s s s s s s s s s s m m m m L L L m m L s s s s s p p p p p p p p p p p p p p s s s s p p a s s s s s s s s a p p p p p p p p p p p s s s s j s s s s p 6 * 6 p s s s L L L s 7 * # X & & * 6 7 7 6 6 6 6 6 6 6 5 C G G H G G G H H G G F F D G G F D D D D D D C D D D D S C A D A D D Z S D Z Z C B B B v v v 0 w.q.q.q.r.r.r.<.<.<.<.<.<.<.<.<.<.$.@.+.o.o.+.+.+.o.o.o.o.o.+.+.#.#.$.$.>.v C C B B B B B B C C Z Z B 3 + + o + + + + + + o , 8 v B B B B C C B B B ",
"x 4 x x x x x x x x x x x x x x x x x x x x x x x x x x x x x x x x x x x x x x c c c v v c x x c c c x 3 3 3 2 2 > 5 q.y.y.r.0.%.%.%.%.<.<.%.$.$.<.<.6.6.t.t.t.7.6.6.*.*.%.%.$.$.$.+.+.+.+.l +.#.>.>.T l l l l ! Q C C C C C C C C C C C C D D A A C C C C C C C C C 9 R R R I I I I L L h 7 : & X X $ 6 i a p p p p p p 7 * 6 i L L L L s s s s i i i i a s s s s s s s s s s s s s s s a a a s s s s p p p p p s s s s m m m m m L L L L m m L L m m L L L m m m m m m m m m m m m s s s s s s s s s s a p p p p p p p s s s s s s s s s s s s s s s s s s s s s s a s s s s s s s s s s s s s s s s s s s m m m m L L L m m L s s s s a p p p p p p p p p p p p p p p p p p p p a s s s s s m s s s p p p p p p p p p p s s s s s s s s s h s 6 * 6 i s s j L L L s 7 * # X & & * 6 6 7 6 6 6 6 6 6 6 5 C G H H H H G G G D G D D G F D D D D D C D D D D D D D C Z S S D D D C Z S C Z C B B B x 4 v 0 w.q.q.r.r.6.<.<.<.<.<.$.<.<.<.<.<.$.@.o.o.g g l l g l +.+.+.+.+.+.#.$.#.>.B C B C B B B B C B C v + o + o + o 8 B B B v v 2 > o o 3 B B B C B B C B ",
"4 x x x x x x x x x x x x x x x x x x x x x x x x x x x x x x x x x x x x x c c c c x 3 4 c x x x c x x 3 3 3 , > > + 6 q.r.r.0.%.%.%.%.<.<.<.$.$.$.<.<.6.r.t.6.6.*.*.%.%.%.$.$.$.$.+.+.#.+.+.#.>.>.>.>.#.l l >.,.Q B B C C C C C C C C C C A D C C D C C C C C C C C 9 R R R R I I I L L h 7 : & X X $ 6 i a p p p p p i 6 * 6 i L h L L h s s s i i i i i a a s s a a s p s s s s s s s s a a s s a p p s p p p a s s s s s m m m L L L L m m L L m m L L L m m m m m m m m m m m m s s s s s s s s s s a p p p p p p p s s s s s s s s s s s s s s s s s a a s s s a s s s s s s s s s s s s s s s s s s s m m m m L L L L L L s s s s s a p p p p p p p p p p p p p p p p p p p s s s s s s m s s s a p p p p p p p p p a s s s s s s s s s s 6 * 6 i s n j L L L s 7 * # X & & * 6 6 7 6 6 6 6 6 6 6 5 B G G H G H G D F D D G D D F D D D D D S D D F D D D G S B Z Z D D D C S C C B B B B v x v 9 Y q.q.q.q.r.<.<.<.<.$.$.$.+.$.<.<.<.>.+.g t t g g g g g l l l +.+.+.#.#.#.>.B B C B B B B C C C , + + , C Z Z , 9 B C C B A S Z v , o 9 C C C C B B B ",
"x 4 x x x 4 x 4 4 x x x x x x x x x x x x x x x x x x x 4 x x x x x x c x x c c c c x x x x c c c v x 4 3 3 3 2 , + > o >.q.0.0.%.%.<.<.<.<.<.$.$.$.$.<.6.6.6.6.%.%.%.%.%.@.$.$.$.$.#.+.#.#.+.#.#.#.>.>.>.>.>.>.>.! B B C C C C B C C C C C D C C C C C C C D C C C C 9 R R R R I I I L L h 7 : & X X $ 6 i a p p p p p i 6 * ; i L h L j h s s s i i i p i i a p p p p p p p p p p p a p p p p s a p p p p p p p s p p s s s s m m L L L L m m L m m m L L L m m m m m m m m m m m m s s s s s m s s s s p p p p p a s s s s s s s s s s s a s s s s s s s a a s s s s s s s s s s s s s s s s s s s s s s s m m m m L L L L L m s s s s s a a i i i i i i p p p p p p p p p p s s s s s s s s L L L s s s s a s s s s p p s s s s s s s s s s a 6 * 6 i m m L L L L s u * $ X & & * 6 6 7 6 6 6 6 6 6 6 5 B G H G G G G G G G G G D D D D D D D D Z D D D D D D S D G D D C D C C C C C B B B B B v v P w.q.q.q.q.q.6.<.@.@.$.@.+.+.#.#.<.<.$.+.t t t t g g g g g l g g g +.#.#.#.#.B B B B B B B C C , + 8 Z C B Z G , > v C C C S F Z B S 2 o x C B B C C B ",
"x x x x x 4 4 4 4 4 x x x x x x x x x x x x x x x x x x 4 4 x x x x x x x c c c c x x v v x 4 x c 4 4 x 4 3 2 > , 2 + o Y q.r.r.q.<.%.%.<.<.<.$.$.@.@.@.$.6.6.*.@.@.@.$.$.$.$.$.$.$.#.#.#.#.#.#.>.>.>.>.>.>.>.>.>.! B B C C C C C C C C C C C C D D C C C C C C C D C 9 R R U U Y Y Y L L h 7 : & X X $ : i a p p p p p i 6 ; : i L L L j h s s s i i i i i i p p p p p p p p p p p p p p p p p p p p p p s s s p s s p p s s L m m m m m m m m m m m m m m s s s s s s s s s s s s s s s s s s s L s s s p p p p p p s s s s s s s s s s s s s s s a p p p p a s s s s s s s p p p p p p p p p a s s p p s s m m m m s a s s s a a p i i i i i i a s s s s a p p p p p p p s s s s m L m m m m m m m m m s s s s s s s s s s s s s s s s s s s p 6 * 6 i m n L L L L s 7 * # X & & * 6 6 7 7 7 6 6 6 6 6 6 B G G G G G H G D F D D G D D D D D C D C D D D D Z S D Z Z Z C C C C C C C C B C B B v v v ! w.q.q.q.q.q.<.$.@.@.$.@.o.+.#.$.$.<.>.+.t t t t t g g g g g g g l +.+.+.+.#.B C C C B B B C , + b B Z Z Z Z 3 > v C C v C B C Z S C G , 3 B C C B B B ",
"x x x x x x 4 x x x x x x x x x x x x x x x x x x x x x x x 4 x x x x x x x x x x x x x 4 3 4 4 4 4 4 4 3 2 2 , , , + , 5 l q.r.q.q.%.%.<.<.<.%.%.$.+.+.@.$.%.%.@.@.@.@.$.$.$.<.$.#.#.#.+.+.+.#.#.#.>.>.>.>.>.>.>.! B B B C C C B C C C C C C C C C C C C C C C C C C 9 R R U U Y Y Y L L s 7 : & X X $ : i p p p p p p s 6 ; : i h L L L L m m s s i i i i i p p p p p p p p p p p p p p p p p p p p p p s s s s p a a p s s m m m m m m m m m m m m m m m s s s s s s s s s s s s s s s s s s s s s s a p p p p p s s s s s s s s s s s s s s s s a a p p a s s s s s s s s p p p p p p s p p a s s p p s s m m m m s a s s s s a p i i i i i i a a s s s a p p p p p s s p p p p s m m m m m m m m m m s s s s s s s s s s s s s s s s s s s p 6 * 6 i s m L L L L s 7 * & X & & * 6 7 7 u 7 7 6 6 6 6 6 B G G G D F F G D D D D D D D D D D D D C C D D D D S S S C C Z C C C C C C B B B B v v v v ! q.q.q.q.q.<.<.$.@.@.$.+.o.+.#.#.$.>.#.+.t t t t t g g g g g g g g l +.+.+.T B B C C B B v 3 o b Z B B Z b v C 9 9 b V 2 v 2 + v C Z ^ 2 v C B B B C C ",
"x x x x x x x x x x x x x x x x x x x x x x x x x x x 4 x x x 4 x x 4 x x x x x x x x x 4 4 4 4 x c x 4 3 2 , , , , , , , : q.r.q.q.q.<.<.<.<.%.$.$.+.+.@.@.%.@.+.O.+.@.$.$.%.<.$.$.#.#.+.+.+.#.#.#.#.>.<.<.<.>.>.>.B B C C C C B C C C C C C C C A C C C C C C C C C 9 U U U U Y Y Y L L s 7 : & X X $ : i p p p p p p s 6 ; : i h L L L L s m s s a a a i i p p p p p p p p p p p p p p p p p p p p p p s s s s s s s s s s m m m m m m m m m m m m m m m s s s s s s s s s s s s s s s s s s s s s s a p p a a s s s s s s s s s s s s s s s s s a p p p a s s s s s s s a p p p p p p s p a a s s p p s s L m m m s a s s s s s p i i i i i i a a a a s a p p p p p s s p p p p m m m m m m m m m m m s s s s s s s s s s s s s s s s s s s p 6 * 6 i s s h L L L s 7 * & X & & * 6 7 7 u 7 7 6 6 6 6 5 B G G G G D D G D D F D D D D D D D D D A A A D C S S C C S C Z Z Z Z C C v B B B B v B v v ! q.q.q.q.q.<.%.$.$.$.$.+.o.+.+.#.$.>.#.+.t t t t t g g g g g g g g l l l l l v B B B B B v , o v v , v b , 3 b , 8 2 v 2 8 8 + 9 B C 2 > v B B B C C C ",
"x 4 4 4 x x x x x x x x x x x x x x x x x x x x x x x x x x x x x x 4 4 4 x x x 4 4 4 4 4 3 3 4 4 x x 4 3 2 2 2 , 2 2 + o @ q.r.r.r.<.q.<.<.<.$.$.#.+.+.@.@.@.@.o.o.+.@.$.%.<.<.$.$.#.#.+.+.+.+.#.#.$.<.<.<.<.q.>.>.0 B B B B C C C C C C C C A D C C C C C C C C C C 9 R R U U Y Y Y L L s 7 : & X X $ : i p p p p p p s 6 : : i h L L L L L m s s a s s s s p p p p p p p p p p p p p p p p p p p p p p s s s s s s s s s m m m m m m m m m m m m m m m m s s s s s s s s s s s s s s s s s s s s s s a p p s s s s L L s s s s s s s s s s s s s a p p p p s s s s s s s a p p p p p p s s a a s s p p s s m m m m s a a s s s s a i i i i i i a a a a h a p p p p p s s a a s s m L m m m m m m m m m s s s s s s s s s s s s s s s s s j j p 6 * 6 p s s h L L L s u * & X & & * 6 7 7 u 7 7 6 6 6 6 6 B D G G G D D G D D C D D D D D D D A C C C D D S Z Z C C C B B Z Z Z C C C C B B B B v x x ! q.q.q.q.q.<.%.@.$.<.$.@.o.+.+.#.#.>.#.+.t t t t t g g g g g g g g k l l l k B C B B B B V 8 + 9 3 , 2 8 + 8 C , , , v v > V 9 v v , + b Z C C B B B C ",
"4 x 4 x x x x x x x x x x x x x x x x x c x x x x x x x c c x x 4 4 4 4 4 x x x 4 4 3 3 4 3 4 4 x 4 x 4 3 2 > , 2 2 , > o o i r.r.r.r.<.<.<.<.$.$.+.+.+.+.@.@.+.o.o.o.+.%.<.<.<.$.#.+.+.+.+.+.+.+.$.%.<.<.<.<.>.#.>.7 B C B B B C C C C C C C C C C C C C C C C C C C 0 R R R U Y Y Y L L s 7 : & X X $ : i i p p p p p s 6 : 6 i h L L L L L m s s a s s s s p p p p p p p p p p p p p p p p p p p p p p s s s s m s s s s m m m m m m m m m m m m m m m m s s s s s s s s s s s s s s s s s s s s s s s p p s s s m L L s s s s s s s s s s s s s a p p p p s s s s s s s s p p p p p p s s s a s s p p s s m m m m s a a s s s s a a a a a a a a a a a h s a p p p p s s s s s s m L m m m m m m m m m s s s s s s s s s s s s s s s s s s j p 6 * 6 p s s h L L L s i * X X & & * 6 6 7 u 7 7 6 6 6 6 6 V S G G G D D D D D D D D D D D D D A C C C D D D Z S C C C C B C S Z Z C C C C B B B c x v ! q.q.<.<.<.<.$.@.%.<.<.@.o.+.#.$.$.>.>.+.o.t t g g g g g l g g g g g g k l l B C C C C B B ,   + > o o + + > x 2 > 3 B v , 3 v v , o v B B C C B C C C ",
"x x 4 x x x x x x x x x x x x x x x x x c x x x x x x x x c x x x c x 4 4 4 4 x 4 3 4 3 3 3 3 4 4 4 4 3 2 2 2 , 2 2 , + o   . q.r.r.r.r.<.<.<.$.#.+.o.o.+.+.+.o.o.o.o.+.%.<.<.%.$.+.+.+.+.+.+.o.o.$.<.<.<.<.<.>.<.q.i B B C B B C C C C C C C C C C C C C C C C C C C 8 E R Y Y Y R Y L L h 7 : & X X $ : i a p p p p p a 6 : : 7 h L j L L L m s s s s s s s p p p p p p p p p p p p p p p p p p p p p p a s s s L s s s s s s s s s s s s s s s s s s s s s a s s s a a a a a a s s s s s s s s s s s s a a m m m m m s m m s s s s s s s s s s s s p p p a s s s s s s s s p p p p p p p p p a a a p p a s s s s s s a s s s s s p i i i i i i a a a s s s s a a a a s s s s s s s m m m m s s s s s s s s s s s s s s s s s s s s s s s s s a 6 & 6 i s s L L L s s u * # X $ & < 6 7 7 u 7 7 6 6 6 6 6 Z D G D D D D D D D D D D D C D D D A S C D D D S C A C C C C C C C Z C C C B B C B B v x 4 k q.<.<.<.<.%.@.@.<.6.<.@.o.+.$.<.>.>.>.+.+.g g g l l l l l g g l l l l l l l 9 B C B B B B b @ o 8 9 9 9 V Z B B B B Z B b b , o o 9 C C C C C C C C C ",
"x x x 3 4 4 4 x x x x x x x x x x x x x x x x x x x x x x x x x 4 x v 3 4 x 4 3 4 3 3 3 3 3 3 4 4 4 x 4 3 2 3 2 , 2 + + o o X <.r.6.6.6.<.<.<.$.#.+.+.+.+.+.o.o.o.o.o.@.%.<.<.$.$.+.o.o.+.#.#.+.o.#.<.<.<.$.#.<.<.#.k Z B B B B B B B C C C C C C C C C C C C C C C C 8 P P I R R R R L j a 7 ; & . X & 6 7 a s s s s s s 6 * ; 7 a a s h h s s s s s s s s s p p p p p p p p p p p p p p p p p p p p s s s s s s s s s s s s s s s s s s s s s s s s s s s s p p p p p p p p p p p s s s s s s s s s s s s s m m m m m m m m s s s s s s s s s s s s s s s s s m m m m s s s s s s a s s a a a p p p p p p p s s s s s s s s s s s s s m m m m m m m m L m m m s m m m s s s s s s s L L L j s s s s s s s a a a a s s a s a s n s s s s s s s a 6 & < i s s h L L s p u * # X # * 6 7 u p u 7 6 6 6 6 : ; B D D D D D G D D D D D D D D D C D B B Z C S S C C C C B C C B C C C C C C B C B B B B x v Y <.<.<.<.<.$.+.@.<.<.$.+.o.$.<.q.q.<.<.<.+.o.o.+.+.+.+.+.l l g l +.l l k k l 8 v C B B B B v b + o + 8 V V Z Z Z C C B C 3 o   8 2 v B B B C B C C B C ",
"x x x 4 4 4 4 4 4 4 x x 4 x x x x x x c x x x c x x x x 4 4 3 4 4 x v 4 4 3 3 3 4 4 3 2 3 3 3 4 3 4 4 4 3 2 2 2 > 2 , > + o   >.r.r.6.6.%.<.%.#.#.+.o.o.o.o.o.g g t o.+.@.%.%.$.#.+.o.g +.#.<.#.+.+.<.<.<.<.#.#.<.#.! Z B B C B C C C C C C C C C C C C C C C C C C C 8 Q P P I R R R L j a 6 ; & . X & 6 7 p s s s s s s 6 * ; 7 a a s h h s s s s s s h h s p p p p p a a a a p p a a a a a a p p p s s s s s s s s s s s s s s s s s s s s s s s s s s s s p p p p p p p p p p p s s s s s s s s s s s s s m m m m m m m m s s s s s s s s s s s s s s s s s m m m m s s s s s s s s s s s s a p p p p p p s s s s s s s s s s s s s m m m m m m m m m m L L L L L j s s s s s s s L L L j s s s s s s s a a a a a a a a a a n s s s h j s s a 6 * 6 i s s h L L s p 0 * # X X * 6 6 u u 7 7 6 6 6 6 : ; V D D D D D D D D D D D C D D D D D A S C C S S S C C B B B B C C Z C C C B C C C B B B B v Y <.<.<.<.<.@.o.@.6.6.$.+.+.<.q.q.r.r.<.<.+.+.+.+.+.+.+.+.l l l l #.+.l g g l 5 v C B B B B B B C v , o o   o o o o o > > 5 L 2 2 B B v B B C C C B B C ",
"x x 4 4 4 3 4 x x x x x x x x x x x x x x x x x x x x x 4 x x x x x x 4 3 3 3 3 3 3 3 3 3 3 4 3 3 4 x 4 3 3 3 2 > , + o o   o q.q.6.6.<.%.%.$.#.+.+.g g g g g g g g o.+.+.%.$.$.+.+.o.g +.$.<.<.#.+.#.<.<.<.<.<.<.q.k Z B B B C C C C C C C C C C C C C C C C C C C B 8 Q P P I L R R L j a 6 ; & . X & 6 7 p s s s s s s 6 * ; 7 a a s s s s s s s s s h j j p p p p p s s s s p a s s s s s s s s s s s s s s s s s s s s s s s s s s s s s s s s s s s s s p p p p p p p p p p p s a a s s s s s s s s s s m m m m m m m s s s p s s s s s s s s s s s s s s m m m m s s s s s s s s s s s s s p p p p p s s s s s s s s s s s s s s m m m m m m m m m m L L L L L j j j s s s s j L L L j s s s s s s s a a a a a a a a a a s s s h h j j s p 5 & 6 i s s L L L s i 0 * # X # * 6 6 u u 7 7 6 6 6 6 : ; B D D D D D D D D D D D D C D D D D D C S S S A S Z C C C C C C C C C C C C C B B C B B v v Y <.<.<.<.<.@.o.@.6.%.$.o.o.<.q.q.r.r.<.<.+.+.+.+.+.#.#.+.l l l +.#.+.l g g h ; v B B B B B B C B B B B 9 O o , , , 8 V V , o + v B B B B B C C C B B B ",
"x x x 4 4 4 4 x x x x x x x x x x x x x x x x x x x x x x 4 x x x 4 4 4 3 4 3 2 3 3 3 3 4 x 4 4 4 4 4 4 4 3 3 3 2 , , o     o q.q.r.<.<.%.%.#.+.+.g g t t t t t g t o.+.@.<.$.+.#.+.o.g o.$.<.<.%.#.#.<.<.<.<.$.$.%.#.P B B B B B C B C C C C C C C C C C C C C C C C 9 Q P P I R R R I j a 6 ; & . X & 6 i p a s s s s s 6 * ; 7 a a s s s s h s s s j j j s p p p p p p s s s s s s s s s s s s s s s s s s s s s s s s s s s s s s s s s s s s s s s s s s p p p p p p p p p p a s s a a a s s s s s s s s m m m m m L m m s s s s s s s s s s s s s s s s s m m m m s s s s s s s s s s s s s s p p p p s s s s s s s s s s s s s s m m m m m m m m m m L L L L j j j j j s j j j L L L j s s s s s s s a a a a a a a a a a s s s s j j h s a 5 * 6 i s s L L L s i u * # X # * 6 7 u u u 7 6 6 6 6 : ; B S D D D D D D D D S D D D D A C D C C C C C S C B B C C C C B C C C C C C C B B B B B v v E <.<.<.<.<.+.o.@.<.%.$.+.+.$.<.<.q.q.<.<.+.+.o.+.#.#.+.+.l l l #.>.#.l g g h i v C B B B B B B B B C C Z 2 b ^ P , o + , , o 9 Z B B C C C B B B B B B ",
"x 3 4 x x 4 4 x x 4 x 4 x x x x x x x x x x x x x x x x x 4 x x 3 4 x 4 3 3 3 3 3 3 3 4 3 3 3 4 4 4 3 3 4 3 3 3 3 2 , o o o o ! #.%.<.<.%.$.#.+.o.g g g g g g g o.o.o.+.$.<.<.$.+.+.o.g o.#.<.q.<.#.+.#.<.<.<.<.$.%.#.P c B B B B C B C C C C C C C C C C C C C C C C 8 Q P P P R R R I j a 6 ; & . X & 6 i p a s s s s s 6 * ; 7 a a s h s h h s s j j s h s p p p p p p s s s s s s s s s s s s s s s s s s s s s s s s s s s s s s s s s s s s s s s s s s p p p p p p p p p p a s s a a a a s s s s s s s s s s s s s s s s s s a s s s s a s a p a a a s s m m m m s s s s s s s s s s s s s s s s s s s s s s s s a s s s s s s s m m m m m m m m m m L L L j j j j j j j j j j L L L s s i i a i a s a a a a a a a a a a s s s s s s h s a 5 * 6 i s s L L L s i u * # X # * 6 7 u u u 7 6 6 6 6 : ; B S D D D D D D D D D D D D D D D D C C Z C Z Z C C C C C C B B C C C C C C B B B C B B v v P >.<.>.$.<.@.O.@.6.<.$.+.+.$.<.<.q.<.<.>.+.+.o.+.#.#.+.+.l l +.#.>.#.l g i h h b C B B B B B B B C C C Z , + > , , , , + o o o 3 v B B B C B B B B B B ",
"3 x 4 x x x 4 x x 4 4 4 4 x x 4 4 4 4 4 x x x x x x 4 4 4 4 4 4 3 3 3 4 3 3 3 3 3 3 3 3 3 3 3 3 4 4 3 4 4 3 3 2 2 2 , o + O o k #.$.<.%.$.#.+.+.o.o.l +.+.+.+.+.+.o.+.+.$.<.<.<.$.#.+.o.+.+.<.q.<.%.+.#.<.<.<.<.<.q.#.Q v B B B B C C C B C C C C C C C C C C C C C C 9 Q P P P L R R L j a 6 ; & . X & 6 i p s s s s s s 6 * ; 7 a a h s s s s s s s s s s s p s p p p p s s s s m m s s s s s s s s s s s s s s s s s s s s s s s s L L L L L L L L s s s s p p p p p p p p p p a s s s a s s s s s s s s s s s s p s s s s s s p p p s a s s p p p p p a s s s s s s s s s s a a s s s s a a s s s s s s s s s s s s a s s s s s s s m m m m m m m m m m L L j j j j j j j j j j j L L L s s i i i i i i a a a a a a a a a a s s s s s s s s p 6 * 6 i s s h L L s i u & # X # * 6 7 u u u 7 6 6 6 6 : ; b C D D D D D D D A D D D D D D D D C C C C C C C C C C C B B B C C C C C C C C C C B B v v V T >.#.#.<.$.@.@.6.6.$.+.+.<.<.<.q.<.<.>.+.o.o.+.#.+.+.+.l +.+.#.>.#.l g t h h B B B B B B B B B B B B V , > 3 v v v 9 , + o   o v B C B C C B B B B B ",
"3 4 4 4 x x x x x 4 4 4 4 x 4 4 4 4 4 4 4 x 4 x x 4 4 4 4 4 4 4 3 3 4 4 3 3 3 3 3 3 3 3 3 4 4 3 4 4 3 4 3 3 3 3 3 3 , o o o o ! #.#.%.%.$.#.+.o.o.+.+.#.+.#.#.#.+.+.+.+.$.<.<.<.<.#.+.+.o.$.<.<.r.<.$.+.%.<.<.<.<.$.#.! v B B B B B C C C C C C C C C C C Z Z C C C C 9 Q P E I L R I L j a 6 ; & . . & 6 i p s s s s s s 6 * ; 7 a a h s s s s s s s s s s s s s s p p p s s s L L L m s s s s s m m m m m m s s s s s s s s s s s s L L L L L L L L m s s s p p p p p p p p p p p p s s s s s s s s s s s s s s s s s s s a s s s s s s s s s p p p p p p p a s s s s s s m m m m s s s s a a s s s s s s s s s s s a a s s s s s s s m m m m m m m m m m L L j j j j j j j j j j s s s s s s s i i i a i a a a a a a a a a a s s s s s s s s p 6 * 6 i s s h L L s i u & X . X * 6 7 u p u 7 6 6 6 6 : ; 9 C A D D S S D D D C D D C A C D A C S C C B B C C C C C B B B B C C C C B C C C B B B v v v 6 >.#.#.%.@.@.%.6.<.@.+.@.<.q.q.q.<.<.#.o.g g o.o.+.+.l l +.#.#.#.#.l g t h h b B B B B B B B B B B B C v v B B B B B v v b , o v B B B C C C C B B B ",
"3 4 x 4 4 4 4 4 4 3 4 x 4 x x x 4 4 4 4 4 4 4 x x 4 3 4 3 3 4 4 4 4 4 4 4 3 3 3 3 3 3 3 4 4 4 4 4 4 4 4 3 3 3 3 3 3 2 @ > @ o ! #.#.$.$.#.+.+.o.o.+.+.#.#.+.+.#.+.+.+.#.$.<.<.<.<.<.#.#.+.$.<.r.r.<.$.@.%.<.<.<.<.%.>.! c B B B B B C C C C C C C C C C C C C C C C C 8 Q Q E I L R I L j a 6 ; & . . & : 7 p s s a s s s 6 * ; 7 a a s s s s s s h h s j j j s s s s p p s s s L L L m s s s s s m m m m m m s s s s s s s s s s s s m m m m m L L L m s s s p p p p p p p p p p p p s s s s s s s s s s s s s s s s s s s p p s a p p p p s s p p p p p p p a s s s a s s m m m m s s s s a a a a a a s s a a a a a a s s s s s s s s L L m m m m m m m m m s s j j j s s s s s s s s s s s s a a a a a p a a a a a a a a a s s s s s s s s s p 6 * 6 i s s s L L s i 7 * X . X & 6 6 u u u 7 6 6 6 6 : ; 9 C Z D S S D D D D D C C D C C C C C C C C C C C C B B B B C B C C C C C C C C C C B B B B v 5 >.>.$.+.O.O.%.6.6.$.@.$.<.q.q.q.<.<.#.g t t g g l l l +.#.#.#.#.#.l g t r h v B B B B B B B B B B B B B B B B B B B B B v B B B B B B B B B B B B B ",
"3 4 4 4 4 4 3 3 4 3 4 x 4 x x x 4 4 4 4 4 3 3 3 4 4 4 4 4 4 4 4 4 4 4 4 4 4 3 4 3 4 3 3 3 3 4 4 4 3 4 4 3 3 3 3 3 2 , + , , + Y T #.$.$.#.#.+.o.o.+.+.#.#.#.$.#.#.+.+.#.$.<.<.q.q.<.<.$.+.>.<.r.y.r.$.$.%.<.<.<.<.<.<.! 4 B C C B B B C C C C C C C C C C C C C C C C 9 Q Q E I R R I L j a 6 ; & . X & : 7 p s s a s s s 6 * ; 7 a a s s s s s s s s s s j j s s s a p p s s s s m m m s s s s s m m m m m m s s s s s s s s s s s s m m m m m m L L m s s s p p p p p p p p p p p p s s s s s s s s s s s s s s s s s s s p p p p p p p p a a p p p p p p p a s s s s s s m m m m s s s s s s a a a s s s s s a s s a s s s s s s s s m m m m m m m m m m m s s j j j s s s s s s s s s s s s a a a a a p a a a a a a a a a s s j s s s s s s p 6 * 6 i s s s L L s i 7 * X X X & 6 6 u u u 7 6 6 6 6 : ; 9 B C D Z Z C C A D C C A A C C C C B C C C C C C B C B B B B C C C C C B C C B B B C B b v v 5 >.#.#.+.+.O.*.6.6.$.@.$.<.<.q.q.<.#.+.t t t t g g g l +.#.#.#.#.#.l g t r 7 v B B B B B B B B B B B B B C C B B B B B B B B B B B B B C B B B B B B ",
"3 4 3 4 4 3 3 3 3 4 4 4 3 4 x 4 4 4 4 4 4 4 4 4 4 4 4 4 3 4 3 3 4 4 4 4 3 3 3 4 3 3 4 3 4 4 3 4 3 3 4 3 3 3 3 3 2 2 2 , + + + o : +.+.+.#.+.+.o.o.+.#.$.<.<.$.$.#.+.+.#.$.<.q.q.r.q.<.<.$.<.<.r.y.r.%.$.%.<.<.<.<.%.q.! 4 B C B B B B C C C C C C C C C C C C C C C C 8 Q Q E I R R I L j a 6 ; & . . & : i p a s s s s s 6 * ; 7 a a s s s j j s s s s s s s s s p p p p s s s s L L s s s s s s m m m m m m s s s s s s s s s s s s s s s s s s L L s s s s p p p p p p p p p p p p s s s s s s s s s s s s s s s s s s a p p p p p p p p p p p p p p p p p a s s s s s s m m m m s s s s s s a s s s s s s s s s s s s s s s s s s s m L m m m m m m m m m m m s j j s s s s s s s s s s s s a a a a a p a a a a a a a a a s s s s s s j j s p 6 * 6 i s s s L L s i 7 * X X X & 6 6 u u 7 7 6 6 6 6 : ; 8 B D D S Z C A A D D C C A C C C C C C C C C C C C C B B B C B C C B C C B B C B B B B B B v 5 ,.#.+.o.O.o.6.6.<.$.$.<.<.<.q.<.<.$.+.o.t t t t g g g +.#.>.#.>.#.g g t i 5 v B B B B B B B B B B B B B B B B C B B B B B B B C B B B B B B B B B B ",
"4 3 4 4 4 3 3 3 3 4 4 3 3 3 4 4 4 x x 3 4 4 4 4 4 4 4 3 3 3 4 4 3 4 4 4 3 3 3 3 4 4 4 4 4 3 3 4 4 4 3 3 3 3 3 3 3 3 2 , + + o o : l #.+.#.#.+.+.+.+.#.<.<.<.<.<.$.#.$.#.#.q.r.r.r.r.<.<.<.<.<.r.r.r.<.%.%.<.<.<.<.%.#.! 4 B B B B B C C B C C C C C C C C C C C C C B 8 Q Q E I R R I L j a 6 ; & . X & : 7 a a a a s s s 6 * ; 7 a a s s j j j s s s s s s s s s p p p p s s s m L L s s s s s s m m m m m m s s s s s s s s s s s s s s s s s s L L m s s s p p p p p p p p p p p p s s s s s s s s s s s s s p p p p p p p p p p p p p p p p p p p p s s s a s s s s s s m m m m s s s s s a s s s s s s s s s s s s s s s s s s s s s m m m m m m m m m m m m s j j s s s s s a s s s s s s p p a a a a a a a a a a a a a s s s s s h j h s p 6 * 6 i s s s L L s p u & X X X & 6 6 u u u 7 6 6 6 6 : ; 8 v D D S C C C C A C C C A D D C C D C B B C C C C C C C B C B B B B C B B B B C B B B B B v 5 ,.>.+.o.o.o.<.6.<.<.$.<.<.<.<.<.<.#.+.o.g t t t g g l +.>.>.>.>.+.g g i i 8 v B B v v B B B B B v B B B B B B B B B B B C B C C C B B B B B B B B B ",
"4 4 4 3 4 4 3 4 x 4 4 4 4 4 4 4 4 4 3 4 4 3 4 3 3 4 4 4 3 3 4 4 4 4 4 4 3 4 4 4 4 4 x x 4 3 4 4 4 4 4 3 3 3 3 3 2 , , , > o o o - l +.#.#.#.$.$.$.$.$.<.<.r.q.q.<.<.<.#.$.q.r.y.y.r.q.<.<.<.6.r.r.r.6.6.%.$.$.%.%.%.#.T 4 B B B B B B B C C B C C C C C C C C C C B B 8 Q E E E R R I L j a 6 ; & . X & 6 7 a a a s s s s 6 * ; 7 a a s s s s s s s s s s s s s s s p p p s a a s s s s s a s s s s s s s s s s s s s s s s s s s s s s s s s s s s s s s p p p i i i i p p p p i i i s a a a s s s s s s s s a a a a a a a i i p a p i p a a a i p p s s s s a s s s s s s m m L m s s s s s s s s s s s s s s a a s s s s s s s s s s s s s a a a a a a a s m m s s j s a a a a a s s s s s s a a p p s s s a a a a a a a a s s s s s s s s s p 6 * 6 i s s m L L s p u & # . # & 6 7 u u u 7 7 6 6 6 : ; 5 v D D C S C C C D C A B C C Z C B B C C C C Z Z C C C B C B B B B C C C B B C B B B B B v x 5 >.#.+.o.o.+.<.6.<.$.$.<.<.<.<.<.$.#.+.+.g t t t g g l #.>.<.>.>.+.g g g h 9 v v v B B B v v B B B B B B B B B B B B B B B B B B B B B B B B B B B B ",
"4 4 3 3 4 3 4 4 4 3 4 3 4 4 4 4 4 4 x 4 4 4 4 4 4 3 4 3 3 4 4 3 4 4 4 4 4 4 4 4 4 4 4 4 3 3 3 4 4 4 4 3 4 4 3 3 2 , 2 2 , + o o ; T +.+.#.$.<.q.<.<.<.<.r.r.r.q.q.q.<.+.$.q.r.y.y.r.r.r.<.<.r.r.r.r.r.6.%.@.$.%.%.$.$.>.9 B B B B B B B C C B B C C C C B C C C C C C 8 P P E R L R I s s i 6 ; & . X & 6 7 a a a i i a a 6 ; : 7 h s s s s s s s s s s s s h s s p p s s s a a s s s s s s s s s s s s s s s s s a s a s p a a p p p p p p p p s s p p p p p s i a a a a p p p i i i s s s a s s s s s s a a s j a i i i i i i p p i i i a a a i s s s s m s s s s s s s s s s s s s p p p p a p p p p s s s s a a s s s s s s s s s a s s s a p p p p p p a a a a a p p p p p p p p a a a s s a a p p p p p p p p p p p p p p p p s s s s s s p 6 * 6 i s s L L L s s u * # # # * 6 6 u u u 7 7 6 6 6 6 : 7 B C D D S A A A C C C C C C C C B B B C C B B C C C B B B B C B B C B B C B B B B B B B v v 5 #.#.+.o.o.@.6.<.%.<.<.%.<.<.<.<.$.#.#.+.g t t t t g l #.>.<.<.>.+.g g h h v v v v B B B B v v v v v B B B B B B B B B B C B B B B B B B B B B N B v ",
"4 4 4 3 4 4 3 4 3 3 3 3 4 4 4 4 4 4 4 4 4 4 x 3 4 4 4 4 4 4 3 4 3 4 3 3 4 4 4 4 4 4 4 3 4 3 4 4 3 3 4 4 3 4 4 3 2 2 2 2 , o + @ ; T #.+.+.%.q.y.r.r.<.6.r.r.r.r.r.r.<.+.#.<.y.y.y.y.r.r.6.r.r.r.r.r.r.6.%.O.+.$.%.%.$.>.V v B B B B B B B B B B C B C C B C C C C C B 8 P R R R L I I s s p 6 ; & . X & 6 7 a a a a a a a 6 * ; 7 h h s s s s s s s s s s s s s s s p s s s s s s s s s s s s s s s s s s s s s s s s s s p p p p p p p p p p p s s p p p p p s i i a a a s a p i i i s s s s s s s s s s a a s j h i i i i i i p p i i i i a a i s s s s s s s s s s s s s s s s s s p p p s a p p p p p p s s s s s s s s s s s s a p s s a s p p p p p p p p p p p p p p p p p p p p a a a a p p p p p p a a p p p p p p p p p p s s s s s s p 6 * 6 i s s L L L s s p * # # # * 6 6 u u u 7 7 6 6 6 : : 7 B D A D A D D A C C C C C B B C C B C B C B B C C C C C B B B B B B B B B B B C C B B v v c 5 #.#.+.o.+.$.6.6.<.<.<.<.<.<.<.<.$.+.#.+.o.t t t t t l #.#.<.>.>.+.g g i h v v v v v B B v v v v v v B B B B B B B B B C B B B B B B B B B B B N N B ",
"3 4 4 3 4 4 4 4 3 3 3 4 4 4 4 4 4 4 4 4 4 4 4 3 3 4 4 3 3 3 3 3 3 3 3 3 3 3 4 4 4 x x x 3 4 4 4 3 4 3 4 4 3 4 2 2 2 2 , + o o + ; l +.+.+.%.r.y.y.y.r.r.r.r.r.r.r.r.<.+.+.<.r.y.y.y.y.r.r.r.r.r.r.r.r.r.%.+.+.$.%.$.$.>.P B B B B B C C B B B B B B C C C B C C C C B 8 L L L L L I I s s p 6 ; & . X & 6 7 a a a a a a a 6 * ; i h h s s s s s s s s s s s s a s s a s s s s s s s s s s s s s s s s s s s s s s s s s s p p p p p p p p p p p s s p p p p p a a a a a a a a a a i i s s s s s s s s s s a a j j h i i i i i i p p i i i i a a i s s s s L m s s s s s s s s s s s s p p p s s p p p p p p s s s s s s s s s s s s p p p p p p p p p p p p p p p p p p p p p p p p p p p p p p p p p p p p s s p p p p p p p p p p s s s s s s p 6 * 6 i s s L L L s s p * # # # * 6 6 u u u 6 7 6 6 6 : : 6 B A S A C A D A C C C C C C C C C C B B C C B C C C B B B B B B B B C B B B B B B B v v v v 5 l #.+.o.+.$.6.6.<.<.<.<.6.<.<.<.$.+.+.+.+.g t t t t g +.#.>.>.#.l g t h 7 v B v B B B v v v v v v v B B B B B B B B B B B B B B B B B B B B B B B B ",
"3 4 3 4 3 3 4 3 3 4 4 3 4 4 4 3 4 4 4 4 4 4 4 4 3 3 3 3 3 3 3 3 4 3 3 3 3 4 4 4 4 x 3 3 4 3 x 4 4 4 4 4 3 3 4 3 2 2 > > + + o + ; l +.+.+.$.q.y.y.y.y.y.r.r.r.r.r.r.%.+.+.<.r.r.y.y.y.y.r.r.r.r.r.r.r.r.r.%.+.%.%.$.%.>.Q v B B B B B B B B B B B B B C C C C C B B B 8 L L L L L L z s s p 6 ; & . X & 6 7 a a a a a a a 6 & ; 7 s h s s s s s s s s s s s s a s s s s s s s s a s s s s s s s s s s s s s s s s s s s s p p p p p p p p p p p s s s a p p p s a a a a a a a a a a a s s s s s s s s s s s a j j i i i i i i i p p p i i i i a i s s s s s s s s s s s s s s s s s s p s s s s a a a a p p s s s s s s s s s s s s p p p p p p p p p p p p p p p p p p p i i i p p i p p p p p p p p p p p p a s p p p p p p p p p s s s s s s p 6 & 6 i s s L L L s s p * # # # * 6 6 u u u 6 6 6 6 6 6 : 6 B D D A A S S S C C C A C C C C C C B B C B C C C C C B B B B B B B B B v v B B B B B v v x 5 l #.+.o.@.$.<.6.<.$.<.<.<.<.<.<.$.@.$.$.+.o.t t t t +.#.#.#.#.+.l g t h 5 v v v v B B v v B v c v v B B B C C B B B v B B B B B B B B B B B N v B B ",
"3 3 4 3 3 3 4 3 4 4 4 4 3 3 3 3 3 3 4 4 4 4 4 4 4 4 4 3 4 4 4 4 4 2 3 3 3 3 4 4 4 x 4 3 4 4 4 4 x 4 4 4 4 4 3 4 3 2 , , , + o + ; z l l +.$.q.r.y.y.y.y.r.r.6.6.6.<.$.o.+.<.r.r.y.y.y.y.r.r.r.r.r.y.r.y.y.r.%.%.%.$.%.#.T 9 B B B B B B B B B B B B B C C C C C C B B 8 L L L L L j j s s p 6 ; & . X & 6 7 a a i i i i i 6 & * 7 a a s s s s s s a a a s s a p p s s s s s s s a s s s s s s s s s s s s s s s s s s s s p p p p p p p p p p s s s s a p p p s a a a a a a a a a a a s s s s s s s s s s s a h j i i i i u i i i p p i i i i i i s s s s s s s s s s s s s s s s s a p s a p p p p p p p p p s s s s s s s s s s s p p p p p p p p p p p p p p i p i i p i p i p p i p p p p p p p p p p p p a s s p p p p p p p p s s s s s s p 6 * 6 i s s L L L s s p * # # # * 6 6 u u u 6 6 6 6 6 6 : 6 B S S S S S S C C C B C C C C C B C B B C C C C C C C B B B C C C B C B v v B B B B B v v v 5 k +.+.o.@.$.<.<.$.$.$.$.<.<.<.<.$.$.$.$.@.o.t t t t +.#.#.+.+.l g t t i 5 v v v v B v v B B v v v B B B B B C B B B B v v B B B B B B B B B B v v v ",
"4 3 3 3 3 4 4 4 3 4 3 4 4 4 4 3 3 3 3 3 4 3 4 4 4 3 4 3 3 3 3 4 3 3 3 3 3 4 4 4 4 4 4 4 x 4 4 3 x 4 4 4 3 4 4 4 3 2 > , , o o + O 7 l l +.#.<.r.y.i.i.y.r.6.<.<.<.%.+.o.+.<.r.r.y.y.y.y.y.y.y.y.y.y.y.y.y.r.%.%.<.%.%.%.>.9 B B B B B C B B B B B B v B B B C C C B B 8 L L L L L j j s s p 6 ; $ . X & 6 7 a i 7 7 7 7 7 6 & ; 7 a a s s s s s s a i a s a p p a s s s s a a a s s s s s s s s s a a a a a s s s a a a s p p p p p p p s s s s s s p a p p p s p a a a a a i i a a a s s s s s s s s s s s a i i i i i i u u i i p p i i i i i a a a s s s s s s s s s s s s s s s p p p p p p p p p p p p p a a a a a a s s s s s p i i i p p p p p p p p p p p p p p p p p i p p p i i i i i p p p p p p p p s s s s p p p p p p s s s s s s p 6 * 6 i s s L m m s s p * # # & * 6 u u u u 7 u 6 6 6 6 : 6 b A S S C S S C C C C v B C C C C B B B B B C C C B C C B B B C B B B B B B B B B B B v v x 5 l +.+.o.@.%.<.<.@.$.$.<.<.<.<.<.<.<.$.<.$.+.o.t t o.+.#.#.+.+.g g t t 7 3 v c c v B v v B B B v v B B B B B B B B B v c B B B B B B B B B B B v v v ",
"4 3 3 3 4 4 4 4 3 3 3 3 4 4 3 4 4 3 4 4 4 4 4 3 4 3 3 3 4 4 4 3 3 3 3 3 4 3 4 4 4 4 4 4 4 4 4 4 x x x 4 4 3 4 4 3 2 , , , , @ o     j l +.#.%.q.r.i.i.i.y.r.<.<.<.$.+.o.+.q.r.r.y.y.y.y.u.y.y.y.y.y.y.y.y.r.<.%.<.<.%.%.#.0 c B B B C C B B B B B B B B B B B C C C B 8 L L L L L j j s s p 6 ; $ . X & 6 7 a 7 7 7 7 7 7 6 & ; 7 a a s s s s s s p i a a a p p p s s s s a a a a s s s s s s s s p p p p p p a p p p p p s s s s s s s s s s s s s p p p p p a p a a a a a a i i a a a a a a a a s s s s a a i i i i u u u u i i i i i i i i i i a a a i s s s s s s s s s s s s s p p p p p p p p i i p p i i i i i i i s s s s s p p p p p p p p p p p p p p p p p p p p p p p p i i p p p p p p p p p p s p s s s s p p p p p p s s a a a s i 6 * 6 i s m m m m m m p * # # & * 6 6 u u u 7 u 6 6 6 6 : ; v S C C C C Z C C C C C C C C C B Z B B B B C C C B C C B C C B B B C C B C B C C B v c c x 5 k +.o.o.@.%.%.$.$.<.<.<.<.<.<.<.$.<.$.$.<.@.+.o.o.o.$.+.+.+.+.l g g i 7 x v v v v B B v v B v v B B B B B B B B B c v B B B B B B B v B v v B B B B ",
"3 4 4 4 4 3 3 4 3 3 3 3 3 3 4 3 4 4 3 3 4 3 3 3 3 4 3 3 3 4 3 3 3 3 2 3 4 3 4 v 4 4 4 4 4 4 x 4 4 4 4 3 3 4 3 4 3 3 2 2 , + o o o   j l l #.%.q.r.y.i.i.y.r.r.<.%.+.o.o.#.q.r.y.y.y.y.y.y.i.i.i.i.i.y.y.y.r.r.<.<.<.%.%.<.0 B B B B B B B B B B B B v B C C B C C B B 8 L L L L L j j s s p 6 ; & . X & 6 7 a 7 7 7 7 7 7 6 & * 7 a a s s s s a a i i i a a a p p s s s a s s s a s s s s a a a s p p p p p p p p p p p p s s s s s s s s s s s s s p p p p i a p a a a i i i i i i i a a a a a a s s s s a a i i i i i u u i i i p i i i i i i i p p a a a p p p p a s s s s s s p a p p p p p p p p p p p i i i i i i i s s s s s p p p p p p p p p p p p p p p p p p p p p p p p p i p p p p p p p p p p p p p s s s a p p p a a s s s s s s p 6 * 6 i s s m m m m m p * # # # * 6 6 u u u 7 u 6 6 6 6 : : b S Z C C S C B C C C Z C C C C B B v B B C C C C C B C B B B B B B B B B B B B C B B v v 4 5 l #.+.o.@.$.%.$.@.<.<.6.6.6.6.<.$.<.<.<.$.$.@.o.o.o.@.@.o.o.o.+.l g t 7 v v v c v v v v v B B v v B B B B B B B B B B B B B B B B v v B B v v v B B ",
"4 3 4 4 4 4 3 4 3 4 4 3 4 4 3 3 3 3 4 4 3 3 3 4 4 4 3 4 3 3 4 3 2 3 4 3 4 4 4 3 3 4 x x x x 4 4 4 4 3 4 4 3 4 3 3 3 2 > > + o o o   ; l +.+.%.q.r.y.i.i.y.y.r.<.$.+.o.o.#.r.r.y.y.y.y.i.i.i.i.i.i.i.i.i.y.y.r.<.<.<.%.%.#.5 B B B B B B B B B B B B B B B C C C B C C 8 L L L L L j z s s p 6 ; & . X & 6 7 a 7 7 7 7 7 7 6 & * 7 a a s s s s a s i i i a a p p p s s s s s s s s s s s a a a a p p p p p p p p p p p p p s s s s s s s s s s s s s p p p p i a a a a a p i i i i i i a a a a a a s s s s a i i i i i i i i i i p p i i i i i i i p p p a a a s p p a p s s s s s p a p p p p p p p p p p p i i i i i i a s s s s s p p p p p p p s a s p p p p p p p p p p p p p p p p p p p p p p p p p p p p p p s s s s p a p p s s s s s s p 6 * 6 i s s m m m m m p * # # # * 6 6 u u u 6 6 6 6 6 6 : ; b C C C C Z C B B B C C B C Z B B v B B C C B B C B C C C C B C B B B B B v B C B B v v v v 5 l #.+.o.@.$.$.@.@.$.<.6.6.r.r.<.$.<.6.6.<.<.6.@.| | o.+.+.+.o.+.l l l a v v v c x v v v v B v v B B B B B B B B B B B B B v B B B B B v v v v v v v ",
"3 4 3 4 4 3 4 4 4 3 4 3 3 3 3 3 4 4 4 3 3 4 4 3 4 4 4 3 3 3 3 3 4 4 3 3 4 4 3 4 3 4 4 4 4 4 4 4 4 4 3 3 3 3 4 3 4 3 2 > , > o o o     - +.+.$.<.r.y.i.i.i.y.r.6.$.o.o.o.$.r.r.y.y.y.y.i.i.i.i.i.i.i.i.i.i.y.r.<.<.<.%.%.#.5 v B B B B B B B B B B B B B B B B B B C B 8 P L L L L j j s s p 6 ; & . X & 6 7 a 7 7 7 7 7 7 6 & * 7 i a s s s s s s a i i a a s p p s s s s s s s s s s s s s a s a p p p p p p p p p p p p s s s s s s s s s s s s s p p p p i i a a a a a i i i i i i a a a a a a s s s s a a i i i i i i i i i p p i i i i i i i p a a a a s a p p p p p p a p p p p p p p p p i i p p p p i i a a i i a s s s s s p p p p p p s s s s s s p p p p p p p p p p p p p p p p p p p p p p p p s s a s s s s s s p p p s s s s s s i 6 & < i s s m m m m m p * # # # * 6 6 u u u 6 6 6 6 6 6 : ; b C C C C C C B C C C B C C C Z B v v B B B C C C C C C B B C C B B B C B v B B B B v v v x 5 +.#.+.o.@.$.$.@.+.@.<.6.6.6.6.6.$.<.6.6.6.6.6.@.| [ | o.+.+.+.+.+.l l a v v v B v v v v v B v v B B B B B B B B B v B B b v B v v B B v v c v v v v ",
"4 4 4 3 3 3 3 4 4 4 4 3 3 3 4 4 4 3 3 3 3 3 3 3 4 4 4 4 4 4 4 3 3 4 2 4 3 3 3 4 4 4 4 4 4 4 3 4 4 4 4 4 3 3 3 3 3 3 , , 2 , + o o o   $ l #.#.<.r.y.i.i.i.i.r.6.$.o.o.o.$.r.y.u.y.i.i.i.i.i.i.i.i.i.i.i.i.i.r.6.<.<.%.%.q.7 v B B B B B B B B B B B B v B v c B B C B 8 P L L L L j j s s p 6 * & . $ & 6 7 a 7 7 7 7 7 7 : & * 7 i a s s s s s s a i i a s s p p s a a a s s s s s s s s s s a p p p p p p p p p p p p p s s s s s s s s s s s s s p p p p i a a a a s a i i i i i i a a a a a a s s s s a a i i i i i i i i i p p i i i i i i i a a a a s s p p p p p p p p p p p p p p p p p p p p p p p p i a a a a a s s s s s p p p p p p s s s s s s s s s s s s s s s s s s a p p p p p p p p p p p s s p s s s s s s p p p s s a s s s i 6 & < i s s m m m m m p * # # # * 6 6 u u u 7 6 6 6 6 6 : ; b Z C C C C Z Z C C C C B C C B B B v B C B C C C B C C B C B B B B B B B v v B B B x x v x 5 #.#.+.+.$.$.@.@.+.$.<.6.6.6.6.<.@.6.6.6.7.6.7.&.| o.[ | o.+.@.+.+.l l 0 v c c c v v v v c v v B v c B B B B B B c v v v v v v v v B B v v v v v c v ",
"3 4 3 3 3 4 4 4 3 3 4 3 3 3 4 4 4 3 3 4 3 3 3 3 3 3 3 4 4 4 3 3 3 4 3 4 3 3 4 4 4 4 4 4 4 3 3 4 4 3 3 3 4 3 3 3 3 3 2 2 2 , o o o o o $ k #.#.%.r.y.y.i.i.i.r.*.%.o.o.o.%.r.u.y.y.i.i.i.i.i.i.i.i.i.i.i.i.u.r.r.6.<.%.%.#.i v v v v B B B B B B B B v v x 4 v v C C B 5 P P L L L j j s s i : * $ . $ & : 7 a i 7 7 7 7 7 ; & * 6 i a a s s s s s a i a a a a p p s s s s s s s s s s s s s s s p p p p p p p p p p p p p s s s a a s s s s s s s s s p p p p s a a a a a a a a i p p s s a p p a s s s s a a a s i i i i i i i p p p i i i i i i i i i a a a p p p p p p p p p s s a p p p p p p p p p p p p p a a p p a s s s s s p p p p a a s s s s s s s s s s s s s s s s s s p p p p p p p p p p p p s s p p s s s s p p p p s s a a a a i 6 & < i s s m m m m m p * # # & * 6 6 6 u u 6 7 6 6 6 6 : ; v Z C C B C Z Z B C C C Z Z Z C C B B B B B B C B B C B B B B B B B B B B B v B B B v v v v 5 >.#.#.<.<.<.@.+.@.<.6.6.r.r.6.%.@.*.7.7.7.7.7.&.O.o.[ [ o.@.#.#.+.l j b v v c v v v v v c v v B B v v B B B B v v B v v v v v x c v B B v v v v c v ",
"3 4 3 3 4 4 4 4 3 3 3 3 3 3 3 4 4 3 3 3 4 3 3 3 3 3 3 3 3 3 3 3 3 3 3 4 4 3 3 3 4 4 4 4 4 3 3 3 3 3 3 2 3 3 3 3 3 3 2 , , , + o o o   X k #.#.%.q.y.y.y.i.i.t.*.%.o.o.o.%.r.i.i.i.i.i.i.i.i.i.i.i.i.i.i.i.u.r.r.6.*.%.%.%.T P v v v B B B B B B v v v B v x v v B B B 3 L L j j h j j i i i : : $ . . $ : u i i i i i i i : & * 6 i a i a a i i a a i p p p a i p p p p p s s s s s s s s s s s s p a s s s s p p p p p p p p p p p p s s s s s s s s s s s s p p p p p p i i i i i p p p p p p p a a a p p p p p i i i i i i i i i i i i i i i i i i i i i a p p p p p p p s s s s a p p p p p p p p p p p p p a a p p p p p p p p p p p a a a a a a a a a s L m m m s s s s s s s a p p p p p s s p a p p s a p p a a s s s s s p s s a a a a p 6 & * i s L L L m m s p * # # & * 6 6 6 6 7 7 7 7 6 6 6 : ; 9 C C C C C C C B C C C Z C C C C B B B B C B B B B B B B B B B B B v B v v v v B B v v v v 5 >.#.$.<.<.<.$.@.@.6.6.r.r.r.t.*.O.*.7.7.7.7.6.&.O.| [ [ o.@.$.#.+.l 5 c c v c v v v B B c c c B v v v v v B B B B v v v B v 4 3 v v B B v c c c c v ",
"3 4 3 3 3 4 3 4 3 3 3 3 3 3 3 3 3 3 3 4 3 3 3 3 3 3 3 3 3 3 3 3 3 3 3 4 4 3 3 4 4 4 4 4 4 3 3 3 3 3 3 3 3 3 3 3 3 3 2 > , , + o     o @ k #.#.%.<.r.r.y.y.y.t.6.%.o.o.o.*.y.u.i.i.i.i.i.i.i.i.i.i.i.i.u.y.y.r.r.r.r.%.%.%.#.Q v B B B B B B B B v v v B v v v v B B B 3 z z z j h j j s i 6 : : $ . . $ : u i i i i i i i : & * 6 i a i a a i a a a a a p p a i p p p p p s s s s s s s s a s a s p p p s s s p p p p p p p p p p p p s s s s s s s s s s s s p p p p p p p p p p p p p p p p p p a a a p p p a s a s s i i i i i i i i i i i i i u u u i i i p p p p p p s s s s s s p p p p p p p p p p p p p a p p p p p p p p p p p p a a a a a a a a a s m m m m s s a s s s s a p p p p p s s s s p p p p p p p p p p p p p p s s s s s s i 6 & * i j L L L L s s u * X # # & 6 6 6 6 7 7 7 7 6 6 : : ; 9 C C C C C C C C C C C B B B C C B C B B C B B B B B B B B B B B B B v B v v v v v v v v v 5 >.#.%.<.6.6.<.$.%.6.r.t.t.t.t.*.@.6.t.t.7.7.6.&.O.| [ [ o.@.$.+.+.l 8 v c v x c v v v v v v v v v v v v v v v v v c v v c v 4 x v v B v c c c v v v ",
"3 4 3 2 3 4 4 3 3 3 3 3 3 3 3 3 3 3 3 3 3 3 3 3 3 3 3 3 3 3 3 3 3 4 3 3 4 3 3 3 4 4 4 4 3 3 3 4 3 3 3 3 3 3 3 3 3 2 , , , , + o o o o @ k #.#.#.%.r.r.y.y.u.u.t.6.@.O.O.*.u.i.i.i.i.i.i.i.i.i.i.i.i.y.r.r.r.r.r.r.r.*.%.%.#.! v v B B B v v v B v v v v v x v v B C B 5 z z z j h j j s i 6 : : $ . . $ : u i i i i i i i : & & 6 i a i i a a a a a i a p p a i p p a a p a s s s s s s s a a s s a a p p a s p p p p p p p p p p p p s s s s s s s s s s s s p p p p p p p p p p p p p p p p p p a a a a p p a s a s s s s i i a a a i i i i i i u u i i i i p p p p p p s s s s s s p p p p p p p p p p p p p p p p p p p p p p p p p p a a a a a a a a a s m m m s s s a s s s s p p p p p p s s s s p p p p p p p p p p p p p p s s s s s s i 6 & * i s L L L L s s u * # # # & 6 6 6 6 7 7 7 7 6 6 : : ; 9 C Z Z C Z C C Z C C C B C B C C B B B B B B B B B B C B B B B B b v B B v v v B v v x v 3 5 >.#.$.<.r.r.6.%.6.r.t.u.u.u.t.6.@.7.u.t.t.7.6.&.O.[ [ | o.@.$.@.#.l 9 v v v c c v v v v v v c c v v v v v v v v v v v c v c 4 x v v B B c c c c v v ",
"3 3 3 3 4 4 4 4 4 4 3 3 3 3 3 3 3 3 3 3 3 3 3 3 3 3 3 3 3 3 3 3 3 3 3 3 3 4 4 3 3 3 4 3 3 4 3 3 3 4 2 3 3 3 3 3 3 2 2 2 , + o       o o z ! #.%.%.e.r.r.r.t.u.u.r.@.O.@.r.i.+X+Xi.i.i.i.i.i.i.i.i.i.y.r.r.r.r.r.r.r.6.6.$.<.! x B B B B v B B B v v v v v v v B B B B 8 z z z z h j j j i 7 : : $ . . $ : u u i i i i i i : & & 6 i a a a a a a a a a a p p a i s p a s p s s s s s s s s s s s s s s p p p s p p p p p p p p p p p p s s s s s s s s s s s s p p p p p p p p p p p i p p p p p p s s s a a p a a a a a i i i a a a i i i i i i i u u u i i i i p p p p p s s s s s s p p p p p p p p p p p p p p p p p p p p p p p p p p a a a a a a a a a m m m m m s s s s s s s a p p p p p a a s s a p p p p p p p p p p p p p s s s s s s i 6 & * i s L L L L L s 7 * # # # & 6 6 6 6 7 7 7 6 6 6 6 ; ; 9 C C C C C C C B C C C C C B C C C B B B C B B B B B B B v B B v v v v v v v v v 4 4 9 9 3 5 q.#.%.q.r.r.r.6.r.r.u.u.u.u.u.7.&.7.u.u.7.7.&.&.| [ [ | @.$.<.$.#.l 9 v c v B B v v B v v v c c v v v v v v v v v v v c v c v v c v v v v c c c c c ",
"3 3 4 4 4 3 2 3 4 4 3 3 2 3 3 3 3 3 3 3 3 3 3 3 3 3 4 3 3 3 3 3 3 3 3 4 3 3 4 4 3 4 3 3 3 3 2 3 4 2 2 3 2 2 2 2 2 2 2 2 , + + o         X k #.%.q.r.r.r.r.t.u.u.r.@.O.*.u.+X+X+Xi.i.u.y.i.i.+X+Xi.i.y.r.%.r.r.y.r.r.6.r.%.#.! V v B v v v B B B v v v v v v v v v v B 3 j z z z h j j j i 7 : : $ . . $ : u i i i i i i i : & & 6 i a a a a a a a a a a p p a i p p s s p p s s s s s s s s s s s a a a p p s p p p p p p p p p p p p s s s s s s s s s s s s p p p p p p p p p p p i p p p p p p s s s s a p p a a a a s a s a a a i i i i i i i u u u i i i i p p p p p p p p p p a p p p p p p p p p p p p p p p p p p p p p p p p p p a a a a a a a a a s m s s s s p p p p s s p p p p p p a s a s p p p p p p p p p p p p p p s s s s s s i 6 & * i n L L L L s s 7 * X X # & 6 6 6 6 7 7 7 6 6 6 6 ; ; 9 C C C C B C B C C C C B B B C Z B B B B B B B B B B B B B v v v v v v v v v v v 4 9 9 9 9 ! q.#.%.q.r.r.r.r.r.u.u.u.u.u.u.t.7.t.u.u.t.7.&.&.| [ [ o.@.$.<.<.+.#.8 v v v v v v v v v v v v c v v v v v v v v v c v v v x v v c v c c c c c c c c ",
"3 4 3 3 3 4 3 3 4 2 4 3 3 3 3 3 3 3 3 3 2 2 3 3 3 3 3 3 3 3 3 3 3 3 3 4 4 3 4 4 4 3 3 4 4 3 3 2 3 2 3 2 3 3 2 2 2 2 > , > > , o         o i >.%.0.%.r.r.r.r.u.y.r.O.O.*.t.+X+X+X+Xi.y.y.u.i.+X+X+Xi.i.r.%.r.r.y.y.r.6.6.%.<.>.P v v v B B B v v v v v v v v v v v v v 3 P L z j L L j h i u 6 : & $ . # : u i i a i i i i : & * 6 i a i a a i i i i i i p p p i i p p p p p s s s s s s a s s s s a a a p p p p p p p p p p p p p p p s s s s s s s s s s s s p p p p p p p p p p i i p p p p p p a a a a p p p s a a a s a s a s s i i i i i i i u u i i i i i p p p p p p p p p p p p p p p p p p p p p p p p p p p p p p p p p p i p p a a a a a a a a a a s s s s p p p p p p p p p p p p p p p p p p p p i p p i p p p p p p p s s p p p p i 6 * 6 i L L L L L s s 7 * X X & & < 6 6 6 7 7 7 6 6 6 6 ; ; 9 C C C C Z C C B C C Z C B B C B v B C B B B B B B B v v v v v v v v v v v v v v v 9 3 3 P >.q.#.%.q.r.r.r.r.u.u.u.u.u.u.u.t.t.XXXXXXt.7.&.&.| | [ | @.%.$.$.@.+.9 v c v c v v c c c v v c v v v v c c B v B c c v c v v x c c c c c c c v c c c ",
"3 3 3 3 3 4 3 4 3 4 2 4 3 3 3 3 3 3 3 3 3 3 3 3 3 3 3 4 3 3 3 3 3 3 4 3 3 3 4 4 3 3 3 4 2 2 3 3 2 2 3 , 2 2 2 2 , , > , > > > + o       o X i q.0.0.r.r.r.r.y.r.6.@.@.6.OX+X#X,X+Xi.y.r.y.+X+Xi.+Xi.y.r.%.%.r.y.y.r.6.<.%.<.q.! v v v v v v v B B v v v v v c B v v v 5 P L L L L L j a i i 6 : : & $ $ : u i i i i i i i : & ; 6 7 a i i i i i i i i i p p i i p s s s a a s s s s s s a s s s s p p p p p p p s a s s p s s s s s s s s s j s s s s s s s s s s s s s a p p p p p p p p p p p p p p p p p p p a a a a s a a a a p i i i i i i u u u i i i i i p p p p p p p p p p p p p p p p p p p p p p p p i p p p p p p p p p i i p p a a a a a a a a a s s s s p p p p p p p p p p p p p p p p p p p p i i p p p p p p p p a s s s s s s i 6 * 6 i s L L L j s s 7 * X X $ & & * 6 6 6 6 7 6 6 6 : & ; 9 B C C C Z Z C C C Z C B B B B C B B B B B B B B B B B x v v v 4 v v 3 4 x v x 4 3 2 2 2 Y >.>.#.<.<.r.r.r.u.u.u.u.u.i.OXu.u.t.u.XXXX7.7.&.&.O.| | | %.%.$.<.@.+.9 c c v v c c v v v v v v c v v v v v B v c c v v v v v v x x v c c v c x v c c ",
"3 3 4 4 3 3 2 3 4 4 3 3 3 3 3 3 3 3 3 3 3 3 3 2 3 4 3 2 3 3 3 3 3 2 2 3 3 3 3 3 4 3 4 4 3 4 3 3 3 3 2 2 2 2 2 , , 2 , , , > + + o       o o i q.*.0.r.r.r.y.r.0.&.O.@.7.+X#X-X,X,X+Xt.r.t.i.+X+X+X+Xi.r.%.%.r.y.y.r.r.<.<.<.%.! b v v v v v v v B B v v x v v v v v v 3 P P L L L L s p i i 7 6 * & # & 6 i i i i i i i i 6 & ; 6 7 a i i i i i i i i i p p p a i a s s s s s s s s s a a a a s s p p p p p p a s s p p p s s s s s s h s s s s s s s s s s s s s s p p p p p p p p p p p p p p p p p p p p p p a s a a a p a a a a i i i i i i u u u i u i i p p p p p p p p p p p p p p p p p p p p p p p p p p p p p p p p p p p p p p p a a a a a a a a a s s s s p p p p p p p p p p p p p p p p p p i i i i i i p p p p p p p s s s s s s a 6 * 6 i s L L s s s s 7 * . . # & & * 6 7 6 6 7 6 6 6 * & ; 9 C C C C C C C C C C B B B C B B B B B B B B B B B B B B B B B B v v x 4 4 4 3 3 3 3 3 3 I >.#.#.<.<.r.r.r.u.u.u.i.u.OXOXOXXXt.t.XXt.7.&.&.&.O.| | | @.@.%.<.$.l 8 c c c v x v v v v v v v v v v B v v v B v v v c c v 4 x x v c c v v v x x x c ",
"4 4 3 4 3 3 4 4 3 3 3 3 3 3 3 3 3 3 3 3 3 3 3 2 2 3 3 3 3 3 3 3 3 3 3 3 3 3 3 4 3 3 3 3 3 4 4 3 3 3 2 2 2 2 2 , , > , , , , , @ o         o 6 q.e.r.r.r.t.t.r.*.@.O.&.7.+X#X#X-X-X+Xu.r.t.u.oX+X+X+Xi.y.r.r.y.y.y.y.r.q.<.$.q.>.9 v v v B v v v v B v v v v v v v v v 2 P P L L L L s a i i 7 6 < & # & 6 i i i i i i i i 6 & ; 6 7 a i i i i i i i i i p p a a p p s a s s a s s s s s a a s s s p p p p p p a s s p p p s s s s s s h s s s s s s s s s s s a s s p p p p p p p p p p p p p p p p p p p p p p a s a a a p a a a a i i i i i i u u u i i i i p p p p p p p p p p p p p p p p p p p p p p p p p p p p p p p p p p p p p p p a a a a a a a a a s s s s p p p p p p p p p p p p p p p p p p i i i i i i p p p p p p s s s s s s s s 6 * 6 p s L j s s s s 7 * . . # & & * 6 7 6 7 7 6 6 6 * & ; 9 C C C C C C C C C C B C B B B B C B v B B B B v v B v B v B v v v 4 v v v v 4 3 3 3 3 2 I >.#.#.<.<.r.r.y.u.u.i.i.OXOXOXOXXXt.t.XXt.7.&.7.&.&.| [ | O.@.$.<.$.l 9 c c c c x c c c v v c v v v v v v v v B v c c c v v c c v v c x v v x x x x v ",
"4 4 3 4 3 3 2 3 3 3 2 3 3 3 3 3 3 3 3 3 3 3 3 3 3 3 3 3 3 3 3 3 3 3 3 4 3 3 3 3 4 3 4 4 3 4 3 3 2 2 2 2 2 2 2 , > > > > > , , , o         + 5 q.q.r.r.r.t.t.0.@.O.O.&.t.+X#X-X-X-X-X+Xt.t.t.oX+X+X+Xi.i.y.y.y.i.y.y.r.r.<.<.%.#.7 v v v B B v v v c v v v v v v v v x 2 P P L L L L m a i i 7 6 < & & & 6 i i i i i i i i 6 & ; 6 i a i i i i i i i i i p p i i p p a a a p s s s s s s s s s s s p p p p p p a s p p p s s s s s s s s s s s s j h s s s s s p s p p p a p p p p p p p p p p p p p p p p p p p s s s a a p p a a a a i i i i i u u u i i i i p p p p p p p p p p p p p p p p p p p p p p p i i i i p p i p p p p p p p p a a a a a a a a a a s s s s s p p p p p p p p p p p p p p p p p p p p p p p p p p p p p s s s s s s s s 7 * 6 i s L j s s s s 7 * . . # # & * 6 7 7 7 7 6 6 6 * & ; 9 C B B B C C C C C C C B B B C B B B v B B B B B B v v B B B B v v v v v v v v 3 4 3 2 2 Y >.#.#.%.<.r.r.y.u.i.i.OXOX+X+XOXOXt.t.XXXXt.7.7.7.&.O.| O.O.%.%.<.>.>.8 x c c c x x v c c c c c c c v v v v v c v c v x x c x x c v v c v 3 3 x x x x ",
"4 2 3 4 4 3 3 3 3 3 3 3 3 3 3 3 3 3 4 3 3 3 3 3 3 3 3 3 3 3 3 3 3 3 3 4 3 3 3 3 3 3 3 3 4 4 3 3 3 2 2 2 2 2 2 2 > > > > > , > > o     o o + @ : q.r.r.r.y.t.6.@.O.O.&.7.OX@X#X#X,X,X#XOXt.t.oX+X+X+X$X$Xi.i.i.i.y.y.r.r.<.<.<.#.l V v B v B v v v v v v v v v v v v x , P P L L L L m a i i 7 6 < * & & 6 i i i i i i i i 6 & ; 6 i a i a a a a a i i i p p i i p a a a a a a a a a a s s s s s s p p p p p p a s p p p s s s s s s s s s s s j h h h s s s s p a p p p a p p p p p p p p p p p p p p p p p p a s s s a a i p a a a a i i i i i u u u i i i i p a a a a a a a a a a a p p p p p p p p p p p i i i i p p i p p p p p p p p a a a a a a a a a s s s s s s p p p p p p p p p p p p p p p p p p p p p p p p p p p p p s s s s s s s a 6 * 6 i s L L s s s s 7 * . . # & & * 6 7 7 7 7 6 6 6 * * ; 9 C B C C B C C C C B B B B B B B B B v B B B B B B v v B B B v v v v v x v 3 4 3 3 2 2 a T >.#.#.%.<.r.r.y.y.u.i.OX+X+X+X+XOXXXXXXXXXXXXXXX7.&.O.| o.O.@.6.<.>.#.8 c v v v x v v c c c v v c v v c v v c c v c c v v x x x c c x v v 4 3 3 3 x 4 ",
"3 3 3 3 3 3 4 3 4 3 3 3 3 3 3 3 3 3 3 3 2 2 3 3 2 2 4 3 3 3 3 3 3 3 3 3 3 3 3 3 3 3 3 3 3 3 3 3 4 2 2 3 2 2 2 , > > , > , , , + o     o o o + , w.r.r.t.t.t.6.O.O.O.&.7.{.OX#X#X-X,X#X+Xt.t.oX+X+X+X$X$X$Xi.i.i.i.y.r.r.%.<.<.#.T V v B B B v v v B v v B v B B v B v 2 P I L L L L L s i 7 7 6 ; & $ & 6 i i i i i i i i : & ; 6 i a i i i i i a i p p p p i i a a a a a a a a a a a a a s s s s p p p p a a s s a a a s s s s a a a s s s s s s m m m m m s p p p a a a p p p p p p p p p p p p a a a a p p a a a a a a a a a p p p a i i i i u u u i i i p p a a a a a a a a a a a a a a a a s s p p p p p i p p i i p p p p p a a a a a a a a a a a a a a p p s s p p p p p p p p p p p p p p p p p p p p p p p p p p p p p p s s s s s h j p 6 * 6 i s m s s s s s 7 * . . # & & * 6 6 6 6 7 7 6 6 : * ; 9 C B C C B B C C C C C B C B B B B B B v B B B B B B v B B B B v v v v v 9 9 3 3 3 3 2 E >.>.#.#.#.<.r.r.y.u.i.i.i.+X+X+X+X+XOXoXoXoX+X+XOXt.&.O.| o.O.O.6.<.$.l 9 v v v c x c c c c v v v v v v c c v v v v c c v v v x c v c x v v v 3 3 4 4 4 ",
"4 3 3 3 3 3 4 3 3 4 3 3 3 3 3 3 3 3 2 3 2 4 3 3 3 4 4 3 2 3 3 3 3 3 2 3 3 3 3 3 3 3 3 4 3 3 3 4 3 2 2 2 2 2 2 2 , , > , , , , + o       o o + , w.q.r.r.y.t.7.@.O.O.&.7.{.OXOX#X-X-X-X#XoXOX+X+X+X+X$X$X$X$X+Xi.y.r.r.<.%.%.$.#.T P B v B B v v B B v v x B B B B B v 3 P R L L L L L s a 7 6 6 * & X & 6 i i i i i i i i 6 & ; 6 i a i i i i i a p p p i i 7 a a a a a a a a a a a a a a a a a a a a a a a s m m m m m m a a a a a a a a a a a a m m m m m s i i a a a a i i i s s a a i i i i a a a a a a a a a a a a a a a a a a p p u u u u 6 6 6 u u u p a a a a a a a a a a a a s s s s s s s s s s s p p p p p p p p p p p a a a a a a a a a a a a a a p p p p p p p p p p p p p p p p p p p p p p p p p p p p p p p p p s s s s s h s s i 6 * 6 i s s s s s s s 7 * X . # & & * 6 7 7 6 7 7 6 6 : * 5 9 C C C C C C C B B B B C B B B B B v v B B B B B B B B v v v v v v v v 4 v 3 3 3 8 3 2 E ,.>.+.+.$.q.r.r.y.y.y.i.i.+X+X+X#X+XoXoX+X+X+X+XoXXX7.&.O.o.o.O.6.6.$.+.9 v v v v v x x c c c v c c c c c v v v v v c c c x x x c v v x v v x 3 3 4 x 4 ",
"3 3 3 3 3 3 3 3 3 3 3 3 3 3 3 4 2 3 3 3 4 2 3 3 4 4 2 2 2 3 3 3 3 3 3 3 2 4 3 3 3 3 3 4 4 4 4 3 4 3 2 2 2 2 2 2 , , > > > > > + + o   o o + + + ; l r.r.t.t.t.&.O.O.O.&.7.{.OXOX#X-X,X,X#XoX+X+X+X+X$X$X$X+X+Xu.y.r.r.%.$.$.#.#.l z V v B B v v B v v v v v c v B v v 3 P P L L L L j s a 7 6 6 * & X & 6 i i i i i i i i : & ; 6 7 a i i i i i i p i i i i i a a a a a a a a a a a a a p p a a a a a a a a a s s s s a s a a a a a a a a a a a a s s s s s s i i i s a a s p i s s s a s s i a a a i i a a a a a a a a a p a a a a p p u u u u 6 6 6 u u u p p p p p p p p p p p p p s s s s s s s s s s s p p p a s s a s p p a a a a a a a a a a a a a a a p p p p p p p p p p p p p p p p p p p p p p p p p p p p p p s s s s j s s s s s s i 6 & * 7 i a s s s s s 7 * X X & & & * 6 7 6 6 7 7 6 6 : * < 9 B B C C C C C Z Z C B B B B B B B B v v v B B B B B B v v v v v v v 3 4 9 3 3 8 8 2 2 Y >.>.+.+.<.q.r.r.y.u.u.u.u.oX+X+X+X+X+X+X+X#X#X#X+XXX7.&.O.| O.&.6.<.$.+.9 c 4 c v v c v v v v c c c c v c c c c c v x v c c v c x x c x x x x x 4 3 4 4 ",
"3 3 3 4 3 3 3 3 3 3 2 2 3 3 3 3 3 3 3 3 4 4 3 4 4 4 3 2 2 3 3 3 3 3 2 3 3 3 3 3 3 3 3 x 4 3 4 3 3 2 3 3 2 2 , > > > > > > > > + o     o , , 2 , o g r.r.t.u.t.6.O.O.O.&.&.7.XXOX#X,X,X,X#XoXoX+X#X#X$X$X$X+X+Xu.y.r.r.%.$.$.#.#.l T P v B B B B v v c v v v B v B B B 8 P P L L L L j s a 7 6 6 * & X & 6 i i i i i i i i : & ; 6 7 a i a i i i i i i i i i i a a a a a a a a a a a a a p a a a a a a a a a a a a a a a a a a a a a a a a a a a a s s s s s s i i i s s s s i a s s a a s a a a a i i i a a a a p a a a a p a a s s p p u u u u 6 6 6 u u u p p p p p p p p p p p p p a a a a a s s a a a a i p p s a a s s p p a a a a a a a a a a a a a a a p p p p p p p p p p p p p p p p p p p p p p p p p p p p p p s s s s j s s s s s s i 6 & 5 7 i s s s s s s 7 * X X & & & * 6 6 7 6 7 6 6 6 : * < 9 B C C C C C C B B v B B B B B B C B B v B C B B B B B B B v v v v v v v 4 3 9 8 3 3 5 ,.>.>.+.$.<.r.y.r.y.y.y.u.u.oX+X+X+X#X#X#X#X#X#X#X+XXX7.&.O.| O.6.6.6.$.l 8 x v v x v v c c c c c c c c v c v v c c v c c c x c v v x v v v x c x x 3 4 4 ",
"3 3 3 3 3 2 2 3 3 2 3 3 4 4 3 3 3 4 4 4 3 4 3 3 3 3 2 3 3 3 3 3 3 3 3 4 4 3 3 3 3 4 3 3 3 4 3 2 2 2 2 2 , > > , , , > > > > > + o o o + > 2 2 , 2 h r.0.r.t.u.7.&.O.O. .&.{.{.OX+X-X,X,X,X+XoX+X#X$X#X$X+X+X+Xu.y.r.r.%.$.$.#.#.#.k h v v v v c v B v B B B v v v v v 5 P P L L L L j a a 7 6 6 * & X & 6 i i i i i i i i : & ; 6 7 a i a a a a i i i i i i p a a a a a a a a a a a a a i i i i a a a a a a a a a a a a a a a a a a a a a a a a a a a a a a a i i a a a a s a a a a a a a a a a a a i i i i p p p a a a p p p a a a p p u u u u 7 6 7 u u u p p p p p p p p p p p p p p i i i i p p p p i p a a i i i a a a a p a a a a a a a a a a a a a a a p p p p p p p p p p p p p p p p p p p p p p p p p p p p p p p s s s s s s s s s j i 6 & * 0 p s s s s s s 7 * X X & & & * 6 6 6 6 7 6 6 6 : * < 9 C C C C Z C C C B B B B C B B B B v B B B v B B v v v v v v v x v v 8 2 2 3 3 3 3 3 5 >.>.>.+.$.q.r.y.r.r.r.t.t.u.i.+X+X+X+X#X#X+X+X#X#X+XXX7.&.O.o.@.6.r.6.<.l 3 c c x c v v v c c c c c c c c c c v v c c v x x x x v v c x x x v x v x 3 4 x ",
"3 3 3 3 3 3 3 3 3 3 3 3 3 3 3 3 4 4 4 2 3 2 4 3 3 4 2 2 3 3 3 3 2 3 3 4 4 4 3 3 3 3 3 3 3 3 2 2 2 2 2 , > > > , , , , > > > > , o   o , 2 2 2 2 2 h q.0.r.t.u.t.*.O.| O.&.{.XXOXOX#X,X,X,X+XoX+X#X$X#X+X+X+XoXu.t.r.r.<.%.#.+.#.#.l z 8 v v v v v v v v v v v v v v v 8 P P L L L L j a a 7 6 6 * & X & 6 i i i i i i i i : & ; 6 7 a i a a a a i i i i i i i a a a a a a a a a a a a a i i i i i i a a p a a a a a a a a a a a a a a a a a a a a a a a a a a p i a a a a a a a a a a a a a a a a a i i i i i p p a a a p p a a a a p p u u u u u 6 u u u u p p a a a a a a a a p p p i i i i i a i i i i i a a i i a a a a a a a a a a a a a a a a a a a a a p p p p p p p p p p p p p p p p p p p p p p p p p p p p p p p p s s s s s s s s s p 6 & 5 0 p s s s s s s 7 * X X & & & * 6 6 6 6 7 6 6 6 : * < 9 C B B C C B B B C B B B B B B B B B v v B B v v v v v v v v v v x v 2 3 2 3 2 3 2 2 5 #.#.#.+.$.r.r.y.r.r.r.t.u.u.oXoX+X+X+X#X#X+X+X#X#X@XXX7.O.O.O.@.6.r.6.$.l 8 c x c c c c v c c v c c c x c c v c v c x c x x x x v v v x x x x v v x 3 4 x ",
"3 3 3 3 3 3 3 3 4 4 3 2 2 3 3 3 4 2 4 2 2 4 4 2 2 2 2 2 2 3 3 3 3 2 3 3 3 3 3 3 3 3 3 3 2 2 2 2 2 2 3 2 > + , > > > > , , , , + o     + 2 2 2 2 2 h q.e.r.t.t.t.6.&.O.O.&.7.OXXXXXOX#X#X#X+XOX+X#X%X$X$X+X+XoXu.u.r.r.6.%.$.+.+.+.#.k 0 v v v v v v v v c c v c v v v 5 L R L L L L j a a 7 6 6 * & X & 6 i i i i i i i i : & ; 6 i i i a a a a a i i i i i i a a a a a a a a a a a a a a a i i i i i i p a a a a a a a a a a a a a a a a a a a a a s a a a a p a a a s a a a p a a a a i i a i s a a a a a p p s a a a p a a a i i p i i i i u u u u i u i i p a a a a a a a a a a p i i i i i i i i i i i i a p p p a s a a a a a a a a a a a a a a a a a a p p p p p p p p p p p p p p p p p p p p p p p p p p p p p p p a s s s s s s s s s p 6 & * u p s s s s s s 6 & X X # & * * 6 6 6 6 7 6 6 < * * < 8 B Z C C B B B C B B B c v B B B B v B v v B B v B v B v c v v v v v 3 3 2 3 3 2 , , 5 #.#.+.+.%.r.r.r.r.r.r.y.u.u.i.oX+X+X+X#X#X+X+X#X#X@XXX&.O.O.O.6.6.r.6.$.l 3 x c c x c c c c c c c x x c x v v v c c x c x x x c v v v x x 3 3 3 3 v 4 4 x ",
"3 3 3 3 2 3 3 3 3 3 3 2 2 3 3 2 2 2 2 2 2 2 4 4 3 2 2 2 2 3 3 3 3 3 3 2 3 3 3 3 3 3 3 3 3 2 2 2 2 2 2 2 , > , , + + + > , , > + o   o + , 2 3 2 > 7 q.r.r.r.t.t.7.&.O.&.&.7.XXXXXXOX+X#X+XOXXXoX#X%X$X$X+XoXi.i.y.y.r.r.<.$.+.+.#.#.l Y b v v v v v v v v v c v v v v 5 L R L L L L j s a i 6 6 * & X & 6 i i i i i i i i : & * 6 a i a s s s s a a a a a a a a a a a a a a a a a a a a a i i i i i i i i a a a a a a a a a a a a a a p p p p p p a s a a a a a a a a a a a a p p a a a a i i i s s s a s a a a a a a a p p a a i i p p p p p p i i p i i i i p p p p p p p p p p p p i i i i a a a i i i i a a p p p a s s s s s a a a a a a a a a a a a a a a s s s p p p p p p p p p p p p p p p p p p p p p p p p p p p a s s s s s s s s s p 6 & * u a s s s s s a 6 & X X & & * : 6 6 6 7 6 6 6 < * * & 8 B C C B B B C C C B B c B B B B B v B v B B B v B B v v v v v x v v 4 2 2 3 3 2 , , 5 >.#.@.+.<.r.r.r.r.r.t.y.u.i.i.oX+X+X+X#X+X+X+X#X#X#XXX&.O.O.&.6.6.6.<.#.l 8 x x c c c c c x c x c x x x x v x v c x x x c x x c v c x x v 4 4 3 4 3 x 3 3 ",
"3 3 3 3 2 4 4 2 2 3 2 3 4 3 2 2 4 2 2 4 4 3 3 3 2 2 3 3 3 3 4 4 2 3 3 4 4 3 3 3 3 3 3 3 3 2 2 2 2 , , , , , , , > + + + > , , , o   o + 2 2 2 2 2 2 ; q.r.t.t.t.t.&.O.&.&.7.XXXXXXOX+X+X@XOXXXoX#X%X#X#X+XoXi.i.i.u.r.r.r.%.+.o.#.+.#.z f v v v v v v v v v v v v v v 5 R R R L L j j s a 7 6 6 ; & $ & 6 i i i i i i i i ; & * 6 a a a s s s s s s i i a i p a a a a a a a a a a a a p i i a a a a i i i a a a a a a a a a a a a a a p p p p p p s a p p a p p a a i a a a a a a a a a i a a a a a a a a a a a a a a a a a a a a a p p i i i i i i i i i i i i i i i i i i i i i i p p p i i i a a a a a a a a a a a s s s s s s s s s s s s s s s s s s s a a a a p p p p p p p p p p p p p p p p p s s s s s s s s s a s s s s s s s s s j s i 6 * < 7 i s s s s s s 7 * X X & & * * 6 6 7 7 6 6 6 6 * * & 8 B C B C B B B B B B B B B B B B B b b v v v v v v B v v v v 4 x x 4 3 3 3 3 2 2 2 2 5 >.#.+.@.<.r.r.r.r.r.y.u.u.oXoXoX+X+X+X+X+X+X+X#X#X+Xt.O.O.O.6.7.6.6.%.+.l 8 x x x c v c v c c x x c x c v x x v c x c c c c x v v c x x x x 4 4 3 3 x x 3 ",
"2 3 3 2 2 4 4 2 2 3 3 4 4 2 2 3 4 2 2 4 3 4 2 2 2 2 3 4 3 3 4 4 2 4 3 3 4 3 3 3 3 2 3 3 3 2 2 2 , , , , , , 2 , > > > , 2 , > , o   o > , 2 2 2 3 3 @ q.r.t.r.t.t.&.O.O.&.7.XXOXOX+X+X#X+XOXOX+X#X#X#X$X+X+Xi.i.i.i.y.y.r.<.$.+.+.#.#.k h v v v v v v v v v v v v c x 5 R R R L L j j a a 7 6 6 ; & $ & 6 a i i i i i i i ; & * 6 a a a s s s s s s i i a a p a a a a a a a a a a a a p i i i i a a i i i a a a a a a a a a a a a a a p p p p p p s a s p p p p a s i a i i a a a a a a i i a a a a a a a a p p a a a a a a a a s a p i i i i i i i i i i i i i i i i i i i i i i i i p p i i i a a a a i i a a a a a s s s s s s s s s m m s s s s s s s s a a a a a p p p p p p p p p p p p p p a s s s s s s s s a a s s s s s s s s s s j h i 5 * < 7 i s s s s s s 7 * X X & & * * 6 6 7 7 6 6 6 < * * & 5 v C B B B B C B B B B B B B B B B b v v b v v v v v c v v 9 9 3 4 3 3 3 v 3 3 2 2 2 5 >.$.$.$.<.r.r.r.y.r.t.u.i.oXoXoX+X+X+X+XoXoX+X#X#X+Xt.O.O.@.7.7.6.6.<.$.l 3 c x x v c c c c c c v c x c x x v c c x x c c c c c c x x x 4 4 3 4 3 4 v x x ",
"3 3 2 3 2 2 2 2 2 2 2 2 4 2 2 2 2 2 2 3 2 4 4 4 2 2 2 3 3 3 2 4 4 2 2 4 2 3 3 3 3 3 3 2 2 2 2 2 2 2 2 2 2 , , , , , , 2 2 , , , o   o 2 2 2 2 3 2 3 @ q.r.r.t.r.7.&.O.O.&.7.XXOX+X#X#X#X#X@XoX+X#X#X#X$X+XoXi.u.u.y.u.y.y.r.<.+.+.+.#.k h 9 v B v v v v v v c c v c c 5 R R L L j j j a a 7 6 6 * & $ & 6 a a a i i i i i ; & * 6 a i a s a a a s s i i a a s s a a a a a a a a a a a p i i i i i i i i i a a a a a a a a a a a a a a p p p p p p s s s s s p p s s i i i i a a a a p a i i i i a a a a p p p p i a i i a p a a s a a i i i i i i i i i i i i i i i i i i i i i i i i p i i i i i a i i i i a a a a i s s s s s a s m m m m m m m a a s s s a a a a a p p p p p p p p p p p p p a s s s s s s s s a a a a s s s s s s s s h s j p 6 * * 7 i a s s s s s 7 * X X & & * : 6 6 6 7 6 6 6 < * * * 5 v B B B B B B B B B B B B B B v b v v v v v v v v c v v v v 3 3 4 3 3 x 3 3 2 2 2 2 ; #.#.+.%.q.r.r.r.r.y.y.u.i.oX+XoX+X+X+XoXt.t.+X#X+X+Xt.O.O.&.7.t.7.6.<.$.l 3 x x v c c x x x c x v x c c c v x x x x x x x c x x c x x v x 4 4 4 4 4 x 4 3 ",
"2 2 2 2 2 2 2 2 3 3 2 2 2 2 2 2 2 2 2 3 4 4 2 2 2 2 2 2 3 3 3 3 3 2 2 3 2 3 4 3 3 3 2 2 2 2 2 > , , 2 2 2 2 , > , , , , > > > , o   o , 2 2 2 2 2 3 2 <.r.t.t.r.7.&.O.O.&.&.XXOX@X#X#X#X#X+X+X+X#X#X$X$X+XoXt.y.y.u.u.y.y.y.q.$.+.#.+.l k B v v v v v v v v v v v v v 5 P R L L j L j a a 7 6 6 * & $ & 6 a a i i i i i i ; & * 6 a i a s s s s s s i i s s s s a a a a a a a a a a a a a i i i i i i i i p p a i i a a a a a a a a a p p p p p p a a a a a p p s s a i i i a a a a a a i i i i a a a a s p p p i i i i a a a a s a p i i i i i i u u u i i i i i i i i i i i i i i i p i i i i i i i i i i a a a i i s s s s s a s m m n m m m m s a s a a a a a a p p p p p p p p p p p p p p a s s s s s s s a a a a s s s s s s s s s s s j p 6 * * 7 i a s s s s s 7 * X X & & * : 6 6 6 7 6 6 6 6 * * * 5 3 B B B B B B B B B B v B B B B v v v v v v v v v v x v 3 3 3 3 3 3 3 3 x 3 2 2 2 0 ! #.#.+.$.q.r.r.y.r.t.u.u.u.oXoXoX+XoX+XoXt.t.oX+X+X+Xt.O.O.&.7.7.6.6.6.%.l 5 x x x x c v c c x x x x x c x x x x 4 4 x x c x x x c x x x x 4 4 4 4 4 4 4 3 ",
"2 4 3 3 4 2 2 2 2 2 3 2 2 2 3 2 2 2 3 3 3 3 4 2 3 3 3 2 2 2 2 3 4 4 3 3 2 4 3 3 2 4 2 2 2 2 2 , 2 2 2 2 2 2 2 , , , , 2 , > , > o   o + , 2 2 2 2 3 2 >.r.t.t.t.6.&.O.O.O.&.XXOX+X+X+X#X#X+X+X+X#X$X$X$X+Xi.t.y.y.y.u.y.r.r.r.$.+.o.#.#.k P v v v v v v v v v v c c v 0 E R R L L L L j h a 7 6 ; & X & 6 7 7 7 i i a a i ; & & 6 a i a s s s s s s s a p p p a a a a a a a a a a a a a a a i i i 7 7 7 i p p p p p p 0 p i a a a a a p p a p p p p p p p p p s a p a a p a s s s s a s s s s s s s s s s s s s a i i i a a a a s s a i i i i i i u u u u u i i i i i i i i i i i i i p p a a a i i i i p p i p a a s s s s s s s m m m L L L L m m s a a a a s a a a a s s s s p p p p p p p p a a s s s s s s s s s s a a a a s s s s s s s s i 6 * * 7 i a s s s s a 7 * X X * * 6 6 6 7 7 7 7 u 7 7 6 6 6 0 8 B B B B B B B B v B v B B v v v b v v B v v v v x x v 3 4 3 3 8 2 3 4 3 3 2 2 2 h >.#.#.+.#.r.r.y.y.r.t.t.u.u.oXoXoX+XoX+XoXt.t.oX+X+XoXt.O.| O.6.r.6.6.6.<.+.i 9 4 4 x c c c c x v x x x x x x x v x 4 x x x x x c v v x x x v v x x x x x 3 ",
"2 2 2 3 2 2 2 2 3 2 2 2 2 2 2 2 2 2 3 2 3 2 2 2 3 3 3 2 2 2 2 2 2 2 3 3 2 2 2 2 2 2 2 2 2 2 , , , , , 2 2 2 2 2 , > , 2 , > > , o   o , 2 2 2 2 3 3 3 z q.r.t.y.r.&.O.O.O.&.XXOX@X+X+X#X#X+X+X#X$X$X$X+X+Xi.i.y.u.y.u.y.r.r.r.%.+.o.+.#.l k v v v v v c c x x c c c Z ' ` ` E E E E E P P L h 6 ; & @ & 6 7 7 i i i i a i ; & & 6 i i a s s s n L n s s p p p p p p p p a a a a a a s a a a i i i 7 7 7 i i p p p p p p i i i i i i p p a a p p p s p p s s s s p p s s a s s s s s s s s s s s s s s s s s s s s s a a s s s s s s s a p p p i i i i i i i i i i i i i i i i i i i i a p a a a i i i i a a i p a a s L L m m m m m m m m m m m m m m a a a s s s s s s s s s s s s a a p s s s s s s s s s s s s s s s p p p p p s s s s s s s i 6 & * 7 i a a s s s a u * # & 6 7 i i i s s s s s s s s h P 7 8 v B B B B B B B v v B B v v v v v v x v v v v v v x 4 v 3 3 2 3 3 3 3 3 v 4 2 2 h >.#.+.o.$.r.r.r.y.t.t.t.t.u.u.oXoXoXoXoXt.t.t.u.oXoXXX7.&.| | %.6.6.6.6.<.#.l h v x 3 x x c c x x x c v x x x x x x x x x x x x x x 4 4 4 x v v x x x x x 4 ",
"2 2 2 2 2 2 2 2 2 2 3 2 2 2 2 2 2 3 2 2 2 2 2 2 3 3 2 2 2 2 2 2 2 2 2 2 2 2 4 3 3 3 3 2 2 , > , , , > > , , 2 2 , , , , , > > , o   o 2 2 2 2 2 3 3 3 h q.r.t.t.u.&.O.O.O.&.{.OX@X+X+X#X+X+X+X#X#X$X$X$X+Xi.i.y.y.y.u.y.y.y.r.r.#.+.+.#.#.l 8 v v v v v v c v v x x ^ w.V.3.3.3.3.3.3.` ! Q L a 6 ; & ; 7 a a a i i i i i 6 & & 6 i i a s s s s m n s s p p p p p p p p a a a a a a s a a i i i i i 7 7 p p p p p p i p i i i i i i p p a p p p p s p p p p s s p p s s a a s s s s s s s s s s s s s s s s s s s s s s s s s s s s s p p p p i i i i i i i i i i i i i i i i i i i i i p p a a a a a a a s i p a a s L L m m m m m m m m m m m m m s a a a s s s s s a s s s s s s s s s s s s s s s s s s s s s s s s p p p p p s s s s a s s i 6 & * 7 i s s s s a a i 6 & & 6 7 L L L L R E R R R I L P Q P V B B v B B B v v v v v v v B v v v v v v v v v v v 9 9 3 3 3 3 3 3 3 3 3 3 3 3 2 h q.#.#.+.$.r.r.r.t.t.t.y.u.t.u.oXoXoXoXu.t.*.t.t.t.oXu.7.&.| o.@.6.6.6.6.<.$.k h 3 4 x x x x x x c 4 x c x x x x x c x x c x x x x 4 x x 4 9 v v x x x x 3 3 ",
"2 2 3 2 2 2 2 2 2 2 3 2 2 2 2 2 2 2 2 2 2 2 4 2 2 3 2 2 2 2 2 2 2 2 2 2 2 2 4 4 3 3 2 2 2 , , , , , > > , > > , 2 , , , , , > , +   o 2 2 2 2 2 2 3 3 8 #.r.t.t.OX&.O.O.O.&.{.OX+X+X+X+X+X+X+X#X#X$X$X$X+X+Xi.u.y.y.y.u.y.y.y.r.%.+.o.#.+.+.7 v v v v v v v v v v 4 Q V.V.g.3.3.3.3.3.3.` ` E L a 6 ; ; 7 a a a i i i i i 6 & * 6 7 a s s s s s n n s s p p p p p p p p a a a a a s s a a i i i i i i p p p i p p p i i i i i i i i p p p p p p p s p p p p p p p p s a a a s s s s s s s s s s s s s s s s s s s s s s s s a a s s s a p p p i i i i i i i i i i i i i i i i i i i i a a p a a a s s a s s i p a a s L L m m m m m m m m m m m m m s a a a s s s s a a s s s s s s s s s s s s s s s s s s s s s s s s p p p p p s s s s s s s i 6 & * 7 i s s s s a a i < # # * 6 L L L E E E E E E E E I L h V B B B v v v v v v v v v v B B v v v v v v v v v v 4 3 3 3 3 3 3 2 3 3 2 , 2 2 2 h q.#.+.+.%.r.r.r.t.t.t.t.u.u.u.u.oXoXi.t.7.*.0.t.t.u.OXt.&.o.o.@.*.6.6.<.<.#.k h x x x x x x x v v x x c c x x x x x x x x x x x 3 4 3 4 4 4 x c x 4 4 3 3 3 ",
"2 2 2 2 2 2 2 2 2 2 2 2 2 2 2 2 2 2 2 2 2 2 2 2 2 2 2 2 4 4 2 2 4 2 2 2 2 2 3 4 3 2 2 2 , , , , , , > > , 2 , , , , , , , , , , o   o , 2 2 2 2 2 4 3 , k e.y.u.XX7.&.O.O.&.7.XX+X+X+X+X+X+X+X+X#X$X$X$X$X+X+Xi.i.u.u.y.y.y.y.r.q.+.o.+.+.+.z V v c v v v v v v v 3 P ' ` ` ` ` ` ` / ~ ! E P h 7 ; ; ; 7 a a a i i i i i 6 & * 7 i i a s s s s L m s s a p p p p p p p a a a p p s s p i i i i i p p p p p p p p i i 7 p p i i i i p p p p p p p s p s s s s s a a s s s s s s s s s s s s s s s s s s s s s s s s s s a a a a s s s i a p p a a i i i i i i i i i i i i i i i i i i i a a s s a s s s s s p p p a s L L m m m m m m m m m m m m m m a a a s a s s s s a a a s s s s s s s s s s s s s s s s s s s s a p p p p p s s s s s s s i 6 & * 7 i s s s s s s u * . . & * u i i s s s s s s s s s 7 6 0 B B B v v v v B v v v v v v v B v v v v v v v v v 4 3 3 3 3 3 3 3 3 3 2 2 2 3 2 k #.#.l +.%.r.r.r.r.t.u.u.u.oXu.u.oXi.u.t.*.*.*.r.t.u.u.t.&.o.o.O.%.<.<.<.<.>.#.h 4 x x x v x v v x 3 x c x x x x x x x v x x x 4 4 4 x x 4 4 x x x 4 4 3 3 3 ",
"2 2 2 2 2 2 2 2 2 2 2 2 2 2 2 2 2 2 2 2 2 2 2 2 2 2 2 2 3 2 2 2 2 2 2 2 2 3 3 4 2 2 2 2 , , , , , > > > > > > 2 2 , , , , > > , o   o , 2 2 2 2 2 4 3 2 h e.r.t.t.XX&.O.O.O.&.t.OX+X+X+X+XoXoX+X+X#X$X$X$X+X+Xi.i.u.u.u.u.y.y.y.r.%.+.o.+.#.T P v v v v v v v v v 3 0 L L L L L L s m i a a 7 6 ; & & & 6 7 7 i i i i i i 6 & * 6 7 i a s s s s s s s s p p p p p p p p a a a a p s s p i i i i p i p p p p p p p p 7 7 p p i i i i p p p p p p p s p p p s s s a a s s s s s s s s s s s s s s s s s s s s s s s s s s s s a a s s s i a p p a a i i i i i i i i i i i i i i i i i i i a a s s s s s s s s i i p a s L L m m m m m m m m m m m m n m a a a s a s s s s a a a s s s s s s s s s s j s s s s s s s s s s p p p p s s s s s s s a i 6 & * 7 i a s s s s s 6 # . . . # & & & & * * * * * * * * ; ; 0 v B v v v v v v v B v v v v v v v v c v v v v v v x v 8 3 3 3 2 2 3 3 2 2 3 2 Q q.#.l g +.<.r.r.r.r.u.t.u.OXOXoXu.oXu.t.r.*.*.*.r.t.u.u.t.&.o.o.o.$.%.<.<.<.>.>.f 3 3 3 4 x x x x 3 3 v v x x x x x x x x x x x 4 4 x 4 4 4 3 x 4 4 4 4 x 3 3 ",
"2 2 2 2 2 2 2 2 2 2 2 2 2 2 2 2 2 2 2 2 2 2 2 2 2 2 2 2 2 2 2 2 2 2 2 2 2 2 4 4 2 2 2 2 2 > , , , , , , , 2 2 , , , , , > > > > o   o 2 2 2 2 2 2 2 3 2 7 q.r.r.t.OX7.O.O.O.&.&.XX+X+X+X+XoXt.u.+X+X#X$X+X+XoXoXi.i.u.u.u.u.y.y.r.%.+.o.+.#.#.z v v v v v x v v v 4 5 5 & 5 < 5 * * * & & & @ X . X X X ; 7 7 i i i i i i 6 & * 6 7 i s s s s s s s a a p p p p p p p p a a a a s s s s s p i i i i i p i p i i i i 7 7 p p i i i i i p p p p p p p p p p p p p p s s s s s s s s s s s s s s s s s s s s s s s a a s s s s s s s s s i i i i i i i i i i i i i i i i i i i i i i i i i a a s s s s s s a a s s s s s m s s s s s s m m m m m m s s m s s s s s a a s s s s s s a s s s s s s s s s s s s s s s s s s s s p p p s s s s s s s a i 6 & * 7 i s s a a s s < X . . . . . . . . . X X X X X X . @ ; 0 B B v v v v v v v v v v v v v v v v v v v v v v v 3 3 3 3 3 3 2 2 2 2 3 3 3 3 w.q.>.+.g +.<.r.r.r.y.u.i.+XoXoXOXoXoXu.t.r.*.&.*.r.t.u.u.r.&.o.[ o.@.$.%.%.$.#.h 9 x v 4 4 x 4 x x x 3 x v x x x v x x 3 x x 3 x 4 3 4 4 4 4 4 x 4 4 4 x 3 3 3 ",
"2 2 2 2 2 2 2 2 2 2 2 2 2 2 2 2 2 2 2 2 2 2 2 2 2 2 2 2 2 2 2 2 2 2 2 2 2 2 3 2 2 2 2 2 , , , , , , , > 2 2 2 2 , , , , , , , , o   o 2 2 2 2 2 2 2 2 3 0 q.r.y.u.+XXX&.O.O.O.&.7.OX+X+XoXXXt.t.oX+X#X#X+X+X+XoXoXi.u.u.u.u.y.r.r.<.+.o.o.#.%.#.L v v v v x v c v 4 5 5 @ O O X X & # X X X . . . . . X ; 6 7 i i i i i i 6 & * 6 i i a p p i a a i i i p p p p p p p p p a a a s s s s s s s s s a i i i i i i i 7 7 7 i p p i i i i p p p p p p p p p p p p p p p i a i i i i i i i s s s s s s i i i a a a s a a s s s s s s s s i i a i i i i i i i i i i i i i i i i i i i i i i i a a a s s s s s a a s m m m m m s s s s s s s s s s s s s s s m s s s s a a a s s s s s a s s s s s s s s s s s s s s s s s s s s p p p s s a a i i i i i 6 & * 6 i s s a a a s 6 # . . . . . . . . . X X X X X . . @ ; 0 v v B v v v v b v c c v v v v v v v v v v v v v 4 4 9 3 2 3 3 2 2 2 3 3 3 3 3 q.q.>.+.g +.q.r.r.r.y.u.i.+X+XoXOXOXOXu.t.*.*.&.*.r.t.u.t.t.&.o.[ o.+.$.%.%.$.#.5 x x 4 4 x x 4 4 4 3 3 4 v x v x x x v x x x 3 x 4 4 3 3 4 4 x x x 3 4 x 3 3 3 ",
"2 2 2 2 2 2 2 2 2 2 2 2 2 2 , , 2 2 2 2 2 2 2 2 2 2 2 2 2 2 2 2 2 2 2 2 2 2 2 2 2 2 2 2 2 , > , > > , , , , 2 2 , , , , , > > , o   o 2 2 2 2 2 2 2 3 3 9 #.q.r.u.+XXX7.&.O.O.O.&.XXoX+XoXt.t.t.oX+X#X#X#X+X+XoXoXoXi.t.t.y.y.y.r.r.$.o.o.#.$.%.k 9 c c c c v x x 3 8 7 5 6 6 5 * * < * & @ X X . X . X ; 6 7 i i i i i i 6 & & 6 7 i i a a a i i i i i p i i p p p p p p p p p p p s s s s s s s a i i i i i i i i p p i i i i i i i a p p p p p p p p p p p p p p i i i a a a i i i s s s s s s i a a a a a s a a s s s s s s s s i i i i i i i i i u u u i i i i i i i i i i i i i i a a s s s s s s s s s m m m m m s s s s s s s s s s s s s s m m m m s s a s s s s a s s a s m m s s s s s s s s s s s s s s s s s s s s p p a a a a i i a 6 & * 7 i s s s a s s 6 @ . . . . . . X # & & & & & & & & ; 6 f v v v v v v v v v v c v v v v v v v v v v v v v v 4 3 3 2 4 3 2 3 3 3 3 3 4 3 >.>.#.+.l +.q.r.r.r.u.u.i.+XoXoXOXOXu.u.t.*.*.&.*.r.t.t.t.t.@.o.[ o.o.@.+.%.$.>.8 x 3 3 x x x 4 x 4 3 3 4 x x x v v v x v 4 4 3 4 4 4 4 4 4 4 x 4 3 3 3 x 3 3 3 ",
"2 2 2 2 2 2 2 2 2 2 2 2 2 2 2 2 2 2 2 2 2 2 2 2 2 2 2 2 2 2 2 2 3 2 2 2 2 2 3 2 2 2 2 , , , 2 , , 2 2 2 2 2 , 2 2 2 2 > > > > + o   o 2 2 2 2 2 2 2 2 2 8 >.q.r.y.i.u.t.7.&.O.O.&.t.oX+XoXt.t.0.t.oX+X+X+X+XoXoXoXoXu.t.t.t.t.y.r.r.%.o.g +.#.%.#.f x 4 4 x v v v 3 O 5 h n s a i i p 7 7 6 ; & & X X X ; 7 7 i i i 7 7 7 6 & & 6 i i i i p p i i i i i p u p a a a a a a a a a p p i s s s s s s s s a i i i i p p p p i 7 i i i i i a p p p p p p p p p p p p p p i i i a a a i i i i a p a a i i a a a a a s a a s s s s s s s s i i i i i i i i i u u u i i i i i i i i i i i i i i a a a a a a s s a a s m m m m m s s s s s s s s s s a a a s m m s m a a s s s s a a s s s s m m s s s s h s s s s s s s s s s s s s s s p p a a a a i i i 6 * * 6 p s s s s s s 6 & . . X & & * * < 6 6 6 6 6 6 6 6 6 7 f v v v v v c v b v v b v v v v v v v v v v v v v v v 3 2 3 4 3 x x 3 3 3 2 3 2 >.#.+.+.o.#.r.r.r.y.y.u.i.+XoXoXoXoXu.u.r.*.&.&.*.r.t.t.t.7.@.o.[ o.+.$.%.%.#.>.3 x 3 3 4 4 x 4 3 3 3 3 4 v x 4 v x x v v 4 4 4 4 4 4 2 2 4 4 x 9 3 3 8 x 2 2 4 ",
"2 2 2 2 2 2 2 2 2 2 2 , 2 2 2 2 2 2 2 2 2 2 2 2 2 2 , 2 2 2 2 2 2 2 2 , 2 2 2 2 2 2 2 2 2 2 2 2 2 , , , , , 2 2 2 2 , , , , > , o   + , 2 2 2 , , 2 3 3 8 >.q.r.y.y.u.t.t.&.O.O.&.t.oX+XoXt.0.0.0.oXoX+X+X+XoXoXoXoXu.t.t.t.t.t.r.r.%.+.g o.+.%.%.T b 3 4 3 3 v v 3 o & E E R E L L L L h a 7 6 6 ; & & 5 7 7 a i i i 7 7 6 & & 6 i i i i i i i i 0 7 i 7 u p a a a a a a a a a a i i s s s s s s s s s i i i i p i p p i 7 7 i i i i a p p p p p p p p p p p p p p i i p a a a a a i i i i i i i a a a a i i s a s s s a a a s s s i i i i i i i i i u i i i i i i i i i i i i i i i i p p p a a p p p p a s m m m m m s s s s s s s s s a a a s s s m s n a a s s s s a a s s s s m m s s s s s s s j s s s s s s s s p p s s a a a a a a i i a 6 & * 6 p a a s s s s 5 & . X & * 6 7 7 u i p i i i i i i a a a b v v v v v v v v b v v v x v v v v v v v v v v v x v x 4 3 x x 3 3 3 3 3 3 3 >.#.+.l o.$.r.r.r.u.y.u.i.oXoXoXoXOXu.t.r.*.*.*.*.r.t.t.t.7.%.o.t o.@.$.%.%.#.,.3 x 3 4 4 x x x x 3 3 3 3 4 x 4 4 x v x x 4 3 4 3 4 4 3 3 3 3 3 2 2 2 3 v 2 2 3 ",
"2 2 2 2 2 2 2 2 2 2 , , 2 2 2 2 2 2 2 2 2 2 2 2 2 2 2 2 2 2 2 2 2 2 2 2 2 2 2 2 2 2 2 2 2 2 2 2 2 , > 2 2 2 2 2 , > > > , , , , o   o , 2 2 , 2 2 2 2 2 8 >.q.r.r.y.u.u.t.&.O.O.&.t.oX+XoXu.t.0.0.t.oXoXoXoXoXoXoXoXoXt.t.t.t.y.r.r.r.+.g o.+.%.%.#.V 4 x 4 3 2 , 2 Q ' ` ` ` ` / E E L L h a 7 6 ; ; ; 5 7 7 i i i i 7 7 6 & & 6 i i i i i i i i 0 7 7 6 7 p a a a a a a a a a a i i s s s s s s s s s a a i i i i p p p i 7 i i i i a p p p p p p p p p p p p p p i i p a a a a a a i i i i i i i a a a a a s s s s s a a a a s s a i i i i i i i i u i i i i i i i i i i i i i i i i p p p a p p p p p a s m m m m m s s s s s s s s s s a a m m m m n n a a s s s s a a s s s s n n s s s s s j j j s s s s s s s s p p p p a a a a a a a a a 6 * * 6 p a a s s s s 5 & X X * 6 i i s s m L m m m m j j h h i 5 v v v v v v v v v v v v v v v v v v v v v v v x v x 4 x v x 3 3 3 3 3 3 3 2 >.+.o.l +.%.r.r.r.u.y.i.i.oXoXoXoXoXu.t.t.*.*.*.*.r.r.r.r.7.%.o.o.o.#.%.$.$.#.T 3 x 3 3 3 3 x x 3 3 3 3 3 4 3 4 x x 4 4 x 4 4 4 x 4 4 3 3 2 > + 2 2 2 2 3 3 3 3 ",
"2 2 2 2 2 2 2 2 2 2 2 , 2 2 2 2 2 2 2 2 2 2 2 2 2 2 2 2 , , 2 2 2 2 2 2 2 2 2 2 2 2 2 2 2 2 2 2 , > , , , , > , , > > > > > + + o   o , 2 2 , > 2 2 2 2 2 h q.r.r.y.i.u.t.&.O.O.&.t.OXOXoXoXt.7.0.t.oXoXoXoXoXoXoXoXoXt.u.t.t.y.r.r.0.%.o.o.o.%.%.<.z 9 x 8 9 8 3 2 Q V.3.3.3.` ` ` ! E P L a 7 6 6 ; * 5 7 a a a a 7 7 6 ; & & 6 i i i i i i i i i i i p p p a a a a a a a a a a a a s a s s s s s s a s s i i i i p p i i i i i i i p p p p p p p p p p p p i i i i i a s s a i i i i i i i i i p s a p p p s s s s s s s s s s s s a p p i i i i i i i i i i i i i i i a a a a a a p p p p p p p p p p s s m L L m m m s s s s s s s m m m m m m m m m m m m m m m m s s s s s s s s s s s s s s s s s s s s s s s s a p p p a a a a a a a a a 6 * * 7 i a a p p p p 6 & X # * 6 s L L L L L L L L L L L L L p # 0 v v v v v v v v v 4 x v v v v v v v v v v v v v x x x x x 3 3 3 3 3 2 3 2 T +.o.o.#.<.r.r.u.y.u.i.+X+X+XOXOXoXt.t.t.*.*.%.*.r.t.t.r.6.@.o.t +.$.<.<.#.#.T 3 x 4 3 x 3 4 3 4 2 3 3 3 x 4 3 3 x 3 4 3 3 3 3 3 4 x 3 3 3 2 2 , > 2 3 3 3 3 2 ",
"2 2 2 2 2 2 2 2 2 2 2 2 2 2 2 2 , 2 2 2 2 2 2 2 2 2 2 2 , , 2 2 2 2 2 , , 2 2 2 2 2 2 2 2 2 2 2 2 , , , , > , , , , > > , , > + o   o , , 2 2 , 2 2 2 2 2 @ #.r.r.u.u.u.t.&.O.O.@.7.OXOXoXoXt.0.0.0.t.oXoXoXoXoXoXoXoXoXoXt.t.t.r.0.0.%.@.o.o.$.%.%.#.L 4 3 9 9 9 3 Q V.3.3.3.3.3.` ` ! Q P h a 7 6 ; ; ; 7 a a a a i 7 6 ; & & 6 7 i i i i a a a i i i i i i p a a a a a a a a a a a a a p a a i a a s s s s i i i i i i i i i i i p p p p p p p p a p p p p i i i i i a s s a i i i p p p p p p p a s p a p p p p p p s s s s s s s a a a p i p p p p p p p p i i i i p p p a a a p p p p p p p p p p s s s s s L s m s s s s s a a s m m m m m s s a m m m m m m m n a s s s s s s s s s s s s s s s s s s s s s s s s s s s s a i i i i a i a 6 * * 7 i a a i i i i < & # & * 7 s L L R E E E E E E E I I I j # < 0 v v v v v v x x v v v v v v v x v v v x x v v 4 v v v v 3 3 3 3 3 3 2 2 T +.g o.#.q.r.r.u.y.u.+X+X+X+XOXOXOXt.t.t.7.*.%.*.r.t.t.r.6.$.o.t +.$.<.<.#.#.T 3 4 3 3 3 4 x 4 3 3 3 3 3 x x 4 3 3 3 3 9 3 3 3 4 4 x 3 3 3 2 4 2 2 2 3 3 2 3 2 ",
"2 2 2 2 2 , , 2 2 , 2 2 , 2 2 2 , 2 2 , 2 2 2 2 2 2 2 2 , , 2 2 2 2 2 2 2 2 2 2 2 2 2 2 2 2 2 2 2 2 , , , > > , , > > > , , , , o   o , 2 2 2 2 2 , 2 2 2 2 ! r.r.u.u.u.t.&.O.| @.t.+X+XoXoXt.t.*.0.t.t.oXoXoXoXoXoXoXoXoXt.t.t.r.r.0.%.$.o.o.o.$.%.$.j 3 4 4 3 3 2 ' C.V.V.V.w.w.3.` ` ` E P h a 7 5 ; ; 7 7 a a a i 7 7 : & & 6 7 i i i i i a a i i i i i i a a a a a a a a a a a a a a p i a i i s s s s s i a i i i i i i i i i i p p p p p p a s s s s s p i i i i a s s a i i i p p p p p p p s s a s p p p p p p s m m m m m s s a a p p p p p p p p p p p p i i p p p p p p p p p p p p p p p s s s s s s s s s s s p p a a a a s s s m m s a a s s a a a a a a a s s s s s s s s s s s s s s s s s s s s s s s s s s s s a i i i i i i i 6 * * 7 i i i i i i i 6 * & & 6 i L L E E E ` ~ W ~ ~ ~ ! E T W . % 0 v v v v v v v x v v v v x v v x v v v v v v x 4 4 4 v v 4 3 3 2 2 3 3 & l l g #.%.q.r.r.y.u.i.+X+X+XoXOXOXOXt.t.t.*.*.%.*.r.r.7.7.6.$.o.t +.$.<.<.$.+.l 3 3 3 3 3 3 3 3 3 3 2 3 3 4 4 x 3 4 3 3 3 3 3 4 4 4 3 3 3 3 3 3 3 3 2 3 2 2 2 2 ",
"2 2 2 , , , 2 2 2 , , , , , , , , , , 2 2 2 2 2 2 2 2 2 2 2 2 2 2 2 2 2 2 2 2 2 2 2 2 2 2 2 2 2 2 2 2 , , > > > , , > > , , , + o   o , , , 2 2 , 2 2 2 2 2 k q.r.u.t.t.t.&.O.| @.t.OX+XoXu.u.t.*.0.0.t.oXoXoXoXoXoXoXoXoXu.t.t.r.r.r.%.%.o.o.o.+.%.%.z 9 3 3 3 3 P 3.V.w.V.V.V.V.w.w.3.` ` E P L a 6 ; 5 6 7 a a a i 7 7 : & & 6 7 i i i i i i a i i i i i i a a a a a a a a a a a a a a p i a i p s s s s s i a a a a a i i i i a i i a a a a s s s s s s s a i i i i s s s a a i i p p p p p p p s s s s p p s a p p s m m m m m s s a a p p p p p p p p p p p p i i p p p p i i p p p p p p p p p s s s s s s s s s s s p p a a a s a a a a a a a a a s a a a a a a a a s s s s s s s s s s s s s s s s s s s s s s s s s s s a i i i i i i i 5 * * 7 i i i i i i i 6 < * 6 i s L E E ` ` ` ` ` ` ~ ~ ~ ! ! ! . % 0 v v v v v v v x v v x x v v x x x v v v v v x 4 v 4 v 9 3 3 3 2 2 3 8 i l l o.#.$.<.r.r.y.u.u.+X+X+XoXOXOXOXt.t.t.*.*.%.*.6.7.7.7.6.@.o.t +.$.$.#.#.+.k 3 3 4 3 3 3 3 3 3 3 2 3 3 3 4 4 x 3 3 3 3 3 4 3 3 3 3 3 3 3 2 4 4 3 2 2 , 2 2 2 ",
"2 2 , , , , , , 2 , , , , , , , , , , , 2 2 , 2 2 2 2 , 2 2 2 2 2 2 2 2 2 , 2 2 2 2 2 2 2 2 2 2 2 2 2 , , , > > > , , > > > > > o   o , , , , , > > , , , 2 k q.r.y.u.t.t.*.O.o.@.t.OX+XoXoXt.t.0.*.0.t.t.oXoXoXoXoXoXoXoXi.y.t.r.r.r.r.%.o.o.o.+.$.%.T f 8 3 3 2 V.V.w.3.V.V.V.V.V.w.w.w.' ` Q P L 7 6 6 7 7 a i i i 7 7 ; $ & 6 7 i i i i i i a i i i i i i a a a a a a a a a a a a a a i i i i i s s s s s s s s s s s i i i a a a i a a a a i i s s s s s s s a a a a s a i a a i p p p p p p p p s p s s p s a p p s m m m m m s s a a p p p p p p p p p p p p p p i i i p p p p p p p p p p p p s s s s s a a s a a s p p a a a a a a a a a a a a a a a a a a a a a s s s s s a s s s s s s s s s s s s s s s s s s s s s s i i i i i i i i 6 * * 7 i i i a i i i 7 6 6 7 s L E E W ` ` ` ` ` ` ` ~ ~ ~ ! E X # < v v v v v v v v v v v v x x 3 v 3 x x x v v v v v x v 3 3 4 4 8 3 2 a l l l o.#.%.<.6.r.y.u.u.+X+X+XoXOXXXXXt.t.t.r.*.*.*.6.7.7.7.6.@.o.t +.#.#.#.+.+.l 2 3 3 2 3 3 3 4 4 4 2 3 3 3 x 4 x 3 4 4 3 3 3 3 3 4 4 3 3 3 3 3 2 2 2 , , 2 2 2 ",
", , , , , , 2 , , 2 , , , , , , , 2 2 2 2 2 , 2 2 2 2 2 2 2 2 2 2 2 , 2 , , 2 2 2 2 2 2 2 2 2 2 2 2 2 2 2 , , , , , > > + + > > o   o , > , , 2 , > , , , 2 z q.r.t.t.t.t.*.O.o.O.t.OX+XoXoXi.t.0.*.0.t.t.oXoXoXoXoXoXoX+XoXt.y.y.r.r.r.%.o.o.o.o.+.$.>.Y V V Q ' V.V.w.V.C.V.V.V.V.V.V.V.w.` ` E P h 7 7 7 7 a i i i 7 7 ; $ & 6 i i i i i i i a i i i i i i a a a a a a a a a a a a a p p i i i i a s s s s s s s s s s a a a s s a a s a a a i s s s s s s s s s s s s s a i a a i p p p p p p s s s s p s a s s a p s L m m m m s s a a p p p p p p p p p p p p p p i i i i i i p p p p p p p p p s s s s p p p p p p p p p p p a a a a a a a a a a a a a a a a a a a a a a a a a a s s a a s s s s a s s s s s s s s s a a s a i i i i i i a 7 * < 7 i i i a a a i 7 7 7 i L E W ` ` ` ` ` ` ` ` ` ` ` ! ! ~ I L a 0 x x v v v v x x v v x v x x v 4 x x x x x v v v v v v v 3 3 3 3 5 j l g g o.#.$.<.6.r.u.u.u.+X+XoXOXXXXXXXt.t.t.7.*.&.*.7.7.7.7.6.+.t t +.#.#.#.+.+.l 2 3 4 3 3 3 4 4 3 2 4 3 3 4 3 3 4 3 3 3 3 3 3 3 3 4 4 3 3 3 4 3 3 3 2 2 2 , > , ",
"2 , , , , , 2 , , , 2 , , , , , 2 2 2 , 2 2 , 2 2 2 , , 2 2 2 , 2 , , 2 2 2 2 , 2 2 2 2 2 2 2 2 2 2 2 2 2 2 , , , , , > + + > + o   o , > , , > > > , , , > 7 +.q.r.t.r.r.6.O.o.O.7.u.+X+X+Xi.t.0.*.0.t.t.i.oXoXoXoX+X+X+XoXu.y.t.y.r.r.%.$.o.g o.o.+.>.>.T ~ ' w.w.V.V.V.V.V.V.V.V.V.V.V.V.3.' ! E L a 7 7 a a i i i 7 7 ; & & 6 i i a a a p p a a i i i i a a a a a a a a p p p p p a i p i i i i i a s s s s s s s s s s s s s a a i a p p p i s s s s s s s s s s s s s s s s a a p p p p p a s s s s s a p p p p s s L s L L L s s a a p p p p p p p p p p p p p p i i i i p p p p p p p p p p p p s s a p p p p i p p u u p u i p a a a a a a a a a a a a a a a a a a a a a a a a s s s s s s s s s a s s s s s s s a s s s s s s s s s s i 6 * < 7 p p p a a a a 7 7 7 s E / ` ` ` ` ` ` ` ` ` ` ` ` ~ ~ ~ ! E L 9 v x v x v x x x v v x x x v v x x x x x x v v 4 3 3 3 4 v 3 3 2 7 z l g g +.#.#.$.%.r.y.u.u.oXOXoXXXXXXXt.t.t.t.7.*.%.*.7.r.r.6.6.+.t t +.+.+.+.+.l k 2 3 3 3 3 3 3 4 3 3 4 2 3 3 4 3 4 4 4 3 4 3 3 3 3 3 3 3 2 3 3 3 3 2 , , , + + , ",
", 2 , , , 2 2 , , , , , , , , , , , , 2 , , , , 2 2 , , 2 2 2 2 2 2 2 , , 2 2 2 , 2 2 , 2 2 2 2 2 2 2 2 2 2 2 , , > > > + + + + o   o > > > , > > , , , , , O k <.r.r.r.r.6.O.o.O.*.t.u.i.+X+Xt.r.*.*.0.t.t.u.oXoXoX+X+X+X+Xi.y.t.y.r.r.r.<.@.g g o.+.$.>.>.>.w.w.w.w.w.w.w.w.w.w.w.w.w.V.V.w.` ` E L h 7 7 a a i i i 7 7 : & & 6 i i a a a p p a a i i i i a a a a a a a a p p p p p a i i i i i i i a i s s s s s s s s s s s a i i i i i i i i p s s s s s s s s s s s s s s s s s p p p p p p s s s s s a p p p s s s s s m L L L s a a p p p a a a a p p i i p i i i i i i p p p p p p p p p p p p p p p p p p p i u u u u u u p p a a a a a a a a a a a a a a a a a a a a a a a a s s s s s s s s s a s s s s s s s s s s s s s s s s s s i 6 * < 7 s p p a a a a 7 6 7 L E ' ` ` ` ` ` ` 3.` ` ` ` ` ~ ~ ~ E E P 0 v v v v v x x x x x x v x 4 x 3 3 x 3 x v 3 v x x 4 3 3 3 x 3 2 h z g g g +.#.#.#.%.r.u.u.u.u.u.u.t.t.t.t.t.t.t.r.*.%.*.r.t.r.6.6.@.o.l +.+.+.+.+.l k 2 3 3 3 3 4 3 2 3 3 4 3 3 3 3 3 3 3 3 3 3 2 2 3 4 3 3 3 3 3 3 2 2 2 2 , , + + , ",
"2 , , , , , , 2 , , 2 , , 2 , , , , 2 2 2 2 , 2 2 2 , 2 2 2 2 2 2 2 2 2 2 2 2 , 2 2 2 2 2 2 2 2 2 2 2 2 2 2 2 2 , , > + + > > + o     o o + > , , , , > > 2 + h q.r.r.r.6.%.O.o.o.@.7.u.u.i.i.t.r.*.*.*.0.t.u.oXoXoX+X+X+X+Xi.u.y.t.y.r.r.r.$.o.o.t o.#.#.>.,.3.3.w.3.w.w.w.w.w.w.w.w.w.w.w.3.' / E L h 7 7 a a i i i 7 7 6 & * 7 i i a a a p p a a a a i i i a a a a a a a p p p p p p p p i i i i a a a s s s s s s s s s s s s a a a i i i i i i s s s s s s s s s s a a s s s s s p p p p p p s s s s s s p p p a s s s s s L L s s p p p p p a a a a a i i i i i i i i i i i i p p p p p p p p p p p p p p p p p u u u u u u u u p i i a a a a a a a a a a a a a a a a a a a a a s s s s s s s s s s s s h s s s s s s s s s s s s s s s s i 6 * * 7 s a a a a a p 7 6 7 s E ~ ` ` ` ` ' ` 3.` ` ` ` ` ` ~ E E Y P 0 v x v x v x 4 x x x x 4 x x x 3 x x x x x v 3 x x v 4 4 4 4 3 7 h h i t g l +.#.+.%.r.u.u.u.u.u.t.t.t.t.t.t.t.t.6.%.%.6.t.t.t.6.6.$.+.+.+.#.#.#.+.l k 2 3 3 3 3 3 3 3 3 3 2 2 4 3 3 8 3 3 3 3 3 3 3 3 3 3 3 2 3 3 3 3 2 2 > + + + > > ",
"2 2 , , , , , 2 , , , , , , , 2 2 2 2 2 2 2 , 2 2 2 2 , , 2 2 , 2 2 2 , , 2 , 2 2 2 2 2 2 2 2 2 2 2 2 2 2 2 2 2 2 , > > > > > + o       o o + > > 2 2 , > 2 , i q.r.r.r.r.%.O.| o.O.7.u.i.i.u.u.r.*.*.*.*.t.u.oXoXoX+X+X+X+XoXu.y.y.t.r.r.r.<.@.o.t o.+.+.>.T ~ ` ` ' ` ' ` ` ` ` ` ` ` 3.3.` ` ! P L h 7 7 a i i i i i i 6 & * 7 i a a a a p a a a a i i i i a a a a a a a p p p p p p p p i i i i a a a s s s s s s s s s s s s s s a i i i i i i a s s s s s s s s s a a s s s s s p p p p a p s s s s s s s a a s s s s s s s s s s p p p p p a a a a a i i i i i i i i i i i i i p p p p p p p p p p p p p p p p p u u u u u u u p p p a a a a a a a a a a a a a a a a a a a a a s s s s s s s s s s s s j s s s s s s s s s s s s s s a a i 6 * * 7 s a a a a a a 7 6 7 s L E ! ~ ` E W ` ` ` ` ~ E E E I P L L h 7 9 v x x x 4 3 x x v x 4 4 3 4 x x 4 x x 3 4 3 x x x 3 4 4 3 5 f h h r t g l +.#.#.<.r.u.u.u.t.t.t.t.t.t.t.t.t.t.*.%.@.6.t.t.r.r.6.<.+.+.#.#.#.+.+.l k 2 4 3 3 3 3 3 3 4 3 2 2 3 4 3 3 3 3 3 3 3 3 3 3 3 3 3 3 3 3 3 2 2 2 > + , > > , ",
", 2 , , , , , , , , , , , , , , , 2 , , , 2 , , , 2 2 , 2 , 2 2 2 2 , 2 2 2 2 2 2 2 , , 2 2 2 2 2 2 2 2 2 , , , , > > + > > > + o     o o o o + , 2 , , , 2 2 i %.r.r.r.r.*.O.o.o.@.7.u.u.u.i.u.r.*.*.*.*.t.t.u.u.oXoX+X+XoXoXi.y.y.t.y.r.r.<.$.+.o.t o.l +.l T ! ! Y E Q ! Q Q ! ! ! ! ` ` ` Q E P L h 7 7 a 7 p i i i p 6 & * 7 i a a a a a a a a i i i i i a a a a a a a p p p p 0 a p p i i i i a a i s s s s s s s s L s s s s s a i i i i i a a s s s s s s s s s a s s s s s s p p p a a p s s s s s s s s s s s s a p p p p p s a a p p p a a a a a i i i i i i i i i i i u i p p p p p p p p p p p p p p p p i u u 7 u u u 7 7 p p a a a a a a a a a a a a a a a a a a a a a s s s s s s s s s s s s j s s s s s s s s s s s s s s s a i 6 * : 7 s p a a a a a p 6 7 p L E E E E E E E I E L L L L L j s a i i 7 8 x v x v 4 3 9 3 v x 3 x 3 3 v 4 4 x 3 3 3 3 v x 3 3 4 4 2 ; 7 h r i t t l +.#.#.<.r.r.u.t.t.t.r.r.t.t.t.t.t.t.*.@.@.6.r.r.r.r.6.$.+.+.#.#.+.#.+.l k 2 3 3 3 2 3 3 3 3 2 2 2 2 3 3 3 3 3 3 3 3 3 3 3 3 3 3 2 3 3 3 2 2 2 , > , , > > ",
", , , , , , , , , , , , , , , , , , , , , 2 , , 2 2 , , , , , , , 2 , 2 2 2 2 2 2 2 , , 2 2 2 2 2 2 2 2 2 , , , , > > > > > > + o   o o + + + > , 2 2 , , , , 7 #.q.r.r.r.6.@.o.o.@.6.u.u.u.i.y.t.r.*.*.*.t.t.t.t.oXoXoXoXoXoXi.u.y.t.r.r.r.<.%.+.+.o.g l l l l I z h h h j z L L L P Q E E E Q P P L a 7 7 a i u u u u u < & & 6 p p a a a a a a a a i i i i a a a a a a a p p p p 0 a p p i i i i i a a a s s s s s s s L L s s s s a i i a a i a a s s s s s s s s s a s s s s s s p p p p p a s s s s s m L L s s s p a p p p p p s a p p i p a a a a a i i i i i i i i i i i i i p p p p p p p p p p p a a a a i p p p p p p p p p p p a a a a a a a a a a a a a a a a a a a a a p p p p p p p p p p p s j s s s s s s s s s s s a a a a a i 6 * 6 7 s a a a a a a p 6 6 i L L L L L L L L s s s s a i a i 7 6 : : 5 8 4 v 4 x 3 4 4 3 3 x 3 3 3 3 4 3 4 4 3 3 3 3 v v 3 3 4 4 2 ; 7 i r t t t g +.#.$.<.r.r.r.r.r.r.r.r.r.r.r.r.t.r.*.@.@.*.r.r.r.6.6.$.+.+.+.#.+.#.+.l k 2 3 3 3 4 3 3 2 3 4 2 2 4 3 3 3 3 3 3 3 2 2 2 3 3 2 2 2 2 2 2 2 2 > , , > , > > ",
", , , , , > > , , , , , , , , , , , , , , , 2 , 2 2 , , , 2 > , , , , , , , , , , , , , , 2 2 , 2 2 2 2 , , , 2 2 > > > > + + + o   o + + + + > > , , > > > , 7 q.%.r.r.r.r.*.O.o.O.6.u.u.u.u.u.u.r.*.*.0.t.t.t.t.oXoXoXoXoXoXi.i.u.t.t.r.6.%.$.+.@.+.g l l l l z z j h h h h h h h h L P P P P L L h a 7 7 7 i u u u u u < & * 7 i p s a a i i i i i i p p a a a a a a a p p p p p p p a p i i i i i i i s s s s s s s s m s s s s s i a a a a a a s s p p s p s s a p a a a a p p p p p a a s s s s s s s L L L s s s s a p p p p p a p p p p p p p p p p i i i i i i i i i i i i i p p p p p p p p a a a a a a a a a p p 0 p p p p p p p p p a a a a a a a a a a a a a a a a a a a p p p p p p p p p p p s s s s s s s s s s s p p i i i p p a 7 * < 7 a s s s s s s 7 6 : 7 a h a a a a a i 6 6 6 6 6 6 6 6 6 ; ; ; 5 3 4 x 4 x 3 3 3 3 3 3 3 4 3 3 x 4 3 3 3 3 2 4 3 3 4 3 4 3 5 7 i r r r r t l #.>.<.<.r.r.r.r.6.r.r.r.r.r.r.r.r.6.*.@.@.*.6.r.r.6.%.@.+.+.+.l k +.+.l k 2 3 2 4 3 3 3 3 3 3 2 2 2 3 3 3 3 3 3 2 2 2 2 3 4 3 2 2 2 2 3 2 2 2 2 , , 2 , , ",
", , > , > > , > , , , , , , , , , , , , , , 2 2 , , , , , , , , , , , , , , , , , , , , , , 2 2 2 2 2 2 2 , , , , 2 > > + + + o o   o o + + + + > > > , > > , 7 >.%.%.r.r.r.r.%.o.o.6.u.u.u.u.u.u.r.*.*.t.t.t.t.t.u.u.i.oXoXoXoXi.u.u.t.r.%.@.@.@.$.#.g g g l l l z j h h i i h a a a h h h h h h h h 7 7 7 7 7 u p p p p 6 & * 7 i a a a a i i i i i i p p a a a a a a a p p p p p 0 p a a i i i i i i i i s s s s s s s s s s s s s i a a a a a a s s p p p p s s a p p p a p p p i i a i a s s s s s s s s s s s s s s p p p a p p p p p p p p p p p p p i i i i i i i i i u u i i p p p p p p p p a a a a p a a a a p 0 0 p p p p a a a a p a a a a a a a a a a a a a a a a a a a p p p p p p p p p p p s s s s s s p p p p a a p i a p i p s 7 * < 7 i s a a a a a 7 : & ; 6 7 6 6 6 6 6 6 ; ; ; ; ; ; ; ; * * & ; 5 3 3 x 4 x 3 x 3 3 3 4 3 3 3 3 4 3 3 4 3 3 3 3 3 3 3 3 3 3 = - r r r r r l l #.>.<.<.r.6.6.6.6.6.6.6.6.6.6.6.r.*.%.@.@.%.6.6.6.6.%.$.+.+.+.l k k o.l k 2 3 3 3 2 3 4 3 3 3 2 2 2 2 3 3 3 3 3 3 2 2 2 4 3 3 2 2 2 2 2 2 2 2 2 , , 2 2 , ",
"> > > > > > , , , , , , , , , , , , , , , , 2 2 , , , , , , , , , > , , , , 2 2 , , , , , , , , 2 2 2 , , , , , , 2 , > + + + o       o o + + + + , , , > , , 5 ! q.q.r.r.r.r.*.o.o.%.y.i.u.u.u.t.r.r.*.t.t.t.t.u.u.u.i.i.i.i.i.i.i.u.y.r.%.@.+.@.$.$.l g l l l l l j i i u u u i 7 7 7 a a a a a 7 7 6 6 7 7 7 u p p i i 6 & * 7 i a a i i i i 0 i i i p p a a a a a a a a a i p p p p a p i i i i i i a a a s s s s s s s s s s s s i a a i i i i a s p p p p a a s p p p p p p p i i i i i s s s s s s s s s s s s s p p p p p p p p p p p p p p p p p p i i i i i i i i i i u u i p p s s i i i p a a a p p p p a a p 0 p p p p p a a a p p i a a a a a a a a a a a a a a a a a a p p p p p p p p p p p p p s a s p p p p p a a s a a a p p s 7 < 6 7 i s a a a a a 7 ; & & ; ; ; ; ; ; ; ; @ @ @ @ @ = @ @ & & @ @ 2 3 9 3 9 x v 4 3 3 3 3 v x 3 3 3 3 3 3 3 3 3 3 3 4 4 3 3 2 = - r r r r r l l #.>.<.<.<.<.<.<.<.6.6.6.6.6.6.6.6.*.%.@.@.%.*.6.6.%.$.$.+.#.+.l k k l l k 2 2 2 2 2 2 2 2 3 3 2 2 2 2 3 3 3 3 3 2 2 3 3 3 2 2 2 2 , 2 2 2 3 2 2 2 2 2 2 2 ",
"> > > > , > > , > , > > , , , , , , , , , , , , , , , , , , > > , > > > > , > , , , , , , , 2 , , 2 , , , , , > > > > , , + o           o + + , , + , 2 2 2 2 @ - <.q.r.r.r.r.r.O.t @.r.y.u.y.u.t.r.r.*.r.t.t.u.u.t.t.u.u.u.u.u.u.u.u.u.r.%.@.o.+.$.$.l g t l l l j i i i r : - : : 6 6 6 6 6 7 7 6 ; ; ; 6 7 7 i i p i i 6 & * 7 i a i i i i p u i 0 i p p p a a a a a a a a i p p p p a p i i i i a a a a s s s s s s s s s s s s s i i i i i i i a s p p p p a a s p p p p p p p i i i i i a a a i i i s s s s s p p p p p p p p p p p p p p p p p p p p i i i i i i i i i i i i i a a s i i i i p a a a p p p a a a p 0 p p p p p a a p i p i a a a a a a a a a a a a a a a a a a p p p p p p p p p p p p p p p s a p p p p s s s a a a p p s 7 * 6 7 i s a a a a a 6 ; $ $ $ & @ @ @ @ @ @ X X X X X X X X X X X O , 3 9 3 3 3 9 3 3 3 3 3 3 3 3 3 3 3 3 3 3 3 4 3 4 3 4 3 3 @ - - r r r r t l l #.>.<.<.<.<.<.<.%.%.<.6.6.6.6.6.*.*.%.@.@.%.%.*.*.%.$.+.+.+.+.l k l l g k 2 2 2 2 2 2 2 2 3 2 2 3 2 2 2 2 2 2 2 2 2 3 3 3 2 2 2 2 , 2 2 2 2 2 2 2 2 2 2 2 ",
"> > > > > , , , > > > , , > > > > > , , , 2 2 2 , , , , , , , , , > > > > > > > > , , , > , , , , 2 , , , , , , , , > > + o o o         o + > > + + + > , 2 , , o >.<.r.r.r.r.r.%.o.o.6.y.y.u.u.t.r.*.*.0.t.t.t.t.t.u.t.t.t.t.y.y.u.y.t.r.*.@.o.+.$.#.o.g t l z g i i i r : - % & & & * ; ; ; ; & & & & & 6 i 7 i i i i i 6 & * 7 i i i p p p 7 7 7 u u u u p a a a a a a a a a p p p p i p i a i a a a i i s s s s s s s s s s s s s a a a a a a a a a p p p p p p p p p p p p p p p s s s a a i i i i i a a a a a p p p p p p p p p p p p p p p p p p p p i i i i i i i i i i i i i a p a i i i i i a a a a a a a p a p p p p p p p a p i i i i a a a i i a a a a a a a a a a a a a p p p p p p p p p p a s s s s s s s s s s s p p i p p p a s 7 * 6 7 i s a s s s s 6 & X . . . X X X X X X   X     .     X X X O o 2 9 4 v 3 3 3 3 3 3 3 3 2 2 2 3 3 3 2 3 4 4 3 3 3 3 3 3 2 @ - - r r r r r t l +.$.>.<.<.<.<.<.$.%.%.%.<.%.6.*.*.%.%.@.@.%.%.%.%.$.@.+.+.+.l k k k g g k 2 3 2 2 2 3 2 2 3 3 2 2 2 2 2 3 3 3 2 2 3 2 2 2 2 2 2 , , , , , 2 2 2 , > , 2 2 ",
"> > > > > , , , , , > , , , , , , > , , , , , , , , > , , , > > , , > , , > > > , > > , , > , , , , , , , 2 , , , > > > + + o           o + + + + o + > , > > > + #.%.0.r.r.r.r.%.o.o.*.t.u.y.u.t.r.*.*.*.r.t.t.t.t.u.u.u.y.t.t.y.y.t.y.r.*.@.o.o.$.$.+.l t g l g i i i r : $ $ $ X # X X X X X X X X X & 6 i 7 i i i i i 6 & * 7 i i i p p 0 0 7 7 7 7 6 u p a a a a a a a a a p p p p i p i a a a a a i i i s s s s s s s s s s s s a a a a a a a a a p p s p p p a p p p p p p p p a i s a i i i i i i i p p a p p p p p p p p p p p p p p p p p p p p p i i i i i i i i i i i i i p p a i i i i i i i p a a a a p p p p p p p p p i i i i i i a a a i i a a a a a a a a a a a a a p p p p p p p p p p a s s a s p a s s s s s s i i p p i i a 7 * < 7 i a a s s s s 6 & . . .   .                       X X X X X @ 8 3 3 3 x x 8 2 3 3 3 3 2 2 3 2 3 2 3 3 4 3 3 3 4 3 4 3 2 ; : r r r r r r d l #.$.>.>.$.$.$.$.@.$.%.%.%.%.%.%.%.%.@.@.@.%.%.$.$.@.+.+.+.+.+.l g g g g h 2 2 2 2 2 2 2 2 2 2 2 2 2 2 2 3 2 3 3 3 2 2 3 2 2 2 2 2 2 2 2 2 2 2 2 2 2 2 2 2 ",
"> > > > > > > , , > > , , , , , , , , , , > , , , > > > , , > > , , > > , , > > , > > , , > > , , 2 2 2 2 , , , , > + + + + + o         o o o o + + + > , > > , , #.%.%.r.r.r.r.%.O.o.%.r.y.u.u.t.r.*.*.*.t.t.t.u.u.u.t.y.t.t.t.y.y.y.y.t.r.%.o.+.$.$.+.g t g l g i i i r r * $ X . . . . . . . . . . X ; 6 7 7 p i i i i < * * 6 i i i i p p p 0 7 7 7 7 u p a a a a a a a a a p p p p p p i i i i a a i i p p a a a a p p p p a a p i i i i i i p s s s s s a s s p p p p p p p p p i i i i i p 7 7 7 7 p p p p p p p p p p p p p p p p p p p p p p p p p i i i i i i i i i i i i i p p a i i i a i i i p a a a a a p a p p p p p p a i i i i i i a a i s s s s s s s m m m m s m a p p p p p p p p p p p p a p p p p p p p p p p i i p u 7 7 i 6 & * 7 i i a a a a a 6 & .                                   X   X 5 2 3 x v x 3 2 2 2 3 2 3 2 2 3 3 2 3 3 3 3 3 3 3 3 2 4 3 2 ; : r r r r r r d l #.#.$.$.#.+.@.@.@.$.%.%.%.%.%.%.%.%.@.@.@.$.%.$.@.@.@.+.+.+.l l g g g g h , 2 2 2 2 2 2 2 2 2 2 2 2 2 2 2 2 2 3 2 2 2 2 2 2 2 2 2 2 2 2 2 2 2 2 2 2 2 2 2 ",
"> > > > > > > > , > > , , , , , , , , > > , , , , , , , > > , , , , , , , , > > > > > > > > > , , , , , , , , > , > > + + + + o       o o + o + > + + > > , 2 2 , >.%.%.%.r.r.r.<.@.o.@.6.y.u.y.t.r.r.*.*.0.r.t.t.t.u.t.t.t.t.t.t.y.y.y.r.r.6.$.$.%.$.+.g l t t i i i i r r * $ # . . .   . . . . . . . ; 7 7 7 p i i i i 6 * * 6 i i i i i i i i p 7 u u u p a a a a a a a a a p p 0 p p i i i i i a s s s s p p a p p p p p p p p p i i i i i i p s s s s s a s s p p p p p p p p p i i i i i p 7 7 7 7 7 p a p p p p p p p p p p p p p p p p p p p p p p i i i i i i i i i i i u i p p p i i i i i i i a a a a a a a i a a a a p a a a a a a i i a s s s s s s s s s m n n m s s a p p p p p p p p p p p p p p p p p p p p p p p i i u u 7 7 0 < & * 7 i i i i i i i 6 & .                                       @ P + 3 3 4 3 3 2 2 2 3 3 2 3 2 3 3 3 3 3 3 2 3 3 2 2 2 3 2 = - - r r r r r r d l #.#.#.$.+.+.+.+.+.@.$.$.%.%.%.%.%.$.@.+.+.@.@.@.@.@.@.+.o.+.l g g g g g h @ 2 2 2 2 2 2 2 2 2 2 2 2 2 2 2 2 2 2 2 2 2 2 2 2 2 2 2 2 2 2 2 2 2 2 2 2 , , 2 ",
"> > , > > > > , , , , > > , , , , , , , , , , , , > > > > > , , , > > , > > > , , , , , , > > , , , , , , > > > > > > > + + o         o o o + + + + + + > , , > @ #.%.%.%.0.r.r.0.%.o.O.*.r.y.y.u.t.r.*.*.*.0.t.t.y.t.y.y.t.t.r.r.r.r.r.r.r.r.6.<.<.$.+.l l t t i i i i u r - $ # # . .         . . . . ; 7 7 7 p p i i i 6 * * 6 i i i i i i i i i p i u p p p a a a a a a a a p p p p i i i i i i a s s s s p p p p p p p p p a a a i i i i i i i a s s s s s s s p p p p p p p p a i i i i i u 7 7 7 7 7 p p p p p p p p p p p p p p p p p p p p p p p i i i i i i i i u i i i i i p p i i i i i i i i a a a a a a a i p p a a a a a a a a s i a s s s s s s s s a a s s s s a a p i p p p p p p p p p p p p p p p p p p p p p p i i i i 7 6 0 6 & * 7 i i i i i i i 6 & .                                     O 5 Q + 3 3 3 3 3 , 2 2 3 3 3 3 2 2 2 2 2 3 2 2 2 2 3 3 3 2 @ = - - r r r r r t l l #.+.#.+.+.o.o.+.o.+.+.@.@.$.@.$.$.@.@.+.+.@.+.+.+.@.@.+.o.l g g g g g t r , 2 2 2 2 2 2 2 2 2 2 2 2 2 2 2 2 2 2 , 2 2 2 2 2 2 2 2 2 2 2 2 2 2 2 2 2 , , 2 ",
"> > > > > > > > > > > , , , > > > , , , , , , , , > + > , , , , , + > , > > > > > , > > , , > > > , , > > , > > > > > + > + o o       o o o o o + + + + > , > , @ >.%.%.<.<.r.r.0.%.o.O.*.r.y.y.u.t.r.6.*.*.*.r.t.t.y.t.t.t.r.r.r.r.r.r.r.r.r.r.<.<.#.o.l g t t t t i i u r : * $ # . .         .     . 5 7 i i 7 7 7 0 i 6 * * 6 i i i i i i i i i p i p p a a a a a a a a a a a p i a a p a a a a s s s s s p p p p p p p p p a a a i i i i i i i a a a a s s s s p p p p p p p p i i i i i i u 7 7 7 7 7 p p p p p p p p p p p p p p p p p p p p p p p i i i i i i i i i u i i i i a a a i i i a i i a a a a a a a a i p a a a a a a a a a a i i a s s s s s s s a a a a a a a a p i p p p p p p p p p p p p i i p p p p p p p p i i p u 7 7 7 < & * 7 i i i i i i i 6 &                                       O 5 Q + 2 3 3 3 2 2 3 3 3 3 3 8 2 2 3 2 , 2 2 2 2 2 2 2 2 @ = - - - % r r r r t l l +.+.+.+.o.o.o.o.o.+.+.+.+.+.+.@.@.@.+.o.o.o.o.o.o.+.+.+.+.l g g g g g r r + , , , , 2 2 2 2 2 2 2 2 2 2 2 2 2 2 2 2 2 2 2 2 , , , 2 2 2 2 2 2 2 2 2 , , 2 ",
"> > > > > > > , > > > > > > > > > > > > > , , > > > + > , , > , > + > > > > > > > > > > , > , 2 , , , > > , > > > , > > > + o o       o o o o o + + + + + > + > @ >.#.%.%.<.r.r.<.%.o.@.6.r.t.y.y.t.r.*.*.&.*.0.r.t.t.t.t.t.r.r.r.r.r.r.r.r.r.r.r.<.#.+.g g t t t t i i u r r * $ # . .               X 5 7 a i p p p p i 6 * * 6 i i i i i i i i i i i i p a a a a a a a a a a a a a a a a s s s s s s s s s p p p p p p p p p a a a i i i i i i i i i p a a s s p p p p p p p p p a i i i i i 7 7 7 7 7 7 p p p p p p p p p p p p p p p p p p p p p p p i i i i i i i i i i i i i i a a a i a a a a a a a a a a a a a a a a a a a a a a a a a p a s s s s s s s s a a a a a a a a i p i p u u u u u u u u p p p p p p p p p p p p i 7 7 7 7 7 u * & * 7 i i i i i i i 6 &                                       @ 5 P + 2 3 3 3 2 , 3 3 3 3 3 3 2 , 2 2 2 2 2 2 2 2 2 2 2 = = - - % % q r r r t l l +.+.+.o.g g l o.o.+.+.+.+.+.+.+.@.+.+.o.o.o.o.o.o.o.+.+.o.g g g g g g r r + , , , , 2 2 , 2 , , 2 2 2 2 2 , 2 2 2 2 2 2 2 2 , , > 2 2 2 2 2 2 2 2 , , , , ",
"> , > + + > > > > > + > > > > > > > > > , , , > > > > > , > , , > > > > , > > , , > , , , > 2 2 > > > > > > , > > , > > > + o o       o o o o + + o + + + + + + + ! >.%.%.<.q.q.<.%.%.%.*.r.r.t.t.t.r.*.*.@.%.*.r.t.r.t.r.r.r.r.r.r.r.r.r.r.r.r.q.<.#.+.g g t r r r r i i r : : $ # . .               X ; 7 a L j s s s s 6 * * 6 i i i i i i i i i i i p a a a a a a a a a a a a a m m m s m m n n s a s s s p p p p p p a p p a a i i i i i p i i i i p p a s p p p p p p p p p p a s a a a i u 7 7 7 7 7 p p p p p p p p p p p p p p p p p p p i p p p i i i i i i i i i i i i i i a a a a a a a a a a a a a a a a a a a a a a a a a a a a a a a s s s s s s s s a a a a a a a a i i i i i i u u u u u u u u i i i i p p p p p p i 7 7 7 7 7 7 ; X * 6 7 i i i i i i < & .                                     X @ 5 + 2 3 3 3 2 2 2 3 3 3 3 3 2 2 2 2 2 2 2 2 2 2 2 2 2 = = - - % % q r r r t l +.+.+.o.g g g g o.+.+.o.o.o.+.+.+.+.+.o.o.o.o.o.o.o.o.o.o.g g g t t t r r - + , , , 2 2 , , , , , , 2 2 2 2 , , , , 2 2 , , 2 2 , 2 2 2 2 2 2 , 2 , , , , , ",
"> + > > + + + > > > > + + > > + > > > > , , > > > > > > > , , > , > + + > > > > , , , , > > > > , > > > > > , , > > > > > + o         o o o + + + + + + + + + + + @ i $.r.q.<.r.r.0.*.*.*.r.r.r.t.r.r.*.*.@.@.*.r.r.r.r.r.r.r.r.r.r.r.0.0.%.r.r.<.<.$.+.l g t t r r r u i r : * % % % .               X ; 7 a L L L j h s 6 * * 6 i 0 i i i i i i i a a a a a n m m m m L L L L L L L L L L L L s s s a s s s s s s s s s s s s a p i i i i i i i i i i p p p s a p p p p i p p p p a s s p p p i i i i i p p p p p p p p p p p p p p p a a a a p p p p p p i i i i i i i i i i u u i a p a s s s a s s s s a a a a a a p p p p a a a a a p i i i i i a a a a a a a a a a a a a a a p p p p 7 7 7 7 7 7 7 7 7 7 u 7 u 7 u i i i i i 7 7 7 6 6 6 7 ; X & 6 7 7 7 i i i i 6 * & X .   . . X X X X X X X X @ @ ; 5 7 7 7 7 o , 3 3 3 3 3 2 4 3 3 3 3 2 , 2 2 2 2 2 2 2 2 2 2 = - = - - % q r r r t d +.+.+.+.o.t t t g o.o.o.o.o.o.o.o.o.+.+.o.o.o.o.o.t o.o.o.o.g g t t r r r r 7 @ , , , , , , 2 , , , , , 2 2 , 2 2 , 2 2 , , , 2 , 2 2 2 2 2 , 2 , , , 2 , , , ",
"> + + , > + + + + + + + + + > + + > + , > > > > > > , , + > > > > + + + + > > , > > > , , > , > > > > , > > > + > > > > + o o o       o o o o + o + + + + o + + + + i <.q.<.%.q.r.r.0.%.*.r.r.r.r.r.r.6.*.@.@.*.0.r.r.r.r.r.r.r.0.0.0.*.%.%.<.6.<.<.$.+.o.g t t r r r r r r - * $ % - : & & X X @ @ @ ; 6 7 a L L h h h a 6 * * 6 i 0 i i i i i i i a a a a a m m m m L L L L L L L L L L L L L s s s a s s s s s s s s s s s s a i i i i i i i i i i i p p p p p p p p i p i p a s m m m s p p i i i p p p p p p p p p p p p p p p p a a a a p p p a a a a i i i i i i i i i i u u i a a a a s a a s s s s i a a a a a p p p p a a a a i i i i i i i a a a a a a a a a a a a a a a i i u u 7 7 6 6 7 7 7 7 7 7 7 6 6 6 6 6 7 i i i 7 7 7 7 7 7 7 & X & 5 6 7 7 7 7 7 7 7 7 6 6 6 ; ; ; : : : : 6 6 6 7 i a s P Q Y Y P O + 3 3 3 2 3 2 3 3 3 3 2 2 , 2 2 2 2 2 2 2 2 2 = = - $ $ - % q r r t t o.+.+.o.o.o.t t t o.o.o.o.o.o.o.o.o.o.o.o.o.o.o.o.t t t o.o.t t t t r r r - - 6 + , , , , , , , , , , , , , 2 , , 2 2 2 2 2 2 , , , , , 2 2 , 2 , 2 , , 2 , , , ",
"> + + + + + + + + + + + + + + + > + + > > > > > > > + > > > > > > + + + + > > > > > > > > > > > > > > > > + + + + > + + + o o o       o o o o + + + + + + o + + + + u >.<.q.r.r.r.r.0.%.%.r.r.r.r.r.r.r.*.%.@.%.*.r.r.r.r.r.r.r.r.0.0.*.%.%.%.%.<.<.<.#.+.g t t r r r r - - * % $ % u j h h h h h L L L P L L h h j h a a 6 * * 6 i 0 i i i i i i i a a a a a a m m m m m L L L L L L L L L L L s s a a s s s s s s s s s s s i i i i i i i i i i i i i p p p p p p p p i p p p a s m L L s s a i i i i p p p p p p p p p p p p p p p a a a p p p p a a a a i i i i i i i i i i u u i a a a s s s s s s s s a a a a a a s s a a a a i i i i i i i i i a a a a a a a a a a a a a a a i i 7 7 7 7 6 6 7 7 6 7 7 7 7 7 6 6 6 6 6 7 7 i 7 7 7 7 7 7 7 ; X & 6 7 7 7 7 7 7 7 a s h L L L L L L L L L P L P I E E E ` 3.3.w.w.w.P 2 3 3 3 2 3 4 3 3 2 2 , > 2 2 2 2 2 2 2 2 2 = - - $ $ % r r r t t t o.o.o.o.o.o.t t o.o.o.o.g g g g g g o.o.o.o.o.o.o.t t t t t t t t t r r r - : = + , , , > , , , , , , , , , , , , 2 2 , , , , , , , , , , , , , 2 , , , 2 , , , ",
"> + + + + + + + > + + + + + + + + + > > > + > > > > + + > > + > > > + + + > > > > > > > > > > > > > , > + + + + + + + + + + o o       o o + o + + + + + + + + + + + 5 T <.<.r.r.r.r.r.<.%.r.r.r.r.r.r.6.*.%.@.%.*.*.6.r.r.r.r.r.0.*.*.%.%.%.%.%.%.<.<.$.+.o.t t r r - - - - - % % * : j j L E ! ! ! ! ! E P L h h h a a i 6 * * 6 i 0 i i i i i i i a a a a a a a m m m m L L L L L L L L L s s s s a s s s s a s s s s s a i i i p p i i i i i i i i i p p p p p p p p i p p p a s m L L s s s i i i i a a p p p p p p p p p p p p p a a a p a p p a a a a i i i i i i i i i i u u i a s s s s s s s s s s a a a a a a s a a a a a i i i i i i i i i a s a a a a a a a a a a a a a i i 7 7 7 7 6 6 7 7 7 7 7 7 7 7 6 6 6 6 6 6 7 7 7 7 7 7 7 7 7 * X & 6 7 7 7 7 7 7 7 a s j L I E E E E E E E E E ! ! ~ ` ` 3.w.w.w.w.w.' P 2 2 3 3 2 2 3 2 2 2 , 2 2 2 2 , 2 2 2 2 = - - $ $ % % r r r t t t o.+.o.o.o.o.t t o.o.o.o.g g g g g g g g g o.o.o.g t t t t t t t t r r r r r : @ , , , , , , , , , , , , , , , , , , , , , , , , , , , , , , , , , , , , , , , , ",
"+ + + + + + + + + + + o + + + + + + + + > > , > > + + + + > > > > > > + + + > > > > + > > > + > > + + + + + + + + + + o o o o o       o o + + o o o o o o o + o o o + j >.<.q.<.<.r.r.<.%.q.q.r.r.r.6.6.*.%.@.@.%.*.*.r.r.0.0.*.%.%.%.%.%.$.%.$.$.%.<.$.+.o.g t r r - % - - - - % * - i i j E ! ` ' ! ! E L L j j h a i i 6 * * 6 i 7 i i i i i i i a a a p p a a a a m m m m m m m m L L n s s s s s s a a a a s s a a s i i i i i 0 i i i i i i i i i p p p p p p p p p p p p p s L L L L h s s i i i p p p p p p p p p p p p p p p a a a a a a a a a a a i i i i i i i i i i i i i a s s s s s s s s s s a a a a a a a a a a a a i i a a i i i i i a a a a a a a a a a a a a a a i p 7 u 7 7 6 7 7 7 7 7 7 7 7 7 6 6 6 6 6 6 7 7 7 7 7 7 7 7 7 ; X & ; 7 7 7 7 7 7 7 a h j L P I P P P P P P I I I E E E E ` ` 2.` ` 3.` Q 2 3 2 2 2 3 2 2 2 2 , , , , 2 2 2 , , @ = - $ % - r r r r t t t o.o.o.o.o.o.o.t o.o.o.o.g g g g g g g g g g g o.o.g t t t t t t t t r r r r r u @ , , > > , , , , , , , , , , , , , , , , , , , , , , , , , , , , , , , , , , , , ",
"+ + + + + + + + + + + + + + o o o + + + + + + + + + + + + + > > + + + + + + + + + > + + + + + + + + o o + + + + + + o o o o o         o o o + o o o + + o o o o o o o X >.<.<.<.<.<.<.<.%.%.q.q.r.6.6.*.*.%.@.@.@.%.*.*.*.*.%.%.%.%.%.%.%.$.$.$.$.%.<.$.#.+.g t r - - % - - % - * * - * : j Y ! ! Y I z h j s h h h a i i 6 * * 6 i 7 i i i i i a a i a a i a a a a a n m a a a a a s L m s s s s s s a a a a a s s a a s i i i i 7 0 i i i i i i i i i p p p p p p p p p p p p p s L L L L L s s s s s s p p p p p p p p p p p p p p a a a a a p a a a a a i i i i i i i i i i i i i a s s s s s s s s s s a a a a a a a a i a a a i i a a a i i i a a a a a a a a a a a a a a a a i p u u 7 7 6 7 7 7 6 7 7 7 7 6 6 6 6 6 6 6 6 6 7 7 7 7 7 7 7 ; X & 6 7 7 7 7 7 7 7 a a s h h h j j j j j j h h j L L L j P Q Y z j h h h 8 2 2 2 2 3 2 2 2 2 2 , , 2 2 , 2 , , = - $ % q r r r r r t t t o.+.+.o.o.o.o.t o.o.o.o.g g g g g g g g t t g g g g t t t t t t t t r r r r r : @ , , , , , , , , , , > , , , , , , , , , , , , , , , , , , , , , , , , , , , > , ",
"+ + + + + + + + + + + + o o + + o o + + + + + + + + + + + + + > + + + + + + + + + + + + + + + + + + o o o + + + + + o o o o o         o o o + o o o + + o o o + + o + X >.<.<.<.%.%.%.%.%.%.%.%.%.%.%.%.%.%.@.O.@.%.%.%.%.%.%.%.%.%.%.%.%.%.@.@.@.$.$.$.$.+.o.g t r - - - - - % % % % - : i h z z h h h a a h a i i i i 7 ; & * 6 7 i i i i i i a a i i i i i a a a a a a a a i a a a s s s s s s i i i i i i i i i a a i i i i i i i a i i i i a a a a p p p p a p p i u u u p s s L L L L j s s a a a s p p p p p p p p p p p p p p a a a a a p p a a a a i i i i i i i i i i i i i i a a a a i i i i i i a a a a a a i i i i a i i p p p i i i i i i i a a a a a a a a a a a i i p p u u 7 7 6 7 6 6 6 6 7 7 6 6 6 6 6 6 6 6 6 6 7 7 6 6 6 6 7 ; X & 6 7 7 7 7 i i i i i i i i i i i i i i i 7 a a a a h h h h h 7 7 7 6 ; 2 2 2 3 3 2 2 2 2 2 2 , , , , 2 , 2 @ = - - % q r r r r t t t o.o.+.+.o.o.| o.o.o.o.o.o.t t g g g g t t t t t g g g t t t t t t t r r r r r r ; , , , , , , , , , , > , > , , , , , , , , , , , , , , > , , , , , , , , , , > > , ",
"+ + + + + + + + + + + + + o o + + o o + + + + + + + + + + + + + + + + + + + + + + + + + + + + o + + + + o o + + + + o o o o           o o o o o o o o o o o o o + + o X ! >.<.%.%.%.%.%.%.%.%.%.%.%.%.%.%.%.@.O.O.@.$.%.%.%.%.%.%.%.$.%.@.@.@.o.@.@.$.$.$.#.+.l t r r - - - - - - % - - : i i h h h i i i i a i i 7 7 7 6 : & * 6 7 i i i i i a a a i i i i i a a a a a a a a a a a a s s s s s s s i i i 0 0 i i i i i p i i i i i i a a a a a a a a a p p a s s p p p u p i p s L L L L L s s s a a a a p p p p p p p p p p p p p p a a a a p p p a a a a i i i i i i i i i i i i i i i a a a i i i i i i a a p a a a a i i i a a i p p p i i i i i i i a a a a a a a p p p p p p p p p p p 7 6 6 6 6 6 6 7 7 6 6 6 6 6 6 6 6 6 6 7 7 6 6 6 6 7 ; X & 6 7 7 7 7 i i a i i i i i a 7 7 7 7 7 7 7 i i a a h h h f 7 7 7 - - ; = 2 2 3 2 , 2 2 2 2 2 2 2 , , , , , = - - % % q r r r r t t o.o.+.o.+.o.o.| o.o.o.o.o.o.t t t t t t t t t t t t t t t t t t t t t r r r r r r $ > , , , , , > > > > > > > , , , , , , , , , , , , , , , , , , , , , , , , > , , , ",
"+ + + + + + + + + + + + + + o o o + + + + + + + + + + + + + + > + + + + + + + + + + + + + + + + o o o o + + + + + + o o o o           o o o o o o o o o o o o o o o o o Y >.$.$.%.%.%.%.%.%.%.%.%.%.%.%.%.%.@.O.O.@.@.$.$.$.%.%.$.$.$.@.@.@.+.o.o.+.@.$.$.$.#.+.g t r r - - - - % % % - - - r r i i i i i u u u i 7 7 7 6 : & * 6 7 i i i i i i a a a i i i a a a a a a a a a a a a a a i a i a s s s i i i 7 7 7 7 7 0 p i i i i i i a a a a a s s s p p p s m s s p p i i p p s L L L L s s s s i a a a p i p p p p p p p p p p p p a a a a a p p p a a a i i i i i i i i i i i i i i i i a a i i a a a i a a a a a a a a a a a a i i i i i p p i i i i a a a a a a a p p p p p p p i 7 7 0 7 6 6 7 7 6 6 7 6 6 6 6 6 6 6 6 6 6 6 7 7 6 6 6 6 7 ; X & 6 7 7 7 i i i a i i i i i i 7 7 7 7 7 7 7 7 i i a a a a 7 7 7 7 - - - = 2 3 3 2 , , 2 2 2 , , 2 > , , , + = - - - - r r r r t t t o.o.o.o.+.+.o.o.o.o.o.o.o.o.t t t t t t t t t t t t t t t t t t t t t r r r r r r $ + > > , , , > , + , + > > , > , , , , , , , , , , , , , , , , , , , , , > > > , , ",
"+ + + + + + + + + + + o + + + + o o + + + + + + + + + + + + + + + + + + + + + + + + + + + + + + + o o o + + + + o o o                 o o o o + + o o o o o o o o o o o L >.#.#.$.$.$.$.%.%.%.%.%.%.%.%.%.%.O.O.O.@.@.@.$.$.$.%.$.$.$.@.@.@.+.o.o.+.+.$.$.$.+.+.l g t r r - - - - % - - - - - - : i i i i r : u i 7 7 7 6 : & * 6 7 i i i i a a a a a i i i a a a a a a a a a a a a a i i i i i s s s s i i i i i i i i i i i i i i i a a a a s s s s s p s m L L L s a p p p s s s L L s s s s s i a p i p p p p p p p i p p p p p p a a a a a p p p a a a i i i i i i i i i i i i i i i i i i i i a a i i i i i i i i i i i i a a i i i i p p p i i i i a a a a a a a p p p p p p p p 7 7 0 7 6 6 7 6 6 6 6 6 6 6 6 6 6 5 6 6 6 6 7 7 6 6 6 6 7 ; X & 6 7 7 7 i i i a i i i i i i 7 7 7 7 7 7 6 7 7 i i a i i 7 7 6 6 - - - = 2 2 2 2 2 2 2 2 2 , , , > , 2 > = = = - - - r r r r t t o.o.o.o.o.o.+.o.o.o.o.o.o.o.o.t t t t t t t t t t t t t t t t t t t t r r r r r r - & > , , , , , , + + + > + > > , , , > , , , , , , , , > , , , , > , , , , > > , , , ",
"o + + + + + + + + + + + + + + + + + + + + + + + + + + + + + + + + + + + + + o + + + + + + + + + + + + + + + + + o o o o               o o o o o o o o o o o o + + + + + 7 ,.#.#.#.#.$.$.$.%.%.$.$.$.$.@.@.O.O.o.O.O.@.@.$.$.$.$.$.$.$.@.@.@.+.o.o.o.+.+.$.$.#.+.o.t t t r r - - - - - - - - - - - : r r : : : u i 7 7 7 6 : & * 6 7 i i a a a a a a a a i i i a a a a a a a a a i a i i p p p p s L n s s a i i i i i i i i i i i i i a a a i s s s s s s s L L L L m s a s p s s s s L s s s s s i i p p p p p p p i i i p p p p p p a a a a a p p p p a a a i i i i i i i i i i i i i i i i i i i a a i i i i i i a a a i i i i a i i p p p 7 i i i i i a p p p p p p p p p p p p p p i p 7 7 6 6 6 6 6 6 6 6 6 6 6 6 6 6 6 6 6 6 7 7 6 6 6 6 7 ; X & 6 7 7 7 i i i a i i i i i i 7 7 7 7 7 7 6 7 7 i a a i i 7 7 6 6 - - - = 2 2 2 2 2 2 2 2 , , , , , , , + = = = $ - - - r r r t t o.o.o.o.o.o.o.o.o.o.o.o.o.o.t t t t t t t t t t t t t t t t t t t t t r r r r - - - ; > , , , , > , , > + > > , , , , , , > , , , , > , , , , , , , , , > , > > > + + + ",
"+ + + + + + + + + + + + + + + + + + + + + + + + + + + + + + + + + + + + + + + + + + + + + + o + + o o + + + o o o                       o o o   o o o o o o o o o + + + o r l +.#.#.#.#.$.$.$.$.$.$.$.+.o.o.o.O.O.O.+.@.@.$.$.$.$.$.$.$.$.@.@.O.o.o.o.+.@.$.+.+.o.g g t t r r r r r r r r - - - - - : : r r u i i 7 7 7 6 : & * 6 7 i i i i i i i i i i i i i a a a a a a a a a i i i p p p 7 0 i s n s s s s s a a a a s i i i i i i a s a i s s s s s s L L L L L L m s s s s s s s j s s s s i i i p p p i i p p i i i p p p p p p a p a a a p p p p a a i i i i i i i i i i i i i i i i i i i i a a i i i i i i a a a i i i a a i i p p p 0 i i i i i a p p p p p p 0 p p p p p p p i p 7 7 6 6 6 6 6 6 7 7 6 6 6 6 6 6 6 6 6 6 7 7 7 6 6 6 7 ; $ & 6 7 7 7 i i i a i i i i i i 7 7 7 7 7 7 6 6 7 7 i i i i i 7 6 - - - - = 2 2 2 2 2 2 2 2 , , , , , , + = = = = - $ % - r r r t g o.o.o.o.o.o.o.o.o.o.o.o.o.t t t t t t t t t t t t t t t t t t t t t r r r r - - - - ; + , , > + > > , > > + + + > , > > , , > , , > > > > , , , > > > , , > + + + + + + ",
"+ + + + + + + + + + + + + o + + o + + + + + + + + + + o o + + + + + + + + + + + + + + + o + + + + o o o + + o   o                         o o   o o o o o o o o o o + + o i l l +.#.#.#.$.$.$.$.$.$.+.o.o.o.O.O.O.O.O.@.@.@.@.@.@.$.@.@.@.@.@.O.O.o.o.o.@.@.@.@.+.o.g t t t r r r r r r r r r r - : : : r i i i i i i 7 6 5 * * 5 p 0 i i i i i i i i i i i i a a a a a a p p p p p p 7 7 7 7 7 7 i a s s n s s s s s L L a i i i i p i i a a s s s s s L L L R R R L L m s p p a a s s s a p p a a a a a a p i i i i i i i i i a a a p p p p p i i i i i i i a i i i i i i i i i i i i i i i i i i i i a a i a a a a a i a a a i i i i i i i i i i 7 i i i i i u u i i 7 7 7 7 u u 7 7 7 7 7 7 7 7 7 7 7 6 7 7 6 6 6 6 6 6 6 6 6 6 7 7 7 7 7 7 7 : & & : 6 6 7 7 i i i 7 7 7 7 i i 7 7 7 7 6 6 6 6 7 7 i a i i 7 6 : 6 - - - ; 2 , 2 , 2 , 2 2 , , , , , + @ = = = $ $ % % r r r r t t g o.o.o.g g t t t t t t t t t t t t t t t t t t t t t t t t t t t r r r r - - - - 7 2 , , > + > , > > > + + > + + > , , , > > > > > > > > > , , , > > > > , > + + + + + ",
"o + + + + + + o + + + + o o o + + + + + + + + + + + + + + + + + + o o + + o + + + + + + o + + o o o + o + + o                           o o o o   o   o o o o + + o + + o - k l +.+.+.#.$.$.$.@.@.@.+.o.o.o.O.O.O.O.O.@.@.@.@.@.@.@.@.@.@.@.@.@.O.o.o.o.O.O.O.O.O.o.o.t t t t r r r r r r r r r : r r r r i i i i i 7 7 6 : * * 5 p 0 i i i i i i i i i i i i a a a i i p i p p p p u 7 7 7 7 7 7 p i i s s s s s s s L L s a i i i i i i a s s s s s j L L L L L L L L s p p p p p p s p p p p p a a a a a p i i a i a a i a i a a a i i i i i i i i i i i i i i i i i i i i i i i i i i i i i i i i i a a a a a i a a i a a a a i i i i i i i i i 7 7 7 7 7 7 7 7 7 7 7 7 7 7 7 7 7 7 7 7 7 7 7 7 7 7 7 7 7 7 7 6 6 6 6 6 6 6 6 6 7 7 7 7 7 7 7 : & & ; 6 6 7 7 7 i i 7 7 7 7 7 7 7 7 7 6 6 6 6 6 7 i a a a 7 7 6 : : - * : ; , 2 , , , , , , , > , , +   = $ $ $ $ $ % % r r r t t g g l l g g t t t t t t t t t r r r r r r r t t t t t t t t t t t t r r r r - - - - 7 , > > > + + > , , + + > + + + + > > + + > > > > > > > > > > > > > > > > > , + o o + ",
"o + + + + + o o o + o + + o o + + o o + + + + o + + + + + + + + + o o + + o + + + + o o o + + + + o o o + o o                           o o o   o o     o o   o + + + + o ; k l +.o.+.+.+.@.@.@.@.+.O.o.o.[ o.O.O.O.O.O.@.@.@.@.@.@.@.@.@.@.@.@.O.O.o.o.o.O.O.O.O.O.o.o.t t t r r r r r r r r r r r r r r r u u i i 7 6 6 ; & & 6 i 7 i i i i i i i i i i i i a a a i i i i i i p p p 6 7 7 7 7 7 7 7 7 i i i s s s n L L s i i i i i i i i s s s s L L L L L L L L s s a p p p p p p a p p s p p p a a a s p i i i a i a a a i a a i i i i i i i i i i i i i i i i i i i i i i i i i i i i i i i a i i i i a a i i i i i i a a a a i i i i i i i i 7 7 7 7 7 7 7 7 7 7 7 7 7 7 7 7 7 7 7 7 7 7 u p p i i i 7 7 7 6 6 6 6 6 6 6 6 6 7 7 7 7 7 7 7 : & & ; 6 6 7 7 7 i i 7 7 7 7 7 7 7 7 6 6 6 6 6 6 7 i a a a 7 7 6 : : : * : ; , , 2 , > , , , , > + 2 = = X X $ $ $ $ $ % - r r r t t l l l t t t r t t t t t t t r r r r r r r r t t t t t t t t t t t r r r r - - - = 6 + > > > + + + + > + + + + + + + + + + + + > > > > > > > > > + + + > + + + + + + o o ",
"+ o o + + o o o o + + o o + + o o o o + o o + + + + + + + + + + + + o + + + + + + o o + + o o o o o o o o o       o o o                     o o o o o o       o + + + + + ; k g l g o.+.+.+.+.+.+.o.o.o.[ [ o.O.O.O.O.O.@.@.+.+.+.+.@.@.@.@.@.@.@.O.o.o.o.O.O.O.O.O.o.o.g t t r r r r r r r r r r r r r r r i u i 7 7 6 6 ; & & 6 i 7 i i i i i i i i i i i i i a a i i i i i i p p p 7 7 7 7 6 6 6 7 7 7 7 i i a s s s L s a i i p i i i i s s s s L L L L L m s s s p p p p p p p p p p p s s p p a a a s p i a a a i i i a a a a i i i i i i i i i i i i i i i i i i i i i i i i i i i i i i p i i i i i i a i i i i i i a a a a i i i 7 7 i i 7 7 7 7 7 7 7 7 7 7 7 7 7 7 7 7 7 7 6 6 6 6 6 7 7 7 7 7 7 7 7 7 6 6 6 6 6 6 6 6 6 7 7 7 7 7 7 7 : & & ; 6 6 7 7 7 i i 7 7 7 7 7 7 7 6 6 6 6 6 6 6 7 i a a i 7 7 6 : : : * : 5 , , , , , , , , , + = = = = X X $ $ $ $ $ $ % - r u r i i i t r r r r r r r t t t r r r r r r r r r t t t t t t t t t t t r r r - - - - - O + + > > > + + + o o o o o o o + + + + + + + > > > > + + + + + o o o + + + o + o o o ",
"o o o o o o o o o o o o + o o o o o + + + + + + + + + + + o + + + + + + + o o o + o o + o + o o o o o o o o   o o o                                 o       o o o o + + + @ r g g g g o.+.+.+.+.o.o.o.o.[ [ o.O.O.O.O.O.@.@.+.+.O.O.O.O.@.@.@.@.@.@.o.o.o.O.O.O.O.@.O.o.o.g t t t r t r r r r r r r r r r r r u i i 7 6 : ; & ; 6 i i i i i i i i i i i i i i i a i i i i i i i i i i 7 7 7 7 7 7 7 7 7 7 7 7 u u p p a s s i i i p p i i a a s s s s s s s s a a p p p p p p p p p p p s s s s a a a a s s p i i i i i a i i i i i i i i i i i i i p p p p p i a i i i i i i i i i i i i i i i i i i i i p i i i i i i i i i a a a a i i i i i i 7 7 7 7 7 7 7 7 7 7 7 7 7 7 7 7 7 7 6 6 6 6 6 7 7 7 7 7 7 7 7 7 6 6 6 6 6 6 6 6 6 7 7 7 7 7 7 7 : & & ; 6 6 7 7 7 i i 7 7 7 7 i 7 6 6 6 6 6 : 6 6 7 i a a i 7 7 6 : : : * : 5 , > > > > > , , + = = = = = X X X X X $ $ $ $ * : r r i i i r r - % % % - r r r r r r r r r r r r r t t t t t t t t t t t r r r - - - - ; o + > + + + + o o o o o o o     o o o o o o + + o o + + + + + + + o o o + o o o o o o ",
"o o o o + o o o o o o o o o o o o + + + o o o + + o + + o + o o o o o o o + o o o o + o o o o o o o o o         o o                                 o o     o o o o o + o + $ t g t g g o.o.+.+.o.o.o.o.[ t o.o.O.O.O.o.@.@.+.+.O.O.o.o.O.O.+.@.@.@.o.o.o.O.O.O.@.O.O.o.o.o.t t t t r r r r r r r r r r r r r r i i 7 : : ; & & 6 i i i i i i i i i i i i i i i i i i i i i i i i i i 7 7 7 7 7 7 7 7 7 7 7 6 6 7 7 u i i s i i i p p i a a a s s s s s s s s p p p p p p a a p p p s p s s s s a a s s s s p i i i i i a i i i i i i i i i i i i i p p p p p i a a i i i i i i i i i i i i i i i i i i i i p p p i i i i i i i a a i i i i i 7 7 7 7 7 7 7 7 7 7 7 7 7 7 7 7 7 7 7 7 6 6 6 6 6 7 7 7 7 7 7 7 7 7 6 6 6 6 6 6 6 6 6 7 7 7 7 7 7 7 : & & ; 6 6 7 7 7 i i 7 7 7 7 7 7 6 6 6 : : ; 6 6 7 i a a i i 7 6 6 : : * : 5 , > , > > > > + = = = ; @ @ X X X X X X . $ $ * * : : : : : - - % $ $ $ % - r r r r r r r r r r r r t t t t t t t t t t t r r r - - - - = o + o o + o + + o o   o           o o   o o o + o o + + + + + + o o o o o o o o o o o ",
"o o o o o o o o o o o o o o o o o o o + + o o o o o o o o o o o o o o + + o o o o o + + o o o o o o o o                                               o o         o o o o   . r r r t t o.o.o.+.+.+.o.o.| t | O.O.O.O.O.@.@.O.O.O.o.o.o.o.O.O.@.@.@.o.o.o.o.O.O.O.@.@.O.o.o.t t t t t t r r r r r r r r r - - r 7 7 7 7 7 : ; ; 6 i a i i i i i i i i i i i i a i i i i i i i i i i i i p p p p u 7 7 7 7 7 7 6 7 7 7 u i s s p i i i i a a p p i i i i a s s p s p p p s s s s s s s p p p p p p p p p p p p i a a i i a i i i i i i i i i p p p i i i i i i i i i i i i i i i i i i i i i i i p p p p i i i i i i i i i i i i i i a i i i i i 7 7 7 7 6 7 7 7 7 7 7 7 7 7 7 7 7 7 7 7 7 7 7 7 7 7 7 7 7 7 7 7 7 7 6 6 6 6 6 6 6 6 6 6 7 7 7 i 6 * $ & ; 6 6 6 7 i i a 7 7 7 7 7 7 6 6 6 ; ; * 6 6 7 i a a i 7 7 7 : : * * & ; + + > + > + @ 5 ; ; ; = = @ X X X . . . . . $ $ % % * % - % % % $ $ $ $ $ % - r q q r r r r r r r r r r r r r r r r r r r r r r r r - - - O + + + + o o o                   o o o o o o + + + + o o o + + o o o o o o o o o o o ",
"o o o o o o o o o o o o o o + o o o + o + + + o o o o o o o o o o o o o o o o o o o o o o o o o o                 o                                                     o     r r r r t t o.o.o.o.+.+.o.| [ o.O.O.O.O.O.O.+.O.O.o.o.o.o.o.o.O.@.@.@.O.o.o.o.O.O.O.@.+.O.o.o.o.t t t t r r r r r r r r r - - - : 6 7 7 7 i u : : : 7 i i i i i i i i i i i i i a i i i i i i i i i i i p p p p p u 7 7 7 7 7 7 6 6 7 u p i s s p a i i i i i i i i i i i i p s a a p p p a a a a a a a p p p p p p p p p p p p i a a i i a i i i i i i i p p p p p i i i i i i i i i i i i i i i i i i i i i i i p 7 7 0 i i i i i i i i i i i a i i i i i i i i 7 7 7 7 6 6 7 7 7 7 7 7 7 7 7 7 7 7 7 7 i i 7 7 7 7 7 7 7 7 7 i 7 7 7 6 6 6 6 6 6 6 6 6 7 7 7 i 6 * $ & ; 6 6 6 7 i i a 7 7 7 7 7 7 6 6 6 6 : ; 6 6 7 i a a i i 7 6 6 : & & : ; , + + o + + 5 ; ; = = ; ; & X X X X X . . X $ & & & & ; ; ; & % % $ $ $ $ $ % - % % % r r r r r r r r r r r r r r r r r r r - - - - - - - @ o o o o   o                         o o o o o o o o + + o o o o o o o o o o o o o o ",
"o o o o o o o o o o o o o o o o o o o o o o o o o o o o o o o o o o o o o o o o o o o o o o o                                                                                 i r r r t t t o.o.o.+.+.o.| [ o.O.@.+.O.O.O.O.o.o.o.o.o.o.o.o.o.O.O.O.O.o.o.o.o.O.O.@.O.o.o.o.o.g t t t r r r r r r r r - - * - * : : 6 7 7 i 6 : 7 7 7 i i i i i i i i i i i i a a a i i i i i i i i i i i i p p u 7 7 7 7 7 6 6 7 p p i i s s a a i i i i i p u i 0 p p i p i p p p p p p p p p p p p p p p p p p p p p p p p i a a i i i i i i i i p p p p i i p i i i i i i i i i i i i i i i i i i u u u i i 7 7 u u u u i i i i i i i i a a i i a i i i i i 7 6 6 6 6 6 7 7 7 7 7 7 7 7 7 7 7 7 7 7 7 7 7 7 7 7 u u 7 7 7 7 7 7 7 6 6 6 6 6 6 6 6 6 7 7 7 i 6 * $ & ; 6 6 6 7 i i a 7 7 7 7 7 7 6 6 6 6 6 ; 6 6 7 i i a i i 7 7 6 : & : : : 5 o o o O 2 5 = = = = = ; & X X X X X . X X & & & & ; ; ; ; & & $ $ $ $ $ $ $ $ % % % - - - - - - r r r r r r r r r r r r % % - - - - - - 6 o o o o                             o   o o o o o o o o o o o o   o o o o o o o o o ",
"                                                                                                                                                                              - r r r r t t t o.o.o.+.o.| | o.@.@.+.O.O.+.+.o.o.o.o.o.o.o.o.o.o.o.O.o.o.o.o.o.o.O.@.O.o.o.o.o.g t t t r r r r r r r r - - - * $ % ; - : 7 6 6 6 u i 7 i i i i i i i i i i i i i i i i i i i i i i i i p i i p p u 7 7 7 7 7 7 6 7 p i i a s s a a i i i 0 0 p u 7 7 7 7 u p i p p p p p p p p p p p p p p p p p p p p p p p p i a a i i i i i i i i p p i i i 7 i i i i i i i i i i i i i i i i i i i u 7 7 u u 6 6 6 6 6 6 i i i i i a i i a a i i a i i i i i 7 6 6 6 6 6 7 i i i u u u 7 i i i i u 7 7 7 7 7 7 7 u u 7 7 7 7 7 7 7 6 6 6 6 6 6 6 6 6 7 7 7 7 6 ; $ & ; 6 6 6 7 7 i a 7 7 7 7 7 7 7 6 6 6 6 6 6 6 7 i i a i i 7 7 6 6 & : : 6 6 O @ @ = = = ; ; ; = ; = @ X X X X X . X X & & ; ; ; ; ; ; ; ; = $ & $ $ $ $ $ % % $ % * * * * % * - - - - * * * * - - % % % % % % - - - 7 X                                                                         o     o   ",
"                    o       o                                 o o             o o o o o o                                                                                     ; r r r t t t t o.o.o.+.+.o.| o.@.O.+.O.O.O.O.o.o.o.o.o.o.o.o.o.o.o.o.o.o.o.o.| o.o.O.o.o.o.o.o.g g t t t r r r r r r r - r - % $ % % ; : : : : 7 i i i i i i i i i i i i i i i i a i i i i a a a i i i p i i i i u 7 7 7 7 7 u 7 7 p p p a s s a a a i 0 7 7 u u 7 5 7 7 7 u p p p p p p p p p p p p p p p p p p p p p p p p p i a i i i i i i i i i p p i 7 7 7 7 i i i i i i i i i i i i i i i i i i u 6 u u u 6 6 6 6 6 6 i i i i a i i a i a i a a i i i i i 7 6 6 6 6 7 7 i i i i u i i i i i u 7 7 7 7 7 7 7 7 7 7 7 7 7 7 7 7 7 6 6 6 6 6 6 6 6 6 7 7 7 7 6 ; $ & ; 6 6 6 7 7 i a 7 7 7 7 7 7 7 6 6 6 6 6 6 6 7 i i a a a 7 7 6 6 * : : 6 7 7 9 5 ; = ; ; ; ; ; ; = @ X X X . . . X X & ; ; ; ; ; ; ; ; ; = X X @ & $ $ $ $ $ $ $ $ $ $ $ $ $ * * $ % $ $ $ $ % % % % % % * - - - - $ ;                                                                               o   ",
"o o o o o o o o o o o o o o + o o o o o o o o o + o o o o + + + + + o o o o o + o o o o o o o o o o o o o o o                                               o o o o o o o o o o $ - r r t t t t o.o.+.+.o.o.o.o.+.@.O.o.O.o.o.o.o.o.o.o.o.o.o.o.o.o.o.o.o.o.o.o.o.o.o.o.t t t t g g t t u r r r - - % % % % % $ % % % % ; : 6 i i i u i i i i i i i i i i i i i a a a a a a a a a 7 7 7 i i i i u 6 7 7 7 u u u p p i a s s s a a a i 0 7 7 7 6 7 5 6 6 7 u u p p p p p p p p p p p p p p p p p p p p p p p p i a a i i i i i i i i p p i 7 7 7 i i i i i i i i i i i i i i i i i i i 6 6 u u u 6 6 6 6 6 6 6 6 7 0 i i p p i i i i i i i 7 7 7 7 7 6 6 6 7 7 7 7 7 7 7 7 7 7 7 7 7 7 7 7 7 7 7 7 7 7 7 7 7 7 7 7 7 7 6 6 6 6 6 6 6 6 6 7 7 7 7 6 ; $ & ; 6 6 6 7 7 i a 7 7 7 7 7 7 7 6 6 6 6 6 6 6 7 i i a a a 7 7 6 6 : : ; : 6 7 5 = = = ; ; ; ; & & & @ X X X X X X X & & & ; - ; ; ; ; ; = = X X = ; & & & $ % % $ $ $ $ $ $ $ $ $ $ $ $ $ % $ $ % % % % % * - - - - = ; ; O o + + + + + + o + + o + + o + o o o o o + + + o o o + + + + + + + + + + + + + "
};
