/* XPM */
static char *_3d7360c7a254024ef7d9a8a81b886d1TKOvKRb5fMBlCSfZ[] = {
/* columns rows colors chars-per-pixel */
"128 128 193 2 ",
"   c #040404",
".  c #090807",
"X  c #070909",
"o  c #0B0D0B",
"O  c #060707",
"+  c #0C110F",
"@  c #13120E",
"#  c #0E1312",
"$  c #131512",
"%  c #121915",
"&  c #1C1B15",
"*  c #141B1A",
"=  c #1E1E1C",
"-  c #100F0C",
";  c #211E18",
":  c #1A241F",
">  c #24231B",
",  c #29271F",
"<  c #1C2523",
"1  c #1E2925",
"2  c #1F2928",
"3  c #222522",
"4  c #212D27",
"5  c #2C2B22",
"6  c #212C2A",
"7  c #2A2C27",
"8  c #312E24",
"9  c #302F2B",
"0  c #25322D",
"q  c #28332E",
"w  c #333026",
"e  c #35342A",
"r  c #39362A",
"t  c #3C3A2D",
"y  c #37382C",
"u  c #273431",
"i  c #2B3632",
"p  c #2C3B35",
"a  c #2E3D3A",
"s  c #3C3E33",
"d  c #303F3C",
"f  c #373F36",
"g  c #413E31",
"h  c #40392E",
"j  c #2E4236",
"k  c #2F413B",
"l  c #354236",
"z  c #3B4136",
"x  c #32433D",
"c  c #3B443C",
"v  c #344A3E",
"b  c #3E483C",
"n  c #454334",
"m  c #494636",
"M  c #414539",
"N  c #4D4739",
"B  c #444A3E",
"V  c #4D4A3A",
"C  c #4B4837",
"Z  c #52463A",
"A  c #524C3D",
"S  c #584A3E",
"D  c #53513F",
"F  c #344542",
"G  c #364A43",
"H  c #394C45",
"J  c #3A4E4A",
"K  c #3D4740",
"L  c #3B5245",
"P  c #3D534C",
"I  c #3F594A",
"U  c #375041",
"Y  c #3F5450",
"T  c #434C42",
"R  c #4B4E41",
"E  c #5B4E41",
"W  c #4B5144",
"Q  c #44534B",
"!  c #415B4D",
"~  c #445147",
"^  c #565341",
"/  c #5A5543",
"(  c #565846",
")  c #5C5946",
"_  c #555B4C",
"`  c #5E5D49",
"'  c #415652",
"]  c #435A55",
"[  c #4F5E55",
"{  c #465D59",
"}  c #485F5B",
"|  c #505D54",
" . c #615E49",
".. c #6C5D4E",
"X. c #605846",
"o. c #466253",
"O. c #486456",
"+. c #476059",
"@. c #4A625D",
"#. c #4D6A5B",
"$. c #4A6956",
"%. c #65624C",
"&. c #69654F",
"*. c #616756",
"=. c #6A6750",
"-. c #6D6A52",
";. c #626855",
":. c #716E55",
">. c #796F59",
",. c #726F58",
"<. c #6D715D",
"1. c #747057",
"2. c #767259",
"3. c #79765B",
"4. c #7D795E",
"5. c #4D6661",
"6. c #4F6964",
"7. c #516B66",
"8. c #536E69",
"9. c #596D64",
"0. c #537462",
"q. c #55726C",
"w. c #58746F",
"e. c #5A7A6F",
"r. c #597671",
"t. c #5C7A75",
"y. c #5E7E78",
"u. c #577570",
"i. c #7E7B60",
"p. c #607F7A",
"a. c #81765F",
"s. c #807B5F",
"d. c #827D62",
"f. c #827760",
"g. c #5F866F",
"h. c #5F8473",
"j. c #62827D",
"k. c #608770",
"l. c #60876F",
"z. c #858164",
"x. c #898467",
"c. c #848369",
"v. c #8B8668",
"b. c #8E896B",
"n. c #918D6D",
"m. c #94906F",
"M. c #969171",
"N. c #9A9574",
"B. c #9D9876",
"V. c #9F9A78",
"C. c #948F70",
"Z. c #A29D7A",
"A. c #A6A17D",
"S. c #A8A37F",
"D. c #658681",
"F. c #678983",
"G. c #698B85",
"H. c #6B8E88",
"J. c #6D918B",
"K. c #6B9087",
"L. c #71958E",
"P. c #719690",
"I. c #749B94",
"U. c #789F98",
"Y. c #789C94",
"T. c #7BA39C",
"R. c #7FA8A1",
"E. c #7EA7A1",
"W. c #ABA581",
"Q. c #AEA983",
"!. c #B1AC85",
"~. c #B5AF88",
"^. c #B7B18A",
"/. c #BBB58C",
"(. c #BDB88E",
"). c #BFBA90",
"_. c #82ADA5",
"`. c #84AFA8",
"'. c #86B2AA",
"]. c #89B6AE",
"[. c #8CBAB2",
"{. c #8AB7B0",
"}. c #90BEB6",
"|. c #C2BC92",
" X c #97C9BF",
".X c #CAC398",
"XX c #D1CB9E",
"oX c #D6CFA1",
"OX c #D9D3A4",
"+X c #97C9C0",
"@X c #9ACCC3",
"#X c #A1D6CD",
"$X c #A3D8CF",
/* pixels */
"%. .2. .A S.n J 5.x w.8.F J.P D.H d p.] j.' ] P t.7.y.c.5 m v.4.%. .2. .A S.s J 5.x w.7.F J.P D.H a y.] j.' ] P t.7.p.c.5 m v.4.%. .2. .A S.n J 5.x w.7.F J.P D.H d p.] j.' ] P t.7.y.c.5 m v.4.%. .2. .A S.s J 5.x w.7.F J.P D.H a y.] j.' ] P t.7.p.c.5 m v.4.",
"Z.t Z.:.Z.4.B l { ] 7.7.j.5.P.t.* G G.H.x q.w.{ @.G ( XX!.@ A D Z.t Z.:.Z.4.B j { ] 7.7.j.5.P.t.* v G.H.x q.w.{ 5.G ( XX!.@ A A Z.t Z.:.Z.4.B l { ] 7.7.j.5.P.t.* G G.H.x q.w.{ @.G ( XX!.@ A D Z.t Z.:.Z.4.B j { ] 7.7.j.5.P.t.* v G.H.x q.w.{ 5.G ( XX!.@ A A ",
"n.2. .=..X1.a { ' 7.G.@.L J I q.] q.@.j.6.7.G G.@.T 4.1.B.&.e n n.3. .=..X1.a { ' 7.G.@.L J I q.] q.@.p.7.7.G G.@.T 4.1.N.&.e n n.2. .=..X1.a { ' 7.G.@.L J I q.] q.@.j.6.7.G G.@.T 4.1.B.&.e n n.3. .=..X1.a { ' 7.G.@.L J I q.] q.@.p.7.7.G G.@.T 4.1.N.&.e n ",
"&.v.t d.n c x ] { 7.H F.] j.r.5.P j.D.5.7.5.5.L c =.&.~.3.Z.%.t &.b.t d.n c k ] { 7.H G.] j.r.5.P j.D.5.7.5.5.L c =.&.~.3.Z.%.t &.v.t d.n c x ] { 7.H F.] j.r.5.P j.D.5.7.5.5.L c =.&.~.3.Z.%.t &.b.t d.n c k ] { 7.H G.] j.r.5.P j.D.5.7.5.5.L c =.&.~.3.Z.%.t ",
"@ 2.Q.1.s 7.D.D.P 7.@.P 5.a F { P 5.{ G.q.G L.P ^ 2.-.2.W.S.OXm @ 2.Q.1.s 7.D.D.P 7.@.P 5.a F { P 5.{ G.q.G L.P ^ 2.-.2.W.Z.OXm @ 2.Q.1.s 7.D.D.P 7.@.P 5.a F { P 5.{ G.q.G L.P ^ 2.-.2.W.S.OXm @ 2.Q.1.s 7.D.D.P 7.@.P 5.a F { P 5.{ G.q.G L.P ^ 2.-.2.W.Z.OXm ",
"$ w d.( p G G q.j.H y.L } 6 F I G.q.t.6.5.7.r.R %.A M.3.) n.a..X$ w d.( p G G q.j.H p.L } 6 F I G.q.t.6.5.7.r.R %.A M.3.) n.a..X$ w d.( p G G q.j.H y.L } 6 F I G.q.t.6.5.7.r.R %.A M.3.) n.a..X$ w d.( p G G q.j.H p.L } 6 F I G.q.t.6.5.7.r.R %.A M.3.) n.a..X",
"m $ ^ P ] p.r.+.r.q.5.r.4 6 r.' r.I @.t.P J.x > 4.E %.n n./ 4.!.m @ ^ P { p.r.} r.q.5.r.4 6 r.' r.I @.t.P J.v > 4.E %.m n./ 4.!.C $ ^ P ] p.r.+.r.q.5.r.4 6 r.' r.I @.t.P J.x > 4.E %.n n./ 4.!.m @ ^ P { p.r.} r.q.5.r.4 6 r.' r.I @.t.P J.v > 4.E %.m n./ 4.!.",
":.  a y.7.F H.j.G j.F P   ] o.J.F @.J q.@.U.J D N.-.N.:.%.-.n.^.:.  a y.7.F H.j.H j.G P   ] o.J.F @.J q.@.U.J D N.-.N.:.%.-.n.^.1.  a y.7.F H.j.G j.F P   ] o.J.F @.J q.@.U.J D N.-.N.:.%.-.n.^.:.  a y.7.F H.j.H j.G P   ] o.J.F @.J q.@.U.J D N.-.N.:.%.-.n.^.",
"A x p.] j.' ] J t.7.y.c.5 a T.D.p j.5.! 5.@.p D 4.r ~.b.=./ N.>.A a y.] j.' ] J t.7.p.c.5 a E.D.p j.5.! 5.@.i D 4.r ~.b.=./ N.>.A x p.] j.' ] J t.7.y.c.5 a T.D.p j.5.! 5.@.p D 4.r ~.b.=./ N.>.A a y.] j.' ] J t.7.p.c.5 a E.D.p j.5.! 5.@.i D 4.r ~.b.=./ N.>.",
"= G G.G.x q.w.{ 5.G ( XX!.@ H ' j.0 D.7.j.U.l V -.n.^ %.4.^ z.=.= G G.H.x 8.w.{ 5.G ( XX!.@ H ' j.0 D.6.j.I.l V -.b./ %.4.^ z.&.= G G.G.x q.w.{ 5.G ( XX!.@ H ' j.0 D.7.j.U.l V -.n.^ %.4.^ z.=.= G G.H.x q.w.{ 5.G ( XX!.@ H ' j.0 D.6.j.I.l V -.n./ %.4.^ z.&.",
"] q.@.p.6.7.U G.@.T 4.:.B.&.p 1 P.7.H ] 7.H / ) z.3.1.z.1.2.z.V ] q.@.j.6.7.G G.@.T 4.:.B.&.a < P.7.H ] 7.H / ) z.3.:.d.1.1.z.V ] q.@.p.6.7.U G.@.T 4.:.B.&.p 1 P.7.H ] 7.H / ) z.3.1.z.1.2.z.V ] q.@.j.6.7.G G.@.T 4.:.B.&.a < P.7.H ] 7.H / ) z.3.:.d.1.1.z.V ",
"P D.D.5.7.5.5.L c =.&.~.3.Z.%.a ] 6.J 5.Y B ` Z 1./ m B.d.D ) 5.P j.D.5.8.5.5.L c =.&.^.3.Z.%.a ] 6.J 5.' B ` Z 1./ m B.d.A ) 5.P D.D.5.7.5.5.L c =.&.~.3.Z.%.a ] 6.J 5.Y B ` Z 1./ m B.d.D ) 5.P j.D.5.8.5.5.L c =.&.^.3.Z.%.a ] 6.J 5.' B ` Z 1./ m B.d.A ) 5.",
"P 5.{ G.q.G L.P ^ 2.-.2.W.S.OXm o Y O.H e ^ d.d.:.:.4.%.) =.F { P 5.{ G.q.G J.P ^ 2.-.1.W.S.OXm o Y O.U e ^ d.s.:.:.4.%.) =.F { P 5.{ G.q.G L.P ^ 2.-.2.W.S.OXm o Y O.H e ^ d.d.:.:.4.%.) =.F { P 5.{ G.q.G J.P ^ 2.-.1.W.S.OXm o Y O.U e ^ d.s.:.:.4.%.) =.F { ",
"G.q.t.6.5.7.r.R %.A M.3.) n.a..X$ a 7.@.) 2./ =. .%.d.b.%.9 F I G.q.t.6.5.7.r.R %.A M.3.) n.a..X$ a 7.@.) 2./ =. .%.d.b.%.9 F I G.q.t.6.5.7.r.R %.A M.3.) n.a..X$ a 7.@.) 2./ =. .%.d.b.%.9 F I G.q.t.6.5.7.r.R %.A M.3.) n.a..X$ a 7.@.) 2./ =. .%.d.b.%.9 F I ",
"r.I 5.t.P J.x > 4.E %.m n./ 4.!.m o p V V 2.n.z./ &./ S V 6 r.' r.I @.t.P J.x > 4.E %.m n./ 4.!.m o p V V 2.n.z./ &./ S V 6 t.' r.I 5.t.P J.x > 4.E %.m n./ 4.!.m o p V V 2.n.z./ &./ S V 6 r.' r.I @.t.P J.x > 4.E %.m n./ 4.!.m o p V V 2.n.z./ &./ S V 6 t.' ",
"F @.J w.5.U.J D N.-.N.:.%.-.n.^.:.  n d.-.3.&.2.:.1.z.%.  ] o.J.F @.J w.@.U.J D B.-.N.:.%.=.n.^.:.  n d.-.3.&.2.:.1.z.%.  ] o.J.F @.J w.5.U.J D N.-.N.:.%.-.n.^.:.  n d.-.3.&.2.:.1.z.%.  ] o.J.F @.J w.@.U.J D B.-.N.:.%.=.n.^.:.  n d.-.3.&.2.:.1.z.%.  ] o.J.",
"p j.5.! 5.@.p D 4.r ~.b.=./ N.>.A r &./ ) 3.d. .) ` N L.< a T.F.p j.5.! 5.@.p D 4.y ~.b.=./ N.>.A r &./ ) 3.d. .) ) N L.< a T.D.p j.5.! 5.@.p D 4.r ~.b.=./ N.>.A r &./ ) 3.d. .) ` N L.< a T.F.p j.5.! 5.@.p D 4.y ~.b.=./ N.>.A r &./ ) 3.d. .) ) N L.< a T.D.",
"j.0 F.6.j.U.l C -.n./ %.4./ z.=.> / d.3.d.=.2.3.) 2.l 5.+Xo H ' j.0 D.6.j.U.l C -.n./ %.4.^ z.=.> / d.3.d.-.2.3.) 2.l 5.+Xo H ' j.0 F.6.j.U.l C -.n./ %.4./ z.=.> / d.3.d.=.2.3.) 2.l 5.+Xo H ' j.0 D.6.j.U.l C -.n./ %.4.^ z.=.> / d.3.d.-.2.3.) 2.l 5.+Xo H ' ",
"P.7.H ] 7.H ) ) z.4.:.d.1.1.z.V V 3./ S 2.3.&.) :.e t.+.H.F.a 1 P.7.H ] 7.H / ) z.4.:.z.1.1.z.V V 3./ S 2.3.&./ :.e t.+.H.F.p 1 P.7.H ] 7.H ) ) z.4.:.d.1.1.z.V V 3./ S 2.3.&.) :.e t.+.H.F.a 1 P.7.H ] 7.H / ) z.4.:.z.1.1.z.V V 3./ S 2.3.&./ :.e t.+.H.F.p 1 ",
"] 6.J 5.' B ` Z 1./ m B.d.D ) m -.=.d.2.&.d.n.%.^ ] p _.J J.] a ] 6.J 5.Y B ` Z :./ m N.d.D ) m -.=.d.2.&.d.n.%.W ] p _.P J.] a ] 6.J 5.' B ` Z 1./ m B.d.D ) m -.=.d.2.&.d.n.%.^ ] p _.J J.] a ] 6.J 5.Y B ` Z :./ m N.d.D ) m -.=.d.2.&.d.n.%.W ] p _.P J.] a ",
"o Y O.U e ^ d.s.:.:.4.%.) =.n ) Z %.Z d.A  .d.,.p { I 6.'.J.U.F o Y O.H e ^ d.i.:.:.4.%.) =.n ) Z %.Z d.A  .d.1.p { I 7.'.J.U.F o Y O.U e ^ d.s.:.:.4.%.) =.n ) Z %.Z d.A  .d.,.p { I 6.'.J.U.F o Y O.H e ^ d.i.:.:.4.%.) =.n ) Z %.Z d.A  .d.1.p { I 7.'.J.U.F ",
"# a 6.@.) 2./ =. .%.d.b.%.8  .-./ 1.) b.M.z.=.~ 7.4 T.H ' T.'.@.$ a 7.@.) 2./ =. .%.d.b.%.8  .-./ :.) b.M.z.=.~ 7.6 T.H ' T.'.@.# a 6.@.) 2./ =. .%.d.b.%.8  .-./ 1.) b.M.z.=.~ 7.4 T.H ' T.'.@.$ a 7.@.) 2./ =. .%.d.b.%.8  .-./ :.) b.M.z.=.~ 7.6 T.H ' T.'.@.",
"P o p V C 2.n.z./ &./ Z V & D 3.2.Z B.S  .!.&.1 { ' t.H 8.G j.].P o p V V 2.n.z./ &./ S V & D 3.2.Z B.S %.!.&.1 { ' t.H 7.G j.].P o p V C 2.n.z./ &./ Z V & D 3.2.Z B.S  .!.&.1 { ' t.H 8.G j.].P o p V V 2.n.z./ &./ S V & D 3.2.Z B.S %.!.&.1 { ' t.H 7.G j.].",
"L   n d.-.3.%.2.:.1.z.%.  n :.n.N.b.g =.z.3.g P O.7.P ] q.+.#.0.L   n d.-.3.&.2.:.1.z.%.  n :.n.N.b.g =.z.3.s P O.7.P ] q.+.#.0.L   n d.-.3.%.2.:.1.z.%.  n :.n.N.b.g =.z.3.g P O.7.P ] q.+.#.0.L   n d.-.3.&.2.:.1.z.%.  n :.n.N.b.g =.z.3.s P O.7.P ] q.+.#.0.",
"x r =./ ) 3.d. .) ` N L.< & 2.W.3.%.m m N.Z.y k #.F ].q.H { G.0.x t &./ ) 3.d. .X.) N L.< & 2.W.3.%.m m N.Z.y a #.F ].8.H { G.0.x r =./ ) 3.d. .) ` N L.< & 2.W.3.%.m m N.Z.y k #.F ].q.H { G.0.x t &./ ) 3.d. .X.) N L.< & 2.W.3.%.m m N.Z.y a #.F ].8.H { G.0.",
"> / d.3.d.-.2.3.) 2.l 5.+Xo > 2.=.r B.:.2.Z.M 0 7.L F P.5.p J ! > / d.3.d.-.2.3.) 2.l 5.+Xo > 2.=.r N.1.2.Z.M 0 6.H F P.5.p P ! > / d.3.d.-.2.3.) 2.l 5.+Xo > 2.=.r B.:.2.Z.M 0 7.L F P.5.p J ! > / d.3.d.-.2.3.) 2.l 5.+Xo > 2.=.r N.1.2.Z.M 0 6.H F P.5.p P ! ",
"V 3./ S 2.3.&.) :.e t.+.H.F.& 2.A 2...z.Z ^ J p t.q.G I 7.{ L ' V 3./ S 2.3.&./ :.e t.+.H.F.& 2.D 2...z.Z D J p r.q.G I 7.{ L ' V 3./ S 2.3.&.) :.e t.+.H.F.& 2.A 2...z.Z ^ J p t.q.G I 7.{ L ' V 3./ S 2.3.&./ :.e t.+.H.F.& 2.D 2...z.Z D J p r.q.G I 7.{ L ' ",
"-.=.d.2.&.d.n.%.^ ] p _.J J.] r g v.) z.4.T x G v F q.! P j @.m -.=.d.2.&.d.n.%.W ] p _.P J.] r g v.) z.i.T x G v F q.! ! j @.n -.=.d.2.&.d.n.%.^ ] p _.J J.] r g v.) z.4.T x G v F q.! P j @.m -.=.d.2.&.d.n.%.W ] p _.P J.] r g v.) z.i.T x G v F q.! ! j @.n ",
"Z %.Z d.A  .d.1.p { I 6.'.J.U.F & &.z.&.3 ] H { ] L @.t.5.x n ) Z %.Z d.A  .d.1.p { I 7.'.J.U.F & %.z.=.3 ] H { ] L @.t.5.x n ) Z %.Z d.A  .d.1.p { I 6.'.J.U.F & &.z.&.3 ] H { ] L @.t.5.x n ) Z %.Z d.A  .d.1.p { I 7.'.J.U.F & %.z.=.3 ] H { ] L @.t.5.x n ) ",
"/ :.) b.M.z.=.~ 7.4 T.H ' T.'.5.$ > ^ _ p ' L { F j.F ' 5.a  .-./ :.) b.M.z.=.~ 6.4 T.H ] T.'.@.# > ^ _ p ' L { F j.F ' 5.a  .-./ :.) b.M.z.=.~ 7.4 T.H ' T.'.5.$ > ^ _ p ' L { F j.F ' 5.a  .-./ :.) b.M.z.=.~ 6.4 T.H ] T.'.@.# > ^ _ p ' L { F j.F ' 5.a  .-.",
"2.Z B.S %.!.&.1 { ' t.H 8.F j.].P @ s F 5.' 5.5.P 7.F.D.0 & D 3.2.Z B.S %.!.&.1 { ' t.H 7.G j.].P @ s F 5.' 5.5.P 7.F.D.0 & D 3.2.Z B.S %.!.&.1 { ' t.H 8.F j.].P @ s F 5.' 5.5.P 7.F.D.0 & D 3.2.Z B.S %.!.&.1 { ' t.H 7.G j.].P @ s F 5.' 5.5.P 7.F.D.0 & D 3.",
"N.v.g =.z.3.g P O.7.P ] q.} #.0.L   @.F { t.r.F F.F L r.  n :.n.N.b.g =.z.3.g P O.7.P ] q.+.#.0.L   @.F { t.r.F F.F L r.  m :.n.N.v.g =.z.3.g P O.7.P ] q.} #.0.L   @.F { t.r.F F.F L r.  n :.n.N.b.g =.z.3.g P O.7.P ] q.+.#.0.L   @.F { t.r.F F.F L r.  m :.n.",
"3. .m N N.Z.y d #.F ].q.H { G.0.x u 5.L.6.' 5.7.q.r.F. .w & 2.S.3.%.m m N.Z.y a #.F ].8.H { G.0.x u 5.L.6.' 5.7.q.r.F. .8 & 2.W.3. .m N N.Z.y d #.F ].q.H { G.0.x u 5.L.6.' 5.7.q.r.F. .w & 2.S.3.%.m m N.Z.y a #.F ].8.H { G.0.x u 5.L.6.' 5.7.q.r.F. .8 & 2.W.",
"=.r B.:.2.Z.M 0 6.H F P.5.p J ! * r.x G H.H.F ] x F <.^.S.o > 2.=.r B.:.2.Z.M 0 6.H F P.5.p P ! * r.x G H.H.F ] x F <.^.S.o > 2.=.r B.:.2.Z.M 0 6.H F P.5.p J ! * r.x G H.H.F ] x F <.^.S.o > 2.=.r B.:.2.Z.M 0 6.H F P.5.p P ! * r.x G H.H.F ] x F <.^.S.o > 2.",
"A 2...z.Z ^ P p t.q.G I 7.{ L Y ] 6.D.G.P 5.j.@.@.W Z |.N.4.& 2.D 2...z.Z D J p r.q.G I 7.{ L ' ] 6.D.F.P 5.j.@.@.W Z |.N.4.& 2.A 2...z.Z ^ P p t.q.G I 7.{ L Y ] 6.D.G.P 5.j.@.@.W Z |.N.4.& 2.D 2...z.Z D J p r.q.G I 7.{ L ' ] 6.D.F.P 5.j.@.@.W Z |.N.4.& 2.",
"g v.) z.i.T x G v F q.! P j @.0 +.x x J.y.! J { l A /.e |.|.` r g v.) z.i.T x G v F q.! ! j @.0 +.x x J.y.! J +.l A /.r ).|.` r g x.) z.i.T x G v F q.! P j @.0 +.x x J.y.! J { l A /.e |.|.` r g v.) z.i.T x G v F q.! ! j @.0 +.x x J.y.! J +.l A /.r ).|.` r ",
"& %.x.&.3 ] H { ] L @.t.5.x k 7.' 7.5.I x G.@.H m z.1.-./ Z.OXm & &.z.=.3 ] H { ] L @.t.5.x a 7.' 7.5.I x G.@.H m z.1.-./ Z.OXm & %.x.&.3 ] H { ] L @.t.5.x k 7.' 7.5.I x G.@.H m z.1.-./ Z.OXm & &.z.=.3 ] H { ] L @.t.5.x a 7.' 7.5.I x G.@.H m z.1.-./ Z.OXm ",
"$ > ^ _ p ' L { F j.F ' 5.a G P H x { p.@.@.q.z N.1.&.V z.N.^.|.@ > ^ _ p ' L { F j.F ' 5.a G P H F { j.@.@.q.z N.1.&.V z.N.~.|.$ > ^ _ p ' L { F j.F ' 5.a G P H x { p.@.@.q.z N.1.&.V z.N.^.|.@ > ^ _ p ' L { F j.F ' 5.a G P H F { j.@.@.q.z N.1.&.V z.N.~.|.",
"%.@ s F 5.' 5.5.P 7.F.D.0 % @.! ] G O.F L.$.v r ^ r :.&.:.n.3.Q.%.@ s F 5.' 5.5.P 7.F.D.0 % @.! ] G O.F L.$.v r / r :.&.:.n.3.Q.%.@ s F 5.' 5.5.P 7.F.D.0 % @.! ] G O.F L.$.v r ^ r :.&.:.n.3.Q.%.@ s F 5.' 5.5.P 7.F.D.0 % @.! ] G O.F L.$.v r / r :.&.:.n.3.Q.",
"z.  @.F { t.r.F F.F L r.  0 { L.y.o.a H 5.6.H r w x.-.-.z.d.B.N.z.  @.F { t.r.F F.F L r.  0 { L.t.o.a H 5.6.H r w x.-.-.z.d.B.N.z.  @.F { t.r.F F.F L r.  0 { L.y.o.a H 5.6.H r w x.-.-.z.d.B.N.z.  @.F { t.r.F F.F L r.  0 { L.t.o.a H 5.6.H r w x.-.-.z.d.B.N.",
"t u 5.L.6.' 5.8.q.r.F. .8 < x q.r.t.u 7.6.j.a r ^ -.-.&./  .S.S.t u @.L.6.] 5.7.q.r.F. .8 < x q.r.t.u 7.7.j.d r ^ -.-.&./  .S.S.t u 5.L.6.' 5.8.q.r.F. .8 < x q.r.t.u 7.6.j.a r ^ -.-.&./  .S.S.t u @.L.6.] 5.7.q.r.F. .8 < x q.r.t.u 7.7.j.d r ^ -.-.&./  .S.S.",
"> r.x G H.H.F ] x F <.^.S.- < F.G p J.j.x T.z n C t 3.Q.) Z.d.M.> r.x G H.H.F ] x F <.^.S.o < F.G p J.j.x T.z n C t 3.Q.) Z.d.M.> r.x G H.H.F ] x F <.^.S.- < F.G p J.j.x T.z n C t 3.Q.) Z.d.M.> r.x G H.H.F ] x F <.^.S.o < F.G p J.j.x T.z n C t 3.Q.) Z.d.M.",
"] 6.D.F.P 5.j.@.@.W S |.N.4.% t.@.t.0.q.y.7.V -.x.n./ =. .d.v.D ] 6.F.G.P 5.j.@.@.W Z |.N.4.% t.@.t.0.q.y.7.V -.x.n./ =. .d.v.D ] 6.D.F.P 5.j.@.@.W S |.N.4.% t.@.t.0.q.y.7.V -.x.n./ =. .d.v.D ] 6.F.G.P 5.j.@.@.W Z |.N.4.% t.@.t.0.q.y.7.V -.x.n./ =. .d.v.D ",
"+.x x J.y.! J } l A /.r |.|.` < 4 P.@.t.P b %.:.%.A z.N.i.-.-.0 +.x x J.y.! H } l A /.r ).|.` < 4 P.@.t.P b %.:.%.A z.N.4.-.-.0 +.x x J.y.! J } l A /.r |.|.` < 4 P.@.t.P b %.:.%.A z.N.i.-.-.0 +.x x J.y.! H } l A /.r ).|.` < 4 P.@.t.P b %.:.%.A z.N.4.-.-.0 ",
"' 7.5.! x G.@.H m z.1.-.) Z.OXm * G +.T.i =./ d.4.d.%./ -.2.a 7.' 7.5.I x G.@.H m z.:.-.) Z.OXm * G +.T.i =.^ d.4.d.%.^ -.2.a 7.' 7.5.! x G.@.H m z.1.-.) Z.OXm * G +.T.i =./ d.4.d.%./ -.2.a 7.' 7.5.I x G.@.H m z.:.-.) Z.OXm * G +.T.i =.^ d.4.d.%.^ -.2.a 7.",
"G F { j.+.@.q.z N.1.&.V z.N.~.|.@ 1 F l %.-.%.4.A z.4.3.2.t G P H x { j.@.@.q.z N.1.&.V z.N.^.|.@ 2 F l %.-.%.4.A z.4.3.2.t G P G F { j.+.@.q.z N.1.&.V z.N.~.|.@ 1 F l %.-.%.4.A z.4.3.2.t G P H x { j.@.@.q.z N.1.&.V z.N.^.|.@ 2 F l %.-.%.4.A z.4.3.2.t G P ",
"] G O.F L.$.v r ^ r :.&.:.n.3.Q.%.o i &.%.%.z.:.i.3.%. .m % 5.! ] G O.F L.$.v r ^ r :.&.:.n.3.Q.%.o i &.%. .z.:.s.3.%. .m % 5.! ] G O.F L.$.v r ^ r :.&.:.n.3.Q.%.o i &.%.%.z.:.i.3.%. .m % 5.! ] G O.F L.$.v r ^ r :.&.:.n.3.Q.%.o i &.%. .z.:.s.3.%. .m % 5.! ",
"t.o.a H 5.6.H r w x.-.-.z.d.B.N.z.  ^  .v.b.-./ b.2.&.:.  0 { L.t.o.a H 5.6.H r w x.-.-.z.d.B.N.z.  ^  .v.b.-.^ v.2.&.:.  0 { L.t.o.a H 5.6.H r w x.-.-.z.d.B.N.z.  ^  .v.b.-./ b.2.&.:.  0 { L.t.o.a H 5.6.H r w x.-.-.z.d.B.N.z.  ^  .v.b.-.^ v.2.&.:.  0 { L.",
"r.t.u 7.7.j.a r ^ -.=.&./  .S.S.t n 1.2.m z.2.z.z.%.2.7.4 < x q.r.t.u 7.6.j.a r / -.-.&./  .S.S.t n 1.2.m z.2.z.z.%.2.7.4 < x q.r.t.u 7.7.j.a r ^ -.=.&./  .S.S.t n 1.2.m z.2.z.z.%.2.7.4 < v q.r.t.u 7.6.j.a r / -.-.&./  .S.S.t n 1.2.m z.2.z.z.%.2.7.4 < x q.",
"G p J.j.x T.z n C t 3.Q.) Z.d.M.> -.%.:.b.d.) i.&.2.9.R.`.# < G.G i J.j.x T.z m C t 3.Q.) V.d.M.> -.%.:.b.d.) d.=.2.9.R.`.$ < G.G p J.j.x T.z n C t 3.Q.) Z.d.M.> -.%.:.b.d.) i.&.2.9.R.`.# < G.G i J.j.x T.z m C t 3.Q.) V.d.M.> -.%.:.b.d.) d.=.2.9.R.`.$ < G.",
"@.t.0.q.y.7.V -.x.n./ &. .d.v.D ^ =.:.2.4.n.d.n. .W J.+XR.q.% t.@.t.0.q.y.7.V -.x.n./ &. .d.v.D ^ =.:.2.4.n.d.n. .W J.+XR.q.% t.@.t.0.q.y.7.V -.x.n./ &. .d.v.D ^ =.:.2.4.n.d.n. .W J.+XR.q.% t.@.t.0.q.y.7.V -.x.n./ &. .d.v.D ^ =.:.2.4.n.d.n. .W J.+XR.q.% t.",
"4 P.@.t.P M %.:.%.A z.N.4.-.-. .z.4.4.:.d.:.%.d.;.' U.4 '.G.7.< 4 P.@.t.P M %.:.%.A z.N.4.-.-. .z.4.4.:.d.:.%.d.;.' U.4 '.K.7.< 4 P.@.t.P M %.:.%.A z.N.4.-.-. .z.4.4.:.d.:.%.d.;.' U.4 '.G.7.< 4 P.@.t.P M %.:.%.A z.N.4.-.-. .z.4.4.:.d.:.%.d.;.' U.4 '.K.7.< ",
"* H +.T.i =.^ d.4.d.%.^ -.2.n n 2.d.=.d.:.d.b.-.4 T.] q.j.G.].a * H +.T.i =./ d.4.d.%./ -.2.n n 1.d.=.d.:.d.b.:.4 T.] q.j.G.{.a * H +.T.i =.^ d.4.d.%.^ -.2.n n 2.d.=.d.:.d.b.-.4 T.] q.j.G.].a * H +.T.i =./ d.4.d.%./ -.2.n n 1.d.=.d.:.d.b.:.4 T.] q.j.G.{.a ",
"$ 1 F l %.-.%.4.A z.4.3.1.t &.d.=.C 3.n.d.4.b.~ I.L.{ J 8.j.+XF.% 1 F l %.-.%.4.A z.4.3.2.t &.d.=.C 3.n.z.4.b.~ U.L.{ J 7.D.+XF.$ 1 F l %.-.%.4.A z.4.3.1.t &.d.=.C 3.n.d.4.b.~ I.L.{ J 8.j.+XF.% 1 F l %.-.%.4.A z.4.3.2.t &.d.=.C 3.n.z.4.b.~ U.L.{ J 7.D.+XF.",
"J o i =.%.%.z.-.4.3.%. .m n 8 M.2.4.=.%.3.b. .1 P 0 I L.7.j.P.}.J o i =.%. .z.:.i.3.%. .m n w M.2.4.=.%.3.b. .1 P 0 I J.8.j.P.}.J o i =.%.%.z.-.4.3.%. .m n 8 M.2.4.=.%.3.b. .1 P 0 I L.7.j.P.}.J o i =.%. .z.:.i.3.%. .m n w M.2.4.=.%.3.b. .1 P 0 I J.8.j.P.}.",
"t.  ^  .v.b.-.^ b.2.&.:.. ) b.B.2.) N.-.b.S.g a x r.7.r.j.y.y.`.t.  ^  .v.b.-./ b.2.&.:.. ) b.B.1.) N.-.b.S.g a x r.7.r.j.t.t.`.t.  ^  .v.b.-.^ b.2.&.:.. ) b.B.2.) N.-.b.S.g a x r.7.r.j.y.y.`.t.  ^  .v.b.-./ b.2.&.:.. ) b.B.1.) N.-.b.S.g a x r.7.r.j.t.t.`.",
"J n 1.2.m z.2.z.z.%.2.7.4 t B.Z.b.d.z.=.d.V.s 1 Y x q.' L 7.j.L.J n 1.2.m z.2.z.z.%.2.7.4 t B.S.b.d.z.-.d.B.s 2 Y x q.' L 7.j.L.J n 1.2.m z.2.z.z.%.2.7.4 t B.S.b.d.z.=.d.V.s 1 Y x q.' L 7.j.L.J n 1.2.m z.2.z.z.%.2.7.4 t B.S.b.d.z.-.d.B.s 2 Y x q.' L 7.j.L.",
"> -.%.:.b.d.) i.&.2.9.E.`.$ t %.&.Z.V 1.-.Z.T x F ' F.T.{ G.J.F.> :.%.:.b.d.) d.&.2.9.R.`.$ t %.&.Z.A 2.-.Z.T x F ' F.T.] H.J.G.> -.%.:.b.d.) i.&.2.9.E.`.$ s %.&.Z.V 1.-.Z.T x F ' F.T.{ G.J.F.> :.%.:.b.d.) d.&.2.9.R.`.$ t %.&.Z.A 2.-.Z.T x F ' F.T.] H.J.G.",
"^ =.:.2.4.n.d.n. .W J.+XR.q.> =.n.> !.M.3.D ] q.7.@.x I 5.+.t.5.^ =.:.2.4.n.d.n. .W J.+XR.q.> =.n.> Q.M.3.D ] q.7.@.x I 5.+.t.5.^ =.:.2.4.n.d.n. .W J.+XR.q.> =.n.> !.M.3.D ] q.7.@.x I 5.+.t.5.^ =.:.2.4.n.d.n. .W J.+XR.q.> =.n.> Q.M.3.D ] q.7.@.x I 5.+.t.5.",
"z.4.4.:.d.1.%.d.;.' U.4 '.G.7.^ -.m n.) n.c P t.j.{ t.p.D.t.5. .z.4.4.:.d.1.%.d.;.' U.4 '.G.7.^ -.m n.) n.c P t.p.{ t.y.D.t.5. .z.4.4.:.d.1.%.d.;.' U.4 '.G.7.^ -.m n.) n.c P t.j.{ t.p.D.t.5. .z.4.4.:.d.1.%.d.;.' U.4 '.G.7.^ -.m n.) n.c P t.p.{ t.y.D.t.5. .",
"2.z.=.d.:.d.b.:.4 T.] q.j.H.].a V =.^ B.s j.t.q.6.L.P r.5.@.n n 2.d.=.d.:.d.b.:.4 T.] q.j.H.{.a V =.^ B.s j.t.q.6.L.P w.5.@.n n 2.z.=.d.:.d.b.:.4 T.] q.j.H.].a V =.^ B.s j.t.q.6.L.P r.5.@.n n 2.d.=.d.:.d.b.:.4 T.] q.j.H.{.a V =.^ B.s j.t.q.6.L.P w.5.@.n n ",
"=.C 3.n.z.4.b.~ U.L.{ J 7.j.+XF.> m 1.M 8.{ 8.P.5.t.q.F.q.i &.d.=.C 3.n.z.4.b.~ U.L.{ J 7.D. XF.> m 2.M q.] 8.L.5.t.q.F.q.i &.d.=.C 3.n.z.4.b.~ U.L.{ J 7.j.+XF.> m 1.M 8.{ 8.P.5.t.q.F.q.i &.d.=.C 3.n.z.4.b.~ U.L.{ J 7.D. XF.> m 2.M q.] 8.L.5.t.q.F.q.i &.d.",
"2.4.&.%.3.b. .1 P 0 I L.7.j.P.[.J g r v 7.5.7.t.P.5.@.7.Y n 8 M.2.4.=.%.3.b. .1 P 0 I L.7.j.P.[.J g r v 6.5.7.t.P.6.@.6.P n w M.2.4.&.%.3.b. .1 P 0 I L.7.j.P.[.J g r v 7.5.7.t.P.5.@.7.Y n 8 M.2.4.=.%.3.b. .1 P 0 I L.7.j.P.[.J g r v 6.5.7.t.P.6.@.6.P n w M.",
"1.) N.-.b.S.g a x r.7.r.D.y.y._.t.  J ] t.J.q.6.t.q.q.{ . ) b.B.1.) N.-.b.S.g a x r.7.r.D.y.y._.t.  J ] t.J.q.6.t.q.q.{ . ) b.B.1.) N.-.b.S.g a x r.7.r.D.y.y._.t.  J ] t.J.q.6.t.q.q.{ . ) b.B.1.) N.-.b.S.g a x r.7.r.D.y.y._.t.  J ] t.J.q.6.t.q.q.{ . ) b.B.",
"b.i.z.-.d.V.g 1 Y x q.' L 7.j.L.J a x y.p 5.q.j.q.7.t.c.5 t B.S.b.d.z.-.d.V.s 1 Y x q.' L 7.j.L.J a x y.p 5.q.j.q.7.t.c.5 t B.S.b.i.z.-.d.V.g 1 Y x q.' L 7.j.L.J a x y.p 5.q.j.q.7.t.c.5 t B.S.b.d.z.-.d.V.s 1 Y x q.' L 7.j.L.J a x y.p 5.q.j.q.7.t.c.5 t B.S.",
"=.Z.V 2.-.Z.T x F ' F.T.] H.J.G.< 5.7.7.j.t.6.t.q.8.R (.m.@ t %.&.Z.V 1.-.Z.T x F ' F.T.] H.J.G.< @.7.7.j.t.7.t.q.q.R (.C.@ t %.=.Z.V 2.-.Z.T x F ' F.T.] H.J.G.< 5.7.7.j.t.6.t.q.8.R (.m.@ t %.&.Z.V 1.-.Z.T x F ' F.T.] H.J.G.< @.7.7.j.t.7.t.q.q.R (.C.@ t %.",
"n.> !.M.3.D ] q.7.@.x I 5.+.t.5.7.' q.@.+.L.7.w.r._ N.!.v.z.> =.n.> Q.M.3.D ] q.7.@.x I 5.+.t.5.7.' q.@.+.L.7.w.w._ N.!.v.z.> =.n.> !.M.3.D ] q.7.@.x I 5.+.t.5.7.' q.@.+.L.7.w.r._ N.!.v.z.> =.n.> Q.M.3.D ] q.7.@.x I 5.+.t.5.7.' q.@.+.L.7.w.w._ N.!.v.z.> =.",
"-.m n.) n.c P t.p.{ t.j.D.t.5.H r.P.j.q.5.r.7.j.[ 8 2.M.S./.2.^ -.m n.` n.c P t.j.{ t.p.D.t.5.H r.I.j.8.5.r.7.j.[ 8 2.M.S./.3.^ -.m n.) n.c P t.p.{ t.j.D.t.5.H r.P.j.q.5.r.7.j.[ 8 2.M.S./.2.^ -.m n.` n.c P t.j.{ t.p.D.t.5.H r.I.j.8.5.r.7.j.[ 8 2.M.S./.3.^ ",
"A =.^ B.s j.t.q.7.L.P r.5.@.P ' 8.{ @.5.q.q.q.G.v.N.-. .x.d.S.V A =.^ B.s p.t.q.7.P.P r.5.@.P ' 7.{ @.5.q.q.8.G.v.N.-. .x.d.S.V A =.^ B.s j.t.q.7.L.P r.5.@.P ' 8.{ @.5.q.q.q.G.v.N.-. .x.d.S.V A =.^ B.s p.t.q.7.P.P r.5.@.P ' 7.{ @.5.q.q.8.G.v.N.-. .x.d.S.V ",
"> m 2.M 8.{ 7.L.5.r.q.F.q.i x q.q.' t.6.j.q.r.M A 3.V 4.=.b.b.f., m 1.M 8.{ 7.L.5.t.q.F.q.i x q.q.' t.6.j.q.r.M A 3.V 4.=.b.b.a.> m 2.M 8.{ 7.L.5.r.q.F.q.i x q.q.' t.6.j.q.r.M A 3.V 4.=.b.b.f., m 1.M 8.{ 7.L.5.t.q.F.q.i x q.q.' t.6.j.q.r.M A 3.V 4.=.b.b.a.",
"-.g r v 6.5.7.y.P.5.@.6.Y J H y.{ t.{ } t.j.q.r Q.%./ 4.) 1.(.OX-.g r v 7.5.7.t.P.5.@.7.Y J H p.} t.{ { t.j.q.r Q.%./ 4.) 1.(.OX-.g r v 6.5.7.y.P.5.@.6.Y J H y.{ t.{ } t.j.q.r Q.%./ 4.) 1.(.OX-.g r v 7.5.7.t.P.5.@.7.Y J H p.} t.{ { t.j.q.r Q.%./ 4.) 1.(.OX",
"v.  J ] t.J.q.6.t.q.8.{ X d #.U.D.P G.r.O.'.4 n /  .N.N.3.d.Z b.v.  J ] t.J.q.6.t.q.q.{ X x #.U.D.P G.r.O.'.4 n / ` N.N.3.z.Z b.v.  J ] t.J.q.6.t.q.8.{ X d #.U.D.P G.r.O.'.4 n /  .N.N.3.d.Z b.v.  J ] t.J.q.6.t.q.q.{ X x #.U.D.P G.r.O.'.4 n / ` N.N.3.z.Z b.",
"t a x y.p 5.q.j.q.7.t.c.5 J D.J.J.j.j.t.J.'.F / %.m ) d.d.B.N.Q.t a x p.p 5.q.j.q.7.t.c.5 J D.J.J.j.j.t.J.'.F ) %.m ) d.d.B.N.Q.t a x y.p 5.q.j.q.7.t.c.5 J D.J.J.j.j.t.J.'.F / %.m ) d.d.B.N.Q.t a x p.p 5.q.j.q.7.t.c.5 J D.J.J.j.j.t.J.'.F ) %.m ) d.d.B.N.Q.",
"3 5.7.7.j.t.7.t.q.8.R (.n.o p 6.J T.{ P p.F.q m 4.Q.n %.m %.%.Z.3 5.7.7.j.t.6.t.q.q.R (.m.o p 6.J T.{ P j.D.q m 4.Q.n %.m ..%.Z.3 5.7.7.j.t.7.t.q.8.R (.n.o p 6.J T.{ P p.F.q m 4.Q.n %.m %.%.Z.3 5.7.7.j.t.6.t.q.q.R (.m.o p 6.J T.{ P j.D.q m 4.Q.n %.m ..%.Z.",
"7.' q.@.+.P.7.r.r._ N.!.v.d.< 5.G.< U.].j.F V  . .-.-.1.%.1.4.m 7.' q.@.+.L.7.r.r._ N.!.v.z.< 5.G.< T.].j.F A  . .-.-.1.%.:.4.m 7.' q.@.+.P.7.r.r._ N.!.v.d.< 5.G.< U.].j.F V  . .-.-.1.%.1.4.m 7.' q.@.+.L.7.r.r._ N.!.v.z.< 5.G.< T.].j.F A  . .-.-.1.%.:.4.m ",
"r.I.j.7.5.r.7.j.| 8 2.M.S./.2.F 7.x t.7.p.s / %.3.3.:.A %.E v.H t.I.j.8.5.r.7.j.[ 8 2.M.S./.2.F 7.x t.7.p.z / %.3.2.:.S %.E v.H r.I.j.7.5.r.7.j.| 8 2.M.S./.2.F 7.x t.7.p.s / %.3.3.:.A %.E v.H t.I.j.8.5.r.7.j.[ 8 2.M.S./.2.F 7.x t.7.p.z / %.3.2.:.S %.E v.H ",
"7.{ @.5.q.q.8.G.v.N.-. .x.d.S.V F @.{ T.7 =. .-.-.d.4.%.1.) P ' 7.{ @.5.q.q.7.G.v.N.-. .x.d.S.V F @.{ T.7 =.%.-.-.d.4.%.:.) P ' 7.{ @.5.q.q.8.G.v.N.-. .x.d.S.V F @.{ T.7 =. .-.-.d.4.%.1.) P ' 7.{ @.5.q.q.7.G.v.N.-. .x.d.S.V F @.{ T.7 =.%.-.-.d.4.%.:.) P ' ",
"q.' t.6.j.q.r.M A 3.V 4.=.n.b.d.< d t.c V :. .:./ :.:.3.Z w x q.q.' t.6.j.q.r.M A 3.V 4.=.b.b.a.< x t.c V :. .:./ :.:.3.Z 8 x q.q.' t.6.j.q.r.M A 3.V 4.=.n.b.d.< d t.c V :. .:./ :.:.3.Z w x q.q.' t.6.j.q.r.M A 3.V 4.=.b.b.a.< x t.c V :. .:./ :.:.3.Z 8 x q.",
"{ t.{ { t.j.q.r Q.%./ 4.) 1.(.OX-.x p g 3. .&.3.v.4.&.i.n J H p.+.y.{ { t.j.q.r Q.%./ 4.) 1.(.OX-.x p g 3. .%.3.v.4.&.4.n J H y.{ t.{ { t.j.q.r Q.%./ 4.) 1.(.OX-.x p g 3. .&.3.v.4.&.i.n J H p.+.y.{ { t.j.q.r Q.%./ 4.) 1.(.OX-.x p g 3. .%.3.v.4.&.4.n J H y.",
"D.Y G.r.O.'.0 n /  .B.N.3.z.Z b.v.  &.z.d. .3./ ) d.x.V X x #.U.D.P G.r.O.].0 n / ` B.N.3.d.Z b.v.  &.z.d. .3./ ) d.x.V X x #.U.D.Y G.r.O.'.0 n /  .B.N.3.z.Z b.v.  &.z.d. .3./ ) d.x.V X x #.U.D.P G.r.O.].0 n / ` B.N.3.d.Z b.v.  &.z.d. .3./ ) d.x.V X x #.U.",
"J.j.j.t.J.'.F ) %.m ) d.d.B.N.Q.t 5 V &.=.2.d.M.:. . .Y.6 J D.J.J.j.j.t.J.'.F ) %.m ) d.d.B.N.Q.t 5 V &.-.2.d.M.:. .` Y.6 J D.J.J.j.j.t.J.'.F ) %.m ) d.d.B.N.Q.t 5 V &.=.2.d.M.:. . .Y.6 J D.J.J.j.j.t.J.'.F ) %.m ) d.d.B.N.Q.t 5 V &.-.2.d.M.:. .` Y.6 J D.J.",
"J T.{ P j.F.q m i.Q.m %.m %.%.Z.> ^ d.-.) 4./ ) v.%.9.L.`.# p 6.J T.{ P j.F.q n i.Q.n %.m ..%.Z.; ^ d.-.) 4.X.) v.%.9.J._.# p 6.J T.{ P j.F.q m i.Q.m %.m %.%.Z.> ^ d.-.) 4./ ) v.%.9.L.`.# p 6.J T.{ P j.F.q n i.Q.n %.m ..%.Z.; ^ d.-.) 4.X.) v.%.9.J._.# p 6.",
"G.< U.].j.F A  . .-.-.1.%.:.4.n ^ %.-.=.-.4.z.d. .b _.+XD.r.< 5.G.< T.].j.F V `  .-.-.1.%.1.4.m ^ %.=.=.-.4.z.d.` b _.@XD.r.< 5.G.< U.].j.F A  . .-.-.1.%.:.4.n ^ %.-.=.-.4.z.d. .b _.+XD.r.< 5.G.< T.].j.F V `  .-.-.1.%.1.4.m ^ %.=.=.-.4.z.d.` b _.@XD.r.< 5.",
"7.x t.7.p.s / %.3.3.:.A %.E v.^ =.4.x. .%.^ E b.;.J ' U.#X{.] F 7.x t.7.p.s / %.3.3.:.S %.E v.^ =.4.x. .%.^ E b.;.J ' U.#X{.] F 7.x t.7.p.s / %.3.3.:.A %.E v.^ =.4.x. .%.^ E b.;.J ' U.#X{.] F 7.x t.7.p.s / %.3.3.:.S %.E v.^ =.4.x. .%.^ E b.;.J ' U.#X{.] F ",
"F @.{ T.7 =.%.-.-.d.4.%.:.) ` 3.b.:.:.2.-.:.2. .! T.q.w.7.U.{.H F @.{ T.7 =.%.-.-.d.4.%.:.) ` 3.b.:.:.2.-.:.2. .! T.q.w.7.U.[.H F @.{ T.7 =.%.-.-.d.4.%.:.) ` 3.b.:.:.2.-.:.2. .! T.q.w.7.U.{.H F @.{ T.7 =.%.-.-.d.4.%.:.) ` 3.b.:.:.2.-.:.2. .! T.q.w.7.U.[.H ",
"< d t.c V :. .:./ :.:.3.Z 8 e Z 3.3. .D 1.S b.T 7.+.H J.8.#.].0.< a t.c V :. .:./ :.:.3.Z 8 e Z 3.3. .D 2.S b.T 7.+.G J.7.#.].0.< d t.c V :. .:./ :.:.3.Z 8 e Z 3.3. .D 1.S b.T 7.+.H J.8.#.].0.< a t.c V :. .:./ :.:.3.Z 8 e Z 3.3. .D 2.S b.T 7.+.G J.7.#.].0.",
"8.x p g 2. .%.3.v.4.&.i.n &.z.3.2.3.) 3. .4. .: '.] q.@.6.r._.#X8.x p g 3. .&.3.v.4.&.4.n &.z.3.2.3.) 3.` 4. .: '.] w.@.6.r._.#X8.x p g 2. .%.3.v.4.&.i.n &.z.3.2.3.) 3. .4. .: '.] q.@.6.r._.#X8.x p g 3. .&.3.v.4.&.4.n &.z.3.2.3.) 3.` 4. .: '.] w.@.6.r._.#X",
"j.  &.z.d.` 3./ ) d.x.V . & ; 2.B.-.2.b.D N.t F v H T.U.] F.x j.j.  &.z.d. .3./ ) d.x.V   & ; 2.V.-.2.b.D N.t F v H T.U.! F.x j.j.  &.z.d.` 3./ ) d.x.V . & ; 2.B.-.2.b.D N.t F v H T.U.] F.x j.j.  &.z.d. .3./ ) d.x.V   & ; 2.V.-.2.b.D N.t F v H T.U.! F.x j.",
"i 5 V %.-.2.d.M.:. . .Y.6 . 5 m 2.d. .z.&.^.5 { 5.Y ' F.y.L.T.{.p 5 V %.-.2.d.M.:. . .Y.6 . 5 m 2.d. .z.=.^.5 { 5.' ' D.y.P.T.{.i 5 V %.-.2.d.M.:. . .Y.6 . 5 m 2.d. .z.&.^.5 { 5.Y ' F.y.L.T.{.p 5 V %.-.2.d.M.:. . .Y.6 . 5 m 2.d. .z.=.^.5 { 5.' ' D.y.P.T.{.",
"< ^ d.-.) 4.X.) v.%.9.L._.$ :.&.3.%.z.N.4.^.t p ! T.J L ' P 6.J.< ^ d.-.) 4.X.) v.%.9.L._.$ :.&.3.%.z.N.4.^.t q ! T.J L ' P 6.J.< ^ d.-.) 4.X.) v.%.9.L._.$ :.&.3.%.z.N.4.^.t p ! T.J L ' P 6.J.< ^ d.-.) 4.X.) v.%.9.L._.$ :.&.3.%.z.N.4.^.t q ! T.J L ' P 6.J.",
"^ %.-.=.-.4.z.d. .b R.@XD.r.. o ^ Z 3.:./ ^ J @.7.7.6.7.7.j.j.F ^ %.-.=.-.4.z.d. .b R.@XD.r.. o / Z 3.:./ ^ H @.7.7.6.7.7.j.j.F ^ %.-.=.-.4.z.d. .b R.@XD.r.. o ^ Z 3.:./ ^ J @.7.7.6.7.7.j.j.F ^ %.-.=.-.4.z.d. .b R.@XD.r.. o / Z 3.:./ ^ H @.7.7.6.7.7.j.j.F ",
"=.4.x. .%.^ E b.;.J ' T.#X{.] m B.3.S.D n.f H x t.G.I 7.H I H.^ =.4.x. .%.^ E b.;.J ' T.#X{.] C N.3.S.D b.f H x t.G.I 7.H I H.^ =.4.x. .%.^ E b.;.J ' T.#X{.] m B.3.S.D n.f H x t.G.I 7.H I H.^ =.4.x. .%.^ E b.;.J ' T.#X{.] C N.3.S.D b.f H x t.G.I 7.H I H.^ ",
"b.:.:.2.-.:.2. .! T.q.r.7.U.[.H t 3.r /.s ' 7.7.{ 8.r.8.j.r.` 3.b.:.:.2.-.:.2.` ! T.q.r.7.U.{.H h 3.r /.z ' 8.7.{ 7.t.7.j.r.` 3.b.:.:.2.-.:.2. .! T.q.r.7.U.[.H t 3.r /.s ' 7.7.{ 8.r.8.j.r.` 3.b.:.:.2.-.:.2.` ! T.q.r.7.U.{.H h 3.r /.z ' 8.7.{ 7.t.7.j.r.` 3.",
"3.3. .D 2.S b.T 7.+.H J.7.#.].0.+ > :.7 ] r.a G.5.{ I H x a e Z 4.3. .D 2.S b.T 7.+.H J.8.#.].7.+ > :.7 ] r.a G.5.{ I H x a e Z 3.3. .D 2.S b.T 7.+.H J.7.#.].0.+ > :.7 ] r.a G.5.{ I H x a e Z 4.3. .D 2.S b.T 7.+.H J.8.#.].7.+ > :.7 ] r.a G.5.{ I H x a e Z ",
"2.3.) 3. .4. .: '.] w.@.5.r._.#X8.> $ 7.P t.6.6.5.w.@.t.F &.z.3.2.3.) 3. .4. .: '.] q.@.5.r._.#X8.> $ 7.P t.6.6.5.w.@.t.F &.z.3.2.3.) 3. .4. .: '.] w.@.5.r._.#X8.> $ 7.P t.6.6.5.w.@.t.F &.z.3.2.3.) 3. .4. .: '.] q.@.5.r._.#X8.> $ 7.P t.6.6.5.w.@.t.F &.z.3.",
"B.-.2.v.D N.g F v H T.U.] F.F j.j.  p F.P.v G.! P ! { p . & ; 2.V.-.2.b.D N.s F v H T.U.] F.x j.j.  p F.P.v H.! P ! { i . & ; 2.B.-.2.v.D N.g F v H T.U.] F.F j.j.  p F.P.v G.! P ! { p . & ; 2.V.-.2.b.D N.s F v H T.U.] F.x j.j.  p F.P.v H.! P ! { i . & ; 2.",
"2.d. .z.=.^.5 { 5.' ' D.y.P.T.{.p < ' ' 8.J.r.q.q.I ] i.> . 8 m 3.d. .z.&.^.5 { 5.' ' D.y.L.T.{.p < ' ' q.J.r.8.q.I ] i.> . 8 m 2.d. .z.=.^.5 { 5.' ' D.y.P.T.{.p < ' ' 8.J.r.q.q.I ] i.> . 8 m 3.d. .z.&.^.5 { 5.' ' D.y.L.T.{.p < ' ' q.J.r.8.q.I ] i.> . 8 m ",
"3.%.z.N.4.^.y i I T.J L ' P 6.L.< p r.{ @.P @.@.r.7.R oXZ.@ :.&.3.%.z.N.4.^.t p I T.J L ' P 6.J.< p r.{ @.P @.+.r.7.R oXZ.@ :.&.3.%.z.N.4.^.y i I T.J L ' P 6.L.< p r.{ @.P @.@.r.7.R oXZ.@ :.&.3.%.z.N.4.^.t p I T.J L ' P 6.J.< p r.{ @.P @.+.r.7.R oXZ.@ :.&.",
"^ Z 3.:./ ^ J @.7.7.6.7.7.j.j.F P @.t.{ y.q.} D.G T !.n.OX2.. o / Z 3.:./ ^ H @.7.7.6.7.7.j.j.F J @.t.{ y.q.@.D.G T !.n.OX2.. o ^ Z 3.:./ ^ J @.7.7.6.7.7.j.j.F P @.t.{ y.q.} D.G T !.n.OX2.. o / Z 3.:./ ^ H @.7.7.6.7.7.j.j.F J @.t.{ y.q.@.D.G T !.n.OX2.. o ",
"N.3.S.D b.s H x t.G.I 7.H I J.] 7.q.U @.7.5.7.t.[ N.V N.B.|.2.C N.3.S.D b.f H x t.G.I 7.H I H.] 7.q.L @.7.5.7.t.[ N.V N.B.|.2.C N.3.S.D b.s H x t.G.I 7.H I J.] 7.q.U @.7.5.7.t.[ N.V N.B.|.2.C N.3.S.D b.f H x t.G.I 7.H I H.] 7.q.L @.7.5.7.t.[ N.V N.B.|.2.C ",
"t 3.r /.z ' 7.7.{ 7.t.7.j.r.] w.7.q.7.7.I { I H m g n./ 3.z.Q.r t 3.r /.z ' 7.7.{ 8.r.7.j.r.] w.6.q.7.7.I { I H m g n./ 3.z.Q.r t 3.r /.z ' 7.7.{ 7.t.7.j.r.] w.7.q.7.7.I { I H m g n./ 3.z.Q.r t 3.r /.z ' 7.7.{ 8.r.7.j.r.] w.6.q.7.7.I { I H m g n./ 3.z.Q.r ",
"$ > :.7 ] r.a G.5.+.I H x a x w.@.P H w.L.r.5.W n n.) n.N.2.S.M.$ > :.7 ] r.a G.5.{ I H x a x w.@.Y G w.J.t.5.W n n.) n.N.1.S.M.$ > :.7 ] r.a G.5.+.I H x a x w.@.P H w.L.r.5.W n n.) n.N.2.S.M.$ > :.7 ] r.a G.5.{ I H x a x w.@.Y G w.J.t.5.W n n.) n.N.1.S.M.",
"V > $ 7.P t.6.6.5.q.@.t.F q.G.{ r.G.x o.H J.@.t &.N.-.b.t ~.b.Q.V > $ 7.P t.6.6.5.w.@.t.F q.G.{ r.G.x o.H J.@.t &.N.-.b.t ~.b.Q.V > $ 7.P t.6.6.5.q.@.t.F q.G.{ r.G.x o.H J.@.t &.N.-.b.t ~.b.Q.V > $ 7.P t.6.6.5.w.@.t.F q.G.{ r.G.x o.H J.@.t &.N.-.b.t ~.b.Q.",
"=.  p F.P.v G.! P ' { p O * 6 q.R.L t.L.w.r.F n &.d.1.A :.3.:.|.&.  p F.P.v G.! P ' { p O * 6 q.R.L t.J.w.t.F n &.d.1.A :.3.:.|.=.  p F.P.v G.! P ' { p O * 6 q.R.L t.L.w.r.F n &.d.1.A :.3.:.|.&.  p F.P.v G.! P ' { p O * 6 q.R.L t.J.w.t.F n &.d.1.A :.3.:.|.",
"m < ' ' q.H.r.8.q.I ] i.> X 4 x P.D.7.J y._.0 g -.) =.-.i.z.n.x.m < ' ' 8.J.r.8.q.I ] i.> X 6 x P.D.7.J y._.0 g -.) -.-.i.z.n.x.m < ' ' q.H.r.8.q.I ] i.> X 4 x P.D.7.J y._.0 g -.) =.-.i.z.n.x.m < ' ' 8.J.r.8.q.I ] i.> X 6 x P.D.7.J y._.0 g -.) -.-.i.z.n.x.",
"3 p r.{ @.! @.@.r.8.V oXZ.* j.{ 7.{ 6.j.7.P.~ ) :.2.b.4.-./ b.N.3 p r.{ @.! @.+.r.7.R oXZ.* j.{ 7.{ 6.j.7.P.~ ) 1.2.b.4.-.) b.N.3 p r.{ @.! @.@.r.8.V oXZ.* j.{ 7.{ 6.j.7.P.~ ) :.2.b.4.-./ b.N.3 p r.{ @.! @.+.r.7.R oXZ.* j.{ 7.{ 6.j.7.P.~ ) 1.2.b.4.-.) b.N.",
"P 5.t.{ y.q.@.D.G T Q.n.OX2.. $ 5.7.! q.F @., V ) 3.n.4.i.z.d.` J 5.t.{ y.q.+.D.G T !.n.OX2.. $ 5.7.! 8.F @.5 V ) 3.n.4.i.z.d.` P 5.t.{ y.q.@.D.G T Q.n.OX2.. $ 5.7.! q.F @., V ) 3.n.4.i.z.d.` J 5.t.{ y.q.+.D.G T !.n.OX2.. $ 5.7.! 8.F @.5 V ) 3.n.4.i.z.d.` ",
"7.8.L @.7.5.7.t.[ N.V N.B.|.2.J w.@.J.] 7.R -.2.-.x.&.-.A b.1.] 7.q.L @.7.5.7.t.[ B.V N.B.|.2.J w.@.J.] 7.R -.2.-.x.&.:.A b.1.] 7.8.L @.7.5.7.t.[ N.V N.B.|.2.J w.@.J.] 7.R -.2.-.x.&.-.A b.1.] 7.q.L @.7.5.7.t.[ B.V N.B.|.2.J w.@.J.] 7.R -.2.-.x.&.:.A b.1.] ",
"6.q.7.7.I { I H m g n./ 3.z.Q.r F j.< e.b  .d.%.^ 3.2.3.4.:.] w.6.q.7.7.I { I H m g n./ 3.z.Q.r F j.< e.B  .d. .D 2.2.3.3.:.] w.6.q.7.7.I { I H m g n./ 3.z.Q.r F j.< e.b  .d.%.^ 3.2.3.4.:.] w.6.q.7.7.I { I H m g n./ 3.z.Q.r F j.< e.B  .d. .D 2.2.3.3.:.] w.",
"+.P U w.J.r.5.R n n.) n.N.2.S.N.$ * 5.3 ) z.1.2.3.3.d.^ 2., x w.@.P H w.J.t.5.R n n.) n.N.2.S.N.$ * 5.3 ) z.1.2.3.2.d./ 2.5 x w.+.P U w.J.r.5.R n n.) n.N.2.S.N.$ * 5.3 ) z.1.2.3.3.d.^ 2., x w.@.P H w.J.t.5.R n n.) n.N.2.S.N.$ * 5.3 ) z.1.2.3.2.d./ 2.5 x w.",
"r.G.x o.H J.@.t &.N.-.b.t ~.b.W.V * @ A :.:. ./ -.2.2.3.C q.H.{ r.G.x o.H J.@.t &.N.-.b.t ~.b.Q.V * $ A :.:. ./ -.2.2.3.C q.H.{ r.G.x o.H J.@.t &.N.-.b.t ~.b.W.V * @ A :.:. ./ -.2.2.3.C q.H.{ r.G.x o.H J.@.t &.N.-.b.t ~.b.Q.V * $ A :.:. ./ -.2.2.3.C q.H.{ ",
"R.L t.L.w.t.F n &.d.1.A :.3.:.|.=.  r -.4.1.d.:.4.3.&.-.  * 6 q.R.L t.L.w.t.F n &.d.1.A :.3.:.|.=.  r -.4.1.d.:.4.3.&.-.X * 6 q.R.L t.L.w.t.F n &.d.1.A :.3.:.|.=.  r -.4.1.d.:.4.3.&.-.  * 6 q.R.L t.L.w.t.F n &.d.1.A :.3.:.|.=.  r -.4.1.d.:.4.3.&.-.X * 6 q.",
"P.F.7.J y._.0 n -.) =.-.4.z.n.x.m t x.i.:.-.^ ) ` 3.i.L.1 X 6 x P.D.7.J y._.0 n -.) =.-.4.z.n.x.m t x.i.:.-.^ ) ` 3.4.L.< X 6 x P.F.7.J y._.0 n -.) =.-.4.z.n.x.m t x.i.:.-.^ ) ` 3.i.L.1 X 6 x P.D.7.J y._.0 n -.) =.-.4.z.n.x.m t x.i.:.-.^ ) ` 3.4.L.< X 6 x ",
"7.{ 6.j.7.I.~ ) 1.2.b.4.-./ b.N.> ) ) 3.&.:.:.d.i.i.b g.0.* j.{ 7.{ 6.j.7.I.~ ) 1.2.b.4.-.) b.N.> ) ) 3.&.:.:.d.d.i.b l.0.* j.{ 7.{ 6.j.7.I.~ ) 1.2.b.4.-./ b.N.> ) ) 3.&.:.:.d.i.i.b g.0.* j.{ 7.{ 6.j.7.I.~ ) 1.2.b.4.-.) b.N.> ) ) 3.&.:.:.d.d.i.b l.0.* j.{ ",
"@.7.! 8.F @.5 V ) 3.n.4.d.z.d.` -.3.d.4.4.:.4. .%.b @X@._.D.. $ @.7.! q.F @.5 V ) 3.n.4.i.z.d.` =.3.d.4.4.:.4. .%.b @X5._.D.. $ @.7.! 8.F @.5 V ) 3.n.4.d.z.d.` -.3.d.4.4.:.4. .%.b @X@._.D.. $ @.7.! q.F @.5 V ) 3.n.4.i.z.d.` =.3.d.4.4.:.4. .%.b @X5._.D.. $ ",
"w.@.J.] 7.R -.2.-.x.=.-.A b.2. .4. .b.4.:.d.n.3.( t.a I.] $X7.J w.@.J.] 7.R -.2.-.x.=.-.A b.2. .4. .b.4.:.d.n.3.( t.a I.] $X7.J w.@.J.] 7.R -.2.-.x.=.-.A b.2. .4. .b.4.:.d.n.3.( t.a I.] $X7.J w.@.J.] 7.R -.2.-.x.=.-.A b.2. .4. .b.4.:.d.n.3.( t.a I.] $X7.J ",
"F j.< e.K  .d.%.D 2.2.3.4.:.A 3.^ -.-.3.d.-.n. .l ' ! F ! t.U.H F j.< e.b  .d. .D 2.2.3.3.:.A 3.^ -.-.3.d.-.n. .x ' ! F ! t.T.H F j.< e.K  .d.%.D 2.2.3.4.:.A 3.^ -.-.3.d.-.n. .l ' ! F ! t.U.H F j.< e.b  .d. .D 2.2.3.3.:.A 3.^ -.-.3.d.-.n. .x ' ! F ! t.T.H ",
"# * 6.3 ) x.2.2.3.3.d./ 2.5 t z.3.-.z.2.z.n.2.b a j.u.j.L.] e.0.# * 5.3 ) z.2.2.3.2.d./ 2.5 t z.3.-.z.1.z.n.1.b a j.w.j.L.] e.0.# * 6.3 ) x.2.2.3.3.d./ 2.5 t z.3.-.z.2.z.n.2.b a j.u.j.L.] e.0.# * 5.3 ) z.2.2.3.2.d./ 2.5 t z.3.-.z.1.z.n.1.b a j.w.j.L.] e.0.",
"] * $ A :.:. ./ -.2.2.3.C n z.V =.3.C  .-.N.3.a O.@.I J.a 0.T.g.] * $ A :.:. ./ -.2.2.3.V n z.V =.3.C  .-.N.4.a O.@.P H.a 0.T.g.] * $ A :.:. ./ -.2.2.3.C n z.V =.3.C  .-.N.3.a O.@.I J.a 0.T.g.] * $ A :.:. ./ -.2.2.3.V n z.V =.3.C  .-.N.4.a O.@.P H.a 0.T.g.",
"F   r -.4.1.d.:.i.3.%.-.  V 4.S.m 4.` v.&.N.t H ] r.q.x @.8.t.[.F   e -.4.1.d.:.i.3.%.-.  V 4.S.n 3. .v.&.N.t H ] r.q.x @.7.t.[.F   r -.4.1.d.:.i.3.%.-.  V 4.S.m 4.` v.&.N.t H ] r.q.x @.8.t.[.F   e -.4.1.d.:.i.3.%.-.  V 4.S.n 3. .v.&.N.t H ] r.q.x @.7.t.[.",
"H t x.d.:.-.^ ) ) 3.4.L.< m v.4.%. .2. .A S.z J 5.x w.8.G J.P D.H t x.d.:.-./ ) ` 3.4.L.< m v.4.%.X.2. .A S.s J 5.x w.7.F J.P D.H t x.d.:.-.^ ) ) 3.4.L.< m v.4.%. .2. .A S.z J 5.x w.8.G J.P D.H t x.d.:.-./ ) ` 3.4.L.< m v.4.%.X.2. .A S.s J 5.x w.7.F J.P D.",
"> ) / 3.&.:.:.d.d.d.b g.0.. A D Z.t Z.:.Z.4.B j { ] 7.7.j.5.P.t.> ) / 3.=.:.:.d.i.4.b k.0.. A D Z.t Z.:.Z.4.B l { ] 7.7.j.5.P.t.> ) / 3.&.:.:.d.d.d.b g.0.. A D Z.t Z.:.Z.4.B j { ] 7.7.j.5.P.t.> ) / 3.=.:.:.d.i.4.b k.0.. A D Z.t Z.:.Z.4.B l { ] 7.7.j.5.P.t.",
"=.3.d.4.4.:.4. .%.b @X5._.F.e n n.3. .=..X:.a { ' 7.G.@.L J I q.-.3.d.4.4.:.4. .%.b @X@._.D.e n n.2. .=..X1.a { ' 7.G.@.L J I q.=.3.d.4.4.:.4. .%.b @X5._.F.e n n.3. .=..X:.a { ' 7.G.@.L J I q.-.3.d.4.4.:.4. .%.b @X@._.D.e n n.2. .=..X1.a { ' 7.G.@.L J I q.",
"4. .b.4.:.d.n.3.( t.a I.] #X7.r &.b.t d.n c x ] { 7.H F.] h.r. .4. .b.4.:.d.n.3.( t.a P.] #X7.t &.b.t d.n c k ] { 7.H F.] p.r. .4. .b.4.:.d.n.3.( t.a I.] #X7.r &.b.t d.n c x ] { 7.H F.] h.r. .4. .b.4.:.d.n.3.( t.a P.] #X7.t &.b.t d.n c k ] { 7.H F.] p.r. .",
"^ =.-.3.d.-.n. .l ' ' F ! t.T.H @ 2.Q.1.s 7.D.D.P 7.@.P 5.a A 3.^ =.-.3.d.-.n. .x ' ! F ! t.U.H @ 2.Q.1.s 7.D.D.P 7.@.P 5.a A 3.^ =.-.3.d.-.n. .l ' ' F ! t.T.H @ 2.Q.1.s 7.D.D.P 7.@.P 5.a A 3.^ =.-.3.d.-.n. .x ' ! F ! t.U.H @ 2.Q.1.s 7.D.D.P 7.@.P 5.a A 3.",
"3.-.z.1.z.n.2.b a j.w.j.L.] e.0.# w d.( p G G q.j.H p.L { 5 t z.3.-.z.1.z.n.2.K a j.w.j.L.] e.0.# w d.( p G G q.j.H y.L } 5 t z.3.-.z.1.z.n.2.b a j.w.j.L.] e.0.# w d.( p G G q.j.H p.L { 5 t z.3.-.z.1.z.n.2.K a j.w.j.L.] e.0.# w d.( p G G q.j.H y.L } 5 t z.",
"=.3.C  .-.N.3.a O.@.I H.a 0.T.g.] @ ^ P ] p.r.+.r.q.5.r.4 n z.V =.3.C  .:.N.3.a O.@.I J.a 0.T.g.] @ ^ P { p.r.{ r.q.5.r.4 n z.V =.3.C  .-.N.3.a O.@.I H.a 0.T.g.] @ ^ P ] p.r.+.r.q.5.r.4 n z.V =.3.C  .:.N.3.a O.@.I J.a 0.T.g.] @ ^ P { p.r.{ r.q.5.r.4 n z.V ",
"m 4. .x.&.N.t H ] r.q.x @.8.t.[.F   a y.7.F H.j.H j.G P   C 4.Z.m 4. .v.&.N.t H ] r.q.x @.8.t.[.F   a y.7.F H.j.G j.G P   V 4.Z.m 4. .x.&.N.t H ] r.q.x @.8.t.[.F   a y.7.F H.j.H j.G P   C 4.Z.m 4. .v.&.N.t H ] r.q.x @.8.t.[.F   a y.7.F H.j.G j.G P   V 4.Z."
};
