/* XPM */
static char *_27d235a899148f7b5243ef21fcad474YsHgV6hKnG7QZbvK[] = {
/* columns rows colors chars-per-pixel */
"512 512 256 2 ",
"   c #1A0806",
".  c #100A0B",
"X  c #220B07",
"o  c #250D09",
"O  c #2A0E09",
"+  c #2A0806",
"@  c #2C120C",
"#  c #28150A",
"$  c #33140D",
"%  c #3B150D",
"&  c #341B0D",
"*  c #3B1B0E",
"=  c #311B07",
"-  c #2C1513",
";  c #2D1A1C",
":  c #281716",
">  c #331611",
",  c #341A13",
"<  c #3C1C13",
"1  c #341C1C",
"2  c #3B1E1B",
"3  c #3B1611",
"4  c #370C08",
"5  c #3D2115",
"6  c #3C221C",
"7  c #36211B",
"8  c #3B210E",
"9  c #2B1D23",
"0  c #331E21",
"q  c #391F21",
"w  c #2D2229",
"e  c #342125",
"r  c #3B2324",
"t  c #34242B",
"y  c #3B262B",
"u  c #3C292D",
"i  c #392929",
"p  c #2E2839",
"a  c #342632",
"s  c #352934",
"d  c #3C2B34",
"f  c #352C3C",
"g  c #3B2D3B",
"h  c #392731",
"j  c #3D313D",
"k  c #3C3137",
"l  c #3A332D",
"z  c #1D1922",
"x  c #580D08",
"c  c #43150D",
"v  c #4C190E",
"b  c #49160D",
"n  c #541A0E",
"m  c #5C1A0E",
"M  c #58140C",
"N  c #431D13",
"B  c #4B1C13",
"V  c #461A17",
"C  c #541C12",
"Z  c #5B1C12",
"A  c #581717",
"S  c #4A0D0A",
"D  c #660C09",
"F  c #631B0E",
"G  c #6B1B0D",
"H  c #66140C",
"J  c #771A0C",
"K  c #631C12",
"L  c #6B1D12",
"P  c #661816",
"I  c #761C13",
"U  c #730D09",
"Y  c #442215",
"T  c #4B2315",
"R  c #44241B",
"E  c #4B251A",
"W  c #4C2A1C",
"Q  c #46291B",
"!  c #532416",
"~  c #53251A",
"^  c #542B1C",
"/  c #5B2C1C",
"(  c #5B2317",
")  c #5C311E",
"_  c #56311E",
"`  c #48280F",
"'  c #672619",
"]  c #772518",
"[  c #63311E",
"{  c #6A331E",
"}  c #772814",
"|  c #432523",
" . c #442A24",
".. c #4B2B24",
"X. c #422629",
"o. c #432A2C",
"O. c #4B2C2B",
"+. c #4A2623",
"@. c #532D22",
"#. c #572B26",
"$. c #4C322D",
"%. c #4A3228",
"&. c #553223",
"*. c #5C3323",
"=. c #53332C",
"-. c #5B382B",
";. c #432D33",
":. c #4A2E32",
">. c #412E39",
",. c #482C36",
"<. c #453135",
"1. c #4B3334",
"2. c #43333B",
"3. c #4A353B",
"4. c #4D393C",
"5. c #4C3935",
"6. c #523533",
"7. c #543A35",
"8. c #5B3C34",
"9. c #533B3C",
"0. c #5A3D3B",
"q. c #543637",
"w. c #552D31",
"e. c #682924",
"r. c #772B23",
"t. c #633523",
"y. c #6B3522",
"u. c #643925",
"i. c #6B3A25",
"p. c #633C2B",
"a. c #6B3D2A",
"s. c #66352A",
"d. c #753926",
"f. c #643B34",
"g. c #753734",
"h. c #551D22",
"j. c #715308",
"k. c #5C423C",
"l. c #5A4439",
"z. c #4E4437",
"x. c #6B412C",
"c. c #73432C",
"v. c #7B452B",
"b. c #63443C",
"n. c #694638",
"m. c #764A35",
"M. c #79513B",
"N. c #746204",
"B. c #2C2C43",
"V. c #262B47",
"C. c #332D42",
"Z. c #392F41",
"A. c #3C3242",
"S. c #363144",
"D. c #34364F",
"F. c #1D2848",
"G. c #433541",
"H. c #4B3942",
"J. c #543D41",
"K. c #433648",
"L. c #623F40",
"P. c #5B4342",
"I. c #55494F",
"U. c #6C4B42",
"Y. c #644842",
"T. c #724D43",
"R. c #6A5547",
"E. c #765748",
"W. c #745C52",
"Q. c #7A6555",
"!. c #786150",
"~. c #7C7162",
"^. c #3D4736",
"/. c #871A0C",
"(. c #97190B",
"). c #871C13",
"_. c #93150E",
"`. c #B81B13",
"'. c #AD170E",
"]. c #872517",
"[. c #972617",
"{. c #8E2612",
"}. c #A72718",
"|. c #B82719",
" X c #AE2A13",
".X c #882B22",
"XX c #972B22",
"oX c #873627",
"OX c #983528",
"+X c #903C31",
"@X c #A72C24",
"#X c #A83528",
"$X c #B83529",
"%X c #B53127",
"&X c #D7180D",
"*X c #C81B14",
"=X c #D71C13",
"-X c #C9160C",
";X c #E71C14",
":X c #F2180F",
">X c #C82719",
",X c #D72519",
"<X c #CF3119",
"1X c #E72519",
"2X c #F42A14",
"3X c #C73529",
"4X c #D13227",
"5X c #EC3128",
"6X c #907009",
"7X c #AE7209",
"8X c #86482C",
"9X c #844B33",
"0X c #875438",
"qX c #965133",
"wX c #AE4C31",
"eX c #A45F23",
"rX c #D0720B",
"tX c #CC4630",
"yX c #E45B11",
"uX c #855A47",
"iX c #8F5947",
"pX c #846959",
"aX c #8E6851",
"sX c #887766",
"dX c #957A6A",
"fX c #8A7063",
"gX c #B16C53",
"hX c #D46B5A",
"jX c #B09104",
"kX c #B7AD01",
"lX c #9E8A0B",
"zX c #D19402",
"xX c #EB9302",
"cX c #C8A800",
"vX c #D8A800",
"bX c #C7B900",
"nX c #D7B800",
"mX c #CEAC15",
"MX c #E7A800",
"NX c #E7B700",
"BX c #F4B001",
"VX c #D68D25",
"CX c #CBC600",
"ZX c #D6C800",
"AX c #D8D600",
"SX c #CFD100",
"DX c #E6C800",
"FX c #EBD300",
"GX c #E4E500",
"HX c #DEE100",
"JX c #978473",
"KX c #A88A79",
"LX c #CA8775",
"PX c #B19784",
"IX c #B79E8D",
"UX c #CD9483",
/* pixels */
"7 1 . o : W W ..*.W W Q n.-.&.&...-.x.-.&.-.W W W &.-.-.l.8.8.-.n.p.-.M.p.x.-.-.x.m.E.n.n.x.x.x.x.*.i.t.u.i.u.x.i.x.M.c.c.c.c.i.c.x.c.u.c.i.u.i.x.i.a.i.c.i.a.c.v.c.y.i.v.c.a.c.8Xv.9Xd.c.v.v.c.c.x.d.i.c.8Xi.9X{ *.y./ i.y.) a.i.{ [ d.{ [ ) ^ x.i.a.i.v.8Xc.d.c.n.v.x.E.iXM.E.M.n.E.M.E.M.E.M.E.M.m.c.t.m.n.a.x.m.M.m.m.x.x.m.x.T.M.n.M.x.M.uXm.x.n.M.m.m.M.c.x.u.a.c.t.u.u.d.) a.c.y.t.) x.c.{ t.y.8X{ [ ) *.M.m.c.) x.x.u.t.u.y.t.i.u.x./ ^ *.i.t.u.u.p.m.u.p.x.c.T &.a.t.x.m.9X*.R n.M.&._ &.p.W *.*.u.^ *.u.^ ^ W ) T ) W c.u.iX_ u.&.^ &.*.x.i.x.p.a.*.) ) Q ^ W ^ ) t./ t.u.*.i.*.p.x.W ..^ _ -.&.*.p.i.W u.t.&.-._ n.*.^ Q &.n.*.W &.&.&.Q Q 5 Y W Q &.T &.&.&.W W W ^ *.t.W ^ u.i.W -.W ^ W ^ @.@.W ^ E E Q ^ &.t.^ W p.t./ ) x.x.*.^ *.^ Q *.W ^ &.^ *.-.W W ^ Y &._ W _ _ ^ &.&.p.-.m.-.&.&.p.x.M.x.*.^ W x.t.u.u.&.&.p.x.M.n.m.x.u.n.m.x.p.-.m.m.i.u.x.u.x.x.*.-.-.x.p.*.x.i.W p.c.^ *.i.*.t.^ W u.^ &.^ *.^ ^ &.a.^ ^ W *.T Y < E T W E T W &._ ^ ^ T R Y T ^ W Q u.Y 5 5 W ^ Y W W Y ..^ ^ Y ^ W ^ R ^ Y , ^ ^ ^ i.W / t.^ ^ T Y ^ * ) T E Y ^ ~ ",
":   . . ..R 5 &.Y Y 6 %.W Q ..W ..&.-.x.p._ _ W &.-.&.%.-.-.8.-.p.-.M.m.M.x.*.&.-.p.x.&.&.^ &.t.T ^ i.i.[ ! t.u.) T T x.t.a.[ ^ [ *.a.t.y.y.! W ) t.y._ t.) t.y.[ d.i.d.i.{ t.i.{ d.{ i.) i.[ / { ^ ^ d.d.{ 8X[ T W / / ^ ^ t./ / ^ y.T / [ t.[ y.[ i.t.v.d.{ i.p.m.9Xv.c.i.i.i.9Xc.c.c.x.0Xn.uXm.x.v.) i.c.[ / ) *.-.p.x.-.n.x.p.u.x.u.x.m.m.) ) W _ &.*.*.a.) m.i.u.x.i.u.[ [ i.i.t.u.t.i./ ) c.d./ i.i.{ ^ T M.M.i.^ t.u.t.u.W x.^ _ *.&._ ^ &.*.t.^ u.x.c.) ) t./ T *.T R W Q *.-.Q -.&.-.*.Q -.*._ W u.T R &.p.*.^ *.) T *.t.T ^ T Q i.^ T Q &.) p.*.i.) ) ) T < ^ Y ^ y.^ ^ -.i.T W T ^ E * & Y ^ u.Q W 5 2 &.Y W Q ^ -.t.T Q ^ *._ W T W t.N Y T Y T ^ Y W Y W ^ Y Q < E ^ Y Y R -.W W E 3 N 5 ^ W &._ T ^ ) Y W *.^ ^ W &.^ W &._ W @.Y R E W ^ T ^ ^ *.^ p.u.u.c.) ! ! ) ^ t.^ ^ u.^ ) ^ _ x.) *.) n.) ^ W W a.) T ^ W W -.x.-.-.i._ u.-.M.*.T Q @.W Q W &.&.*.W Y 5 -.&.-.&.u.*.^ _ ^ W W T T W E < ^ W Y < ^ E u.T *.^ T ! *.^ ^ T * T T * 3 N 3 , T * Y Y W ) T N Y , $ $ < Y Y 3 < E Y Y ^ T ^ ^ W T *.Y N , % N T * Y / T < T T $ T N ! ^ Y ^ ! ^ ",
"7 . : =.x._ Y ..5 6 &.8.&.-.W -.W Q &.-.-.x.x.-.x.x.&...&.x.x.x.-.n.x.p.p.-.^ W *.Q t.t./ Y [ ! ^ i.[ [ ! T ^ Y T ^ T [ t.u.v.a.u.i.y.^ T W ) ) ^ / ! ^ ^ u.u.i.) [ ! T ^ T / / ^ ^ / ! T ^ ^ T ) [ { T [ ! ^ ^ T W y.^ u.*.u.i.t.d.d./ d.d.y.y.[ / [ ^ i.y.i.i.&.i.c./ / ^ v.) 8Xv.{ i.) *.*.E.i./ / / / [ ^ ^ &.m.p.x.-.m.-.n.c.) [ / t.*.*.^ E W W -.) u.u.i.*.^ *.u.) x.i.p.i.) t.u.) / ^ *.u.i.d.) t.i./ W m.x.c.u._ p.^ T R _ W W W &.-.*.x.^ W W u.p.Q *.Q 5 Y T 5 5 Y & W Y R x.&.x.x.&.^ N W Y ^ ) T T ^ ^ T T W W T x.) Y 5 5 ..*.W W ^ W Y p.Q / ^ ^ T Y 5 ^ ^ ) / { ^ Y / Q E Y N T Y T E *.W R _ T T T T ! Y .._ _ Y Y T W Q ^ T E ^ N T Y T Q Y Y Q R &.^ Y ^ Y Q ^ T Q &.R Q *.Y W T Q 5 ^ &.u.[ W T N < @.N Y Y Q W Y @.T T Q W ^ ^ *.E -.W T Q ..*.Q Q &.^ ^ T T W ^ T _ ^ u.) T ) *.) ^ u.) W &.t._ *.^ T W T Q m.a.) W T W &.T ^ ^ ^ & Q @.^ Y _ &.W -._ _ -.x.x.) &.W < < W , < & R T < Y Y ^ ^ _ i.W x._ / Y E Y W T T ^ Y Y , E T Y $ 5 ^ < N 3 N Y N , & R < N N Y ^ T ^ Q T Y T Y Y N * % N * * $ o $ T % T T T N T T T ^ W T W W T W T ",
"r # %.&.5 5 W Y Q %.x.p.-._ _ &.&.-.&.-.p.&.-.p.-.-...&.@.W &.^ -.x.&.-.*.-.&.W T < u.! T &.p.x.) c.[ / u.) u.) i.8Xc.c.d.[ u.c.t.p.u.d.{ [ d.d.i.^ ^ [ ^ u.[ ! ) ^ W ) *.Y T E Y T ! u.d.[ u.i.8Xc.d.5 i.d.v.d.d.W 8X{ d.d.d.y.d.d.v.d.8X8Xv.i.d.i.y.i.{ c.i.^ p.c.{ / ^ / a.i.u.t.i./ t.[ ^ n.[ ) *.u.c.[ Y b.m.x.-.x.m.p.&.x.x.c.^ i./ -.) / ) _ &.*.t.) u.c./ [ ! u./ ) ) [ / [ T ^ ! T / ^ ^ / t./ ~ N T T &.u.x.! ) &.^ W t.W ) &.T Y Q ..W 6 W W R W 6 W 5 6 -.5 W Y 5 R ^ 5 5 W -.&.x.x.Q 5 _ Y W Q *.) T *.^ N Y Y Y x.! W / ) _ *./ &.^ W E -.R W _ ^ ^ < < & T Y ) ^ ) W T Y E Y Y Y ) t.&.^ ^ &.^ t.^ Y ^ T T T &.W Y < T W Y Y R Y < T Y Y Y % 5 W , ..&.W ^ Y R W &.W Q Q Y 5 Q 5 Y T T W W &.) ^ ^ Y ^ ^ W ^ ^ t.W _ [ &.^ ) W &.W / ^ ^ ^ ^ 5 , &._ W Q Y 5 & Y , 5 @ Y Y W ^ T T Y T ^ *._ *.^ W Y ) _ T T T T _ &.^ ^ T W u.^ W W _ ) Y Q &.) _ &.a.*.-._ &.-.m.*.W x.^ @ < @.Y Y < W E Q R < ^ T *.3 &.Y E R Y Y Y T T Y Y & < < < Y $ < < Y N @ 5 Y Y ^ R W &.^ T W ^ Q &.Y Y $ , Y % < T E < N T Y 3 @ Y ! T < T ^ N < ! N ^ N T * R u./ W ",
"7 8 ....5 Q Y &.W &.-.-.-._ ..Q &.-.m.&.-.&.*.W W %...&.&.&._ W x.&.&.-.-.*.*.-.-.-.n.&.a.) Q uXm.d.u.u.i.[ t.c.{ d.[ d./ c.9Xd.9Xi.u.a.i.i.i.i.d.{ W / / / ^ T ! ! T W Y ^ [ ^ / / / c.8Xd.y.y.{ [ ^ ^ / d.v.y.{ &.c.v.v.v.d.d.i.d.v.i.8X8Xv.d.d.v.v.i.v.d.i.) x.v.c.d./ ^ p.v.i.[ i.t.d.) M.v.d.) ) t.W _ p.x.x.i.u.x.m.-.n.x.p.m.p.v.u.p.i.y.u.) W x.x.^ u.^ / ^ / t.i./ t./ ^ ) / ^ *.^ / ~ @.t.^ ^ ) [ / ^ Q c.) { / ^ [ Y ^ Y E Y < < < < 5 T Y W Y W ^ Y ..u.^ &.^ &.&.&.&.*._ _ x.x.x.n.&._ Y R Q Q _ Y &.^ ^ Y Y Q T x.W T Y R 5 W &.^ Q W ) _ -.^ -.-.Y , Y < < Q W ^ R 8.*.Q x.^ -.*.s.s.) u.u.x.&.R Q R Q E ..*.&.-.*.^ _ p.Q ..5 Q &.W T ) ^ W Q , R , -.W R < 5 W Q < < < R R < Y W ^ T < p.W *.^ ) ) ^ Y ..u.^ *.W -.*.t.T Q _ &.N Q ^ *.^ t.^ u.*.p.W Q _ Q 5 5 ) ) ^ ^ Y T Y W W W W Y W *.^ Q W T T T W E ^ &.*.^ W @.^ *.p.u.) _ ^ T , W W ^ Y T W W Q W W ^ *.&.&.&.u.< < ..W ^ Y T E Q Y , < E Y , &.Y R -.W E < @.Y T % < W E Q ^ ^ W W ^ W -.*.Y Y Y Y 5 E & & 5 T Y Y R E < 5 T 3 T W W W Q ^ N Y Y Y T * E Q Q ^ T ^ Y ) / T Y u./ Y ..",
"^ Y _ Q p.W &.&.W ..&.%.n.x.p...-._ _ &.n.p.Q &.-.W -.&.&.W ..x.x.x.x.-.p.*.*.p.a.^ @.v.^ ^ ! *.0X[ ) t.y.^ i.[ ^ ^ c.[ c.v.0Xv.qX9Xv.c.c.m.i.u.i.d.[ ^ u.u.c.[ d.y.{ i.d.v.c.v.v.8Xd.d.d.i.d./ [ [ 8.f.a./ d.c.8X^ t.qX9Xc.8X8Xi.8Xv.9Xd.8X8Xy.d.[ / ^ [ ) t./ i.{ { { ) d.T ) ^ u.^ / T -.uXu.i.) *.^ ^ *.-.t.^ ) E *.) -.-.t./ T ) t.{ ! *./ W ^ ..u.^ t.t.T ^ ^ [ ) [ ! *.[ &.&.-.=.*...#.^ @.*.^ [ [ [ ! T 5 n.Y *.% < T & 5 & T T T N ^ / ^ ! N ! B t.T T T ^ ) T ^ W &.) W ) u.) *.&.-.m.*.*.W T Q Q ^ ^ T < W ^ T Y W c.u.W W W < < 5 < , W 5 6 W Y 5 < $ < 5 & 5 Q R &., | 6 5 5 R +.^ V V N , , 6 , 7 5 R & , Q 5 5 R 5 5 R &.Y 7 Q 5 =.Y R , , Q > @ R 5 *.W R W &.^ Q &.p.&.W &.&.Y &.Q &.5 &.Q W T , ..5 Q W Y W W W *.&.&.&.W Y < @.W Q W &.^ u.&.Y -.W W Y < R Q ^ *.*.< R Q 5 Y < R T , < &.^ T Q W Q R W ..W Y &.&.E T Y R Q W T ^ ^ T Y < ^ Y T N *.T ^ ^ W Q Q &.^ E Y , & W Y Y Y T N ^ W < o  .Y Q E R T W Y < ^ W ^ T W p.p.i.u.[ ^ ^ E W ^ R , < E Y E < Y * T Y E N , E T ^ R *.^ Y < T * Y T N Y & 5 ) N / W ^ N N ^ T ^ T < < Y , W E ",
"^ ^ ! T ^ W ^ Y W &. .n.x.x.p.&._ W Q p.-.^ *.&.-.^ ^ &.R ..-.p.*.x.&.x.x.) T ) { ! ^ t.i./ [ ) M.i.[ d.i.v.v.d.i.0X9Xd.d.v.d.qXqXd.v.y./ d.[ [ i.^ t.d.t.i.v.i.y.v.qXqX8X8Xi.qXv.9X8X{ c.8Xv.d.t.M.8.9.8.#.i.d.d.u.v.qX8Xd.8Xv.y.d.y.d.t.d.y.y.[ / / ^ t.u.{ *.v.d.i.d.d.d.[ T m.m.u.y.E T.m.n.p.x.x.c.i.t.c.[ / ) ^ ) ) u.&.p.u.c.[ ^ 8Xd./ ) [ T Q *.) c.i.d.y.i.9Xd.d.T ) a.#.#.-.*.O.=.O.=.@...@.t.T Y T , 5 n.-.*.^ Y ^ ! T T [ T [ T [ ! T y./ T T t.^ / T ^ y.! T ! ^ ^ i.) *.&.x.*.-.x.m.W @.*.u.*.x.i._ i.-.*.^ W 0Xu.) Q *.T Q ^ Q 6 &.@.Q -.Q W R Q 5 &.^ & Q E R @.Y &.5 W Q ~ ~ B N V < @   o - : # 5 , 6 , %., Q 6 , ..&.5 Q 5 , 6 W 5 , , @ R 6 Q ..7 x.%.x.&.&._ W @.W Q W Q Q R W W Q Y 5 , Y 6 < 7 W W Q &.W R -.Q W W 5 T Y T & N @ R &.Q R Y Q E < $ & Y N & 2 R < < R *.Y T ^ Q _ ^ &.p.u./ Y W E Q Y Y Y *./ / T ) u.T N T ) ^ ) / T ^ Y T E ^ N Y Y < < Y Y W T E < $ ..Y Y E Y < ^ N 3 & # ..W Q &.^ W W ^ ^ ^ ^ T Y W T E Y Y E T N Y , , E ^ T E *.t.^ / ^ E E Y , T ^ Y Y *.! Y < E N N 3 , W ^ < N T < $ 3 * T $ $ ^ 3 < N % T ^ T ",
"&.*.E &.Y 6 Q W _ -.x.m.*.x.p.p._ &.-.p.&.-.&.-.p.x.u.) W x.i.*.p.x.i.p.c.[ i.{ ) { / i.{ ) c.t.m.i.d.y.i.d.v.v.d.{ { v.d.i.v.v.d.T / / / [ [ [ 8XqX8X{ ) &.[ { [ i.8Xd.8Xv.8X9X8Xv.8Xv.qX8X8X8X7.0.2.G.2.0.#.*.y.d.8X{ d.{ { { { [ { [ d.{ y.{ [ { d.c.{ [ { ) u.x.c.v.c.i.x.c.m.m.u.p.8.E.n.-.x.@.=.f.n.x.x.^ c.i.i.^ *.p.*.-.u.n.c.{ d.d.! Y i.y.^ [ i./ i.v.d.[ y.{ d.t.*.@.#.*.#.@.@.-.@.@.&.W -.i.E T &.u.T -.x.i.y.T *.! T ^ / ^ / t.t.{ W i.) ^ ^ / / ^ ) / ^ t.) *.) u.*.^ ^ R n._ W ^ x.u.^ ^ T ^ W &.u.i.&._ *.W p._ R 5 W T _ ^ ^ Q p.) ^ W W *.t.T R W W Q 5 5 W W =.&.5 ..@.e.' e.' ' ~ N , o 5.: o # : > 7 -., 6 Q R =.&  .W 6 W W &.Q Q &.W &._ &.&.Q a.W Q Q 5 Y 5 Q < 5 ^ 5 5 R Q T Q 5 Q Y W Y * T Y W N Y ^ @.&.&.*.T 5 Y < $ N Y T < & R Q T 5 E Y T ^ Y T ^ u.u.^ ^ ^ ) ) [ ^ ^ t.^ W a.E ) ^ W W ^ Y T *.T E ^ ^ x.) ! E ^ ^ W N &.< Y Q < W T Y N T % < < Y E 3 N , < 5 &.W ^ ^ ^ ^ Y Y W ^ Q T W W ^ &.^ ^ E ^ Y < Y < < ^ W T Y R W < ^ ^ ^ W W a.^ ..=.......R | R *.T Y T T Y W T < Y @ O , , 3 $ o % Y T ^ T N 3 < Y T T N N N < R ",
"x.Q =...%.&._ &.&.-.m.u.u.^ x.y./ W x.u.^ ^ *.*.*.c.) ) ^ [ / i.) t.[ ! { [ y./ / T ^ x.t.i.i.i.[ m.v.v.8Xd.v.9X{ [ v.v.qXv.8X/ / T / / [ [ y.y.9Xd./ Y ^ / ) *.{ ! [ [ 8Xd.qX8Xd.d.i.8X9XqX8Xp.-.,.,.w.o.6.#...^ | t./ y.{ / [ [ [ y.[ y.d.{ [ d.{ 8Xv.) / a.p.n.E.M.m.M.M.uXm.M.n.l.l.n.8.$.l.l.8.n.n.n.n.x.m.[ *.t.T W -.m.&.x.i.i./ t.t.^ &.u.i.^ t.y./ [ [ / [ [ t.~ @.E ..#.+.R ..@.&.^ ! T W W i.T ^ T / ! R ) ^ T N Y R Y / W T W { ^ / ^ [ / [ Y W / ^ [ ^ ^ ^ t.^ ^ t.^ W R 1 =.6 =.E 6 n.&.^ T ^ T ^ ^ _ ^ ^ u.^ Q *.*.W &._ *.*.u.c.) *.c.u.) ^ t.u.) ^ ^ E 5 u.^ m.*.&.^ / ' ] ] ] P K Z / E W 6 6 , & , , W 5 R < W 5 ..& , 5 Q 7 6 & 6 W W &.m.x.-.&._ p.c.T Q ^ &.Y W ^ _ W W Q E < &./ N E Y ^ / Y Y W 3 < ^ Y ^ W *.T R 6 Y Y Q T , Y < , &.*.Y Q T Q R Y R E W u.T Y < , Y Y Y Y 5 N &.W W R *.*._ _ W E < @.< , 5 Q *.N R 5 & &.Q E W < W Q E T Y < Y N , $ , W R Y W E $ & ..W &.u._ Q W R Q ^ Y T E T T E Y , < W E Q W Y u.u.i.^ W ^ / ^ x.[ R =.-.O.$.| $.$.o.$.|  .E < Y < > , < $ % * @ O $ $ $ < * , &.) ^ E < Y < W T T T % T E W E ",
"*.W _ _ _ i.) *.x.u.t.) / T x.t.u.t./ / ) / [ T t.y.^ ! ) i.{ i.[ ) { t.^ y.[ [ / ! ) i.c.d.{ [ ! i.[ 8Xd.d./ y.{ d.{ v.v.y.! ! ! N / ( t.qXd.v.c.d.y.t.8X{ 8X8X) / [ d.d.v.8XqX0Xv.v.v.qXf.-.f.=.1.2.1.1.:.:.w. . .^ ( { { ! ! T T ! T [ { { { { i.y.y.i.W T.u.x.n.p.n.m.x.x.x.x.=.=.8.8.O. ... .$.8.=.=.=.-.W =.*.^ ) ^ n.x.Q u.p.p.u.t.) d.! *.! Y ^ ! / ! T T / ^ R #.E Y |  ...N Y ^ W ) / T Y Y T ! Y T N T < x.W t.T < T Y *.% , @.! / T Y ! ! T T T T [ / T T ~ ~ / N Y ..R 3 , ..R | N < r 7.@.Y T E * T T E ^ ^ / ! E ) Y W < Y @.T @.Y R *.*.&.p.i.) t.^ ) W < &.*.*.^ [ t.' ] I I D H D H K ( ( 6 ^ Y W ^ Q &.Y T R W Q W Q 5 , 5 , & 5 R W &._ W Y , R Q &.x.^ 5 Y < # 2 W W Q T Y , ^ ^ W W R Q &._ 5 R W W ) W &.W *.W 5 %._ &.*.E Y Y E W T *.^ T ^ T W 5 W ^ ) ^ T T Y N E T N Y < & < ^ *.W *.^ E Y , Y N N T < < Y .._ ^ Y N N @.W T Y 3 $ , E ^ E T T Y < < ^ W &.^ _ ) % , ^ T ^ W W Y ^ < N & Y R E N < @.Y ^ ) [ / ! T / ^ W &.W / ! E t.^ E R O.+.O.| r 6 2 1 2 , 3 @ , , $ , 6 $ N % N $ < / ! E Y < < < , $ < E N @.^ ^ u.i.! ) E u.^ ",
"c.t.c.d.y.) ) u.i.[ y.[ T u.W m.u.[ ) ) [ y./ T ^ ) ^ R u.u.[ t./ ^ / ~ ^ ~ T / / / T t.d./ [ y.d.t.{ y.[ { [ [ d.[ y.d.[ ~ y.[ ! T ^ d.d.9XqXd.8XqX8Xv.8X[ d.{ / ^ ^ d.! t.d.c.qXv.d.d.n.6.q.0.q.-.,.G.:.6.o.O.X.d +.E +.! ! E T T ( ! y.y.v.d.{ [ / a.&.p.p.n.uXc.m.m.c.m.x.M.n.-.8.n.b.8.8.=.8.=.=.8.8.n.n.n.b.f.m.M.n.n.x.p.p.x.p.m.i.y.y.! ) / ^ t./ ( [ / u.#.~ E #.@.#.^ *.e.t.~ / [ [ { [ / { ^ v.[ [ d.d.) 9X[ d.d.c.i.[ ) / ^ ) [ ) ^ W / / ^ ^ / ^ E ! ! ^ t.T E R R 6 6 @.e $. .o.$.@.+.6. . .@.^ E ^ ^ t./ / / [ ~ ^ / T / ^ ) W ) Y Y r ..=.&.&.W u.W T Y R @ R ^ Q T ~ L I H D x F M M M Z ~ Q -., 5 , < , & @ 5 , $.Y , # o > < @ ^ *.Q Q W Y W Y R 5 Q _ p.7 , , 6 6 , ..W 6 R Q -.&.Q Q *.W & 2 , @ Q =.T &._ W 5 ..*.&.W E < R R @...R R ) W ^ W ^ ^ W i./ / ^ T / ~ T ^ ~ T N & 3 Y &.) ^ E E Y T T ^ Q W ^ E E W *.T / E ^ W W ^ T E < 5 u.^ ) u.t.W W ^ W ) T &.^ W T $ @ W Y Y Y ^ T N 3 Y R T , E / ^ *.u.[ ^ t.[ T  .@.E Q W T W 5 W E , r , < < < , , , $ @ $ 2 $ , 3 $ 6 6 e | 6 E E Y E *.E E < T & < Y Y W ^ / ^ Y p.[ ^ ~ 3 Q Y W ",
"^ T ^ ^ T N T ^ Y T ! N N Y * 5 N $ E N * T ! B T ! N E T T ! T T T B T T N T N N ~ T T a.! / [ { T [ / T ^ ( N T T / ! ! T / ! T T N 3 N N B $ *.N B ~ % N * ! N N ! T ! / T ! ! ! T / E @.=.+.=.#.+.;.O.+.O.E R u o.T N N B B 3 ! ( ( T ! [ ( { B / ~ E .. .m.u.^ x.u.i.a.*.a.=.=.O.=.O.+.&...-.=.....8.=.-.8.l.x.n.n.n.n.m.-._ p.x.m.c.t.u.y.[ ) *.u./ *.@.=.-.@.W @.@.E ^ E / T T [ / / N * T ^ < ^ ^ ! ^ E / ^ / T Y ^ ~ E ~ T ^ N Y / ! T ^ T T T T / < Y T E E Y 6 | 6 , , 1 o.e O.<.1.r 6.O.o.6.o.i ..Y  ...^ ^ ^ N T T T T *./ Y T u.^ T R | ........R ^ R W R < @ Y %.&.^ ~ F H x x H F M M F n / Q ..Q W , < o , @ , 6 =.,   .   : @ r R 6 < > R 5 5 5 < R < Q Q 7 &.R < @ , @ , $ @ 5 6 , , W T $ 3 , & $ , R -.u.Q < > %.+., R & @ 5 , , 1 1 | 6 Q R Y E Y @.Q Y Y 3 , E T Y 2 < < < E , Q -...E R Q W W R W T Y Y t.u.*...R ^ @.&.-.p.u.@.a.) Q ^ W &.W 5 2 5 R E Y E Y E ^ T 3 , ^ Y E T E ^ ^ T T ^ / Y Y T T u.^ *.u.^ ^  .r 6 | 5 2 < < $ % > , < > 2 1 u u r y r r r r o.2 Y , 3 1 e +.o.O...R Y Y T ^ ) Y E < Y 5 E / ^ W ^ *.< / E T W ^ ^ ",
"T [ ^ ! ^ ! / T ! ! ! ! ! T / T ^ T T T N T / ! / Y [ { / / / [ y.[ / / [ [ / [ ! / ! T uXd.[ [ [ ! / T ~ T N T T T T B T ! / ! ! / ! % T T N T N T B B N ! ! / / B ^ ) / / ( ! ! ! t.*.E +.O.O.O.:.1.f Z.:.w.| ..;.O.:.O.#./ / / { / ! ! T ! [ [ *.*.@.@. .$.f.u.c.t.d.y.{ t.i.*.=.6.8.#.a.qXT / ^ [ ^ a.@.-.=.8.n.n.=.b.f.-.n.x.m.m.c.c.c.c.8X{ i.u.a.t.#.+.$.+.O.6.8.6.p.*.) d.d.d.8Xd.8X8X! [ / [ { [ / d.! T ^ / ~ T / ! T / T T Y ^ T N N E T T N Y T N N ! ! R  . . .| r r u y :.o.:.o.y $.5.o.0.$.o.o.r  . .&.^ *.^ Q ^ ^ T W W Y ^ ^ T O.o.O. .O.5. .r Q Y N T < & ,  .%.u.P M b x x M S M S b b ( E , -.& > Q @ - >   : , > . .     # %.> o ; 6 > R 5 6 &.5 5 =.Q -.T N $ < & # ..< 5 2 &.Y N @.$ $ R E T T <  .-.Q > , 2 2 6 6 R Y & 5 2 # 3 @ 6 , , > R T N $ @ < $ < Y & R < 5 < R R E < < < $ Y 3 5 T % % @.Y N Y Y r | - Y 3 $ % < | +.2 ^ < , $ $ $ 2 3 $ # 1 Y , & 2 N Y T , $ R 3 N % N T N N $ N % @ , E % R ^ Y 6 r 2 > , 3 $ @ @ O @ $ $ @ X @ $ @ , 2 @ 1 0 e u 6 2 2 O < , > e 1 o.e r < Y % % N N < 5 ^ @ $ N Y % N T % T T * N 3 ~ N , ",
"/ { / / / [ / ! [ ^ ! t.[ / ^ ^ t./ t.i./ ^ [ ^ ! ^ [ / [ / [ d.{ [ [ [ / / ! y./ ^ / ^ a.8Xy.{ / ! T ! ^ ^ ! ^ y./ / ! T / [ y./ ^ y.! T / ~ / ! { @./ ! T / T / ^ T ^ t.t.{ [ [ / ..0.=.O.;.;.O.:.:.:.d g ,.1.O.;.O.;.:...=.@./ [ [ / y.[ y.y.{ a.*.*. .o.8.0.=.p.) y.{ y.d.{ *.n.O.8.b.m.qXd.v.[ 8X[ / d.0Xm.n.f.n.M.M.uXM.n.n.M.9X0X9Xv.d.m.-.-.8.=.=.;.0.o.o.X.5.7.8.n.9Xv.v.9XqXqXd.c.qXi.d.c.8Xa.c.c.d.y.^ ^ t.y.[ i.{ t.[ ) / d.t./ [ t.t./ t.d./ [ / ^ #...6.$.7.3.4.3.3.1.n.7.7.3.2.d h 3.3.5.b.7.<.o.n.b.l.-.u.a.m.x.p.c._ -.&.-.&.x.<.6.l.n.8.7.<.7...-.*.^ &.^ W &.&.v.] r.] D D M b ^ n v C ' ( %..., 7 6 5 > 6 7  .6  ., o - 6 Q 6 Q 6 6 7.8.x.x.iXM.) -.uX_ x.x.-.x.c.) -.u.u.W n.p.d.*.p.) *.&.-.p.&.x.n.x.n.8.$.8.=.$.-.+.x.*.-.+.X.+.2 #.T ^ ^ *.t.^ T E T E ~ *.E N < ..N N E E ^ E E T ^ T ^ ^ ! Y *.) / E Y | @ o , 3 % * , r | $ N < 2 N < R X.R | | 6 .., Y W N Y T 3 o R B N $ E N N N E T 3 * 3 T Y @.1. .X.O.R ..< N 3 < , 2 < R | $ $ , 6 r < , 2 R r r r X.6 r r h t d u e o.u o.| R E $ N N Y ) B N O ~ T 3 % % N T $ % N Y ^ ~ T ",
"{ [ / [ [ / ! ) [ / / ^ { ^ t.[ ^ y.{ [ d.y.{ / &.d.[ [ ! ^ [ T ! ! [ { N N [ ! / ^ / ! T 9Xy.[ N N T ^ ! [ ^ [ { [ ( T [ T T [ [ [ / / T T / E / *.@.^ ~ / ! ^ / d.B T &.u./ ! ^ / R 8.6.O.,.d >.:.O.1.;.d o.>.o.g O.X.o.X.O.#...t./ d.{ { { d.v.m.s.*.O.1.7.;.o...R *./ t.v.i.-.n.8.-.8.0X9X8Xv.d.8Xv.! / qX{ qX8Xa.p.x.M.n.8.b.m.n.0Xm.n.f.0.7.b.8.3.1.1.,.d 2.O.1.#.p.x.0XqX9XqXqX8Xd.v.) &.@.6.=.=.f.#.@.*.u.^ / / y.v.[ [ [ / ~ [ ^ / ) [ t.u.[ ) *.*. .| o. .O.X.X.o.<.<.0.k.b.o.b.G.2.f 2.<.j 2.5.<.<.d $.8.$.=.*.*.x.*.&.x.x.*.-.-.x.o.5.7.=.8.l.9.d $.$.=.$.+.W R *.Q %.g.' ] L H H m M N [ n ( ' N =.-.5 6 5 @ 6 ..r $.l.$.8.7 ; 7 6 6 7 %._ Q ..Q *.&.Y 8.u.x...W p.p.u.u.x.) m.m.x.n.*.%.=.m.-.-.-.-.8.M.n.8.uXb.f.6.8. .7.$.$.-.-.=.o.:.o.1.f.t.i.t.t.i.t.[ / ) t.^ p.E +.< +.y u a.) ~ ^ ^ E / ^ ) [ ~ T ^ ^ ^ W 1.| # 1 X @ , 2 r r o.O.E R X.=.o.o.u 1.X.1.O.O...*.@.t.E y.! % W @.R R @./ E @.y.! / ! B ) u.q.o.8.-.#.N #.T 6 +.O.O. .+.;.X.| R e d d o.;.;.d 2.d d d u >.s f s >.d d o.;.O.R O.@.R T ! / / / [ T T y.! * N % t.T t.) [ T ^ [ ",
"{ { / / y.[ [ [ ! [ [ [ / [ i.y.) t.[ { i.) i.t.y./ [ / ^ / [ / ! ^ N ^ ~ N T T / / ! ~ T m./ ^ @ $ ! ! [ { [ / [ [ / T ! ^ / ! [ [ ( ~ [ T ^ +.#...@.+.#.E t./ ! T { / T p.x.y.B ! ^ #.o.O.O.,.g g >.>.C.f g o.| d X.R +.:.o.,.o.i.[ [ d.8X8Xy.d.d.-.0. .7.6.u o.o. .=.&.x.0Xc.f.i n.8.6.f.-.8Xi.v.i.v.a.c.) ^ t.c.v.c.n.x.n.l.=.m.m.M.M.b.f.0.<.l.U.j 1.1.u <.<.4.q.@.#.#.f.p.gXwXqXqX8Xv.=.k.=.0.f.-.6.1.O.=.p.a.a.v.d.v.d.y.8X[ y.[ ^ c.i.v.i.i.c.c.-.=.O.o.o. .o.o.r r r +.| r e 1.2.g 0.2.5.k.3.3.3.<.3.2.<.7.l.6.m.x.u.p.*.&.m.i.*.m.n.d 5.b.k.<.1.<.<.1. .o.5.o. .$., f.Q x.' L D D K M M ' Z ' ' [ R 8.n.6 %.W & r  .r $.l.$.o.u 7 7  .6 ; Q 6 Q 6 R W %.%.&.Q x._ ^ 6 &.& : Q Q n.^ 8.%.%.5.=.l.o.O.i =.k.8.O.8.f.b.f.@.| 6 9.i 6  .2 7.o.6 u f.-.[ ^ u.u.c.t.) ^ p./ ^ f.O.| u d g <.*.E O.O. .W u.[ ) t./ ^ a.u.X.d 2.d y u 0 e 1 e r e u 8.+.6 | r o.o.u 1.X.O.1.O. .$...*.3 d.! N 6 #.+.+.O.@.+.O.t./ / ^ ^ / ..q.$.0.q.1.o.d ;.d g ;.1.o.g f s d ;.u g f g f s s 2.j g g j d y y o.r ;.t >.X.o.O. .R N E T / T / t.i.E ) [ ! N @ t.[ ^ [ { T T / ",
"y.[ [ [ [ y.{ { / [ [ / [ d.[ { y.^ d.[ / ^ ^ c.{ ! / T [ [ [ y.[ / / t./ [ ! ^ B N T ! T W ! ~ O & ! T / [ [ / ! [ [ ^ / Y / ! [ ^ { ~ / T / @.@.+.o.o.O.#...@.^ T s.[ ! ^ *.m./ / / -.;.<...O.X.o.,.>.C.C.j g ;.d +.$.E | O.#.R #.{ [ v.8Xy.[ { { c.b.$.8.b.u 5.o.r $.-...-.%.=.  r b.7.8.n.c.t.v.i.c.p.0X*.x.-.*.f.M.m.b.b.k.<.b.M.M.m.k.b.6.;.<.9.A.;.O.:.1.3.q.4.7.f.=.@.+.p.i.0X9Xx.-.0.k.$.-.6.9.2.J.3.6.-.-.m.n.c.{ i.u.i.) T / *.[ u.c.^ E W =.$.i O.o.o.r y i e i u u o.1 r $. .u 1.d 9.d d 7.<.<.5.g 3.<.7.$.8.n.m.u.-.x.*.u.x.$.E.2.1.7.l.2.3.d <.u ;.5.1.u i b.6 n.E 6 ' H D H J H G H Z ' F C 6 =.m.Y u Q 6 r r 5.=.l.$.:.i e 6  .o.7  ., -.= u.*.-.n.x.-.-.-.v.i.u.Q 5 7 &.=...r i $.7.=.%.o.i e  .$.7.E.-. .7.-.Q  .=.6 9.5 r 7 $.6 1 $...R Q &.&.p.x.a.*.t.*.*.-.8.5.d <.0.q.=.*...,.:.$.*.^ i.y.v.d.-.f.:. .4.g g s >.s s d d y u y 1.r | | e +.| | o.<.u ;.O.X.O.*.@.E d.^ E 2  .O. .o.O.+.6.*./ ^ ^ E R | O.o.1.>.;.>.f f j 2.;.o.u f d u u d u f f s s f g f g f f s u | u X.| o.r u o.o.+.6 X.| ^ N u.~ T *./ 3 N T T T N ^ [ T [ t.{ ) i.",
"d.y.y.y.[ y./ y.d.[ ^ ) c.d.{ d.{ t.d.{ / [ ) y.{ { / [ / / / y.d.y.y.[ [ y.[ / ~ T T ! B ^ [ N O $ N N T T ^ / ! / y./ ^ ^ / ~ [ [ [ ~ [ ( T E E | O.;.:.6. .O.6.+. .*./ *.y.^ i.y.y.#.=.;.1.O.O.| :.:.2.O.o.3.2.f >.,.X.;.O.+.+.+.[ [ [ / [ y.t.y.d.v.=.7.7.6.$.o.i o.$.%...-.$.7.;.b.7.-.n.m.i.v.qXt.M.c.m.M.x.n.f.8.8.b.b.k.9.7.8.k.b.b.n.3.3.3.2.g s >.,.;.>.2.2.3.6.-.#.....W c.a.-.7.0.9.O.O.0.9.<.1.5.7.7.=.8.=.x./ i.u.c.i.^ u.u.t.W c.) p.+.X.7.$.o.o.u u o.u o.;.e <.u ;.6 o. .o.u u :.u u 0.<.1.8.<.<.y o.:.b.X.-.x.-.x._ m.n.7.k.4.5.7.<.9.b.3.<.d d <.<.i 5.$.*.& Y Q K L D H ' L m b v ~ ( ' Y %.l.x.Q %.Q i 5.%.l.%.$.z.o.e e r o.e ..8.&.T , &.& Q &.W &.$.m.W W 7.-...n.%.$.7.:.o.$.=.8...=...n.-.T.0X=.*.n.x.&. ..., k.$.i 7.O.r o.-.^ W ^ &.u.a.u.n.d.i.Q n.=.5.>.9.;.b.6.O.1.5.<.0.=.*.@.u.u.f.<.>.<.1.<.2.f g d g t s d u d 2.j e e r O.r X.|  .<.<.;.;.1.$.| #.W E p.E ..,  .| | o.O. .6...~ E R R Y R O.o.9.;.o.:.d s >.u u o.r u d +.| 2 e g s s s f A.C.g f g s f u u | | | ;.u o.o.r O.| +. .^ / *.u.i./ N $ < N T ^ T T T ^ [ ) *./ ",
"d.y.{ / d.[ / { y.[ y.d.d.d.d.c.8X{ ) v.) x.8X{ { { d.d.y.d.[ v.y.d.[ { { [ / y./ ) / T W / v./ N < N T ! ^ ~ ! / / / ^ ! [ / ! [ / ( / @.E +.+.+.+.+.:.:.O.:.X.o.o.O.O.y./ c.{ T c.d.p.f.1.2.,.:.;.2.2.:.o.2.o.d s 2.y g ,.o.O.O.o.@./ ! [ t./ / [ d.8XW s.f.c.$.-.o.o.b.o.$.6.%.8.0.7.b.7.9.n.m.v.qXqX9X8Xx.x.f.7.7.5.o.7.$.Y.b.1.7.3.k.k.U.b.5.U.Y.j d j 2.g 2.<.q.1.1.1.o...R Q +. .r o. .r u u q.u d O.o.7.:.o.1.$. .@.*.&.c.i.^ _ ) ) W ) ^ 1.X. .6.1.r e u e o.u <.;.d y t o.O.i q.u u i | 2 1 o.o.u l.1.7.<.u l.8.o.o.=.*.v.) =.7.k.2.<.4.<.2.<.1.4.<.d d <.<.i 0.<.x.& W &.' I D x m H H H F ' ' K A Q %.M._  .8.=.$.7.$.$.5.n.5.u 8.i $. .$.-.&.n.5  .%.*.T > m.5 W r 1.o.=.$.o.t k.T.:.:.=.%.7.-.-.-.p.a.M.iX-.9Xm.f.k.O.$.8.8.8.7.T.8.$.8.m.*.u.*.t./ c.*.a.y.^  .b.1.9.s <.7.1.5.5.O.1.7.b.E.f.5.0.b.j 4.9.4.0.9.g s t 4.g s g o.+.d Y.H.; : <.k.O.;.O.| 5.5.;.u 3.O.O...E T =.+.R 2 R | | ;.,.o.O...+.| | Y R 2 1.<.4.;.>.o.d :.u o.u d d u s ;.X.t a f f B.f f f f f d d p C.s d s g s s d ;.:.O.+.R Y @.y.) [ y.[ t.[ Y T ~ T N ~ N E E ) ^ E ^ ",
"t.! y.^ d.) i.{ { d.d.{ d.d.d.i.d.{ t.i.i.x.d.i.{ [ d.d.d.y.[ y.y.y.[ / / / [ [ / y.{ / T W u.^ E N N t.! / ~ / [ [ / / / [ ! / ! B T T +.+...#.O.$...$.O.O.#...:.:.O.:./ { [ 8XT i.d.d.9X8.3.O.O.>.>.f d C.C.#.y d o.X.:.X.<.O.| d :.$.y./ t./ / ^ t.d.*.8Xg.g.-.=.o.$.$.:.7.6.o.o.8.1.0.k.7.0.n.i.8XqXc.0Xb.6.5.3.<.<.J.6.<.q.k.2.U.B.S.B.C.>.2.2.f s 2.d 4.k.2.2.<.;.;. .| -.=. ...R 6 | u <.;.h u u d d d d r u o.8. ...*.i.x.c.) i.i.u.v.-.O.O.6.O.o.u o.y u y u ;.d h d t ;.i 0.i 1.u r o.i e t ; e u 1.i :.P.<.<.:.1.7. .x.x.=.%.7.b.d w 9.d 4.3.f 4.2.j 3.4.d <.1.1.n.) x.8XC I D H J J J J J J } G L u.x.x._ _ &.7.$.5.$.5.1.1.l.u k.o.u u r W &.W ..Y %.&.Q &.x.Y  .| o.$.=.<.g d k.k.1.7.n.l.p.n.x.M.u.-.n.uX=.=.$.5.$.$.o.<.8.6.7.O.:.-.x.t.&.&.&.&.@.-.n.T p.R k.b.5.b.0.r 8.<.9.<.u ;.=.R =.<.d g 2.;.3.3.d Y.A.g >.s A.g B.C.>.d s <.j w t  .<.:.5.O.u <.3.1.u :.;.o.=.....o.#.| | 2 r ;.;.;.;...R R 6 | 3 < | ;.d 3.g >.d d d y u u d t d s d t s t w f s f s s s s u s f p u s t d s s d u >.d X.+.| f.a.y./ t.[ ! t.! Y ! / T ) / / / / ^ / T ",
"{ ! [ / [ T ^ t.[ [ y.{ y.{ d.[ y.v.{ u.c.d./ y.i.{ [ [ i./ [ / [ / i.y.{ [ { [ [ y.d.[ / T T o   # ^ [ [ [ / [ { [ / d.{ [ ( y.[ T / R +.;.R E +.O.+.O.+. .#.#.O.#.+.o.=.d.[ a.d.[ [ i.d.f.:.O.;.,.;.;.g >.>.:.;.j j g O.+.+.X.o.1 d >.O.t.[ / / t.[ [ t.y.d.oXa.s.s.l.$.7.$.o.8.o.8.3.5.7.m.b.6.f.m.m.n.M.n.b.9.3.d 3.3.d j o.<.s k.A.C.s f d s f a h d w o.<.t h t u i 6.6 8.-...7.o.1.X.;.>.d t d k 2.2.j j 2.2.5.l.7.-.x.v.u.v.c.x.m.0Xm.8.b.b.4.;.3.2.3.H.2.2.d d <.u u ,.;.<.u r e <.<.1.<.<.d u d U.o.u e e d e e :.$.7.n.l.b.7.k.9.<.1.k.o.7.k.2.d 3.d d g u d u 7.7.x.x.y.[ ] D L ] G ' H H m ' ] ' v.a.m.x.*.o.o.b.i 8.1.<.e Y.5.8.i :.$...W m.u.p.) %._ ..-.m.&.r :.1  .2 r e 0 :.e o. .b.$.p.m.m.iXi.n.-.M.7.5.o.b.$.<.u <.5.7.<.6.O.-.9Xu.u.a.t.u.i.*.a.^ n.M.9.9.k.E.3.1.9.<.3.;.9.4.5.<.<.1.3.2.;.,.q.>.1.g g s 2.f B.f f f f s t d g f <.X.;.<.;.2.9.2.2.0.<.+.8. .o.6.#.u 1.o.X.2  .o.;.2.<.O.r R +.+.N 3 X.d d 2.j u d d | r a s s u s s y r e a a g f s f s f f f f s s a s a a g d u u u X. .|  .f.i./ / *.[ / [ T N N / ^ ) ) [ y.) ) T i.",
"y.{ [ { [ / [ ! ~ / / T ) [ [ ) c.c.{ x.v.v.y.y.{ [ { / [ [ ^ [ y./ y.d.d.[ [ [ / t.y.[ y.[ u.u.T / [ [ d.{ [ { { { [ i.[ [ ( / [ y.[ s.@...#.+.+.| +.+.O.+.+.X.X.o.w.+.1.-.y.i.d.t.8Xi.8X-.,.1.>.o.C.2.g ,.u S.f g g f >.:.>.g ,.N r d d <.*.*.^ u.*.~ d.{ r.r.y.v.g.f.n.$.$.8.:.8.b.;.1.o.8.b.7.7.u.p.f.8.6.1.<.<.d ;.u u u d d t t k f d 9.3.g a <.<.s k 5.4.d 4.d <.u o. .%. .r e r u r e e e e t d d e 1.d 4.2.o.7.o.b.u.u.u.c._  .=.b.$.8.n.b.3.9.<.3.3.4.j j d 2.2.;.;.<.;.1.o.o.o.7.1.:.q.3.j 2.u 3.j k 1.2.u r 2 e 7.4.d 9.0.1.2.j 3.9.<.1.9.<.9.1.2.d 2.s r u e k.o.-.^ r.r.H K } /.U G G F Z e.y.Z *.W x.u.b.<.o.k.5.l.5.<.7.o.n.k.u 5.n.=...m.u.^ -.m.i.&.W M.n.<.u 1.o.i y r e X.7 r o.i r | &.6 9X&.p.i n.n.k.b.7.W.d t d o.8.<.8.x.m.v.c.c.0X*.m.c.c.m.m.b.E.f 9.3.d <.5.1.<.9.>.0.4.3.9.k.3.b.b.2.k.Y.k U.G.A.d 3.9.A.C.p C.f d f g f f 1.;.1.<.d 3.;.3.,.0.2.5.k.f.O.<.<.<.4.>.;.o.O.>.2.4.<.;.2.u X. .| 2 | >.g 2.f d ;.s d u s f >.+.X.u y d d s f f f p V.B.B.V.f g g f s f g o.O.O.| R O.#...O.p./ ! ^ ^ t.[ ) t.T 3 , / T E ^ *.[ i.i.[ t.",
"{ y.y.y.d.d.[ / [ [ / T T ^ / ^ [ [ u.t.i.c.9Xd.{ / [ [ ^ *.x.m.9Xd.[ { d.y./ / / / v.v.v.i.i.gX8Xd.t.d.v.{ [ / { [ i.{ i.y.{ [ d.y.@.#.6.6.6.$.#.O.+.| >.,.O.o...| X.X.@. .=.t.a.d.v.d.y.-.<.:.o.>.B.Z.f C.>.>.g j g A.f B.g ;.g X.r g s 2.$.p.m.n.a.e.d.r.r.r.r.d.d.s.f.7. .8.$.5.o.d O.$ 2 O. .| =.-.@.O.<.<.;.7.5.1.3.2.2.2.g g e 1.<.9.n.k.f 2.2.<.j k.9.9.k.u t u 1.5.$.6.6.<.1.u 6.u d s d e 1 t h d 9.3.j 2.d <.7.8.u.u.x.x.$.<.6.=.8.o.1.;.t o.t u i 8.<.<.1.9.d <.q. .o.o.o.8...n.=.7.8.8.4.i 1.d 3.d 0.0.5.1.<.t d g f d U.2.C.f A.f d b.2.2.d j f f 9.u 1.3.d o.u l.y.' K ' ] /.J J J J } } d.d.'  .n.p.u.O.o.u 7.7.7.1.d 7.e Y.1.:.:.8.=.*.W p.W b.&./ ..n.-.k.<.9.o.6.d <.<.b.o.;.5.q.e 6.| 6 =...8.r u u b.7.$.:.E.2.t h 0.7.7.6.b.m.x.x.p.m.t.x.x.uXM.n.b.4.s 9.2.w <.<.3.f f j 3.f 9.g g g 3.3.f j s 9.j P.>.d d Z.g >.g g f f f 2.g j 5.5.9.2.<.4.d 9.1.7.9.b.7.uX0.1.7.<.9.9.o.;.o.<.>.2.s d d o.o.| e o.< d g g g f f g g g g g ;.:.d s g f d y s s f B.B.H.G.B.G.f A.B.;.g >.>.g :.+.O.#.O.-.-.c.) / t.d.d.y.i.t.t.^ Y ^ [ / y.i.t.[ ^ ^ &.",
"y.y.[ d.v.d.[ c.{ d.[ / T ^ ! ! / T / N T / [ [ / ! [ / ^ n.M.M.M.M.m.c.i.i.[ ! N ! { d.d.d.i.0X8X8X8Xd.i.v.d.[ [ d.v.d.i.v.v.y.i./ #.#.:.1.:.q.#.#.O.o.>.g ,.,.+.u ;.O.T +. .X.@.t.^ t.T t.6.O.>.S.2.;.>.g 2.,.g 4.V.V.g d >.g f g s 2.,.O.o.o.&.-.' ' ] r.oX.Xr.r.r.r.=.8.%.$.7.u t u o.X.:.3.#.O.=.q.3.9.H.4.3.0.0.b.P.S.f k.b.2.j d d d 1.9.d 9.j d k.<.5.<.d t t e 7. .u o.0.3.2.<.3.j g s 2.r t t t d 1.2.3.b.3.9.m.n.M.iXf.7.k.n.n.0.9.J.3.k.3.5.3.2.d o.<.<.7.q.o.7.o.o.o.O. .r  .-.-.-.=.7.1.<.1.4.7.4.3.d k.1.<.u :.t >.t ;.<.3.g f f 2.4.j <.3.g d a d <.1.4.<.<.6.uXL ' F y.' } J Z y.J m d.y.oX' R n.-.M.i q.o.o.5.u y ;.;.u 1.i 7.5.7.r n.8.-.x.&.-.*.8.n.o.T.r <.:.k.t l.o.0.o.<.<.5.o.n.O.o.b.8.;.u u ;.0.o.7.6.7.u <.u 5.n.2.<.n.c.c.*.u.a.a.x.x.n.b.l.9.g 3.j 2.s a 3.A.p f s f f k.C.C.f s g g 2.g 9.f 2.g 2.2.B.f f j f f g 2.4.4.9.7.7.<.j <.9.4.<.;.1.k.6.$.l.0.3.3.<.9.<.<.<.e u 3.>.>.| | R | R e | 1 u g s 2.d d ;.d g >.;.>.d d s f f u t s a B.f f f 3.f 2.C.p C.;.j f f <.O.;.=. ...=.&.[ t.) [ [ t.[ ^ / / / T ) y.*.u./ / t./ / a.",
"d.y.d.{ d.v.8Xi.{ d.{ d.y.{ / / t.i.[ y./ ! ! N T T T T T Y *.a.n.uXaX0XM.m.c.) t./ ^ [ ) d.d.v.qX8X8Xd.{ 8Xv.8Xd.d.d.d.d.d.d.d.v.{ #.$.:.,.A.2.6.$.:.;.,.>.,.>.;.s 2.6.| :.@. ...#./ ~ [ ! ) =.<.g >.;.g f g C.C.j B.V.B.g >.C.f f f d g f B.o. ...Z K G I J I I ]..Xr.8X=.-.n.8.7.t i o.u u 7.uX0.w.1.H.3.4.3.Y.G.J.P.G.B.S.3.k.k.<.1.2.>.u ;.;.7.b.4.9.3.9.9.d 3.3.e 8.$.1.u <.u t k.d g g t <.d t s w ; r e 1 O.r 5.8.b.0.7.b.b.8.9.9.4.3.P.7.U.3.k.3.2.4.9.7.1.7.<.6.O.i 8.=... .%.W -.&...x.<.4.j 0.5.4.2.d 5.b.g <.3.<.2.s d d X.r d u 4.g w 9.j 4.3.1.1.<.d u 7.o.<.8.d.P K P r.' oX} G [ d.' y.e.' ' u.&.-.M.6.7.n.8.<.u i 1.r <.7.e r o.6.=.R 7.&.-.%.m.9X-.8.w I.k 5.7.9.3.1.7.2.;.<.5.6.n.b.4.b.8.n.o.1.d 9.T.9.i b.q.1.U.e e 7.;.o.-.&.E E @.*.p.@.8.o.9.>.s a <.C.j 3.s j C.p g S.f 0.b.P.V.B.g j 0.2.9.Y.C.2.G.H.B.B.C.f 2.f S.f g 2.4.3.9.3.,.9.O.b.q.;.X.o.5.7.q.O.b.4.<.1.5.;.3.4.;.,.2.>.,.;.o.o.+.r d r r y f f j d o.;.g >.X.o.s ;.d d t ;.X.u d a f f f f g 2.3.B.f f ;.d g >.r 1.,.1.1.=.=.p.i.t.[ ! T / [ / / T T ! N T E T / y.i.y.[ i.",
"v.d.d.d.y.v.8Xv.d.d.d.d.d.{ d.{ i.8Xy.d.{ / [ / T ! N T ! N ) / T ) p.x.m.a.x.m.m.m.M.M.0X8Xy.c.qX8X8Xv.d.y.d.d.8Xd.d.d.{ i.8Xd.v.v.-.O.<.1.<.2.<.,.:.>.g A.>.>.,.>.g g ,.g <.:.q.#.t./ ^ v.T t.:.;.2.2.d g C.g 2.g C.A.g f C.C.A.g g 4.C.C.C.d <.o.A H D H U ].I J J ].d.8X=.=.%.l.$.<.y t u 7.P.9.<.A.A.g P.H.H.G.K.2.H.H.G.A.G.G.2.5.G.1.u ,.,.d 7.9.G.U.2.U.2.2.3.0.m.Y.Y.2.H.G.A.G.H.j j d u ;.e d d s u >.o.u | e e u <.o.$.b.7.u <.d 1.u <.5.3.<.2.1.<.:.l.7.;.r $.$.1.5.b.-...x._ m.&.n.n.7.4.d 5.k.9.g 2.4.k.j 2.9.d f f f 2.O.X.y d d 3.s g s <.<.9.1.9.g s <.1.u U.' ] K .X] oX{.d.r.} d..X} ' ' ' -.l.n.&.n.:.Y.b.b.o.d d <.$.k.<.d | u n.^ &.-.&.&.m.a.$.7.t I.P.d >.d 9.;.b.;.;.7.<.6.k.8.o.k.n.k.d I.1.7.n.Y.: b.1.7.7.d d <.9.8.8.n.m.i.p.&.n.8.o.<.<.r d s 5.b.s d s 2.g d 3.j f 3.0.2.C.C.J.j P.j J.A.2.j H.f B.g f C.B.B.C.2.2.9.2.q.3.b.<.b.:.f.4.1.1.1.7.7.9.3.9.9.<.6.1.;.<.2.d 3.j A.>.g f g d 2.| r r e f s T.d >.f f >.d d :.+.d d R | X.| r s f p p B.B.Z.f f s g u >.X.r ;.5.:.#.O.-.#.i./ ^ *.t.y./ / ^ ^ ^ W ^ N ~ / ! y.d.d.t.i.[ ",
"c.v.8Xv.v.d.y.y.y.[ [ t.d.y.d.i.v.8X8Xd.d.d.[ d.{ [ [ [ ! T -.m.d.) t.a.u.W &.&.-.p.x.M.m.9X8Xv.8X8X8Xv.v.v.qXd.8X8Xv.d.d.i.8Xd.y.qX8Xn.6.6.,.>.2.<.,.,.g A.g Z.Z.g Z.2.J.2.g <.=.<.6.p./ t./ [ @.,.2.g 2.>.C.G.>.g g >.g f H.T.C.H.g b.H.j 3.0.8.n.A L H H I ] ] ] ].].] oXoXy.$.%.b.5.u u t o.5.P.S.S.A.C.S.G.S.A.A.G.2.G.A.H.J.1.9.0.G.,.3.1.>.A.2.,.<.2.d T.4.4.0.0.4.H.P.G.A.A.S.S.H.A.H.B.B.2.| >.>.2.>.g <.3.,.4.o.X.| O.1.7.k.1.3.y i h s t 9.4.<.7.<.<.$.n.$.$.6.b.7.O.$.n.=. .=.x.-.n.8.l.5.9.7.k.9.k.2.4.4.5.k.2.3.j 2.g 4.3.2.s s g d d s j f 2.g 3.f d g <.>.o.E.-.K ' ] L r./.oX.XJ r.] qXd.] y.m.aXm.-.b.k.1.5.5.y 1.t 1.k.7.R.2.1. .-.i.&.*.Q x.9X&.u k.l E.3.a u d 8.o.0.1.;.;.u R.<.5.b.8.l.b.;.7.k.7.T.E.w b.5.k.9.>.t d 1.7.f.M.m.m.x.f.f.0.2.>.,.<.k.g 9.b.j k d t 9.3.d 1.>.y ;.d d d d d >.d >.u 2.j C.f C.Z.j H.A.G.S.4.T.3.9.3.9.0.9.b.3.1.9.9.5.5.0.0.0.9.q.k.q.q.<.2.g 9.o.d 2.3.j C.C.d 2.,.r r r r g y E.g A.>.g g g o.;.X.g g X.+.0 t a t u f p f B.G.C.B.f f >.d o.<.q.=.=.*.E E u./ ^ ^ ) i.y.^ ~ / [ / [ T T N / [ [ / / [ [ [ ",
"8Xd.8XqX9Xv.8Xv.y.y.[ i.d.d.v.9X9X[ d.d.d.d.v.i.y.{ { { / [ ^ m.m.m.m.m.m.m.a.&.*.*.^ t./ y.v.8X0XqX8X8X8X0XqXv.v.8X8X8X8Xd.v.{ d.9X8Xm.q.q.<.2.Z.2.3.:.g g 2.2.Z.g Z.2.H.,.>.<.;.1.X.f.y.a.d.8X[ =.O.>.A.C.B.>.g g j A.B.F.V.S.C.f f G.0.H.2.P.5.6.#.P P I I I I ] ] oXI ] r.r.M.f.8.5.u <.t o.<.0.H.C.A.S.B.C.G.A.A.2.J.A.G.J.q.H.2.3.H.g A.A.G.2.H.6.=.:. .0.0.k.J.2.2.2.4.Y.H.j J.S.C.C.A.V.V.V.2.Z.>.g j 2.;.u 3.d 1.o.r | e o.r d s <.e 1.u d 5.7.o.1.k.o.r Y.n.7.8.Y.b.f.=.n.=.Q =.-.8.n.f.7.:.7.k.d 1.9.d s d 0.l.3.d <.9.b.4.b.j g g d s u s f f 2.j 4.2.C.f 5.2.9.k.6.L ] I ] ] OX/.J J ] L oXd..X^ -.n.x.m.7.W.b.0.7.7.7.u <.$.5.9.u P...R p.-.c.T @.f. .r  .u 7.2.d <.u 5.<.<.<.;.X.u q.<.e I.<.<.6.t o.$.k.n.9.1.n.b.U.b.3.s <.7.n.8.n.n.f.M.n.q.<.1.q.3.;.<.>.<.>.2.d a y 1.3.s 2.2.g d 3.d d d 1.d q.;.y d s d t g g >.2.3.q.<.3.2.2.0.2.7.O.1.n.9.<.9.5.q.8.7.n.0.q.8.m.n.k.3.2.g 9.>.;.d j f f g s H.f f ;.e e s u Y.A.g ;.s 2.>.u g o.y h e t e t t u r d s s f A.g g f f d d 2.2.:.#.O.=.#.=.d.[ [ [ ) @.[ [ d.d.{ T ! ! * , / [ ! ( [ [ / t.",
"8Xv.v.9X8X9X8Xd.v.0X8Xd.d.c.v.v.9X[ v.8X{ d.d.y.y./ y.d.[ [ [ ^ *.m.i.x.*.a.^ / [ / ( { y.[ v.d.8X8X8X8X8X8X9X8X8Xd.d.8X8X8Xd.8Xd.d.qXv.8Xf.3.C.B.Z.>.1.<.>.g A.g g f g j g >.H.H.H.O.0.-.c.d.9Xd.t.=.q.<.C.B.g >.g 3.>.V.F.f g Z.C.s A.A.V.B.B.4.t o.x D I U U U J G ' ] ' d.oXoX-.f.=.u y t t o.8.f.,.S.S.B.S.P.U.H.G.G.G.H.2.G.H.>.d H.2.S.A.2.q.q.q.1.q.X.1.3.3.4.2.A.A.V.C.G.G.G.j G.A.Y.S.V.V.C.C.V.V.C.P.G.d j g g u >.>.<.u u e w 9.<.9.<.U.;.0.u 5.k.o.o.l.b.7.o.7 $.r $.n.m.%.-...%.$.7.i 5.7.u 1.1.1.4.d 4.b.1.<.d 9.k Y.3.<.<.3.g s f k.g s g d 2.<.Y.A.f U.k.7.k.#.' L ] oX} wX/./.J } ] r.d.] r.[ p._ uXb.k.n.W.1.<.u 7.o.o.1.n.u 7.7.=.=.m.x.p.&.=.O.y 6.5.;.d d d d d H.f g ;.u >.>.2.d P.j 3.9.1.9.T.3.U.3.k.T.9.9.0.T.k.0.5.iX0.9.n.b.0.b.b.4.<.U.J.A.g j U.9.9.H.f 4.2.9.2.g g f 2.2.j j 2.2.2.2.3.j f C.f 2.2.g q.9.g >.>.>.d d 1.:.6.O.;.n. .|  . ... .#. .6.+.$.6.q.5.;.3.f g g u a B.s s 1 <.d a s f d t g u 2.f f 2.o.u y u o.2 e d r 0 h r 3 t e d f s g >.o.X.| y y d 1.o.;.o.1.1.=.-.[ { / ^ t.c.T t.8Xd.{ B ~ ! B % / / [ / / ^ ! ^ ",
"v.0X9Xv.d.8Xv.8X9X9Xv.c.0X9X8X{ v.v.v.v.d.d.d.d.i.d.d.y.{ { / [ ! / ^ t.a.c.x.d./ ! / d.v.d.y.d.8Xd.8Xv.8Xd.8X8Xv.d.8Xd.8XqXv.8Xv.d.9XqX8Xf.3.C.V.V.C.>.>.Z.g >.>.g C.C.f C.2.g G.g 5.1.8.i.v.d.8X8X9X9X<.<.>.g C.f >.2.C.V.g C.V.B.f H.B.B.V.V.j t t A x D U G H J G J H r.d.oXoXc.m.$.$.X.X.| o.$.q.2.H.A.H.K.A.H.2.j 2.,.2.:.<.2.<.d <.:.d 2.,.3.2.A.2.<.<.n.9.1.O.,.>.J.C.B.g H.J.g 3.P.4.H.C.H.A.d S.V.H.9.P.J.A.2.B.G.Z.A.H.g <.g u 0 o.e d 9.9.1.<.k.l.9.2.<.7.:.n.i $.7.5.7.b.-.$.7.7.6.l 8.o.5.<.k.k.<.k.u Y.;.<.d 5.k.a Y.4.d <.<.9.t <.o.7.1.>.t t r o.,.;.7.5.U.q.e.r.P ' ].r.{.].} .X.X] d.' y.d.r.uX) T.n.<.8.U.1.e u 7.u R.o.U.<.7.8.x.M.0Xu.-.8.m.q.:.8.Y.;.s g d d d d 3.2.;.d >.g j 2.4.2.k.2.3.2.4.j E.J.4.G.C.9.k 9.4.9.7.n.b.2.b.0.2.1.b.2.3.2.P.A.f j T.k.b.T.f j f 3.4.2.A.f 9.2.3.9.k.2.Y.g g Y.f f g 2.g 2.9.9.g j g g g g 2.1.n.9.j 4.6.+.| #.#.O.=. .O...X.1.1.o.u ;.u s 3.% 1 y y 2 1 | $ 0 e u r 0 u y e 3.d r | r r X.u t ;.s r 1 q r < t y d d g f g o.r r d d | R X.<.o.o.O.O.*.R / ~ ^ t./ v.d.{ [ ( / ~ / ! ~ / y.d.[ / T ^ ! ",
"[ [ c.v.0X9Xv.iXqXd.d.c.v.9Xd.i.c.9Xv.v.c.d.t.i.i.i.d.[ [ y.[ [ i./ T *.u.i.d.v.! ^ d.d.8X8Xd.v.8X8X8X8X8Xd.8X8Xd.8Xd.d.d.v.d.8X8Xv.8XqX9Xb.A.C.P.C.C.C.B.V.A.,.>.A.g C.f g f V.A.g 2.=.n.d.8Xd.v.9Xv.v.q.<.;.;.Z.s A.>.C.V.f B.V.f f C.V.F.F.V.C.d +.V x x D I G G } J H I G ] oXoXd.=.o.u O.u r r o.1.g g A.A.g d >.2.g j >.1.2.>.Y.1.d 2.j 2.3.4.G.g j 2.;.b.b.<.d 2.y u t 4.4.H.2.j d <.3.f 5.9.g d j j g 1.3.2.<.9.2.Y.2.2.G.A.d g f s d e 2 # 9.w 9.u k.:.i <.5.7.U.8.:.0.G.$.%.l.=.7.n.7.5.l.u o.7.<.U.4.<.<.8.6.Y.<.k.9.4.Y.d d d <.3.a 1.u <.1.t d s t y 1.2 u <.1.#.e.r.L r.I I .XoX} 8XoXy.9X' oXL r.0XiXn.n.U.E.n.k.d <.1.<.U.b.8.7.q.O.&.p.&.8.n.m.7.n.5.5.R.d d 4.1.<.s d 3.u 2.d 9.s d 5.<.u ;.r u y d u 0.g 0.;.3.d d >.3.3.9.b.0.>.7.5.>.o.b.g 9.2.Y.0.0.Y.T.n.k.U.J.j f j <.U.J.S.2.g f s k.9.J.f 2.G.Z.2.3.Y.3.H.g 9.g G.f g g 0.1.q.0.2.j d 1.+.+.O.=.O.$.6. .q.o.q.q.:.d >.d s 4.$ , X.u d 2.O.y r r 6 | < 0 X.t b.>.y 1.d u ;.d u R X.< 2 1 | < u | y d f f 2.;.y 1.2.| u ;.>.,.X.;.o.6.#.E ~ T T / T d.[ [ / ^ [ [ d.t.[ E y./ / / [ / / ",
"t.N ~ / i.m.0X9Xv.8X8Xd.8Xv.d.c.v.d.c.[ x.v.d.d.i./ M.d.{ [ [ [ t.[ [ { [ [ [ y.d.d.d.d.d.v.v.v.8X9XqXv.v.qXqX9X8Xd.d.d.8Xd.v.v.qX8Xc.9XqXY.U.A.S.C.>.H.C.V.V.B.B.B.V.g j A.B.B.g Z.A.G.9.f.9X8X8Xd.v.d.a.g 2.3.g d ,.B.V.B.B.V.V.g s C.F.F.F.F.Z.9.+.V V M D D H ] J G J J J G } I .Xd...o.u u y X.| | :.2.A.B.B.H.Y.J.H.G.J.J.S.2.q.9.<.P.A.3.d J.P.A.2.4.5.7.4.9.C.B.f d <.>.f f d U.B.C.A.B.P.S.g >.A.S.H.2.3.d 1.b.4.3.9.4.H.j g 2.f g s 4.d u y 0 e 1 r 7.5.7.<.Y.$.1.u <.;.6.r 5.7.u k.u $.$.<.d 1.a I.k.d 6.w.f.f.8.7.3.0.0.4.s u <.s d k s a a f s g a g s <.1.0.;.A A A H M H H oX.X/.J } } 8X] ' ] d.0XgXb.k.!.b.E.m.4.2.<.5.6.n.b.Y.7.5.m.x.) x.x.n.i 0.<.<.I.9.U.2.3.3.f s d t 9.;.7.2.<.E.s 7.2.g g f d 2.H.d 9.b.9.g 2.2.>.u 1.<.;.<.o.1.;.0.7.g g 2.9.3.4.k.j U.J.4.E.f 2.4.3.E.k.k.J.A.C.j G.J.f f 4.9.H.k.n.T.P.2.j Y.C.g g d 3.9.9.3.3.d 2.u 7.=.#.O.7.;.9.q.1.1.6.6.1.<.>.g g g g * 2 O.u 9.g d g X.q t t y , R 2 0.9.3.2.d <.;.o.R R 2 R < < d R r R e d f g g d 2.g g ;.t d o.;.O.;.,.$.*.@.@.@./ ) / ^ ) y./ t.t.[ y.y.! E ^ / t.[ / t.{ ",
"v.{ / d.[ i.{ [ y.[ d.c.d.v.8Xd.d.i.0Xv.9Xv.v.c.d.c.i.9Xy.{ y./ v.{ [ d.y.y.d.d.8Xv.8Xd.d.8Xv.9X8X8XqX8X8X9XqXd.qXqXqX8X9Xv.c.7.b.0Xf.M.f.q.P.A.C.C.C.B.V.V.B.B.V.V.V.C.C.2.A.f S.C.Z.S.2.b.f.0XqX8X8X8Xd.3.2.A.C.J.:.f V.K.V.Z.V.S.g B.B.B.F.F.g H.p w 2 x H D D ] J U U J U G d.G I ] g.=.X.u w y t d :.,.G.g C.C.Z.A.Y.b.E.E.J.H.9.;.r R | <.g C.Z.g 2.H.2.4.Y.Y.2.f f C.d g g s t Y.2.f J.S.S.B.C.g Z.A.U.2.k.g <.Y.H.C.P.A.2.P.9.<.3.9.d j g g g 2.:.;.r r <.U.7.l 8.7.9.<.<.6.$.<.l.5.3.r 5.$.<.t 1.2.4.4.0.-.m.w.=.m.q.f.w.w.w.6.s d s s d 4.s s s 2.g g d d 9.2.4.>.#.P A A A M M ' J J J oXJ ' L ' ' a.c.M.b.5.U.7.Y.3.Y.9.3.;.0.9.7.0.<.l.M.M.iXx.M.b.E.9.2.1.U.j j P.4.Y.S.s g g d 9.9.U.M.k.s 9.<.d 2.g j b.2.9.5.Y.f U.j 4.4.k.9.3.o.0.7.0.9.n.j 2.3.s d 1.3.3.f 9.g g 9.g f 2.d 4.j U.A.A.A.Y.4.Y.2.2.g 3.9.2.b.Y.3.k.b.9.J.2.f A.j >.2.A.2.G.1. .b.6.:.1.9.2.2.3.<.;.,.9.:.2.;.3.2.3.9.+.e X.u 1.o.X.u d s y t u < 6 u 5.3.4.<.;.y d o.+.+.2 | V 2 u X.e u a s f g j g g ;.u ;.r o.,.o.;.;.,.#.E @.O.w.y.! t.y.) y.t.) [ / / ^ t.~ 3 *./ T i.d.) ",
"v.v.d.v.d.v.{ i.i.[ c.{ / p.v.9X9Xc.qX9X8XqX8Xv.v.8Xd.y.d.y.y.{ { d.d.d.d.v.qXv.v.9XqX8Xc.0XqXqXqXqX8X9X8X9XwXqX8XqXqXqXv.v.c.f.$.U.7.J.J.4.H.J.G.2.B.V.V.S.V.B.V.H.B.B.C.H.A.Z.C.B.g A.2.Y.a.0X0XqXqXqX8Xv.9.<.3.J.C.g A.G.2.:.V.A.C.B.B.V.F.F.f S.V.w V M ' L ] ].].U U U U } 8Xr.] G oX8Xg.y <.m.y t s 1.O.2.A.A.G.C.J.U.H.3.P.9.U.9.2.+.< <.s g 2.g A.2.,.1.Y.9.G.A.B.B.C.g f f g g >.d 0.j H.J.H.<.2.j 3.k.4.4.J.2.H.9.H.G.3.9.k.9.k 4.1.a d 9.2.1.b.j <.d u o.q.w R.5.Y.o.7.$.Y.7.k.T.i <.5.l R.o.<.7.k.5.f.#.g.e.s.m.f.m.g.#.#.f.n.2.u u d 5.k.g f k.4.3.2.k.b.;.9.d e.P A A K P M ' ].} } .XI F F m ' N *.t.7.0.<.5.7.1.<.k.k.7.n.0.n.0.k.8.m.m.iXm.n.l.iX2.J.5.T.G.g Y.4.H.C.f g g s 9.9.j T.G.g g s P.g 2.3.T.7.b.n.P.9.E.A.2.d E.T.0.o.<.b.8.3.g g 9.E.C.f 0.R.9.2.2.g ,.d 3.d g g >.s k.g f j <.k.2.H.C.g 0.P.A.9.9.k.k.U.E.uXT.G.S.g 2.A.g 9.H.j 7.n.4.2.3.3.2.<.<.o.1.>.<.2.o.<.E.2.2.b.$.r O.0.2.>.+.u u u 2 u 1.d s g 4.1.;.R <.O.o.X.+.O.y d d u e e s r u g C.g 2.>.g g O.;.X.O.;.,.>.d :.$.@.=.w.@.t.{ y.y.t.i.[ / / [ / ~ / / N N ~ / y.[ ~ ",
"i.v.0X8X8Xd.i.c.c.c.d.[ [ / ^ d.{ v.i.v.qXv.v.v.d.v.d./ i.d.v.8Xy.d.y.d.v.d.v.8X8XqX8X8X9X8XqXqXqXqXqX8XqXqXqXwX8XqXqXx.m.v.s.-.-.q.$.3.J.P.H.K.G.q.<.C.S.P.V.V.S.H.S.S.V.G.J.A.C.V.B.C.G.2.b.f.f.0X8XqXqXv.f.S.A.G.B.V.C.g A.,.,.>.Z.f V.Z.B.F.C.V.V.2.V M r.] ] ] .XJ U J U d.8X0X8X} oX] d.$.b.n.8.u d 2.3.4.j g 4.3.k.k.2.H.H.m.n.k.4.j 7.9.<.4.k.2.g g >.0.<.g A.C.f f A.A.B.C.g j g C.o.1.>.2.G.:.1.b.0.9.j Y.P.G.Y.9.J.2.J.A.C.2.C.C.3.d d 9.4.2.1.d s <.1.1.7.1.1.d y u o.T.7.k.<.<.7.0.o.$.9.8.b.7.I.n.#.g.e.e.s.g.g.g.g.e.e.#.w.f.0.2.3.3.2.3.f k.T.b.f 1.E.Y.9.2.A P A A A I I J +X].] ].J G m m C T @.) 8.0.q.;.1.5.o.1.1.1.1.0.1.q.7.q.8.f.$.n.l.<.n.n.4.1.uXY.k.Y.k.H.j 4.3.f f 3.T.k.9.j 4.2.2.T.j 3.9.<.E.3.Y.j 4.0.G.j 7.n.0.0.;.u %.6.<.u 9.n.k.j 2.9.U.U.U.P.9.9.f 3.d 9.1.U.2.2.g s q.3.;.d d d <.2.2.j P.j Y.0.Y.Y.U.Y.P.H.J.J.2.2.4.4.2.U.b.2.j 3.2.2.2.j d 2.g 0.>.;.d E.9.<.0.1.r 7.b.g f g <.:.N 3 7.<.g ;.4.0.;.2.O.;.:.;.o.;.| ;.o.t s <.j >.R e 3.2.g H.>.>.g X.d ;.,.g g ,.2.w.6.w.#.6.=.u.y.y.y.y.d.d.t.[ [ / / ~ T E N ^ y.( / / ",
"8X{ v.8Xv.8Xd.v.d.8Xd.d.t.a.m.i.t.y.t.d.y.[ { y.8XqXv.8Xc.qX8Xv.qX8Xd.d.v.8Xd.v.9X9X8X8XqXqXqXqXwXqXqXqXhXeXwXgXgXwXqX0.T.n.f.0.J.q.,.O.4.J.H.A.K.q.<.C.S.S.C.H.K.H.A.K.V.B.T.uXA.H.K.B.2.3.q.q.q.b.m.qXqXqXv.P.S.G.P.C.B.V.V.G.@.<.g C.B.C.H.V.C.Z.C.p 2 S M G L r.oX].J J U ].8X9X8X8XOX].r.e.O.u o.o.u J.S.C.C.C.>.>.2.3.P.V.C.T.E.S.g C.A.2.J.1.3.>.>.2.j 9.G.A.Y.C.g g g C.B.A.H.C.B.2.O.,.<.O.6.:.O.b.U.9.2.9.H.Y.H.G.G.4.P.P.A.2.B.C.g U.S.3.P.j 9.9.>.;.b.4.7.9.b.1.| u o.3.y q.d t 7.:.k.=.r 8.<.8.7.m.e.g.r.r.r.e.e.g.g.e.e.g.s.g.f.f.1.4.2.9.9.9.3.P.d 1.M.uXg w.A P P P Z L ] J +X.X/.J /.G ' ] ' u.t.=.7.0.b.b.<.2.<.<.q.1.<.o.,.5.0.1.=.6.6.$.n.3.1.q.d k.Y.j G.2.U.j 4.j U.A.G.Y.E.aX9.2.2.4.Y.k.J.2.J.g 9.2.9.3.P.0.7.d b.b.o.6.$.6  ...| 8.b.9.<.k.9.4.P.G.4.A.2.9.j 3.2.4.2.uXH.2.G.G.k.H.g >.,.b.0.d 2.>.3.4.2.P.0.2.9.j >.2.4.4.9.Y.H.2.2.4.9.>.2.3.4.j 2.j 2.2.2.T.A.C.d uXY.j 2.G.o.Y.q.4.g g ;.;.o.<.0.9.>.r X.7.n.T.b.;.7.<.<.,.O.X.O.r 6.>.g d >.g >.,.>.2.#.O.:.O.d d >.>.,.d <.1.O.w.w.6.0.a.d.y.y.t.s.-.=.t.e./ ^ E ~ ( T T / ! ~ ^ ",
"qX8Xd.v.8Xv.qXqX9Xv.d.d.v.i.c.c.9Xc.c.i.x.a.[ ) v.d.c.qX9X8Xv.8X9X8X{ v.9X9XqXqXqX8XqXqXqXwX8XqXqXqXgXeXgXeXgXqXgXgXqX9.Y.J.J.J.G.H.J.q.1.q.A.A.T.H.Z.C.A.G.H.K.H.S.H.S.V.V.uXiXaXP.C.V.V.S.G.3.9.b.n.8XqXqXqX8XH.G.A.S.V.V.>.A.2.3.g d B.V.Z.g J.C.S.S.9 3 S x H ] oX].J J ].J oXd.8X8X} J ] r.#.u t t t s B.B.B.C.V.C.A.d G.C.G.uXT.B.A.S.A.Z.2.2.A.j 2.>.:.b.j j Y.Y.3.j f C.g j 9.2.Z.2.J.A.2.2.,.;.d o.1.;.7.k.j j P.J.2.P.P.4.4.b.A.B.g k.J.4.2.9.n.k.b.k.E.b.U.k k.b.3.<.k.a <.<.t u r e 0.%.i 9.u 7.8.s.P P g.P r.P A g.g.g.s.g.+Xw.w.w.w.T.b.k.k.f 2.Y.j U.E.T.f >.A A P P P L I J r.qX/.G } ' ] ' [ p.-.7.X.b.0.b.<.<.2.3.9.j g 2.2.3.0.9.0.5.0.5.0.9.q.1.d 9.j j >.s d t <.2.g s g 4.n.9.j 2.j f d 2.A.f 4.2.J.4.U.n.0.n.7.7.=.8.$.$.6.O.1 =.6 $.n.2.2.k.b.4.4.C.g A.j 9.P.2.g 9.>.9.4.Y.2.4.J.G.H.J.b.b.9.0.k.j 9.H.g 2.3.3.9.;.<.;.2.>.<.U.3.4.A.2.9.G.<.;.P.A.S.2.j A.d b.G.j b.T.Y.C.g 0.9.>.>.0.2.g d 3.5.Y.k.3.,.+.O.<.b.b.3.3.q.2.g ;.q.,.f.f.s.#.t g S.A.d >.d 2.;.o.>.o.u d ;.:.O.2.<.,.1.<.6.6.-.6.-.w.6.6.w.=.=.s.~ T E E s.[ / T N / [ / ",
"aXiX9X9X8Xd.v.0X9X9Xv.c.8X8Xv.c.v.v.x.i.x.m.n.m.x.) ) [ y.[ i.v.i.c.8Xv.qX8XqXqXqX8XqXeXgXqXqXeXqXeXgXwXqXqXVXeXqXiXiX9.G.G.H.4.G.S.H.j G.1.2.<.b.uXB.S.H.P.G.A.A.P.A.V.V.V.T.iXiXH.G.C.B.S.K.G.2.3.9.n.qXqXqX8Xq.k.C.V.B.C.V.V.V.F.B.r G.>.,.h C.K.S.uXp t i ~ F H )..X].U J U J 8X8XJ /.J J L h.t t t y t s A.A.B.H.A.H.G.A.A.k.T.Y.B.E.T.P.C.f G.C.V.C.V.S.9.2.f g 2.J.V.B.B.C.H.A.4.Y.Y.A.S.g j 9.;.<.;.<.;.o.3.s s d 9.4.k.k.n.9.k.4.s 4.s k.l.3.d U.n.Y.j l.n.E.S.k T.2.b.n.l k.s 3.d i e %. .$.7 e r u +.M P r.P P r.P e.h.g.g.r.e.#.e.g.s.uXn.k.j 2.2.0.Y.T.R.U.f f h.A A e.K K ]..XoX8X/.].].r.] d.i.c.8.5.9.7.b.7.0.9.<.l.3.g 3.k.3.2.9.9.9.1.<.l.9.k.9.Y.P.4.A.f 9.2.f f f j f f d 9.k.k.f 3.g f u u s g y d H.d 9.o.u 7.o.=.8. .Q  .x.M.+.=.g.@.f.d C.f Y.3.Y.n.Y.9.P.H.j P.C.9.J.2.4.T.J.4.T.P.f 3.k.3.3.9.Y.A.f A.j j j H.4.9.S.C.g g 2.2.d 0.g j b.<.>.X.>.3.g >.g f C.j C.f uX9.S.f 9.E.9.s s 9.T.4.Y.U.9.3.9.1.q.| 0.2.0.2.g g <.2.3.<.0.f.g.g.e.#.s 2.u d t s t 3.f f S.d d d >.2.2.2.g 2.;.1.O.O.1.:.O.O.6.<.q.*.@...E +.=.-.u./ ^ T ~ / { [ ",
"v.c.0X8X9X9Xv.9X8X0X0Xv.c.9X0Xv.c.c.c.c.t.i.x.m.x.x.i.t./ ) ) i.{ u.x.8Xv.d.8X9XqX8X9XqXqXqXqXeXqXgXeXhXgXwXeXqXqXqX0Xn.k.H.H.H.1.A.2.H.3.2.2.6.1.1.C.A.H.Y.G.P.H.H.S.S.V.V.C.U.U.V.V.V.V.V.C.T.J.G.2.0.qXqXqXqX8Xa.S.V.B.V.F.V.F.V.B.f S.g o.t V.B.B.A.S.5.i O.x D D I /.J ].} ].oX8XoX/././._.P y y w y t u 2.H.H.E.E.E.H.4.E.n.k.4.4.b.k.g B.J.n.T.j H.C.C.4.C.A.A.G.2.C.f f G.J.A.2.uXE.S.Y.P.f b.b.9.;.9.2.3.<.<.u u <.;.<.d 5.9.2.j j 3.3.j 5.E.<.b.n.<.k l.k.d R.3.9.<.Y.7.7.s <.n.d e i $.o.$.r 6 o.r A M P P P P r.e.e.e.r.( P e.' P e.#.s.w.d 4.U.1.k.T.l.Y.9.2.X.A A A e.K ' ] oXqX} {.)./.d.] ] d.9Xx.b.7.3.9.n.T.4.3.2.4.4.d 9.j 3.9.<.<.t 4.j 4.b.k.A.9.3.A.f 9.A.V.B.B.f P.H.k.b.4.E.H.C.f j j S.f 2.g 2.J.2.7.o.o.7.$.=.=...6 5 ^ a.#.+.s.#.#.+.d 2.l.k.G.P.4.2.J.9.2.A.f 9.j 4.T.P.4.n.U.j 2.j j j g j 2.j k.J.2.9.A.A.f 3.g g g j 4.g 2.9.g g k.J.g j <.3.,.d | <.f f f P.2.g C.f b.U.>.f f 4.k.T.T.g 2.d <.2.1.d ;.d o.;.4.o.9.5.b.n.g.g.r.P e.w.:.6.7.d t u t <.g f B.f j f C.g A.>.d <.>.,.,.,.,.1.+.6.:.:.O.@.R  .O.O.#.*./ @./ ! ^ / ^ i.",
"qX8Xc.0X0Xv.8X{ d.y.c.v.0XqXv.v.9Xi.u.m.v.d.) t.d.*.i.c.c.c.^ ) d.! ^ { i.9X8X9X0X0X0X0X9X9X9X8XqXeX8XqXgX9XqXqXwXqXn.U.U.E.H.G.1.3.2.A.A.A.Z.G.2.6.,.j S.J.U.U.H.J.A.B.I.V.V.J.b.S.B.S.B.V.V.A.E.G.2.J.m.qXqXwXgXi.3.C.S.B.B.V.F.g f f A.V.C.s C.g C.S.p 1.y e M x x I J OXoXoXoXoX8XqXoX[.[.(.H e.5.w t t t <.<.9.k.Y.E.E.T.T.n.R.A.J.,.d >.g H.B.S.S.S.g C.0.A.A.G.S.G.S.>.>.O.O.2.f 3.H.P.3.U.2.9.b.9.n.9.9.4.>.4.<.2.4.s d u u d t t <.b.k.4.3.1.P.j d 1.<.4.9.k k.n.n.9.<.k.k.<.k.b.o.e  ...b.r =.$.i  .A P H H P P P P H ).U I M P r.e.e.#.#.w.w.f 4.9.U.5.E.E.2.0.9.A A A P K K ] ].].oX{./.).].] ] r.0Xm.b.1.2.b.9.b.0.2.g G.2.j 2.C.A.J.2.3.5.b.P.9.n.Y.B.4.4.j j j H.f f f t 0.9.T.P.g J.C.A.S.Y.E.P.P.G.Y.k.P.G.J.1.8.=.M.E. .x...6 B d.( e.~ #.e.e.+.<.k.3.A.H.f C.j 9.2.2.2.j j 2.b.J.8.Y.2.g P.j g j f j H.J.Y.n.U.G.C.H.S.g 3.f 4.2.j 2.2.4.A.C.3.j f g 3.Y.4.2.2.d j 4.2.9.2.g g ;.q.4.s >.d <.1.P.A.g j 2.2.g d u d <.<.0.1.0.M.m.uXg.r.' e.e.h.e.s.f.s.g u o.u 0.o.d f j 3.g f g 2.X.d 2.,.,.2.3.O.;.1.1.<.O.O.O.:.:.w.+.O.*.w.*.#.B ~ / / y.",
"aXqXv.m.9X0Xv.c.9Xv.9XaXiXqXqX0X8Xc.c.c.9X9Xi.u.v.i.i.a.a.c.[ i.i.[ ) t.[ v.9X0XqX9XqXeXqXeXqXqXqX8X9X8XiXqXqXqXwX8Xn.9.H.U.J.H.3.2.H.C.G.G.C.C.S.A.A.,.A.C.C.V.S.H.V.V.S.B.B.U.m.E.B.g S.S.V.S.T.J.2.J.J.qXgXgXwXc.-.G.A.V.V.B.C.G.C.f J.V.p Y.A.g g C.g ;.t o.( m K H ] oXoX8X8X8X8X8XqXqXqXqX[.g.m.T.n.u 5.5.k.3.k.Y.d U.E.uXT.aXP.G.;.>.A.g 2.B.V.B.Z.C.H.b.2.2.2.J.U.P.Z.Z.2.Z.g C.>.A.2.<.1.3.1.Y.9.b.T.b.J.A.g E.A.H.A.A.2.A.j s 3.>.<.9.k.9.3.E.S.j Y.4.4.0.9.2.9.E.9.<.U.9.k.4.7.%.i r l.M.r $.n.x.f.#.P L I D P ' J J J /./.L H P P P Z h.e.f.,.d 4.9.5.U.J.2.9.0.h.P P P e.L } {.J 8X{./.} } oX} ] d.0X8.b.3.E.b.U.2.3.G.C.2.2.2.2.4.H.9.d 3.l.U.b.aXP.S.J.9.H.4.3.Y.A.j J.j j U.T.2.9.C.f j g d <.U.j 4.T.b.J.2.E.q.-.=.=.M.$.n.-. .C oX' P A ' e.e.( r -.;.d P.9.g d 1.2.k.G.j P.A.4.0.n.9.g 9.3.A.g g g 9.3.2.2.k.4.C.H.J.4.2.J.A.A.A.g g g 2.2.g 3.g g d 9.k.U.4.H.g j 3.Y.k.H.Z.>.1.0.3.9.9.>.1.<.>.3.3.3.2.3.:.;.u ;.>.J.J.4.f.g.g.r.] P P P P P e.e.e.h.g ;.d ;.0.>.f f j d g d G.>.;.2.,.:.1.O.O.o.>.2.g ;.;.:.O.$. .O.O.q.3.6.q.=./ T / { y.",
"M.0XqX0X0XqX0X9X9XqX0XiXqX0XgXqX0Xv.c.c.v.m.i.c.9Xv.i.i.c.8X9Xi.c.v.v.x.v.i.v.v.qX9XqXqXqXgXeXeXgXgXwXeXgXgXgXLXgXqXqXY.H.G.b.uXH.g J.V.C.Z.S.B.H.S.B.B.A.3.A.B.H.A.V.V.S.U.K.V.P.uXB.V.B.S.B.K.G.E.Y.U.H.gXhXwXgXv.9X3.C.C.V.B.J.E.H.g E.H.f U.4.E.G.S.>.;.$.m.e.' K L ] oXqXqX8X8XqXqXwX/.OX#X%X'.d.0Xx.8.T.0.8.k.E.k.b.U.n.uX!.!.U.C.A.G.J.A.9.4.n.0.b.3.b.U.G.J.b.uXU.E.S.A.Y.H.A.g 9.H.3.T.4.J.6.8.4.<.uXT.G.P.G.Y.U.P.uXE.U.H.J.P.P.P.g d 2.o.>.9.J.2.T.4.A.T.Y.T.T.T.k.n.k.T.3.2.8.$.%.i n.l.n...n.0X9Xv.oXI L I ' d.OX{.XX/./.].P H L M r.P e.e.w.:.<.4.9.<.s d s #.e.A A P e.] ] J I oX/.].} ' r.' d.d.i.p.8.E.uXU.4.P.k.k.k.Y.j j J.A.S.9.9.A.0.T.k.U.Y.9.3.T.C.Y.4.P.G.P.b.U.T.E.uX9.T.C.J.j G.g d 3.>.q.U.E.T.n.l.0.$.n...b.n.$.%.t.A ' r.P A #.e.e.e.#.f.8.7.k.f.<.;.3.k.n.2.<.d 4.0.U.T.9.2.9.Y.P.J.2.4.E.C.H.H.2.2.g H.4.J.G.j H.A.g G.g A.j 2.d k.H.3.4.b.4.9.2.H.4.b.T.uXuXJ.H.J.4.3.0.Y.9.2.4.Y.q.0.7.q.;.q.:.,.N X.:.f.g.g.g.r.P D P D D D D H H D H h.>.d g G.P.H.C.C.C.Z.g 2.g >.d 2.2.2.>.>.g C.g >.2.;.2.3.O.+.1.;.3.1.:.:.3.=.*.N t.i.y.",
"qX9X0X0X0XqXqX0X0X9XqX9XqX0XqXv.9X9X9Xd.d.i.t.u.c.v.c.x.0X9X0XqX9X9X0Xv.qXqX8X9X8X9X9XqXqXwXwXgXgXgXgXeXeXgXgXeXqX8XqXT.3.G.P.Y.A.A.C.S.J.j Y.Z.K.H.C.C.B.A.1.:.,.k.U.A.W.U.B.V.H.P.H.V.V.B.P.S.V.U.T.E.H.P.eXgXgXc.gX2.j B.F.V.C.P.C.g Y.2.k.P.k.J.S.P.A.>.o.r +.B ' ] ] oXqXqX8XoXqXgXqX{.OX(.(._.XXd.] #.u u 5.n.U.k.W.E.T.U.W.3.4.4.J.H.Y.H.Y.Y.T.0.U.j j b.2.k.n.E.b.T.9.2.9.4.H.<.n.E.n.3.3.9.1.1.<.3.1.U.<.9.9.<.T.n.k.T.k.E.n.E.T.b.A.2.q.9.d s ,.<.g d 3.0.b.T.T.E.uXiXP.G.P.e b.r r r =.6 0.-.a.n.9Xd.oXU ] ] P oXwXOXqX[._.]./.H G P r.r.r.e.#.w.,.2.d 9.A.B.w.h.h.A e.Z P ' G F ] ] ].].G ' K y.' g./ O.r U.o.b.7.b.3.3.3.3.0.4.3.H.g 9.0.j k.b.Y.0.3.k.E.k.2.Y.G.J.A.Y.P.4.E.U.uXuXS.V.j P.Y.H.H.j P.P.j b.P.T.2.3.8.=.8.M.f.=.*.s.' Z e.e.e.e.e.e.' #.f.=.f.<.0.b.3.2.b.k.k.3.d f.0.f.<.9.G.2.2.2.3.H.2.J.A.P.A.G.G.H.3.f.H.g A.3.Y.j H.g A.A.G.U.3.A.P.P.Y.2.H.G.A.d U.T.k.E.U.E.E.Y.P.b.Y.g ;.5.0.<.2.2.<.1.q.O.,.;.o.b.g.s.g.r.P D H P H M M x H H H A +.O.u X.;.6.;.;.>.,.4.g j d >.>.;.;.d g d g C.g >.,.O.2.A.,.:.,.2.4.q.6.1.1.=.*.^ ^ / t.",
"9X0X9X0X0XqX9X0X9Xv.v.v.0Xv.v.m.qXqX8Xt.c.a.i.^ a.0Xv.c.c.v.0XqXi.v.c.8XqX8Xy.v.qXv.qXqXqXqXLXgXeXgXhXgXwXeX8X8X8XqXqXb.9.G.J.S.S.H.B.A.U.A.A.B.C.A.C.H.A.4.4.3.7.b.0.3.b.H.G.P.T.P.T.S.C.C.B.V.V.A.P.Y.P.G.H.T.qXqXqXH.2.2.B.C.Z.4.P.H.A.g E.J.P.J.H.J.C.0.;.r X.| n F H oXoXoXqXoXqXqXqXqXqX@X(.(.].OXI ' w b.n.n.b.T.J.H.W.uXb.g d b.1.9.b.9.Y.Y.U.k.9.P.j Y.<.<.>.3.P.U.Y.C.B.G.G.>.U.P.4.g g d 3.9.;.<.<.7.9.3.j g <.9.g 2.9.l.n.9.k.9.3.b.n.9.G.g j 2.a t 1.d <.>.d <.5.aXC.G.t e $.r 7 e .. .r p.p.n.qX] .XU ] ] K .XoXqXwXXX/././.J H I I I P P h.e.w.4.3.9.J.s h.A A A h.A ' ] ]./.(.} +X/.J } ] oXoXc.b.1.<.b.o.1.T.0.2.<.2.<.1.9.;.<.9.;.7.7.1.l.9.b.j 9.U.9.U.g f Y.S.g 4.4.U.C.U.U.V.C.C.A.H.C.P.H.2.G.j 9.4.b.2.2.n.$.l.m.=.%.a.Z e.P P P e.e.P L P e.@.#.o.o.7.q.<.7.k.q.k.4.j 3.7.Y.d 0.2.>.u d d d y 1.d >.t 3.g 2.C.U.G.g g 9.j g 2.j f f J.3.0.H.j 2.J.2.A.A.G.s 2.9.4.3.4.U.U.9.9.Y.4.g o.<.3.g j >.2.3.3.1.1.g.f.s.g.r.r.I U D L P H M M M M H P A h.;.:.:.X.f.O.;.,.O.:.<.>.o.R R R V | | 2 o.o.X.2.g j d :.+.+.o.,.O.X.O.+.=.O.=.-./ ! ^ ",
"d.a.0X0X0X9X9XqX0X8Xv.v.0XqX9Xv.qX8XqXqX9Xc.c.c.a.v.v.c.v.i.c.i.c.qX[ c.n.f.n.n.n.qXqXqXv.qXLXgXeXgXqXeXqXeXqXgXgXgXqXm.J.J.G.C.A.H.A.A.S.S.B.V.V.S.A.K.V.V.A.b.E.b.3.>.;.g 9.uXE.U.E.Y.U.P.Z.A.P.f n.uX2.A.S.H.n.gX9XP.2.g H.V.B.2.J.P.H.f Y.B.V.V.G.A.G.3.S.t 8.O.r n M H oXd.qX.XqXqX8XqXqXwX'.}..XOX_.r.' n.uX7.>.9.P.G.Y.T.U.g f 9.2.g 5.9.k.b.n.4.j 4.3.0.0.g t t ;.<.9.H.f 0.3.2.4.J.g 2.A.G.A.Z.f g T.A.J.2.A.2.G.J.S.J.T.2.C.A.S.G.3.9.J.P.G.A.G.H.f J.9.g g s a h o.k.d u r i  .r r r r  . .&.&.d.8XI G I D H ].#X#XwX<X`.{.{.{.).D D U P P P P e.s.f.U.4.J.C.9.#.h.P A e.r.} /./././.8X/.{.] ] oXoXs.b.:.9.<.3.j E.3.2.9.C.2.>.<.b.0.1.1.b.k.3.3.q.k.d <.3.k.k.f 2.4.f f 4.2.P.S.P.3.g k.G.2.g C.2.g 2.2.Y.0.U.4.k.b.m.n.m.R m.6 B B e.P ] H L H D D L ' e.+.r O.$.:.;.0.5.b.k.G.g d 7.<.1.b.3.2.<.J.f s d 3.g d d d <.<.2.b.2.2.2.P.j j 2.J.C.j P.2.U.H.S.f G.g g g 9.C.f T.j 9.3.R.G.f j k.0.J.H.O.1.2.g 2.2.3.4.2.g.s.r.e.r.I I U D H H H H H H H M P A A #.1.1.;.1.0.>.d 4.,.>.>.2.o.o.t d ;.u r O.| >.g :.o.>.o.d ;.@.o.O.E < N N R R @./ [ N Y ",
"9Xt.a.u.0Xv.0X0XiX9XqX0X0X9Xv.9X0X0X8X9Xv.9X9Xv.c.c.i.x.9X0Xx.c.n.1.$.5.7.0.0.q.q.m.qXqXqX8XqX9XqXeXeXeXqXeXgXgXhXhXwXgX9.J.2.9.Y.J.A.S.B.S.J.A.B.P.S.B.V.V.V.C.S.>.9.J.,.:.g 2.b.aXE.2.Y.G.B.V.C.H.n.uX4.P.A.H.4.iXqXP.A.Z.G.V.F.S.S.j U.f P.A.S.V.S.G.U.H.S.t o.o.b.$.m M L r.] ] oXqX.XqXoX[.(.'.'.{._.] ] 9XM.b.b.n.!.P.j R.n.Y.J.9.U.2.g j A.j U.J.H.B.S.k.H.g 3.g g s d <.d <.d g 4.3.4.9.3.k.4.f C.j b.j f Y.4.9.k.9.k.3.1.4.2.4.9.Y.4.f j k.k.A.f 2.2.4.9.2.C.C.f g k.k.d e o.r i e r 6 .. ...T #.r.] H x ] H H '. X$X X<X X].].].I D D D U H P P g.g.m.U.J.A.f P.#.e.P e.' ' ] ].{./.{.oX{./.] } ].] e.9.2.9.j j 4.E.C.j j g 4.3.3.9.j g 5.n.3.J.2.2.3.g J.d 0.3.d <.s >.;.7.0.d 3.<.9.<.5.d 4.d 2.g j g s 4.R.Y.2.9.n.%.6 Q %.m.6 B A ' L I J J D D D D P e.~  .O. .o.;.7.2.2.q.3.9.8.U.4.9.k.k.G.A.A.V.f j A.A.2.4.2.U.9.b.T.9.<.>.;.1.2.f g g d k.P.9.2.C.2.G.g J.2.J.C.g H.2.Y.9.J.2.g g 3.g J.j 3.T.G.g 2.9.k.8.f.g.r.P P H U L D H H H H H G H H L M A h.q.2.f f >.3.,.g g g 3.>.;.| u r y d g g g g g 3.,.;.;.;.;.y ;.k.:.o.+.| O.+.R E a./ / / ",
"0X0Xv.i.[ a.c.0X0Xv.qXqX0X0X0X0Xv.qXv.c.9X9Xc.c.v.v.c.v.c.a.m.n.9.G.G.2.>.1.9.5.3.q.k.0XqXd.8X8XqXqXgXgXgXeXhXgXgXhXgXqX9.P.Y.Y.iXJ.A.A.Y.G.U.A.C.K.V.V.S.C.H.S.C.Z.J.C.S.C.f 9.5.2.2.P.J.S.V.Z.V.B.k.T.k.k.J.P.n.aXb.J.C.V.B.V.V.C.A.f Z.P.uXP.P.H.C.G.2.B.C.A.:.i r e ^ ' L ] oX] ].].OX].{.{._.(.(.(./._.L ] c.m.M.T.3.g 2.T.Y.b.T.b.T.U.C.C.g g >.<.3.G.P.U.Y.J.C.F.C.3.C.A.C.d g g g 2.2.j >.d 4.4.3.b.b.2.f 3.k.<.0.7.l.9.d 3.k.4.k.9.4.j Y.4.b.4.g 3.9.3.3.P.j f 2.4.4.k.o.r r e e e 6 6 ..u.R e.d.] L D K P H m  X X#X|.$X X{.{.).] L ] D D D P H e.h.s.6.G.p f g.e.e.P r.L L } ].{.(.{.].[./.I r.] e.n.1.k.b.G.g U.b.S.g 9.2.3.3.j g J.Z.g 9.k.2.4.g 2.2.4.d U.g 9.>.d 9.1.5.U.j b.4.P.9.,.g 3.3.2.3.g g j d 5.b.3.0.7.r R 5 ....@.A Z P J G J U H H D H L K Z s.R -.-.f.M.b.3.Y.4.5.U.9.G.j Y.H.j g 9.g g 2.H.g 2.4.j Y.2.9.0.n.4.2.;.o.3.g >.u q.0.2.d U.g 9.9.P.9.Y.H.A.H.j S.>.4.j H.G.g b.g >.g g 4.H.3.2.9.f.g.g.r.I P M L D x H H G G G G ] J G L Z g.:.<.>.g Z.;.9.>.g g g 3.d s ;.| r t >.g g f f f ;.:.;.;.d ;.| u <.o.u 1.o.O.w.^ *.y.^ ) ^ ",
"0Xm.0Xv.y.t./ ^ i.v.0X8X9X9X9X8X9X9XiX0X0Xc.x.v.i.a.9X8Xv.6.7.<.3.3.A.C.A.g 2.<.4.3.Y.9.n.a.9XqXqXqX8XqXeXgXgXVXgXgXqXwXn.P.J.H.Y.J.B.C.T.T.G.A.H.S.V.A.G.G.A.B.C.A.K.C.V.B.C.k.U.2.s g A.V.V.V.V.V.H.J.T.9.Y.H.P.Y.G.C.B.V.V.V.A.V.V.C.f 9.U.4.U.H.V.A.J.B.V.g <.i e e %.{ F ] ].].] } ]././.{././.'.(.I )._.] v.uXE.<.w 2.b.b.k.E.U.b.Y.A.B.f f 9.0.<.<.2.<.U.3.g f A.j k.2.3.j 2.g H.d 0.g g y d >.<.g 9.2.f j j P.3.b.k.g 2.g 3.9.3.Y.f 4.2.2.2.2.9.9.9.P.A.S.H.C.s 3.9.9.e $.i o.r r 6 7 6 Q x./ d.] L D H L H M [  X|.>X<XwX|.}.{._.H H L D L L P P #.#.+.f.A.B.f ( A P e.P P ]././.XX(.(.OX[./.I } ] e.n.3.9.b.P.j b.9.U.2.E.P.C.j s j 2.j 2.j j j 9.g 2.1.9.4.U.j 9.A.A.2.k.T.3.4.R.P.A.g H.C.A.A.C.g 3.<.9.g o.0.1.o.O.6 -.Q 6 ( e.A M M J U /.U U U U D H M M E W ..@.p.m.m.U.U.;.9.k.g k.H.2.s 4.9.9.f g 4.g s 3.H.S.2.G.f g U.3.A.C.f H.H.P.J.j 3.s >.0.g 3.2.4.4.;.9.3.P.J.g j P.2.4.A.Z.0.A.j H.2.2.2.3.f.g.g.g.e.P H D x M F J I G G G L G G ] ] r.e.Y.,.2.2.f g d 2.Z.;.d 3.>.f f A.d s f g d g d d >.;.g d u d s ,.2.;. .;.1.<.6.8.d.c.i.i.^ u.",
"m.M.0Xc.v.x.c.i./ t.qX9X0X0X0Xv.9Xv.9X0XqXc.v.m.c.i.c.8.9.J.3.,.2.J.H.B.C.C.C.B.A.2.2.2.3.n.0Xv.c.v.d.d.y.qXeXgXgXgXeXgXgXiXT.P.Y.Y.S.S.J.P.B.P.H.V.S.H.>.Z.G.J.B.B.C.S.B.S.S.g 3.J.g s 2.2.P.S.V.B.V.B.U.H.Y.S.C.A.G.A.C.A.B.V.V.V.F.B.f C.A.P.H.H.Y.3.U.U.H.A.1.o.%.-.=.x.' ] I I } I ] I J J J /.(.(./.]./.] 8XiXo.t w s U.T.U.P.9.W.U.G.C.g A.9.E.G.2.C.g k.>.f ;.>.g 4.n.Y.J.Y.V.f 4.E.S.B.f f g g g g g g g 2.d 9.4.3.9.2.j 9.9.j k.j 2.3.k.4.f 3.n.Y.f S.S.j f >.3.<.i e $.7 r o.r  . .6 Q *.y.' G H H D D M Z / wX,X1X<X#XwX>XXX/.H D H L I L D P h.s.#.w.s 3.s A A A A ' F K J m ]././.[.{./.G } ] #.H.G.2.J.C.4.U.9.E.4.b.C.B.P.2.C.2.9.4.P.G.3.U.H.2.P.H.2.4.j 2.j G.2.2.k.j 2.Y.k.j 2.9.g g f f g 0.j d 4.<.k.R.l.=.1 b.7 N [ ' M M C ]./.U U U U U D x M ' T _ W u.m.0Xm.b.n.0.b.2.2.9.3.9.j 2.9.J.C.s 2.f f 3.>.9.2.3.s g E.2.G.f Z.A.j 2.A.s T.J.g E.f 4.2.;.5.q.q.q.3.,.3.9.>.g 9.2.g 9.A.4.b.Y.b.>.n.g.s.g.r.L ] K F M H } J } G G I ' ] ] ] ] g.>.<.g g j g d g 2.A.;.,.H.g f s d a g d d g f >.;.;.d g C.f j d k.J.d <.9.<.b.n.c.d.v.c.v.i.v.",
"0XM.iXv.c.v.m.m.9X[ c.v.0X0Xc.m.8Xc.m.0X9Xm.v.a.a.i./ 7.2.G.4.H.A.G.H.H.G.P.U.C.C.2.2.g G.3.b.x.0Xc.m.v.d.t.d.qXeXhXgXwXwXqXuXuXuXE.H.H.C.H.V.G.H.B.E.J.S.C.J.Y.A.S.B.B.C.S.C.V.C.9.9.E.9.9.3.g C.V.S.V.P.G.4.C.C.H.S.C.B.C.V.B.C.>.B.H.>.P.A.S.A.J.H.G.H.0.U.4.T.u e |  .=.F L ' ] ] } J I /.G ] J /./.(.wX}.{.].] +.e t t n.uXU.H.C.2.E.E.G.P.2.2.4.j P.S.C.3.2.f G.g s 3.0.2.2.9.f s b.T.A.H.g 2.G.f 4.0.Y.Y.G.g d 3.2.s 2.>.j 4.H.C.A.H.P.P.Y.4.A.k.U.P.H.H.f f j 9.n.u r r l.7 i $.6 6 +.W E d.' H F H H H H M / }  X,X>X<X<X$X<X}.{.F D H U U U L r.#.+.w.q.f 2.w.e.A e.A K Z ' I } )././.).r.J G L Z Z ;.d d 2.f 2.4.G.P.f 2.g Z.d 2.j 4.2.A.P.f 4.4.9.9.G.G.H.H.G.2.2.3.b.0.2.g d b.2.j 9.2.<.9.Y.g j j 2.4.9.8.f.8.M.p.5 -.Q V ' Z m M Z J )./.D H U U x x x n R E _ u.9X0X0Xm.n.uXm.9.2.2.P.g H.C.G.A.B.j j g 2.G.2.2.T.Y.A.g E.4.J.9.J.j 2.g f 4.U.j 2.T.j 9.j 2.9.9.2.H.g 2.Y.3.>.,.>.<.o.;.:.,.<.,.9.>.g.e.r.r.U D L G /.G G .X/.J .XJ I J ] r.P #.2.g g Z.f g g d s 9.g 3.3.P.g a g >.g f A.g J.A.g j 4.g H.Z.g k.b.b.3.j 2.,.1.=.p.i.i.i.[ / u.c.",
"aXqXc.iXm.9Xm.m.m.9Xa.a.*.0Xv.0Xv.0Xm.0Xv.m.c.c.u.u.-.8.5.9.9.G.A.A.2.P.G.9.uXH.H.S.C.C.S.2.G.3.M.f.m.v.M.v.8Xv.9XeXgXgXqXqXiXiXE.E.J.T.U.P.V.C.C.V.A.C.B.S.S.G.Y.A.B.S.J.S.S.S.C.j T.b.T.U.b.7.2.,.>.C.P.J.J.P.H.S.V.C.C.V.V.C.V.V.C.Y.Y.B.V.F.V.V.A.G.A.E.P.H.9.9.7 e r R S b K ] ]..X].]././.} /./.I (.[.[.[.(.] ] +.<.o.M.T.b.T.Y.P.A.P.J.J.Y.Y.Y.k.T.A.2.b.4.C.2.>.9.2.<.<.;.<.<.3.<.b.9.3.3.k.T.T.T.uXY.P.C.3.9.2.Y.j 2.3.3.g d ;.s >.2.g j A.j Y.H.C.J.J.C.f 2.6.7.7.o.%.E.=.%.m.6 2 R ^ e.' K x x M F M M [ u.|.>X<X|.<X<X<X$X X].{ D D D D U L P g.f.f.0.C.C.h.e.e.r.P K P ' ].].'././.J d.{.H K Z P +.d ,.;.>.2.g d <.f <.k.g f 3.2.f j g j s 2.d <.b.1.0.<.0.0.3.3.7.8.9.>.g 2.0.u 1.5.9.1.5.3.s >.d k.1.i ..=.6 ....=. .g./ Z m m S ] J ' I G H H D x x x x 5 R *.c.v.v.v.9Xf.b.7.4.g j H.C.A.S.g H.C.f f f f A.2.j U.J.A.J.9.G.j 9.J.C.9.H.3.3.9.f g Y.2.Y.G.J.g g 9.4.A.2.0.<.U.3.,.<.q.<.0.>.>.,.;.w.s.P D x M M (./.J G G ] ].J ].J J } K +.2.3.g f Z.C.f C.g 3.g 9.3.4.k.2.d g g Y.H.g J.2.2.g g A.g d U.O.u <.3.2.;.>.,.o.6.*.^ / d./ y./ / *.",
"aX9Xm.m.0Xc.0X9Xm.0Xv.v.y.u.m.iXm.0X9Xc.9Xm.c.u.u.p.p.8.7.3.2.C.j G.g Z.C.>.2.A.J.V.S.S.B.A.S.>.2.b.n.f.m.9X9X9Xa.d.v.gXeXqXiX0XuXT.U.P.E.A.B.K.C.S.C.F.V.B.V.B.H.Y.P.T.P.C.V.V.C.B.f H.E.U.0.uXU.A.g g g g 4.T.H.G.A.C.C.C.S.C.S.C.>.>.P.A.C.F.B.K.H.Y.H.P.S.G.2.H.u r O.6 R R t.G oXoXr.].)././.oX/././.(.(.J G I ] K h.Y.b.b.m.U.b.E.A.P.U.G.P.Y.J.n.E.C.A.9.C.F.f d j g k.G.B.g P.C.s 9.g s <.<.b.U.0.g A.j P.4.P.S.b.E.b.U.Y.G.G.H.B.g g g 2.2.3.4.f f 2.2.C.C.s i u $.-.=.8.$. .p.6 6 E / 9Xn r.x M M ' M n m.qX$X3X XwX<X<X$X|.<X].d.L I H D G H P P m.n.4.4.,.h.P e.P P K K K ].].}./././.} 8X} G L P O.d 3.k.k.0.g d u ;.;.9.9.s g d d 2.4.k.E.H.g k.uXE.E.4.3.9.3.5.b.T.3.2.4.4.5.7.b.9.2.4.3.4.j 3.<.n...=.x.&.8.6 -.p.s.t.d.K Z ' M I I J ] I H L D x x S ( E W ^ / *.i.c.-.q.<.<.<.j Z.g A.C.f 2.k.U.d f S.f 2.0.g <.b.k.b.9.Y.f j 2.A.j 1.4.g 3.2.d U.J.4.2.g g <.U.Y.2.<.Y.2.;.>.0.9.3.q.m.g.g.g.g.g.I P M m G J /.} J % m ' ].oX.X].I ] 1.d 2.g f p C.f C.C.f J.j g 3.2.d t >.g f d d d u d g g ;.d o.e U.;.d t 2.d d ;.o.X.$.f.^ a.t.^ t.u.) / ",
"v.0XqXc.0Xm.uX0XqXx.m.M.9X[ W M.0X9Xv.c.x.m.m.u.*.p.=.7.k.3.2.d 2.H.G.B.V.C.B.V.B.V.V.B.B.B.S.S.A.G.q.6.n.8Xv.qXqX9X8Xd.qXwXqXuXE.iXY.S.B.S.V.Y.uXH.C.V.S.A.B.P.P.S.B.A.Z.S.A.B.V.V.F.V.G.b.U.Y.4.G.J.H.A.2.2.7.0.P.C.C.A.P.A.S.A.A.>.d C.F.C.S.C.P.S.S.H.C.H.H.S.A.1.i r e e r ^ L ].]..X].} } (.d.].).].'.{.} I ).' ' P P.y :.b.9.T.Y.J.P.9.Y.A.2.k.n.T.A.2.k.J.B.S.C.f 2.T.A.B.C.C.C.f 2.U.4.4.3.k.q.s u 1.2.<.3.A.g l.9.b.T.b.T.Y.P.C.P.P.U.k.U.U.j Z.g 4.j j s e e o.e  .o.%.m.6 Q 6 E / d.8XM ' F K ' n ( d.qXwXwX<X<X<X4X2X<X3XwXOXd.I ] G D U D L P O.9.2.Y.b.e.e.P A A K K ] ].{.[.(./.{.J 8X} I ' Z w.9.3.3.2.k.3.j 1.9.2.d k.d s ;.3.d d ;.5.d g 3.<.k.T.9.j 3.<.n.8.8.8.5.7.n.m.5.1.9.9.4.2.1.k.1.o. . ...-.p.M.Q #.e.r.e.r.L m K K J ].[.}.{.J U J H M M A R < Y @.@.u.a.O.o.;.<.d 3.3.2.g d s s >.U.g f d k.<.0.2.4.T.T.k.E.T.A.g 3.P.d 9.3.j 9.k.0.n.G.g d d >.9.0.3.<.9.>.2.o.<.1.1.2.f.g.e.g.e.g.H D M e.{././.J J } * B [ ].r.} } I ' 1.2.3.f g g 2.A.C.2.G.f 2.g g g g u d f g r u o.r y ;.d >.d o.t 9.g d 3.j d >.o. . . .*.t.m.t.^ &./ ^ t.",
"v.0X0X0Xm.0X0Xm.0X0Xm.M.m.x.i.@.M.c.c.c.M.x.x.u.-.8.$.7.<.d <.2.0.>.C.B.G.U.B.V.H.J.S.H.I.B.S.S.G.G.3.H.9.n.qXqXgXgXgXqXd.qXqX0XuXU.G.S.C.K.V.H.U.P.S.B.G.H.H.E.P.B.B.A.Z.A.A.C.S.V.F.V.C.E.E.U.T.H.P.U.P.T.b.>.q.0.A.B.Z.S.G.H.J.S.g s g V.B.B.Z.2.V.B.A.S.S.C.K.C.a r r  .| | ^ K J I ].].] .XJ oX8X/./.(.'.'.).] I ' ' g.=.y t 5.n.P.H.J.J.Y.Y.k.T.T.T.H.j U.E.Y.C.S.B.A.3.9.Y.2.2.C.g k.E.T.2.g <.9.g 4.n.3.2.4.d 2.9.k.3.7.d d 1.9.g 2.2.P.4.9.P.C.2.9.9.b.9.e e  .o.e e 7 r b.&.6 ^ ( C A K x M M M y.v [ qXwXwX<X<X<X3XtX<X5XtXwXoXoXU D D D D D M g.>.f G.j q.P d.P A P K K ].{.(.(.(.(.{./.oXI ' y.g.m.uXk.P.4.H.U.2.U.G.H.k.9.J.g P.j j g 2.g g >.<.1.;.;.1.>.1.8.M.-.%.M.p.b.n.b.o.o.o.b.%.$.6.8.$..... ... .#.a.#.e.r.L L P H x H L (.@X$X|. X/.U U M P K K C 5 =.*.&.u.u.m.O.O.o.o.o.y d d d d k j 2.s d g j 3.3.3.9.U.U.H.T.J.4.b.E.J.g J.f J.U.9.H.9.H.B.j P.2.Y.9.2.b.9.2.0.Y.9.2.f.g.s.g.' e.P ] P ' ] oX(././.J ].J } } ] oX].[.).).;.;.0.Y.3.o.q.g 2.s 3.G.B.S.A.J.J.g 4.g s d d ;.;.o.;.o.>.g d d d 3.2.0.1.2.2.;.o.o. .*.^ ) u.[ ^ ^ ^ / ^ ",
"iXm.M.0Xm.iX9Xm.0X0X0X0Xm.c.a.! &.m.0Xn.n.0.8.f.8.7.$.u y u <.;.2.g G.g J.E.S.V.K.A.C.R.S.B.K.C.Y.G.J.G.H.J.b.qXeXqXqXgXwXv.v.9XiXU.H.S.T.P.I.V.S.E.iXB.S.K.Y.uXK.S.H.S.A.H.K.S.V.V.V.C.Y.uXuXU.P.A.B.C.P.b.!.G.J.<.2.2.g V.B.A.G.A.g g >.s A.A.g H.g A.9.A.H.H.H.G.2.;.i r r  .n.F G I ] ] ].oX].].8X/./.).(.'.(.]./.I d.oX#.w.| u o.3.2.3.Y.0.uXE.T.uXuXE.A.E.J.P.B.g C.B.C.J.A.C.4.H.2.T.E.U.A.f 2.0.4.Y.Y.A.C.g j 0.b.uXg G.C.f g 9.4.g 2.>.2.3.3.3.2.2.2.0.o.y r 6.b.=.r 7  .&.n.&.y.C Z ' Z M b C C C ' }.OXwXtX<X<X<X<X|.#X<X3X$XXX' D D D H P K e.-.m.2.S.g 4.g.e.P P L K L ].(.(.}.OX(.(./.oX] y.8Xe.Y.k.J.3.W.P.T.J.J.A.3.Y.k.H.C.2.g 2.j 3.0.9.J.9.b.b.O.q.q.#.-.a.c.^ t.i.9Xx.p.8.8.=.n.-.f.-...&.-.&. .m.s.d.s.d.r.H D D x Z K F P wX>X|.|. XXX/.U D H H m ( m.Q Q ^ t.m.v.p.q.0.7.:.u y X.:.u 1.d g y 9.,.d 3.4.9.Y.9.L.2.n.Y.3.3.U.j 2.2.g 3.Y.J.d <.uXC.j J.3.0.9.2.n.9.4.0.<.L.g.g.g.r.r.P P D L ' ).(.}.{.).{./.]./.].J } .X[.#XXX0.J.Z.>.3.>.q.q.>.;.d | y d d s 3.d g 9.g g g g >.;.>.g 2.9.G.g 2.4.9.2.3.| r o.o.X.o.*.t.[ v.y.[ y./ ^ T @.",
"uX0Xm.uX0X0Xm.0Xm.9X0XiX9Xv.x.a.-.O.b.E.m.b.0.f.6.7.;.y t g >.;.>.j 9.2.H.A.U.A.B.V.C.H.S.S.P.A.J.P.P.H.E.H.G.Y.f.0XgXqX0XqX9XiXp.n.P.J.uXY.uXP.K.Y.U.B.V.B.S.S.A.P.E.H.E.T.P.H.A.C.V.B.9.uXiXJ.V.B.g C.9.E.H.G.A.W.A.C.Z.g S.2.j j g A.>.:.G.1.g A.S.H.H.A.Y.uXT.J.T.iX$.b.=.=.8.A H J ).I ].] ] J oX{./.).{.(.'.(.8X).g..XP s.7.y d d g g 2.2.9.b.uXiXE.aXT.E.J.S.B.C.S.V.B.C.B.g j E.U.J.C.4.E.H.9.n.Y.U.T.G.G.G.k.U.4.T.J.A.C.B.C.2.U.P.P.C.G.0.2.2.j A.;.1.e r O.o.b.%.%.%.x.x.M.m.y.Z ' ' y.M v ! C C oXwXOXwX$X<X<XtX2X<XtX1X4X<XOXr.H H ] ] I L d.n.n.4.A.P.s.+XA A P P K L L /.[.(.].(.(.]..X] r.g.m.k.E.J.H.P.H.Y.9.Y.4.U.9.U.G.C.2.J.C.2.1.n.T.U.<.n.M.b.6.8.m.x.s.9Xy.e.#.m.a.a.^ x.W -.-.n.-.-.p.-.p.x.9Xd.r.e.e.' ] H H m K ' K ] wX>X}. X[.oX].D D x H x C p.*.5 W c.v.v.c.8.b.0.<.2.g g d >.X.r y e q.9.2.5.P.H.U.Y.Y.2.U.iXH.C.G.>.3.2.P.g 4.Y.f 2.uX2.H.3.9.2.9.3.3.9.f.f.g.g.g.r.e.' P H D H K ].{.{.{.].].].{.{./.J J ].{.).oX9.>.4.g 3.2.g g 2.3.f >.;.>.X.y ;.u r >.o.,.o.;.1.u u ;.;.d u d d >.,.b.3.d u u o.o. .../ / / i.i.a.t.t.^ ^ c.",
"0X0X0X0Xc.c.m.9Xx.0X9X0X0Xm.-.n.b.6.5.<.b.n.1.6.7.1.d <.d d u y d g j G.C.C.H.S.S.A.E.A.J.K.C.G.E.P.H.E.uXH.A.H.J.n.U.n.a.0Xm.iXM.n.q.0.J.J.U.T.S.H.J.A.V.S.B.B.A.uXU.K.Y.U.H.H.C.A.B.C.2.2.uXuXj C.J.G.P.H.G.Y.A.I.S.Z.Z.A.6.6.o.3.g G.J.g C.A.g g G.2.H.A.2.J.U.G.9.uXU.8.8.M.f.-.d..X] J ].} ] ].].[./././.(.'.'.qXoXqXd.' ( m.8.w w Z.C.A.2.2.;.f.T.b.9.E.P.S.G.A.H.V.V.C.G.V.J.U.U.A.B.C.J.T.P.E.iXJ.A.J.J.J.4.n.U.j U.Y.P.Y.A.H.2.U.k.J.j j P.A.g H.A.3.e e r 6.o. .r ..m.&.Q n.*.y.' r.' ( v N ~ ' XX8XqXwX XOX$X#XtX X<X,X,X,X,X#X].L I I U G H y.x.o.3.J.g g.e.P P e.L P ] } {.[.(.{.[.].qX] ' ] e.g.f.U.P.H.A.A.J.Z.P.P.Y.U.k.U.S.Z.Z.C.f 2.b.M.T.q.8.E.n.M.p.m.m.9Xs.d.e.t.g.d.e./ E R R ..W R &.&.+.*.g.d.r.L L P L ] G H M K L ] ].wX,X|.3X>XXX[.H H H P x C T R 6 W m.v.x.a.+.6.7.1.9.3.d >.2.;.d t q.5.b.:.:.;.4.3.9.J.Y.n.uXJ.J.J.J.2.H.Z.B.Z.E.G.G.uXJ.Y.J.H.P.0.9.A.9.g.g.g.r.] ] P D H H F I J OX/.].]..X{.].].{./.].{.J ].w.3.q.;.d >.1.9.d g s g f g f g 2.>.4.s d s 1.,.r u X.r o.o.o.u o.y o.7.<.o.9.u o.O.q.O.o...t.~ u.^ ^ / / ! ~ T t.",
"0X0Xm.M.-.m.m.m.m.x.m.m.x.n.8.m.8.0.1.u u 9.k.9.<.d <.d t ; ; t s f f C.j 2.C.B.A.H.A.V.B.V.V.V.S.S.A.P.P.B.S.2.H.J.H.9.8.0XqXm.n.uXuXf.q.,.2.P.S.V.V.V.V.V.H.B.K.P.E.J.S.C.G.S.S.A.S.V.V.B.b.uXJ.H.C.V.Z.f V.S.C.B.U.2.A.Z.A.A.G.>.<.q.P.C.Z.2.H.C.A.f 9.j Y.4.A.G.A.G.S.u 8.n.n.n.a.y.' oX.X.X] oX} oX/././.J (. X[.oX8XoXd.d.g.s.t t s g A.9.2.g k.0.9.g 4.g g d j C.B.S.P.U.H.E.U.C.C.j P.B.J.E.T.J.V.F.S.S.H.A.S.S.B.f Y.J.U.S.H.J.J.H.P.P.j S.B.B.3.1.t e 0 u $.$.r ..=.W R R ..T ' M M M b c n .XOXwX<XwXtX<XwXtX<X<X1X,X=X|.$X>X X/.L D D D D M r.#.d 3.9.,.g.' P P A r.] ] ].{.{.'.{.wXXX].} ] r.P e.e.4.2.k.2.G.g A.G.G.H.P.f J.B.C.C.G.A.9.o.n.M.=.=.c.c.m.g.g.g.g.d.e.e.y.s.e.#.s.R @.*.s.t.s.t.#.e.e.e.' ' G x L H H I D G M oX{.|.,X2X,X3X>X}.).' D H D x B 5 Q &.W x.x.n.n.-.1.5.<.4.g s 2.2.j g d 2.g q.k.9.3.d >.d g 2.3.9.3.9.J.4.2.B.p G.j Y.B.f uXS.S.4.G.n.U.q.f.g.g.r.P P ' r.L D G H J [.{.]./.].oXoX/.{.{.}.}.}.(.F X.2.d <.d j 2.j f f f f C.C.A.f g 3.3.4.2.2.d 4.5.<.;.9.5.0.;.9.j 4.2.9.9.3.<.;.u  . .q.<.5.@.u.t.a.[ ^ ^ / [ [ / / ",
"m.M.0Xm.m.m.m.m.c.p.m.m.n.U.M.m.b.q.7.5.>.u u 2.3.2.s t 0 o : t s A.g d u ;.g B.S.V.V.V.V.V.C.V.V.B.S.B.K.S.B.S.S.A.2.0.T.n.m.0X8.T.n.E.b.1.;.2.C.B.V.G.V.B.R.A.H.I.Y.Y.J.A.K.A.S.S.V.V.V.V.C.P.S.V.V.B.C.B.C.B.Y.A.E.A.S.S.H.H.H.g 0.k.1.>.2.k.U.P.j A.G.3.b.b.k.E.Y.4.2.t :.$.$.%.n. ./ d.8XoX].] } qX{.(././.(.'.'.qX}.oXd.d.e.s.m.o.h S.G.4.2.j U.A.0.2.4.2.g s g f d 9.9.E.b.P.B.F.H.4.H.A.E.uXuXP.A.S.Y.J.P.J.A.F.V.C.E.P.P.U.P.H.H.P.J.P.A.C.C.V.j i u ; r $.o.8.7 =.Q 5 R x.a.c.Z n b C v C } }.#X%X<XqX4X<XwXtX5XtX5X1X1X=X$X3X'./.H L D D x ' r.Z :.3.1.U.e.A P A A ' I I ].[.{.@XXX X(.J } oX] P s.s.b.n.iXB.V.V.B.C.C.G.f 2.f j j C.g <.$.%.=.-.%.m.g.m.g.d.r.oXr.d.r.r.r.r.d.g.s.s.d.d.s.s.r.d.e.e.' ' Z K M Z m H P ].J I r.[.{.|.1X2X;X,X,X#X(.L H L D M t., x.&.&.x.M.iXv.n.b.9.g 4.f p f j 9.2.2.3.4.>.3.b.Y.j b.9.d d 9.U.d <.g o.d s f 2.j U.B.9.U.C.G.k.E.n.f.g.g.r.r.P P P P d.] H } [.}.{..X].qX].oX{./.(.'.}.(._.d.< o.g g H.H.P.H.C.B.C.C.f d 3.j d d d Y.2.l.k.b.3.U.9.3.5.5.,.g >.u d j ;.g j g G.:.o.:.1.7.q.^ W x.[ y.d.i.t.i.i.t.i.",
"0Xm.M.0X0Xc.x.M.v.c.m.M.m.0.b.8.U.9.b.0.9.9.u d <.3.s a : O o w s g t 3.g C.B.f A.g G.C.V.B.A.S.C.2.A.V.S.C.A.P.S.H.2.E.U.3.T.iXT.iXn.T.T.Y.4.6.:.,.3.W.G.V.V.V.B.B.K.Y.aXH.G.A.S.A.S.B.S.B.S.J.B.V.F.Z.E.B.S.B.U.T.W.J.B.B.A.H.q.8.T.E.k.T.0.n.2.2.k.uXP.E.uXn.uXiXY.E.U.a t :.n.n.m.o.[ ] ].]..X] ] 8XoX{.@X_._.'.'.wX XOX8X' L K 7.$.t t a s b.b.U.C.9.U.9.H.C.j C.H.2.0.0.n.b.b.9.A.C.G.A.U.U.E.T.U.P.T.E.aXY.H.4.A.A.4.uXH.Y.E.H.A.2.U.P.H.P.k.S.f <.e $.e $.%.o.8.6 6 Q 6 E ^ s.9Xy.B i.B n r.+X3X$X$XwXwX<X3XwXtX1X%X<X1X2X2XtX<X X_.L ] ] D ] oX] Z 9.q.8.7.e.A P A e.P ' ] ].{.(.[.{.(./.J ] r.oXP e.f.Y.T.E.C.B.V.f G.C.S.G.k.4.2.2.f d o.r n.r *.iXg.d.r.r.r.I G L I G L ] L r.r.r.r.r.r.] r.] ] oXL L M K Z m F H D .X/./.I .X$X3X<X2X2X:X:X1X%X[.H H L D F N > W 5 *.p.m.9X9X0.4.J.j 2.4.S.C.2.3.9.9.J.k.4.2.U.4.H.k.9.f 2.0.T.3.4.g 2.s d d d >.U.>.0.U.g 9.P.9.g.r.e.P P P P H D H ] ].(.'. X_.{.8XqX/.]././.(.'.(.'.(.v.8XO.d 2.G.4.Y.3.H.j 2.4.4.j j 9.f g f s 4.G.3.j 0.3.1.3.5.<.2.:.;.>.o.u s d <.g s J.:.>.9.>.b.1.a.^ a.i.y.i.y.i.d.d.[ v.",
"iXM.M.M.m.M.m.0Xm.M.9Xm.T.3.k.b.b.9.b.b.0.9.0.1.e e t e ; o - # t f f g C.B.V.C.2.A.B.V.B.V.B.V.V.S.A.S.R.P.S.S.j J.A.G.G.G.uXuXiXM.uXY.H.G.T.E.G.2.1.4.Z.A.A.V.V.K.B.K.uXJ.A.G.S.A.A.S.A.Y.Y.G.C.B.V.A.E.B.C.S.S.!.9.uXA.C.S.G.9.m.Y.9.m.M.aXuX4.1.$.0.>.3.E.uXaXuXT.uXuXH.H.u 8.E.8.-.0X8X] I ] ] ] } 8XqXXX{.OX[.[.wX XwX} ] ] ' +.o.r y t t 8.b.T.g 0.uXT.P.A.g f C.A.S.E.T.P.g 9.J.g 9.0.0.3.G.d 2.g k.k.uXJ.4.U.Y.H.G.Y.Y.Y.Y.H.H.P.P.H.U.2.Y.G.j i e b.b.-.8.n...Q , 5 Y *.~ ! y.d.C d.' } [.|.,X<X4X3X$X<X<XtX1X1X|.>X;X1X;X,X X}./.L U I ] ] L P P ,.4.uXw.r.P P A ' L L } J ].{.(./.{.].J G } r.] e.Y.J.J.g 9.P.g 9.P.C.G.T.b.n.<.d d <.r s.g.g.g.g.r.] P I U D D D D D H I H H H H L G H H G H H L ' F v oXF H J /._.@X(.{.I I %X>X;X:X:X:X:X1X X].G D D H ] S E W p.-.m.c.c.n.n.9.9.j 3.9.4.Y.9.4.9.j g 2.Y.4.E.4.P.>.9.C.j Y.9.g j g 4.>.d s f >.q.>.0.0.:.b.f.s.e.P M M A A M K P H J wX X(.{./.oX{.oX/././.}.(.(.(.' d.a.0.3.;.9.9.4.9.2.2.g 2.3.4.G.C.f C.f g g g H.2.j k.3.<.:.;.g g G.f g O.r g d k.>.<.3.2.3.0.d 3.=.i.c.d.y.[ [ t.y.[ t.[ y.",
"m.uXiXiX0X0XM.m.iXM.0Xm.m.b.T.T.T.0.q.b.q.1.7.b.u 0 e 1 t t t s g f C.f g 2.9.J.J.Y.J.S.P.B.V.B.V.K.S.C.P.P.B.B.A.A.G.A.G.G.J.4.4.n.U.U.T.H.G.Y.A.H.T.<.1.E d A.V.B.C.U.m.aXG.K.H.R.H.S.G.n.uXJ.P.A.Y.P.J.B.A.C.A.T.Y.U.E.A.A.G.2.uXH.G.9.f.M.uX9.q.6.0.1.:.1.,.0.n.E.E.aXiXaXT.8.f.7.$.%.-.' L I ].} ] 8XqX(.(.].{.].wX X#X[.} ' L P X. .r i u 5.0.4.4.0.9.T.4.Y.C.f g Z.C.g Y.A.C.C.G.9.T.E.9.Y.g g g 2.9.0.9.G.2.2.2.f J.b.E.T.Y.J.H.U.A.P.H.G.A.H.t r e 7.M.%.n.x...5 5 R Y B y.' C d.{ K ' #X<X1X,XtX<X#XwX4X<X$X4X,X,X1X;X1X;X*X}._.U L L L L D F F e.2.n.E.w.r.P P ' L L J I ).].{.(.(.{.).] G ] r.] e.s.4.k.3.0.2.9.2.g 4.2.5.7.$.O.O. . .s.r.d.' ' L D D G D D D D D D H H D D D D D D I H D H D H H ' ' y.oX[._._.[.}.|.'.[.OX[.@X=X,X;X:X:X,X,X}.I ] D H P F Z t.m.a.n.0Xv.9Xb.U.2.2.g U.4.U.T.<.3.9.9.Y.Y.P.G.3.9.J.G.J.f G.4.0.J.C.C.>.A.g s g j J.G.H.f.g.g.g.g.e.P A P A M Z K F /.[.OXOX{.OX{./._.{.(.}. X[./.{ a.c.p.O.$.1.;.2.2.J.U.J.g g j 9.2.2.g g >.2.3.7.3.2.7.9.b.1.<.q.2.;.,.9.C.f 2.G.A.g 3.g 9.Y.4.2.2.A.<.-.c.8Xd.y.y.y.y.[ B T [ y.",
"uXaXiXaXaX0Xm.M.M.0XM.uXM.m.E.n.T.n.k.3.9.9.3.;.5.;.d t t w s V.B.B.p f f 9.n.m.b.U.Y.C.S.V.V.V.B.A.V.C.C.C.V.C.C.C.j G.A.G.9.G.2.Y.A.H.P.S.g A.2.2.H.9.T.1.,.O.>.>.G.S.U.aXE.P.Y.H.H.S.S.2.H.C.9.U.k.E.A.V.S.V.V.b.iXj uXG.S.H.5.gXU.Y.m.0X0X8XqX4.9.T.J.A.,.d 2.;.<.<.b.uXb.uXE.n.5.$.i  .( L J ).].} 8X9XqX{.(./.8XwX'.}.OX].J K P e.s.-.e e <.n.b.2.3.4.9.9.b.A.g g C.B.f 0.B.B.f 9.T.4.U.9.E.P.Y.0.k.Y.U.9.3.9.<.4.g 2.Y.T.k.4.4.f G.S.4.j A.p t t 8.8.e r  .n.&.&.5 < Y T B y.t.C d.oXm r.#XtX4X4X4X3XwX3X4X4X3X4X5X1X:X1X1X1X1X|.(.G L L H D H K M #.;.E.7.e.e.r.' I L ] } ' .X/.{. X(.[.(.G } G r.' e.s.9.3.U.Y.C.P.G.f j d $.n.-.-.-.*.e.e.' r.L D D H D P x x x x S x K x ] L x x x x x P H m ' M F ] d.8X{.}.|.`.`.`.>X`.}.}.,X4X:X;X1X:X:X,X`.'.J D x x P P d.[ x.5 m.x.c.n.b.3.>.7.0.E.b.T.4.2.G.g 9.2.2.4.J.g 4.2.Y.k.2.Y.9.E.Y.A.G.9.C.A.j C.C.2.q.g.g.+Xe.g.r.' P H H x P K G ].oX].d.qX).} /.J /.].[.{.[.J ' i.&.7.;.o.0.4.;.d 4.9.E.J.C.g C.2.j j j g >.7.9.4.G.<.n.7.M.q.1.3.j 3.2.9.j g Y.G.Y.4.P.j l.Y.>.g j g 4.-.v.v.i.d.y.[ y.[ [ y.a.d.",
"aXaX0Xn.0XM.uXm.0XM.M.E.E.n.T.n.m.b.T.4.3.3.4.1.0.k d d d 9 e a B.f f p V.V.f k.k.0.b.Y.J.A.S.C.B.C.B.V.V.A.A.Z.B.B.>.9.T.U.U.A.C.A.G.A.Z.A.A.f f G.>.2.E.J.B.,.:.>.,.g 2.H.Q.P.H.A.G.H.J.H.B.V.C.U.T.E.C.F.V.V.V.T.uXH.E.Y.A.A.7.T.m.0X0XaXgX9XwXJ.9.uXA.Z.C.S.G.>.3.,.d 1.>.5.b.7.8.7.r i ..{ G I ].] } qXqX8X(./.qX X'.(.(.(.(.].' e.d.g. .r i $.T.2.9.k.A.j b.Y.2.A.G.j A.P.C.j 9.U.H.f k.Y.Y.A.9.T.3.T.E.k.Y.Y.T.k.U.P.9.E.4.9.4.A.f g k.s s w e i l.n.i r -.x...-.W R B t.y.[ [ ! / { d.qXtXwXtXtX<XwXwXtX5X3XtX>X5X1X2X1X1X1X,X|._.J U U U L L ' C n.b.n.0.h.e.L P L L r.} } } {.}.>X}.[.{.J } I r.r.r.d.2.P.2.H.f f j s t u  . .m.t.#.e.e.' L L ] D D D M ' M S v n v S C M ' Z S S S b M ] L K ' L ].XX9X#X|.|.|.|.>X`.|.`.'.>X:X:X:X:X:X:X:X:X-X[.] D M x P P m v Y 5 _ W x.b.l.0.0.f.f.b.U.G.s k.G.f 2.A.H.2.A.k.U.B.4.9.T.E.T.uXY.b.Y.9.A.4.G.B.f g g.e.r.r.r.P P P P P F H I r.qXqX].].} qX/.].).J } ] ].oXK ' [ i.@.q.u 5.7.4.:.>.k.0.T.H.C.C.B.S.f f f g 4.U.9.2.4.3.n.6.n.7.2.g j k.j g A.B.f f b.b.k.Y.2.4.4.A.g 2.2.f.c.v.v.v.[ / / i.[ y.[ y.",
"m.uXuXuXuXaXaX0XiXiXuXM.E.E.E.E.n.U.E.T.b.k.4.9.j f 2.d 1.0.u u e <.9.k.B.B.B.2.b.U.T.n.n.E.U.C.S.C.C.B.V.C.Z.C.C.V.B.A.A.G.H.S.S.H.G.S.A.H.B.g >.2.G.S.0.J.g A.f G.H.g 2.O.E.E.G.A.A.0.iXiXA.B.G.E.iXE.E.V.B.V.S.T.uXaXY.aXU.3.0X8X9X0XiXaXgXqXqXf.Y.E.K.A.B.H.C.C.A.2.2.9.H.C.2.u 6.u y  .o...L I ].].} } qXoX/.].8X/.'.'.'.'.(.(.] K H e.g.*.6.o.<.b.b.T.2.9.0.E.Y.G.2.H.2.9.b.n.uXU.H.j U.Y.Y.A.Y.J.4.E.uXT.U.Y.U.Y.T.U.Y.E.U.Y.0.Y.J.2.U.g t <.7.$.$.b.$...=.-.&.@.&.~ t.d.[ y.y.~ / m.0XwXtXtXtX3XtXwXtXtX4X3XtX4X5X5X2X1X5X2X-X|._./.U D D I D K ' m.uX7.n.e.P L P I ] L ] } /..X X<X X[.{.{.J .X8X8X8Xd.uXT.Y.Y.j 2.;. .r  . ...E e.A n P ] D D P x x S { / ( a./ / ^ ( C ' ( ~ ~ ' ' ] .X] ] .X+X#XwXwXqX3X4X4X,X,X,X,X3X3X,X>X&X:X;X;X:X:X;X,X*X).] K H H m ' b C B E W E a.-.,.<.q.9.3.3.P.g 2.G.J.2.9.P.A.b.Y.n.Y.A.3.k.uXH.3.uXT.uXA.0.4.U.P.2.H.w.g.e.r.r.oXP P H P ' ] I .X{.].].].].].8X{.{.{.{.{.].' g.t.t.*./ .. .X.0.3.1.;.d P.b.E.Y.f 2.C.B.g d j f 2.Y.P.9.f.b.b.3.T.4.j j j 0.A.A.P.H.2.j 0.9.4.Y.k.U.3.4.9.H.<.n.9Xv.v.8Xy.[ T d.[ ~ y.i.",
"uXm.m.0XM.iX0X0X0XiXaXuXb.E.n.E.M.E.T.m.U.G.S.g s s <.1.7.0.<.1.d u y 9.j B.C.V.C.A.4.n.T.T.E.Y.V.B.S.C.C.C.V.A.G.C.C.G.2.S.9.S.A.Y.G.H.E.iXH.V.Z.A.J.A.2.Y.A.J.2.>.H.G.2.:...Y.J.,.2.J.n.uXH.2.iXuXuXiXuXH.V.S.V.A.G.E.G.iXE.9.Y.9XgXqXiXqXqXqXgXqXY.Y.H.P.C.H.S.C.C.C.J.E.H.C.2.5.u o.r  .u ..' G J XX].} 9XqX8X8X}./.(.'.[.}. X'.J G H H ' e.-.-.o.m.M.n.4.Y.k.T.uX0.H.G.2.4.0.U.J.2.4.k.U.U.U.U.U.H.Y.4.E.3.U.J.H.Y.H.A.Y.uXP.S.C.P.9.P.2.4.u 6.:.7.r ..8.=...-.E T E T ! C ( t.! t.9XiXwXtXtXtX4X3XtXtX4XtX$XwXtX4X5X5X2X2X2X:X&X'._./.] D D G H H M p.p.f.n.' P L I I ] G ' } /.].[.|. X(.).).] oXqXqXoXe.n.T.J.P.j 5. .8.r | w.#.A ( A x x M x M M S c ! [ d./ m./ *.y.8Xd.9Xm.&.m.9XwXtXtX3X$XwX3X5X4XwXtX5X5X4X5X1X1X,X4X1X;X=X,X:X:X:X:X:X:X<X X[.] ] M H P P Z n ( n.&.u.p.1.,.d >.,.d 1.o.u 3.g >.g H.H.A.n.iXuXU.2.q.9.J.g 3.Y.0.T.4.U.3.Y.g.g.f.g.g.L P d.] A K e.' K oXoX[./.].J ]./.].8X[.{.[.[.(.).m.u.i.-.| X. .| o.1.o.o.X.y <.5.1.b.g g C.C.g d d 4.3.b.b.0.k.0.n.T.b.4.j f j 3.J.H.3.b.9.H.2.A.Y.G.<.iXG.3.Y.2.4.m.8Xd.v.d.t.^ t.y.y.t.a.c.",
"iX9XM.c.x.iX0X0X0X0X0X0Xb.0.3.9.T.n.n.n.U.P.2.0.k.9.3.7.4.g g d 3.<.t d s f S.S.F.V.B.G.S.H.b.E.S.B.B.B.C.C.C.B.C.B.C.Z.G.9.E.J.>.3.2.3.T.uXB.C.B.C.f B.C.H.A.A.>.A.G.3.>.A.1.3.w.$.q.:.3.P.S.A.E.U.aXuXiXE.V.B.C.H.G.Y.J.Y.Y.J.Y.qXqXqX9XgXqXqXiXwX0.J.2.A.g uXY.V.C.H.W.E.S.J.4.j y 5.X.o.| | ( m H H ] ] d.qX9X9X[.qX{.{. X}. XXX(./.} ] D ] d.&.*.-.m.n.Y.k.J.2.T.uXJ.G.9.0.9.2.A.2.g E.T.T.9.9.k.4.4.j P.g 3.9.3.Y.C.V.2.E.H.V.B.P.G.9.9.;.e t e 0 i $. .-.p.0XE B N ( B B C ( B t.9XqXwX$XwXtX5X5XtX4X4X3XtXtXtX4X5X5X2X2X:X:X:X'.(.U D D D H L L { W W -.c.L L ] I G ' ] I } /.{.[. X|.{.] ] ] ] ' oXy.e.7.E.H.J.d  .=.%.+.#.*.A ( Z ' M M M S n c ~ ^ a.*.y.u.9Xr.oXoXqXoX8XoXr.oXwXtXtX5X3XtXtXtXtX4X4X5X5X5X2X1X4X1X1X:X;X1X&X1X:X:X:X:X;X:X,X[.[.].I M x H x M M C *.W &.c.f.,.9.G.g j Y.,.2.2.s :.r 2.g G.>.0.Y.P.2.Y.H.C.A.G.T.J.J.J.g f.g.g.s.e.e.P ' L r.L K y.r.} /.(.{.[.8X.X]./.{.{.[.'.(.{./.] [ 9Xa.o.0.$.X.O.3.;.;.d ,.r u 5.u o.7.<.o.| u >.>.d 5.7.b.9.k.k.b.M.Y.j Y.A.A.3.2.4.2.g 9.E.C.B.f 9.f g U.A.g g >.0.a.9Xv.y.[ / / i./ i.) t.y.",
"0XaXgX0XiXiX9Xm.m.9Xv.m.M.n.b.k.n.E.U.k.n.b.9.0.k.4.2.9.g f s 5.1.3.j ,.;.d >.C.V.V.F.F.F.C.C.Y.P.U.C.B.S.S.C.C.C.A.B.C.B.C.H.H.A.A.Z.C.2.uXS.g S.V.B.C.C.B.C.A.Z.2.G.,.G.C.g A.T.w.$.:.:.2.g f R.aXuXuXH.J.P.B.2.0.G.H.uX3.aXY.d.8XwXv.0XqXqX8Xv.qX5.Y.2.A.<.E.pXS.j W.aXC.B.3.E.A.a a t t u u V A K F H ' ' y.} .X' J J {.(.(.(.(.[.[.[.} F H oX' ^ ^ 0Xc.$.2.3.4.4.T.T.9.U.9.U.S.C.V.C.Y.U.E.H.J.J.H.C.A.4.3.Y.J.Z.g C.B.g k.U.B.G.U.2.b.k.e i 9 e e b.&.@.-.M.i.^ T B ( ! t.y.' t.p.qXOXqX3X#X#X3X4XwX3X4X$XtX5X4X4X5X1X:X:X:X:X:X'.(.I x D D ] I ' 8XR -.u.d..X].].I J ' ] I } {.[.#X|. X[.{.} ] J ] d.d.#.k.U.g >.o.....g./ e.A ' M m M ' ( [ [ T W t.9Xd.r.r.r.#X#XwX#XwXwXOXwX$X$XtXtX5X4XwX$XwXwX5X4X5X5X1X:X:X,X4X5X:X;X<X;X;X:X:X:X:X;X,X&X*X}.}./.G M D L M K M ( ~ Q *.n.b.3.4.2.g j >.3.9.9.j 2.d g g 2.3.d g d 9.g j J.A.g Y.J.g 0.f.g.e.e.r.e.P P r.' d.oX] r..X}.(./..X].].{.(.(.[.}.[.[.}.G } d.x.iXb.<.0.9.1.;.;.o.<.>.O.X.o.5.;.2.2.9.;.| | o.o.u | O.1.q.9.1.<.3.9.2.J.A.2.H.2.g Z.V.G.E.S.V.B.H.V.f J.f C.2.:.7.a.8Xd.d.y.i.i.^ d./ ^ t./ ",
"iXiXiXiX0X0X8Xc.M.M.0Xm.iXE.E.T.b.n.n.k.U.9.9.9.3.g 2.<.j g s 9.b.9.2.5.2.g ;.o.;.>.g V.V.F.V.B.C.S.C.B.B.C.C.C.C.2.C.C.g P.S.B.C.P.B.V.B.U.S.V.F.C.Z.G.C.B.Y.Y.H.>.S.A.A.C.g <.R.E.1.2.<.2.5.3.g 9.E.E.H.S.T.C.6.q.H.A.U.H.E.iXc.qXqXu.iXqX8X8Xd.p.E.9.A.C.Z.Y.E.E.E.H.S.A.;.2.P.G.g w w t o.O. .| w.Z J ] r.g.d.].J I F } F /.I J J ].{./.m H P ] ^ ^ n.9X&.O.q.3.3.b.uXb.H.3.T.P.H.V.G.b.b.aXA.P.j J.A.g 2.g A.g g d g f f 3.E.B.G.3.4.Y.i o.7.; e o.&.-.x.m.a.t.y.C ! C C / d.' a.u.qX$XqXtX$XwX3X$XqX$X@X3X3X5X4X1X5X1X:X:X2X:X:X`./.J D D ] I L r.g.~ a.u.oX].].].J J G ' I ].{.{.{. X(.XX/.G G ] 8X8XoXf.7.U.>.X.6 6 ~ s.e.( M K M M Z ' c e.u.&.y.oXwX$X$X$X#X3X3X$XOX3X5XwX5X5X5X5XtX5X5X4X3XtX5X5X3X5X2X5X2X5X:X,X5X:X:X1X;X;X;X;X&X;X;X:X-X|.[.).] G D H P Z ' Z C T &. .b.4.9.,.g g g 3.9.7.T.2.g 2.f 2.4.U.g s d U.u ;.1.,.1.0.f.f.g.g.e.P P r.r.' ] d.} ] r././.oX{.{.J ].]./.oX}.}.[.[.[.} I } 8Xa.x.b.8.5.<.<.;.d >.u 3.u :.>.d ;.<.u ;.0.;.;.O.o.6.q.7.<.u 8.6.;.<.d d <.;.d d d u 2.f 2.3.d s g g 0.C.s Y.A.2.9.1.8.v.v.v.c.i.c.c.t./ y.[ [ ^ ",
"iXiXaXaX0Xv.8Xd.m.M.0X9XuX0XuX0XM.n.T.b.n.k.7.3.1.k.9.9.9.2.g g 2.3.g 2.A.B.A.d >.:.,.g B.F.V.V.V.F.V.F.B.H.V.V.B.C.B.V.V.E.H.A.Z.J.C.V.S.Y.A.B.B.>.2.C.V.B.!.uXuXH.f J.B.A.2.1.4.W.H.2.2.<.9.U.;.q.0.9.A.B.P.V.3.2.J.G.3.E.5.aXiXwXqXx.qXqX0XqX#.7.aXE.2.C.C.A.W.pXK.B.V.>.2.C.g J.O.f w t u u o.y O.@.K H I ].oX].G } )././.(.(./.J J {.J I M M ' ' ^ ^ x.*.&.a.8.9.3.uXm.2.9.7.4.9.H.j U.E.Y.G.2.j J.A.A.g >.:.;.d g f f j g E.G.C.f Y.d i u u e e e 6 *.-.Q ^ ^ y.C B C n ~ a./ m.9XwXtXwXwX3XwX4X$XwX3X3X3X3X3X,X1X1X1X:X:X:X:X=X}./.M H H ] U H r.g.~ ~ M.d.].] ] I F ' ' } J {.{.}.`./.].).G G ] oX].d.9Xo.W.1.=.@.#.e.' Z M M x M C C ^ < Q *.' oXOXwXtX5X5X#X4X4X3XwX3X4XtX5X5X5X5X4X5X5X5X5X5X5X5X4X2X2X2X2X2X2X5X:X2X;X=X,X=X1X:X:X:X&X-X-X|.}./.J P D P P L M ' n B p.o.n.H.2.G.g 2.j H.0.b.3.9.d 3.g 3.9.T.g j 2.b.7.4.3.g s T.g.e.e.P A A P P P r.] d.8X].{.(.{.{./.{./././.(.[.[.(.{.OX].d.v.v.v.m.M.b.5.1.<.d d 3.9.j d d 9.,.2.<.g d 0.9.2.u 5.<.b.b.k.o.o.q.d <.2.d <.>.>.<.d g d s s 0.g d d d h 0.r 9.9.o.0.X.q.-.t.u.t.i.a.t.x.v.^ a.i.u.a.",
"iX0X0X0X0X0X0Xc.0XiX9XM.iXaX0Xm.n.T.n.k.0.b.b.1.<.5.d 3.g j j B.C.d g >.g C.g g C.g >.,.,.2.,.C.V.F.F.V.V.A.V.P.C.Z.Z.f A.T.U.G.C.Z.S.C.V.J.U.B.B.C.C.g J.g Y.T.G.H.S.G.C.2.S.Z.j Y.uX3.2.1.3.g U.E.3.>.>.;.,.C.2.d H.G.1.n.8.uX0XqX9XqX8Xd.0X9X#.b.gXT.H.Z.>.T.E.aXV.S.B.>.J.B.G.J.2.>.d o.d t o.r o.O.B F J G g.oX} G ]./._./.(.(.(.(.[.(.).] H P t./ ^ *.p.u.^ ^ c.O.6.b.q.7.7.4.2.4.2.b.k.A.9.9.4.j f S.>.d d ,.g g g s 0.2.T.Y.C.A.4.o.u e e e e 6 &.Q &.W / C ' ( C ( / B N @.v.0XwX4X$XwX5X3X5XwX4X3X4X3X4X3X4X4X=X*X>X;X;X,X'.(.G ' D D D D ] ] ' C [ M.y.] ].] oXG ] { d.].{.OX X|.{.].].J I } ] oXd.qX1.T.w.s.e.e.P K P x M b b b N =.@.e.' .X#X3X3X4XtX5XwX4X4XtX5X4X5X5X5X5X5X5X5X4X4X5X5X2X2X3X4X2X:X:X:X2X2X5X2X1X<X<X>X|.=X,X,X1X=X=X*X X(.).L M D H D D M ' b < m.8.n.3.2.H.j j 4.j n.T.2.G.f f j k.9.T.Z.j j 3.Y.j 3.f.f.g.r.P P P P A e.A K ] L ' ] /.]..XoXoX].qX[./.(.(.}.'.[.{.oXd.m.9Xv.-.n.x.6.5.5.5.g g 2.9.<.d 3.<.9.9.d 3.3.0.J.G.d 7.1.,.5.<.d <.<.g 2.3.g d <.j j u <.g f j 0.g 2.j g g 0.y 0.9.o.q.o.6.^ ^ t.E @.W / E @.N N ^ / t.",
"aX0X0X0X0XaXaX9XiX0Xm.uX0XuX0XM.0Xn.n.n.H.4.2.4.2.d <.2.2.3.2.C.f 0.9.9.2.g g C.C.C.2.>.<.<.:.O.Z.C.C.P.V.V.C.2.H.Z.C.f J.aXaXE.H.A.S.C.J.E.uXE.H.V.B.J.E.Y.j uXS.Z.G.A.C.Z.B.B.C.P.E.J.Z.Z.G.<.A.9.G.G.P.3.O.:.O.r 6.1.w.<.uXb.M.iXiXqXqXv.v.0XqXn.aXb.T.q.0.E.g E.B.A.g g <.g 2.4.A.>.| 8.b.u X.r X.r o.P G ' 8Xd.].G ] XX{./.{.{.(.(.).oX)..X' H ' d.d.s.x.p.*.*.^ t./ ^ f.+.b.1.9.k.4.U.b.4.9.4.3.2.f S.j g g g d <.5.9.9.9.n.T.A.A.d o.e e ; e r W -.W -.u.y.( ( ' ' / / N T x.m.0X#X$X3XqXwXtXtXwXtX$X#XwX3X$X3X,X,X1X5X2X5X>X%X(.' ' F D D D L H M Z i.u.y.y.].] oX] ] ' d.oXqX[. X X[.].d.] ] I ] r.oX0X5.g.r.e.e.K P P P M S b E N  .s.y.r.] .X#X3X3X5X5X5XwXwXtXtX5X5X4X5X2X5X5X5X5X5X5X1X2X2X:X1X2X2X:X;X:XyXyXyXyXyXyXtX}.OX|.|.<X=X=X-X|.$X}.] ' H H D x x Z Z n 5 -.6.b.;.<.2.2.3.0.g 9.E.A.C.g g 2.U.0.4.2.2.g 1.7.4.4.g.g.e.g.L P P ' ' P P ' 8X' ].I .X] r.I ] oX] {.(.[.[.XX.X] ] d.0Xu.c.u.7.b.n.0.1.<.k.2.>.d ,.o.O.0.<.U.H.3.b.q.Y.1.0.o.;.;.<.0.3.3.2.3.7.1.3.>.5.0.g g d 9.A.2.3.9.2.2.f j 2.T.g u U.2.;.q.8.t.a.v.&.-.p.c.) ^ *.^ ^ *.E ",
"n.M.iXaX0X0X9Xm.0X0X9XM.0Xm.0Xm.m.m.v.M.0.1.2.g g g g j 4.3.2.g g 9.3.Y.k.3.g g 2.C.g >.>.g >.>.>.:.g Z.g f f C.S.V.B.B.g J.C.A.C.j B.B.C.U.uXuXE.H.V.V.C.U.A.P.Y.C.P.E.H.B.B.C.S.A.!.uXJ.J.G.G.Z.k.P.C.H.w.1.1.:.>.q.#.~ 6 n. .M.v.0XqXqX8X8Xc.iXaXn.q.O.U.Y.6.d R.T.G.f j ;.g g 4.C.f g y b.u y y y r ;.h.K ] +Xd.] ] ] ] ]././.(.(.(.(.[.{.{.).} I L ' ' @.u.m.) ^ u.i.d.u.0X..8.q.<.1.0.9.U.U.H.G.A.S.B.A.f C.f 2.1.7.9.4.0.b.E.A.C.e o.e o.e e r &.*.W ^ p./ K Z ' ' ( ' ( { 9Xm.qX#X$X4XwXwXwXwX3X3X4X3X3X3X$X4X,X4X2X2X2X2X,X4X}.] Z ( L x D D x m n u.*.d.d.] ] r.d.oX} r.} 8X[. X|.[.].d.] ] } 8X].r.m.g.d.r.L P L P D M M B N  .7 *.y.qXOX@X#X$X3X4X4X3X3X4X4X4X5X5X2X5X2X2X2X5X5X:X:X2X2X2X1X4X1X:X:X:X=XyXyXyXrXrXrX7XeX] .X>X>X,X;X;X*X$X$X(.] K H D x x x ' Z B R f.<.b.u 2.g 2.9.2.g g uXg g f A.9.Y.G.j H.u s 1.g.T.g.e.P P g.P e.' P G ] ] r.[.].XX{.oX]././.J ].].[.{.).].] L K ) a.v.c.9Xd.8.q.b.k.9.2.b.2.2.2.g 9.5.b.2.b.J.,.5.<.b.<.Y.1.;.>.2.3.d <.>.3.0.2.<.2.3.9.<.3.9.4.Z.4.2.g j j g 3.5.E.2.2.b.3.5.n.n.m.m.i.a.u.x.a.u.u.a.x.*.m.-.",
"m.m.x.0X0XM.aXiXM.0X9X0X0X0X0X9Xm.m.0XuX0X8.n.9.,.2.2.j 2.2.3.2.9.g j 7.b.7.T.9.P.H.d U.2.g g 2.U.E.G.>.O.O.g B.V.F.B.G.U.J.C.V.j P.A.G.V.C.T.T.uXP.B.B.f E.G.J.P.C.B.A.J.S.G.A.A.<.n.n.U.G.2.U.E.n.iXH.q.q.q.1.1.5.T.#. .O.1.O.x.^ i.m.0X0XqX9XM.iXU.9.k.E.g f f E.T.3.C.j f C.f 2.2.f p a <.h u u u y o.E A r.] ] } } I ' ] /.(.}.(.'.(.'.}.{.(./.G H H L e.m.m.) ^ *.*.i.8Xm.8.T.j j Y.<.d >.3.9.f f H.B.B.f C.j 3.9.2.C.H.Y.b.U.9.d 9 y u 6.8.e +.&.&.R W ^ ( C m ' ' K ' ] d.d.9X#X4X3XtX3XwXtX3X5X5X5X4X5XyXtX5X1X2X:X:X:X:X:X=X`.' Z Z ' H H x x Z ( *.t.' ] L L ] r.oXoXI ].{.{.|.,X X{.] .XG r.8XqX} r.] L H D D D x x S c R Q @.e.oXqXwXwXwX5X5X5X5X5X5X4X5X4X4X1X2X2X5X:X1X2X2X:X5X1X1X5X:X:X,X1X:X:X;X1XyXyXyXrXrX7XVXeX] ].*X-X&X&X*X|.$X}.).H m D D x K x Z ' % Q =.7.3.2.4.A.j j j G.A.k.C.f f g k.2.C.2.g d 0 #.e.e.e.P P P r.P r.K ] ] r.oXOX{.[.{.(.]./.J J /.(.{.XX{.I ' K Z t./ @.m.a.m.-.o.2.k.3.U.2.b.k.2.J.2.4.2.g 2.3.3.;.>.2.3.3.j G.>.g f d s g j 2.0.9.4.Y.C.9.b.7.3.2.A.g f f G.g g g Y.9.3.3.Y.2.k.m.a.c.i.a.0Xt.a.i.c.a.x.c.t.c.a.",
"m.i.*.) @.c.x.0X0X0X0X9Xm.9X9Xm.m.n.M.0Xm.0Xn.M.*.q.9.3.2.<.9.3.9.<.j <.b.b.1.4.k.9.3.b.k.k.U.2.k.n.Y.0.<.3.;.t 9.3.k.9.W.n.Y.j j 2.2.g 9.3.k.k.b.k.9.Y.b.T.T.U.9.Y.G.S.9.P.2.9.3.3.9.k.T.A.C.g J.3.b.b.0.9.6.O.;.;.q.8.o.;.,.n.=.m.i.T N t.) a.M.E.n.U.U.6.g G.,.d I.C.C.,.,.:.g g >.2.o.>.q.d O.| o.o.O.#.m ] G P ] ] L ] F ] }./.{././.(.(.[.(.).] G H G ' t.&.*.^ W ^ &.t.x.m.7.A.H.k.U.J.A.d 0.d g A.A.A.G.J.J.j Y.G.S.P.J.U.9.E.t e e e e o. .-.&.R Q u.[ { ' ' ' F L L oXv.8XgXtXtX3XwXwXwXtXtX5X5X5XyXyXVXVXyX2X;X:X:X:X;X=X>X>X]./ { oX] H x x ' t.x.m.' r.] ] ] ' oX} oX} [.{.<X>X`.(.] } } oX8XqX].L ] D H ] M x S S *.x.x.p.+XwXwXwXtXtX$X5X5X5X5X5X4X5X5X3X4X4X2X:X3X5X1X:X:X:X1X5X:X1X:X:X4X2X:X1X1X2XrXrXrXrXrXzXrXwX#X#X>X*X*X>X`.(.}.[.I M F M x x F ' Z ' E -.o.b.2.3.Y.A.j H.2.U.k.T.H.g g 3.k.J.2.4.3.Y.;.h.A A e.e.P e.r.P ] ' ] r.(.qXwXXX[.[.[./.{.{.[.(.{.oX].} ] { ] m.m.0Xp.m.i.n.8.o.;.1.5.9.3.5.7.2.<.k.9.2.2.E.Y.j 2.9.j 4.2.g g j d >.9.2.j J.j J.2.3.P.j P.9.2.H.Y.H.S.C.3.A.A.H.j Y.J.j Y.E.H.n.b.v.v.v.8Xc.0Xm.qXv.y.c.8X/ x.i.",
"*.T T E ^ ) ^ p.*.x.u.u.Q W ^ W &.W W Y $ , < W u./ R R r y d u r d t s d d t u <.1.d , r e ;.<.d | y r u X.u | 2 e d o.,.o.;.r 3.g | e 2 1 y o.e >.u r V , ,.o.t ;.r u V ;.:.E E R 2 :.<.,.R R r u u o.1.O.| o.o.u <.1.u 2 2 8.R f.&./ * T N ^ $.q.5.<.+.B +.,.O.t Y.C.;.R +.+.| | R u N < u d r 2 e r +.R V ' S b e.K K K m b ].m m v F I I G n % M m m b M ( ! *.N N < < Y E 6 , e t d u r d t t e r 1 - 1 - 9 t w a u , 0 ;.e u e 1 e 1 , $ @ 3 $ < 2 5 < N c b c b S M n W R E 9XoX.XoXB ] ' #X3X|.}.OXeX6X7X7XeX X_.'._.'.`.'.(._.m ~ ( Z K M S Z n Q W Y T ( d.K ! ( ' B ( B ' } [.}.].] ( C ' ' r.' Z Z m M M m Z n ( C ..^ E E r.#X#X$X#X#X.XOX.X.X#X' ].}.|.$X|.3X>X>X%X>X=X=X'.*X*X*X'.`.*X'.[.,X,X>X*X7X7XrX7X7X7X7XeXoX#X X'.|.|.}.}.).I I K v n M b M M Z C ( p.#.=.=.=...=.O...+. .=.<.7.b.q.O.7.5.q.n.#.e.s.( n A A Z ' C C d.' ' d.' ].} .XqX].].} } } ].} .X] ] ' ( { [ n.u.^ @.u.=.+...-.-. . . .-.| 6 | R O. .<  .R r 8.6.:.<.6.X.1.<.O.X.o.o.O.2 X.6 e o.o.;.o.O.o.o.1.o.;.<.u r r o.o.u o.3.o.<.6 O.X.O...=.^ @.&.*.E ..W E W E W < , *.T ",
"*.@.&.*.u.u.&.p.^ E Q @.u.*.p.a.m.*.p.u.*.*.*.*.m.i.i.t.6.7.<.;.s d d d <.2.j 3.3.9.3.2.f s 4.2.f f 2.g g d g >.;.;.d f j f g d g g r u | y 2.g o.;.X.X.O.+.r d d u f g X.d 2.1.:.O.X.3.<.f.O.O.u o.u O.r -...r r e <.t d X.| o.5.0.| =.&.p.a.*.8.7.9.>.d 3.g 2.b.2.0.s s s 3.a s y s s <.y s 3.t r u r +.R l.' H ] ] ] K F m m Z {.G J F J J {./.G H m m M M Z A T , < & 2 5 2 e u r e d e e t s e e t t t e 0 1 e w s X.@ r 1 e o.e 1 e , 1 1 , , , & < , 3 % % 4 4 c S b 4 , , & y.C ( ' B K ].|.I [.x F eXj.j.j.j.7X XU D U '._./.U x V C M b S S M b 3 , @ 3 c C 4 O % B % $ Y o ! c 4 S % O $ B % ( b c n S 4 4 4 4 4 O O - O > % 4 n Z n 3 e.o , $ o O + c S M I x G x x x x U D D D D J H H J x x x H P F j.j.j.j._ ` _ ! S x D D D D D x L x n % N c S 4 4 4 4 + 4 R & 2 N $ $ @ $ & < # O & , < 6 $ , $ O 3 V c 4 c 4 4 4 4 c + $ 3 $ O c % $ + $ @ @ # , O $ @ $ 3 % 3 O 4 o , Q < , Y $ 5 O @ , o   @ # o @ R Y & , # o O     @ O o , 2 @ , , @ 2 , 6 &   o @ @ 2 @ > # - $ @ , R 6 , O O o , @ @ Y , | < $ @ , $ O Y 3 < , < , # O @ , , , > o > 3 ",
"m.p.p.p.p.x.x.-.n.u.*.x.x.u.^ p.-.m.-.n.p.x.n.x.m.m.u.*.*.&.u.=.;.d 2.k 9.U.d 3.5.<.9.k.4.Y.k.4.f f 3.9.3.3.4.9.g s g g k.f f f g s s s y o.g f d s ,.X.X.o.R <.g ;.f C.,.u g j >.>.>.2.E.n.G.;.9.1.O.#.+.6.q.| | r u 3.1.6...R k.2.=.$.-.p.*.R n.8.5.<.3.4.>.<.1.4.3.9.2.2.j f s d t s s d r >.s u u o.O. .n./ M H P ] K K m m m r.(.{.(./.J {./././.J F M M M P ' R Y 2 5 5 6 e u u ;.d y d s s u t a t d t t d e t t s s 2.u t o.e e e e 1 e 7 6 5 R < < B B b B N C b C T T ~ ' d.] , B c M }.>XJ }.H } rX7X6X7XrXrXyX'.(.`.'.-X(.`.G ' v P M M M Z C ~ 5 ..C ' K K n n y.' n ' ' } J c S m b C Z n Z Z m K P P M x S c , 5 +.e.] ].I ).}.).#X( P ].XX] P ).I J }.|.'.(._.}.>X'.`.`./._.U D _.(.'.(.}.(.[.' eX7X6X7X7X6X6X6X} I H [.(._._._.).).J Z B v M b n M c c c $ , , > ; 1 e ; 1 - 1 1 1 e - @ - 2 1 1 N 3 e.#.c A c A b + b c C F M M % % n ' m v b @ / m F ' K Z B v ( ! & R E < r ..| r 6 1 r 1 r o.1 e 2 r R R 2 2 2 , r R O O @ , 6 6 2 @ , 1 1 > 1 @ , 1 e o.u 1 1 e X.2 , $. .6 6 < r o.| r  ., e +.3 < $...6 *., R $ < Y ^ Y R Y < < N < 3 3 ",
"M.m.M.x.m.x.0Xx.m.x.x.m.m.c.9Xi.*.m.i.m.u.p.p.n.u.n.i.i.) ) x.a.&.6.$.5.0.k.0.9.4.4.9.4.k.b.j 3.4.3.g f g j d 9.3.2.3.4.U.k.U.g g s f g C.f f f 2.g j g g d d g A.g d :.X.,.d j >.,.2.;.T.2.U.,.3.<.#.f.=.O.d 2.O.+.d >.1.o.+.6 0.2.b.8.-.-.7.n.k.5.<.1.<.>.d g s f 2.3.C.g d d s f u X.y s y u ;.| 2 1. .=.c.a.F F H I L L m F F M oX].}.{./.{.{././.J G m F M H L ( &.W E Y 6 6 r d >.t y u s t t d t s t e e d a s t w s s u 0 e e 9 e e e 7 1 7 2 5 , N N B b B b M b ( E t..XC ' ' ] b ).).'.*X'./._.M  X7Xj.6X7X7X7X>X(._.U './._.(.H N b S M M M A b 3 N b n K K b n Z ' n ' {.{.J {.J F F m n M b M M M x x S S S , , N N C I I |.>X1X,X5X[.@X%X3XXX[.)._.'.>X,X1X`.`.*X*X=X;X;X*X*X*X*X`.>X1X1X,X4XwXeXVXVXzX7XzXzXrX7XI _.'.*X`.*X`.'.[./.L b , b M b Z M n b c 1 , 3 9 t 1 - t t 1 ; ; w t t y 1 V #.#.#.#.e.A A A M M M m F n M I J I J J J ] J I G J G b c ] n Z M T ^ t.E @.| | 6 u r e o.e o.u u r 1 y 2 2 < 1 1 u u r 0 u , 0 e 0 0 1 1 1 y 1 @ - 1 0 ; 0 0 1 - 1 , - 0 1 1 0 e @ 1 2 3 @ 1 q r @ e  ., , $.R 2 E < E Y N @.~ N E N N , N < < N ",
"m.m.m.m.m.p.x.m.m.x.x.x.p.n.m.m.v.c.M.x.m.m.m.m.m.m.0Xa.c.i.a.*.x.*.=.6.5.<.k.3.2.g d <.g f f 1.0.2.2.g 2.j j j 4.k.9.4.n.T.uX3.b.2.s s g 2.C.g j s 2.f s d >.g g 2.d d :.o.,.f H.2.>.o.d g 3.9.1.$.@.*.#.+.X.g O.r d <.2.<.;.t 7.n.8.-.O.$.8.b.2.9.1.;.;.d ;.;.,.u 3.Y.Z.>.>.:.f g o.X.o.d 4.>.d <.r 0.R x.T ^ C M m L I K K F J G F XX)././.{./.J I J G H F m m K Z E N N Y R r r y d u d r s s u t a s s j s a f f 2.s s a d e e e 0 e e r 1 7 7 6 6 5 N N B c c v S C @.e.d.oX#X@X@X@X).}._.U `.'.(.`._. X7Xj.7X7X6Xj. XJ U U U /./.(.G C S x x x x M B N V v M I H M M n Z ' } ] ].J [.).m n n C ' M x S M P x x b B @./ r.' K }.>X=X1X(.>X,X|.}.@X@XP ].I }.|.>X1X1X,X=X*Xx H /.}.>X>X>X>X}.>X<XtX#XrXVXVXMXzXzXzX7X7X7XOXI '.>X'.'.-X-X'.(.J b > , b b M C S S c c - 1 u t u t t t ;.a t t t 0 1 d s.#.#.h.Z A A M M S b K M m H H G ].).]./.J ].F ' J J I I J G K M Z E W E E R R 6 r 6 | r r y y u r u e r r u u y y e u u u d 1 t t t e y 1 e y d y 2 r 0 e u s 1 2 , q < # > 0 r 0 u $ > 1 < $ - 0 1 , O.3 $ , O.R N < ..@.@.Y W R =./ T ^ E ^ < , 3 ",
"M.0X9Xv.c.x.u.p.m.x.c.v.c.c.a.x.m.i.n.c.m.i.u.x.c.a.m.a.p.a.t.u.-.-.x.i.$.<.k.7.k.d <.k.f f g 2.3.f g j g g 2.j g 3.3.4.9.3.k.3.9.9.j s t d j 2.f f j f f f g f f S.p s >.:.:.d >.>.,.:.d 9.O.E.=.@.*.p.;.u d d 3.g f 2.d 2.d 3.7.b.3.3.;.<.X.O.>.6.O.<.2.f f g :.s g 2.J.>.y d f h X.o.;.X.d 2.g g g 2.$.m.) ) / ! M M I L L n n M M ' G J /./.G J I G I G m n M H K W E E W R | r y u u d e d g s a f s f s s t t t u y e t a w e e e e 6 o.e 7 6 Y 5 < B C A C b n v / y.oXOXOX#X] ].}.}.|.,X*X`.`.(.'.*X*X<XrX7X7Xj.j.{.} I U U U D D H c S S S x x x b b B n n K H m m M m ' {.F c ).J /.F b c C Z b x x x ] x M b Z ! B ] .X|.1X;X=X=X_.4X,X*XI K ] Z ].4X,X_.|.1X>X>X,X,X[.).[.|.>X,X).] .XeXeXrXVXzXzXjXzXzXzXjXjX7XeX' [.*X*X=X-X*X-X'.`./.b , c n n M M S S c c 1 7 b.r >.d u a g g y q X.w.w.w.e.h.A A A M M M b n n ' ' J G M M ].J J } /.J J ] G J J I m F ' M E @.W u...;.o.| e 2 2 1 0 t y r 0.| e e 1.u 1 0 y u r t t a 0 0 2 1 y d u y r r y q 0 y 2 0 u q u y e 0 t t y q t u 1 1 0 y t t t 2 e o.1 r y e o.E ..^ N < Y T R *.W ^ ^ &.) ) T T ",
"m.c.a.x.c.u.u.p.x.p.x.m.m.c.a.c.a.*.u.m.u.x.*.u._ p.p.m.u.p.^ x.i.u.t.) u.p.6.b.k.k.k.g f d d 2.g f f g a f d g f g g 9.f f C.f g 9.k.j j 4.3.3.4.A.g f f g d d f C.f d o.;.O.O.o.g 2.O.;.Y.2.b.n.o.$.8.4.j 2.1.2.g d | R >.2.3.O.3.4.4.C.;.X.@.X.O.O.;.+.u f f g f s g 9.f d g f s u r u d d d g y <.X.-.u.T t.^ ^ Z b F G L m Z n K G L ].(./.I J {.J I G m n F H K ( ^ ^ T R 6  .o.r u d t t a g u t t t t d s u y y r u y u t e e 1 6 1 7 r 7 6 5 < B A C C C C v ( ( ' ' ] #X.X] I |.'.>X;X;X;X;X`.=X'.[.$XrXrXzX7XrXeX$X X*X-X'.(.U F % 4 S S S S S S 4 3 c b S Z S C K c m } ].F J J ).F m m C n b S x S K M c c c $ A .XP ).'.'.`.*X,X`.'.).[.XXXX@X@X4X|.}.,X,X|.}.}.).[.].XX@X@XI .XoXeXeXeX7XzXMXjXjX7XzXN.6X6X7XeX.X}.-X`.*X&X'.'.`.*X/.C , b b M M M S S c , , 6 r ;.d y r d h d y y #.e.e.h.A A A M S S S b n v b C H J J n m G ).F ' {.G } G J F K m c c B R < T 3 < < | o.| r 2 2 e r e e 2 O.| 2 > u , $ < $ < 1 u u e r 6 3 2 q r r u 1 r u 2 0 e y 1 y 1 2 2 1 t t t u e 0 d e e 9 t w 9 t t e o.u <.d <.$.W &.@.E R @...+...+.....+.R ..E Y ",
"m.m.m.n.c.a.p.a.x.n.x.n.x.a.i.a.i.p.u.u.u.p.a.p.a.u.W *.&.u.&.p.p.p.u.u.x.a.@. .8.q.o.d s g 2.2.2.d 2.d g f s d d g j 4.g d j s f 2.9.0.9.3.4.3.j g 2.j f s g ;.g f f j g f f 2.>.d 2.d u u 0. .7.2.d 9.2.o.:.X.>.d ,.O.R X.<.;.O.X.0.<.O.+.O.O.o.o.O.+.;.o.s g a s s o.3.g f s s u t t e s s g a y 1.-.&.t.^ ^ Y R ^ B ~ M m Z m F m m m ] /.J J m /.{.J J G m m b K L ' ' Y R Y  .o.e e u y t s d t s a a a a a d s a y t d r e 0 e 1 1 1 1 e e 6 5 N C A Z A Z ( C B E ! ' ] XX#XXX%X,X=X=X-X*X*X*X*X*X*X].eX7X6X7X7XrXeXyX}.'.'.'././.L C n S x x S S n c % c c % $ % % n c n ' {.}.F /.H n Z n C b n S M S b b % c B ] ] ].m M _.}.`.>X;X(._.U ).@X@XOXXXP P XX).@X3X%X%XL B r.L .XXX8XeXeX7XlXmXjXjXzXjXcXzXjXjX7X6X8X].].}.=X=X'.'.(._.`.U D V 3 b M x x x x x v > 1 2 1 :.r y y u t y t #.A A S A A A M b b b n c b $ % M M m I n c K G Z ] B K m b Z B c v % , $ < $ < $ @ > r N X.e r y | 2 q 2 0 e e o.r u e r 1 , 1 r 1 < 2 1 y u r 1 y r 0 e e u r , - e 1 u t 1 ; 0 e 1 e e e 1 0 0 9 w w t e y e y d r y e u | O. .=.+. .=. .O.b.=.#.#. .R 2 Y Y ",
"m.m.c.u.a.c.i.x.p.m.*.x.c.*.x.x.u.c.t.u.a.&.-.*.u.u.u.*.a.^ p.u.p.u.u.*.a.-.=.$.7.<.<.9.d <.d <.2.1.4.5.4.j d d 9.9.9.4.9.9.Y.2.d 3.2.>.4.3.2.j >.;.d f C.d s s s 3.j f g s h 1.2.2.d g d y k.<.<.J.h ,.u | X.| y d d u d d a d ;.;.u 0.1.Y o.2.3.>.;.;.d o.X.d o.+.d X.u b.u a s a f f d o.u t t u u p./ ^ @./ W Y R *.T ! F K K F m K F m ] {.(./.J ).J G m m n v v F M Z N < Y r r 2 1 r e y r r t s t d t e e d s a a s d a t e e e e 1 e 7 7 5 N B A m M M M v C b ^ ' XXXX].XXXX[.[.*X=X`.'.(.(.*X*X`.%XrXzXxXxXzXVXyXyX<X`.'.`././.).I C v b x b b A b N c b % $ b 4 $ C n ' G )./.H b % N % B M M M S S 4 Z b ! ' ' C ).|.`.>X>X`.|.U `.'.|.|.$X@XXX@X' .X@XB .X$XXXXX.X] d.wXeXeXlXjXjXcXjXvX6XjXjXcXjXjX7XjX6X/ ' P M ).`.'.'.'.'.(.(.x x N N n x S x x S c , 2 6 2 u ;.u d u a d | #.A M S b A A M S c b n n % % O % 4 L n L {.m m F F ] m F M b $ C n ! Y Y < W W ^ Y  .o.o.e r e e 1 r u 1 r 1 y r 0 q 0 t t t t t d u t t e t t s y e >.t s u a u r 1 e 1 e d e t t t t t t d a s e t s a t ,.t t t s d y e <. .O.| e e  . .| 6 $...2 R N 6 R , % ",
"a.a.x.) u.a.*.u.u.m.a.c.a.x.t.p.a.*.&.u.a.u.*.u.^ @.p.u.x.^ -.u.x.m.x.-.a.-.n.m.b.b.8.o.;.d 3.<.d <.<.9.9.j 3.g 2.d <.9.2.k.3.Y.>.g 2.9.>.9.4.9.s d u s <.d s a t 7.Y.,.s >.X.O.O.| X.>.g u u 9.o.P.9.2.u >.o.;.o.u <.u >.u d s g 2.r 5.9.| ;.g >.;.o.>.X.u d >.o.2 d s d k.4.d s s d y u e u t y e 6 W W N < @.N ^ Y W ^ C K K n n m m n M m )./.}.).I G H G I m b C M M M e.W ..Q e 2 e e u r t 1 o.y e d d d s s d d t s t d t e e e 0 1 7 7 6 +.B n A M M M M c n C ( ' oX.X] oXXX).}.*X;X:X=X;X`.=X=X>X#XrXzXxXMXMXxXxXyX<X(.'.'.|.[.{.J c N b b M M m Z B c b c c C B c Z K C Z } [._.J % $ #.n M b M M b S A b V Z Z ] L H `.`.`.`.S S `.,X>X].XX].Z A c oX3X] ' $X#X#X' eXrXVXjXlXjXjXcXcXcXjX6XjXjXcX7X7X7XN./ ' ] v m ).U _.'.'.'.'.(.U K N A A M x M x S 3 , 2 2 1 :.i u t y +.#.B V M S S S S S b n c O C n v M c c % Z G I J /.F ' ] /./.J F K C Z M < W Y ^  .r o.6.o.o.u e 0 e e u u o.u y ; o., o.6 ; t t d t s t t s w t 0 t t a t g s s u r t s d y u y d s a t t t w a s t t h s s a t 3.f a 0 u t t s g u r |  .2 6 | =.2 | | | ..R r O.| | ",
"m.u.x.x.a.*.*.u.) a.) a.t.^ ^ *.a.a.*.u.p.n.x.M.u.x.c.*.p.x.*.u.*.^ T -.u.x.n.x.-.b.8.5.q.<.>.d 5.1.2.>.>.d 9.j 2.2.5.7.2.3.2.0.<.>.d k.3.>.s 1.4.d <.g 5.g d X.| r U.U.g f g >.o.d :.X.,.+.O.>.,.d U.o.r o.X.O.O.R y >.+.o.O.r u d o.u s 2.+.u d | +.+.;.g f s d | u r r t U.X.s d r +.+.r e u r y ~ p.*.< < R Y N N < R M M S b O $ O % v n m G {.J I /.J ].J F n n n v M P e.E &.6 e 1 0 e e t t u t e e 0 t t t t t s e 1 t 0 0 ; 0 e  .7 7 6 Q B M H F K H x B C ( r.r..X.XXXXX@X>X,X1X;X;X;X=X=X=X=X>X$XeXzXzXzXMXMXxXyX<X<X|.>X`.|.(./.L C b S b M M M n B B C n C m v v B $ N L b /.I $ 3 3 % c S S S S b A B #.A C Z M U `.(.'.'.S I `._.$ O $ B @ @ O e.c A ' oXXXwXeXVXzXjXjXjXcXcXcXcXzXN.6XN.N.lX6X6X7X6X} ' ' c [.M _.'.'.'.U [.'.I C A ( A A n A M b 3 6 1 1 , e r o.N V c h.c S S S S S c b b b % + P H H U I J J L I I ] ].J ] } F G F Z ( Z M c %.u.T 1 e e e e 0 e u d h d u u u u u u u t u <.s d s s a t t s t s t s t t t h s d y t >.a t s e w s e d g h 0 t t a t t t t d r 1 1 e e t u r 7.s d s s u | r  .+.<  ...R < 2 | | R 2 2 2 2 ",
"m.u.u.x.c.t.a.x.t.u.u.u.a.*.p.u.*.*.p.u.u.p.p.-.n.x.u.*.p.p.) *.) E ^ ^ p.a.&.+.=.$.7.6.1.0.7.;.;.d <.d d 2.>.d d 1.b.9.2.1.b.1.4.4.j <.0.s g >.2.4.3.g 3.3.>.d X.y k.uXJ.j 2.C.>.g f s g :.+.d u ;.0.o.R +.E E R y d X.| ;.;.R r u ,.2 d j o.e u y +.6 u d t s t >.t q 1 e k.d 9 t u 2 $ < $ ; e 9 6 =.R Y < R E < 3 @ $ c M M K M % b n b C n G m /.J } m } J F m b n c M M K Z t.Y 6 e e r e ;.t u t d t t t s t t s a t s a e e e 0 e i 7 r 6 < B M x x H x M B ' ] oXOX#X$X3X|.|.,X,X;X:X;X;X;X;X=X,X$XtXeXxXMXvXMXzXzXrX<XyX<X>X`.`.(.).I Z Z S S b v M b N N b b Z b C v v % Z n c b ' m n % c n c S c b S M C B A % M )._.U (.}.U }.>X}.).XX] B K N % A ] $ ( ] eXeX6XVX7XN.6X6XjXjXjXjXlXjX6X6X6X6X7XN.7Xj./ N Z % L }._.'.(.`.`.'.'./.L N Z K P K K Z K x r o.q 0 X., +.#.#.A A A A A A A M S % c b % 4 x H M H b 4 K F m J F m n m F G m n C Z M Z C , 2 ^ T 6 o.u o.r e r o.<.d y u d d u t y t e d t t t s d t u a s y t s t a 0 d 0 t t y t u s f d t t d t t t t e e e e e t t d t t t e t t 1 y 1 o.d 1 u e e 6 6 | R > R < N 2 r | 6 R 2 | , O ",
"n.a.i.p.u.*.^ &.&.p.u.*.p.c.x.*.t.*.) ^ *.&.u.^ W -.&.^ _ -.u.^ u.a.*.u.u.a.T | 6.O.:.<.;.u $.7.7.<.<.d <.2.<.<.d d 1.j g 5.E.j 3.2.j d 9.g j j f 2.4.A.f j s a g 2.4.b.d 9.2.s u d s g d d d d u u >.g O.+.+., t d a t u 2.f g s s j u 3.a e ; t t 0 t t t a s w d s t e e 3.f t e d s 1 1 e w d s h U.+.! Y T N < N $ @ X % m x M c c n v C m n F [.I F G J J J G n m n n F M ' ' E E 6 e O. .u y u y >.d g s t >.s s e t h t w e e e e 6 7 7 6 5 B M M x x x b B ' ] .X.XXXXX%X>X}.*X;X=X=X;X;X:X;X=X5X4XyXrXzXzXMXBXzXzXxX<XyXyX<X*X'.'.(./.L ! L m Z K K Z c c b c c C M C m n ].(.}.J F b v c M M M S c c S % $ B N c L ).I S [._.U _.b $ K ].]..X]..X] oXOX#XoXeXVXzXzXvXcXjXlX6XjXcXcX6XlXjXjX6X6XjXzX6X6X` c ' ' I [.'.`.`.-X`.'.|.'.I C n m M D x H x x b 2 r u y w.#.#.C A A A b b M S b S 4 b % b n M M M M M m M /.J H J G m m b F G n Z K F ! *.W E , Y T 2 2 0 y e t t u u e t d u u 2 0 t d t s a e 1 t t 1 ; 0 : 9 w t 1 0 9 t t u 0 t y r t d u s t d t t a t t 0 t 0 e 1 e e t d a a a d t s y u t t d 1 e r 2 R R +.Y , @ 1 6 2 6 R  .| | 2 ",
"i.^ u.W &.u._ &._ &.*.W ^ ^ ^ T N Y E Q ^ _ &.i.T -.) W ^ Y W T N T T T T *.^ m.$.8.$.7.<.<.o.<.5.d <.d <.2.<.9.3.d 2.g g 4.E.4.2.4.9.g 2.2.f f f d y a s s 2.d u u s 1.d 1.3.t d u r t e >.s s j d g s o.2 u d u 0 s t 2.d u r 2 , 0 r 1 >.d e a u r r 1 1 s u X.u f d u d d s y 2 e s r 2 2 1 r r t b.| -.^ ^ ^ N T T % , $ M S S b b n b m n m J (.{.{.).(.I ).I F m m v b n r.F ^ Y Y 5 6 r y u y >.r d d a a t t a a u 1 1 ; ; 9 9 e e r 1 6 < Z M D D x x C [ .X].OXXXXX].%X>X*X*X;X=X;X=X=X=X`.>X4X3XrXxXMXMXBXMXMXMXxXyXyX<X X`.`.=X|.'.[.] F P M H H K ! ! n b v Z M v F F J [.(./.J v N b M S M c c % 4 @ c ' % P % c S H }.[.S 4 O N $ O O o N A N * N & ` j.lXjXjXlXjX6XN.N.cXcXjX6X6XjX7XN.6X7X7X6Xj.B ] ].] [.}.'.`.`.'.'.(.'.'.L T M M x x x x x S V e t e +.e.e.A A A A A A M M b b A n M F J U G J /./.J /.[.(./././.J /.J J F K Z m b B E Y Q ^ ..o.O.r r y r y t d d e t u u t t s s s t t t a t t t t e w w 9 9 w 9 t e a p a y y t t y 1 1 1 t t e t e t d a e e t t t a t a t 1 0 e > ; t t s q e e e r r r  . .r  .N $ 2 O.R 2 < < $ $ 3 ",
"u.*.p.t.) *.&._ ) ^ ^ ^ ^ W ^ T Y Y @.W T N Y @.^ R *.R @.N $ E % R ^ ^ W E @.+. .o.o.0.$.o.1.:.,.<.<.<.;.>.>.;.d d <.y u d d d d u d d y <.u y o.X.+.2 u a 3.O.R < e 4.U.o.4.2.d d o.u o.y d t u 1.d e ,.* r V % $ e r y N 2 R R N r +.$ ,.2.X.;.d X.r r < y | 3 < q d | r 0 P.2 y r r u | N 2 t X.u o.> r -.&.y.! N % Y N Y C b S C b v v n n c n C }.{.J {.I J ).J H m v v C ' K K B Y N 2 2 6 e u d u e u t u 0 t t u t t 0 0 9 1 1 7 7 7 1 2 c A M H x x x M ( ] ] r..XXXXX[.}.`.`.*X=X=X'.'.=X>X|.%XwXxXMXBXBXMXMXMXjXzXyXyX<X`.`.`.*X>X>X}.XXL M x M M m C C n v n m m M G I [.).{.J n ^ v M n S M v n Z % A ] ].A K b O L @XM L c P ].] ] ] K A A ' T X d.j.6XjX6X6X6X6X6XjXjXjXjX6X6XjXlXjX7XjXjX6X6Xj.} ' .X] P I (.'.`.'.`.'.(._.[.K ~ P M M x x x x M O.O.o.;.e.h.A A h.A A A A A M c A m M Z J J J J /././.{.(.).J J J J F L G K m M ' C ^ E Y 3 R  .r r e u u y 1 t t t u d e <.s s t <.d a t t y y t s d r r t t t d y t a t 9 e 9 0 t e s a u u 0 e t y 0 1 - o.t t e 0 0 ; e 0 s e ; 1 e 0 , 0 t s q e 2 y | @ r u  .N 2  .< < 2  .2 Y N N < 3 ",
"p.&.Q p.u.) *.^ *.u.-.-.&.-.x.x.x.m.x.x.^ Q *.x.m.*.%.*.-.p.*.x.x.n.-.x.&._ &.Q &.=.6.O.b.:.5.6.o.;.<.<.2.o.N * 6 u d u | r X.| r 2 % < 2 6 O.R | | +.+.V +.d | 2 | | e b.R y ,.| X.| | r | >.d ,.1.u r <.>.u 3 3 r d q u N 3 r r | 1 u 0 t d +.< , 0 u r e r | N , 2 e r 1 , 2.o.q % $ 2 V N N | 2 1.o.R r ..R ~ * N % Y N T N Z m M A $ $ B b b v % ] {.{.{.F b v m F n v m Z Z Z ' B 3 < Y R ..| e e ;.1.d 0 t t t t t t y t 0 0 , ; r 6 2 , < b Z Z x x x M M ' .X' r.XXOXOX@X>X(.*X;X:X;X`.'.`.>X%X3XrXzXzXzXMXMXMXjXzXjXrXyX,X>X*X`.'.'.|.`.[.] m M H m m M b v n Z m M M I ]. X X}.{.m v c M H H M H I ' OX$X@XXX%X@X@X] .X[.I ]..X@X%X].XXXX].] r.d.8X8XeXmXnXDXcXDXmXmXmXnXnXnXcXcXcXcXcXcXzXvXzXjX6X} ]..Xr.] [.}.'.'.'._.`.'.(.'.].' K m M x M M F H Z T 2 2 #.e.A A A A A M A M M n n Z Z n J H I J [./.).M I J G J J F F F ] K Z m C Y Y E N N , e r e u e 0 0 1 0 t u t u u u d t a d r 0 0 t t u 1.d a s u e s d 1 t s h d 1 : 9 e t w t 0 t g s t w w d t t d u 1 ; 0 9 u 1 2 1 t t 0 0 1 0 $ @ > ; 1 1 1 e < @ 1 e | N $ R < $ ,  .N % 3 < < R ",
"x.p.-.x.x.p.-.p.p.&.m.x.x.m.m.x.p.m.m.m.p.p.-.-.m.8.=.7.7.8.b.n.m.-.-.u.&.u.*.*.a.u.) ..$.n.8.n.0.9.4.3.g g ,. .r u f >.+.u >.O.r d +.u +.N d o.d ;.u d u R y <.u o.u u k.9.y d d s d r t y e d d 1.<.s y 2.d u t s s t y y y s f g t a s w d 0.1 e u u 0 t y s s a g f 2.f d t b.2 , 2 1 q 1 2 2 3 y | 3 r , | N @ $ T T N * N ~ m m K C c ( b c b B n {.J ].G n m m % c C c t.b N ~ C N , $ @ T +.0 u o.0.;.u d d 0 y e t u 0 1 e e e e 6 , 2 % c K K H x x M M e.OX].OX].] qX].|.`.`.*X*X*X*X`.*X}.OX$XzXzXMXBXBXBXBXzX7X7X7X X,X;X;X-X=X*X(.`.`.] ] H U H m K C ( ( F m m L } OX|. X(.[.].v M M S M x M L ] OX#X]..X$X%X%X%X@XXX%X@X@XXX@XXX].I P ' e.d.8XeXlXjXnXDXNXDXDXDXNXnXnXcXnXnXcXcXjXcXzXzX7X6X} oX@XXX] XX3X,X`.`.`.*X'.`.|.(.' C c A D H M H H H ! / #.#.e.Z A A A M A n n n n n A L H J /.H I /.).].{.G m I J J J G ' ' L m Z n @.^ ^ Y , e r 1 $.1.;.y y e y e e r y y 9 t s e : i 2 - e u t y 1.d s s t t t t 2 0 a u ;.u t t a d w w 0 e ;.w s e t w e u d t e 1 1 1 1 0 u y u 1 2 $ , 1 1 e 1 u t r e t e r y e O.r > 1 5 R @.=.E , 2  .Y 3 ",
"n.9Xv.u.u.a.u.m.x.x.x.M.v.p.n.x.n.u.x.m.M.m.M.x.l.k.7.8.7.<.5.l.b.-.x.M.x.x.x.x.*.^ &.O.o.l.5.7.k.9.0.9.2.d 4.4.j j 2.o.X.d g u | r t g d d s k.2.f f C.f s r d C.g o.o.3.W.2.j 2.B.C.s f g r <.s 1.4.d o.s f s s 0 d g r u y f d s s f f u 3.2.g f f d d p t s g p f p a s 1 1 9.t a a a s a t t <.d u 2 ;.2 u O.2 & $ , N Y ~ T Z m M b B C v b c B n v I } } m v F n m m c / c N N ( c c N % T E +.X.e 1 y q.t e e e 1 : 0 X ; 9 ; 1 1 1 - , N C F D D D S M K Z ] ] ] .X] +X@X`.=X*X`.*X'.'.`.,X3X3XrXzXzXvXBXzXMXMXMXzXjX7XyX>X;X:X-X;X:X=X*X'.).K H H H x M M C n m n Z G G XX{.J {.].] G m M b b M M ] .X] ].] ].] @X].#X$X@XXXXXXX].] @XXXXXr.d.) c.8X6XlXjXcXnXDXDXDXFXDXvXnXnXNXnXNXNXvXcXjXjX7X#XXX@X$X$X3X3X,X*X*X`.`.'.'.`.).' C A A H x x x D x M K r.r.' P A A A S M n n v b m F H G U J /.{.(. X(.].J J J J J G m n C ( Z C Z b &.^ W =.r o.1 u 0 y y d d d y e 1 ; ; 1 0 t d t e t <.1 u t d , u s s t e t y e q 1 2 , , d X.r : ; t 9 r - 5.s u # 1.r t 1 t 1 y 1.t d t 9 t a q.t >.2 , 0 u d 0 u 9 u t s 2.1 0 r o.X.| R Y ^ W #.< R ^ , u.T ",
"x.x.a._ x.m.x.m.x.m.*.x.x.x.-.p.m.u.p.x.p.8.7.b.7.5.<.5.9.7.5.8.7.n.n.n.9Xx.c.x.m.x.m.m.7.1.<.<.d d 2.d <.k j j U.n.9.j j j Y.f f f a d s s g 4.C.p p B.p f s 2.A.d o.o.u W.A.B.B.C.B.f C.C.d u f s 2.6 u t 2.f ;.r d f f d u e X.r s s u X.e j p f f g f p a s u t u y e t t 0 d h w t e 9 9 ; ; <.e 0 e d s <.d &.Y , T < , , < &.m M B N n v v c % c % N XX X).F J J I G ' m Z b N ~ N N % $ $ B #.N 2 2 1 t ; O o O O   : o ; ; ; : ; r 7 R B b S x x x M M A ' A K OX@X@X@X4X'.*X=X*X,X=X=X=X3X%XeXxXMXMXBXBXjX7XzXzXvXzXrXrX{.`.=X'.-X;X;X*X_.}.M P H M M M M n m n n n F ' ] J J /.{.} J M H M x x m ] .X] XX%X$X@X%XwXwX4X3XXX[.@X@X[.XXXX] { 8X0Xj.6XlXmXDXDXDXNXDXnXnXNXnXnXNXDXNXnXvXcXjXjXeXOX] ] ' P ].@X}.`.'.*X*X*X'.}.(.I T n m M x x x x x x Z m F K P M A A K M M n n Z I G J I I /./.[./.(. X/././.J J F G G m Z ' K M ( T R ^ Y e o.r , e y r r 1 r e u 1 - 9 e 0 e t r , r 1 e u u y w >.$ y t t ;.1 ;.1 1 t u 2 @ 1 e d 1 9 ; 0 - > @ u e 0 0 y 0 d e t e h s s w a 9 a a 3.s p s t t d t a s t e t w d e 0 r u X.+.3 R R Y < Y T Y Y 5 T ",
"p.-.m.p.p.m.x.a.-.p.p.x.u.x.p.x.-.x.m.n.8.8.6.5.7.7.9.7.b.0.1.7.k.n.n.b.x.x.x.c.t./ t.i.y.@.b.7.<.1.O.o.d d g g 3.T.9.9.4.4.j s 4.3.9.4.9.3.d <.3.4.g f f k f 2.4.j j d g U.9.p 2.f g g g g f ;.4.g g g s g d g X.| t t r q X.R r s f f s >.y 3.g s d t s s f f f s a d y u j s d 3.e e 9 9 : : o r @ 0 e t t w u  .*.Y < N < < T Y [ F Z B Z c v b c c v v XX}.}.).G I J G t.b c v B 3 N N 3 @ > #.#.V - 1 @ ; : : ;     o @ : - - - - ; 7 , , N S 4 S x x m K r.OX.X].@X@X@X@X`.`.*X*X`.*X*X*X*X$XtXrXzXBXMXMXMXMXMXMXMXzXjXrXrX[.'.*X;X-X-X-X=X`.}.].I G D M M M B m v v n F ].[. X{.).I ' F M x x x S ! ] oX#XXX%X@XXXXX+X$X@X@X@XXX@X.X)..X' ! _ v.j.6XlXjXnXnXcXnXnXnXnXNXDXDXDXNXnXnXcXkXjX6X6XoX#XXXXXXX@X@X}.}.'.`.'.'.'.`.`._.L < c M x x x x x x c n P M x M M M b A K K K m J /.J U ].).{.J }.(.).J J J J ] } } F K K K H S B E , W 2 r 1 0 r r 1 9 , , 0 2 - 1 , O @ 1 1 2 u r > e , e ; u 1 u >.2 r 0 ; o.- 0 0 ; t a d t d 0 9 1.e a 0 1 e w t w t t y e d s a t d t a t t e t 1 t d t a a s d d s 2.| 2 2 t u e 6 e o. . ...&.Q / T ^ W R Y < < ",
"a.W x.x.x.u.*.*.x.x.a.x.x.u.-.a.-.p.a...5.$.6.6.5.8.n.E.b.9.<.7.7.7.M.5.<.=.=.8.m.c.t.[ u.) -.n.6.O.O.| d d ;.X.| 1.d d ,.f Z.| +.d f f d 3.f f Y.f g <.k j 2.d 9.k.d 1.9.7.U.g <.j f s f f d d s g s f d ;.+.d ;.o.d X.X.E | O.| X.d f g d g d 4.>.y u s d s s d s f d r e s f f 2.d d u t e e h 2.1 t s d s 1 q.6 a.T & E W Y W E x.K M Z C c v b b v n M J  X}.(.J I I G d.m c c C n B B N N Y e.e.#.< , 9 9 ;.9 0 : ; : : 9 t 1 1 1 6 1 6 $ % b b S x M S % ' XXOX] ] ] XX|.`.=X=X-X*X=X=X=X,X%X7XrXzXMXMXMXjXzXzXzXzXzXzX7X X_.'.`.,X;X-X&X1X=X>X}._.J H H K K ' n ( n B G ' ].XX}.[.].I H M M b S b ^ [ d.XX.XXX] ] ] +X@XK ] ].XX] ] ] / ^ ) j.6X6XmXmXZXnXnXDXnXnXcXcXFXDXnXcXcXcXcXjXjXjX6X6X] [.OX@XXX@X|.=X*X=X;X*X=X`.`.(.J K < v m H x x M x M B C H M M x M M v n M M n K J U J J /./. X(.).F ] F J J F ] I ] G m F Z C C &.R E =.6 e 1 - 1 0 , ; r 1 : y 0 0 1 1 t t e e ;.y ; y o.y u ,.y ;.s t t d t 0.t w d 0 a s s s d 0 t 1.t a t a w a t a g t ;.e u J.s s s s y t e d f s e e s s f f u t d <.o.u u u d | | o.r 7 ..&.T Q / T Y &.W < E E ",
"p.u.u.a.a.p.u.a.x.u.u.-.m.x.x.u.x.p.a.$.7.8.7.7.0.8.U.b.8.k.k.5.5.1.9.4.2.d o.$.p.m.m.a.m.c.-.b.8.6.q.,.d <.d 3.d 2.g s 2.>.J.:.| O.X.+.+.V u g d g d j 2.g g g 2.b.2.3.3.<.U.3.t <.s s f s d s a s s f u t d t a 0 e 2 X.r u u X.| u ;.4.>.u d 2.2.d d d ;.d u h e r 1 d 1 0 t d a d r y 1 1 2 u g a d a t u 1 y r | W E E ..^ E Y < T C M C B v b b n b v b n (.}.>X`.(.] [.J G n Z n ( B B N 3 T V N N 1 e ; t u e t t ; : ; i e e 7 1 1 | < ~ A Z P H H H ] A ' A Z ] N L }.`.`.|.`./.`.U `.).c ` 7XzXvXzXMXzXzXzXzXjXzXzXrX|.}.>X`.-X;X&X=X;X,X=X(.J I U H H H G m m m C I G OX].}.}.[.} H F H M m y.s.r.r.OX3X%X#X@X@X$X%XXX].XXXXXX.X{ W ) _ j.6XmXnXFXDXNXDXFXNXnXNXDXnXnXcXcXnXcXjX6Xj.N.j.} ].r.#XXX].}.}.'.-X;X:X;X;X=X*X'.G ( ~ C M H x x M m M n K x M M m n m m m K Z M D H P L G J /.(.).I )./.m G m m c % b b b C T N W &.E E $ 2 | 2 , 2 1 u 1 ;.u t t t <.t e t w t t <.t t s d 1 o.e 1.d s e e t a :.t a t e t t 0 t d >.d d d >.s s d t s u u d u t t <.2.t t d t d r t s s a t t u t d 2 e >.d r y u u ;.2 | X.O.2 R N < N E Y & Y @.E Y N ",
"a.x.c.u.a.m.m.m.m.c.x.u.x.x.u.x.a.n.a.8.8.7.7.q.5.7.<.q.8.b.5.5.9.2.d 9.s s <.<.=.x.m.0Xm.c.u.6.8.8.8.5.>.1.q.b.4.4.g g g 2.<.2.o.o.o.o.g ;.y s 2.9.2.g 2.j j g g 2.2.g s f 3.T.,.d :.| d ;.s g u a g d r r r u s t 0 e y e t a s a t s t 3.s <.2.2.g y r y y r u t y h d y t t t s w s t a e : e 9 w a 0 d e e d y 2 E ^ 3 < < E N Y E < B M v v c B n n v ! v /. X|.[.(.oX/.J H m v $ c N N 3 3 N N N < 1 r e 0 d t e t t a t e r 1 1 1 7 =., ( m P M D L L ] ' ' .X] C .XI }.`.`.>X=X(.`.`.>X].{ 6XjXzXMXzXMX7XzXBXMXvXjXrXwX|.[.*X'.'.`.,X&X&X*X=X/.I J J H x x M Z n C B n ' OX}. X}.[.] F M F M ] ' ' oX] #X3X3XwX#X$XXX] ] XX@X].).r.T W ) j.6XjXnXDXnXcXNXnXcXnXnXnXFXcXcXnXNXnXnXnXjX6Xj.{ .X%X@X.X[.).}.,X=X-X`.`.'.*X=X>X(.L B ! m x x x x Z m Z M x m S b n v M M H L H J J J J ).(.[. XH ' J G F H J J F M b % S V &.< 3 , , $ > O - 2 1 r t d 9 t e t a t t d t t t t e d u t t s s t d u s d s t e t a d t 0 t t t e e t t a h s t 1.e t d 0 t t t s y e 1 0 1.r 0 d u u y u t s s u s u s u 2 o.2.d u d u u :.6 r | =.f.*./ E N , R T Y &.Q R R ",
"u.i.d.[ t.t.[ -.m.c.m.m.m.M.c.x.u.x.x.M.8.5.5.<.7.q.d <.0.1.<.4.<.<.d d s s 3.<.1.m.u.x.m.c.@.$.k.b.b.q.3.9.b.5.4.g d O.+.e 0.d >.g d d f g f f 3.n.J.f f g g f f s 4.d u s d b.,.d d d d g ;.s d d g o.o.R | | a 3.u u r r 2 r r < 0 y t t t t t s 2.w t w 0 9 t t s w 0 0 t t a g s a t a t a 9.s a s s t 3.u d u r Y ..Y < , , < Y , , E C c % % c c % v v M G (././.{.].G G n M c $ $ c @ X @ 3 B V N R 1 w a t a e e t a a t 0 7 7 1 2  .< b x D x x L L ] XXXX@XOXXX].@X[.}.`.`.*X`.`.`.[.oX7XVXzXzXMXMXzXjXzXzXzXjXjX6X].L ].U /.'.`.*X&X'.'.*X`.L G G P H H x M B N B $ c ] [.{.[.(.J M m Z M m Z ' .X.XOXXXXX@X#X@X.XXX] .X[.@X@X] i.) v.lXnXNXcXcX6XjXcXcXnXFXDXnXDXcXcXnXNXDXNXcXjXj.v.] ] ].].A ).>X,X;X=X=X-X'.'.'.'.'.(.K C n M x S S x Z x H M b b b b b n n U J H I J J J ).}.(.{.J H G v $ Z G G I K K m M c W , O.< 6 r 1 r o.u u e 0 t t t s s t u r t a t s d j k j s t t t t t t t t d d t t d t s a e t a t t s t t t d d s s u d t r e s y d u t 6 1 u d t d y 0 e t t u t u u d s d y ,.d d d <.r o. .r O.O.=.a./ ^ T N R E Y W W Q *.T ",
"^ i.y.{ / ^ t./ / t.) t.*.a.m.m.x.m.x.n.n.b.q.k.0.b.0.0.7.9.7.5.0.2.2.<.Y.g >.g d <.8.a.) p.8.8.%.n.5.7.b.7.b.7.b.2.d o.+.u m.q.m.2.f >.R X.X.+.e <.2.:.s s g d u y d s X.y >.U.Y.g g g u s g r 2.o.e d d u r 2 w g d r r r | R R < y e 1.| d o.r >.s d y t t t a e t e 0 t t t w d ;.t t t 9 e t a w s s s >.e o.r | R 5 M.) ^ ^ E N , 2 7 6 c $ * c b c c % C n m ).[.{./.O c b M M % 4 % N $ @ $ $ N % < 1 y y t t t t e t t t e r 7 6 7 6 < S x x H H H L ] XXXXoX.X+XXX%X|.3X=X=X*X|.,X,XtXrXrXmXMXzXBXBXMXNXNXzXvXjXzX7XP A ].'.(.'._._.*X-X'.'.'.x H P b P M M c c c N n ] .X].).].} C e.M Z F n Z B C +X#X%X@X3X3X@XwX3X3X%XXX%X@X].d.v.j.jXnXnXNXnXnXcXjXcXnXnXcXjXcXjXcXDXcXcXcXjX7Xv.' ' ] ' K L [._.`.*X-X=X'.'.*X_.`._.I A B n S S S Z b b S x c n S m F M G H D J J ] ]./.(.}.(./.n F G F K n Z n n K m c B W @.E , 5 < $.O.7.o.r u u e u d t t s j s 1 e y d d t t u >.d a t s a t t t a a t ;.d a d t e d d a t t t t 1 o.<.d t d s >.d t u r u r r u t u u u 7.e s d e t t u 0 t 0.r y t ;.o.;.u ;.r e u u X.6 R | +.Y E Y ^ T E T < Y E @.*.E ",
"~ *./ { N 3 T ! ~ / T T T ~ ~ [ / / [ +.O.5.T.b.1.k.b.9.;.5.9.0.0.1.2.2.U.>.| r | r o.8.i.t.=.8.n.b.8.7.8.8.0.k.n.9.g ,.+.w.g.w.f.f.d Y.O.X.d u e s f Y.t g g s y r d 3.<.s d 9.E.p g g f s s g t s r s g >.R 2 d d 2.:.o.X.X.r | t h h ;.;.s J.O.s 2.g o.o.u t t y r ,.d d u u t t P.;.f t s <.d t s d a a s y y 0 u 0 - r $.r 5 6 r o.7 o.7 3 $ $ % $ % % c C # $ I  X X).b o M S S $ O O c v 3 3 3 $ $ 3 V +.y u 1.s d d d e e r 7 1 2 6 6 V b x x D D H ] OX@XXX+X#XOX$X,X,X,X;X;X;X,X2X2XyXxXMXBXDXBXBXFXBXBXMXvXNXNXvXrXXXXX].[.`.'.`.-X`.`.*X*X`.`.'.J m G H M M Z Z N ' ] ].L } L ] ~ ' n v y.C C C ' ] XX@X$XwX%X] #X@X4X@X] ] ].( [ c.6XcXnXnXNXjXnXcX6XlXjXjXjXN.cXcXnXnXcXkXcXjX6X{ c 3 K ].].|.`.`.-X&X:X&X-X&X&X'.`.J M x M M x M S S C c c b b n M b c H J H H G L F {.(.(. XJ G m n F K K L % % % c c < R W ^ 5 ..< 8.r $.o.o.e u t 1 e t w t a u w d t s s ;.t t t t s d e w u t d f d q ;.<.s t t t y o.d s t t t s d o.t 9 e t d t d <.u t ;.y y e t w d 1 q.| t >.t t t e u u q.r ;.r e 1.o.;.u u u u u o.+.| ..@.*.T ^ &.^ *.^ *.^ ^ N ..@.",
"/ ^ Y N Y *.^ T ! N T ~ / ^ ~ T B ! ~ T R R +.R o.X.o.| | d d t e y e 2 1 u N % N < * , o.$.=.@.=.8.E.l.b.0.:.4.n.b.j :.w.w.m.#.#.w.w.q.f t s s s f f 3.d y u t y u s k.9.;.r y Y.f d j g d f g u g G.s d h | 1 y y s d r y u y u t s r X.y r d g u 9.g y ;.r y e 0 q e t a f f f h q.q.g f s g u d ;.r e d s 7.>.y >.d t e y o.1 e t i ; t e 1 , $ % $ $ % % B O % 4 H ).c c X %   O         $ $ 3 3 3 3 N B #.X.e u e d s t e e 7 2 7 1 6 2 t.n S x x D H I XX%X#X%X%X%X3X1X=X=X:X:X:X:X;X2XyXxXBXBXDXDXBXBXBXBXBXNXDXNXvXeX@X@X3X4X>X`.'.*X`._.*X-X*X'.'.).I I L P M Z m c C b ' n % L G T $ 3 3 N B N ' XXXX@X].] oX#XK ] K r.c B P ].r.{ ` j.jXcXnXnX6XcXcXjXN.6X6XcXnXnXFXnXnXcXcXkXjX6X! r.] ]..XI (.U '.(._.'.'.'.`.'.*X'.G b b b S Z S S S ( Z % B n n b % % H F ] J ] [.{. X(.b F L M G m v c B Z Z ( C n S , 5 &.*.Y Y W f.u o.1 e w t 0 t 0 0 e u t t t 3.g t t u d d t t e t 1 e t u ;.d t t <.<.f t >.<.d u u s s t t <.t J.t s d s t t t ;.u t ,.t >.t t t e 2 - q.u s <.r t ;.o.o.q.u ;.6.6 o.| 5.d u e u ;.X.X.r 6.Y =.| W ^ E Y W @.Y E < R m.",
"n.-.p.^ u.i.[ ) ) W a.) *.) [ ^ N ~ T Y 1. .* < +.;.u r | y d 2 1 t t u 3 0 X.u d u e e r d o.8.=...$.7.o.d :.X.y +.:.#.h.h.g.h.A h.#.#.g.g.#.N V R +.r ,.E T R | % $ 1 d 2.X.o.d Y.O.y 9.d d d g s g g g u X.r r e t d r r r | 2 t a r s t r e q.R u <.| < , ; t - - t w a t e y y u q.s f u >.X.r | r r X.y 1.2.d r h a y u u o.y , , y y e o.1 , > b % c % % X +   4 H   O       O + +   o O c B 3 N 3 , 3 ~ #.6 e t y y e e e 1 < , , , > ! M M x x x H L ] ' .XXX[.}.>X*X=X*X=X;X;X=X*XyXxXxXMXvXzXzXzXMXNXNXNXvXvXMXzXtX@X@X%X$X%X|.(.'.*X*X*X'.`.*X`.(.@X).).I P M n N ' ' } ].].I K % B N $ N ' B Z B .XXXK P XXXXXX' C $ $ @ $ ! { O X j.6X6X6XcXcXNXcXkXcXcXnXnXcXcXcXkXjXjXjX6X6XN.' oXXXXX] I _._._.U U _.'.U D _.'.J L c 4 c M S 4 4 S c v N ^ c % m G H L L I J ].(.).[.{.J I I G m m K v C Z ' ' F C B R , 6 W R Y r o.o.r y 9 a s e e e u y 0 t t ;.d s a t o.e o.e t e t t t t u u d w d d <.1.e ;.f a w t t t t s t ;.9.y ;.y t 0 a d u s t u d ;.t t s u u u 1.d d r u e o.5.o.b.b.o.1.8.| 6 o.;.o.2 | 6 o.| u X.|  .O...@.#.^ E W E W E *.x.",
"c.u.a.v.d.t.^ p.x.u.m.x.x.M.t.t.i.m.x.m.-.5.4.<.d 9.g f 2.s s d g s 3.g f f 2.g g j j f s u % 1 =.W 5 8.#.w.w.w.#.( #.C A B s.( A Z Z A #.e.e.e.~ R | 2 0.| R | V 2 R , d >.o.| 2 Y. .2 u +.% $ 2 | r q u ;.X.q N @ r r :.E R | R 2 2 N r | u u u q.r 1.u $ # X ; O $ e d u d r e y t q.1.r o.1.;.r u ;.y u u >.d s s d g u X.2 u u 2 3 r :.r X.6 , > %   O % %       N J J S     c + c 4 O % % c c $ 3 3 < < , E R | y u u ;.e 7 1 1 7 6 < < b b M M x L G I .XXX.XXX}.|.>X*X*X'.'.-X*X`.`.yXrXzXzXvXjXjXzXvXMXMXvXzXzXzXzX$X%X%X%X%X3X%X>X=X;X;X1X;X;X1X;X>X|.).I L K b N N ] L OX[.] ] ].( / B C n n ' ' 3 $ Z ' oXZ @ r.] C K P Z N T ` ` M.jXmXjXjX6XlX6XkXnXkXnXnXcXjXnXnXcX6XkXcXjXjX6Xr.' ].] ].@X)./.`.`.`.*X*X*X(.}.|.].K K A A Z b K S x c v C P K L L G J _./.(.}.}.(.}.[.)./.I } G L L C C Z Z K F ~ Y *.&.W W Y 1 O.o.6.u y u t d d t <.a a d 9.4.u u y t a t <.1 y d t t <.d d t e u u d 1 y u 1.;.| , r t e ; u t 1 0 q.e e e t t e u ;.s t t 9 y d u r u u u <.;.7.o.r o.<.1.1.X.6.8.X. .$. .O. .-...| ..X.O.X.1.r o.O. .E R -.t.e.W ^ E p.u.^ ",
"d.i.d.y.y.[ t.i.a.a.a.x.x.v.v.i.t.uX0X9Xx.8.7.9.3.2.d f 2.s g 2.2.f a d d g j f u o.o.| X.+.r d ;.$.&.*.g.s.#.s.e.e.' Z P A r.P P e.e.e.e.( e.e.s.| >.o.,.>.X.+.| X.o.| d 6 4.d X.P.9.d u 9.X.d u u d o.| d u d % $ r 3 u N 3 | R 2 V r N B 2 N < o.;.u d * % N 2 N 3 2 N 3 2 y y y t q.>.o.q.X.y e e | 2 < u 2 t r 1 1 X.3 , 2 e 5.e y t X.e : - - 3 $ X   O % .   O ^ 4 S }.  . + 4 S G v b B n v C N 3 W E , $ +.R | r y o.e r 2 7 6 , R Y v Z P H D H L ]..XXXXX].XX).}.>X>X;X=X=X`.`.`.eX7XzXzXzXzXvXzXvXMXNXNXjXcXvXjXeX%X%X@X%X4X3X>X,X;X;X1X1X;X*X=X1X=X`.[.XXXX.X' ' ] ] .X[.J XX{.} n [ ' G Z ' .X.X] K wX@X].' .X%XXX%XXXXXoX8X6XeXjXcXmXFXFXFXDXcXnXDXDXDXFXFXDXDXDXcXjXcXkXlX6X{ r..XXXXX@X>X>X*X=X=X&X;X;X&X*X>X@X] K M M M M H H x M n m ' I J )./.G /.'.`.`. X|.(./.(.J I G ] G G ' Z ' K M M C T N ^ ^ Y 5 o.o.o.o.r e <.d d ;.u t 5.u d t ;.t u e d t a s d d t >.d 1 t t d e 0 y t d 1 0 t 9.q.r 1 u ;.t u e 0 0 t q.r t 1 r y u r e d u 0 t e r y u y u u o.2 f.2 6.R 2 +.O. .6.$.=.=.O.O.O.=.f. .6 O.O.O.1.1.O.o.O. . .R ^ T / / T R @.^ ^ ",
"d.u.c.y.y./ / ^ [ y.) u.u.) v./ p.9Xy.[ y.a.O.1.:.,.g g 2.:.;.>.u s f 2.<.g d f d o.X.;.d 2.3.j j <.=.y.d.' e.e.e.Z P P H P ] x A P P r.P P P P e.g.g.s.e.f.X.| | O.R | r | d 2.f k U.p s 3.2.p g f s d u s a f u d a y t u t h e 2 | y r | 3 > , $ 1.r <.+.V 2 R | 2 | < < * 2 1 u 1 1.e q.b., e 1 e R r | 2 , t d u q r < - t 2 y <.r e ;.u -   o @ @ O     N .   @ v   . H H + + G c G F n B c ! Z v N $ T N N @.~ T e e e o.e e 1 1 , 2 E B M x D D D G ].OXXX]..XXX[.>X,X;X;X;X&X*X<XyXrXzXzXMXNXNXNXNXNXMXNXvXvXvXvXzX7X@XXX@X[.%X$X}.|.=X;X;X:X:X;X=X:X;X=X3X%XXXXXOX].{.[.{.[.}.{.].G v B n n C ( ] XX@X.X#X[.XX@X#X%X@XXX.XoX8X6X6XlXnXcXDXDXnXnXFXDXDXDXDXDXDXFXFXDXFXnXZXnXjX6Xv..XXXXXXXXX@X|.*X=X=X&X*X=X;X=X>X%X.X( K M M x x D D H m F G J /././././.'.(. X X X(.J J J J J } G K Z e.Z Z m B N Y N < < R  .1 y y o.7.e ;.; t t t d t u <.u e t t t s <.g t d d t t y t t s t t y : u d t e e t 7.u d r t u t q 1 2 > e ;.y e 2 $ 3 1 r 1 u u r y 1 - e y e e 1 u X.0.6 | 2 N > 6 3  .V 6 m.R R 3 r =.| R 6 N +.=.2 r r r | | E E Y R @.E W , Y Y ",
"c.) d.i.{ t.) u.c.i.^ -.c.^ c.c.m.0Xd.d.d.[ p.=.o.o.,.O.X.,.:.o.g d u d 3.f g f A.>.o.;.d ;.X.o.O.O.O.( ' ' P ' ] K K F H F y.M m Z A A H P P K P e.e.e.e.e.g.g.w.O.O.:.d A.u <.3.d 9.A.f d 3.f G.,.d s s d 9.f u a s t y 3.d r e , 1 u r X.u e y r t 4.j j u u r t d u a d u 0 y a a 3.d 9.>.d t 1 t u y u t t w a s t >.s t h r 0 3.e 0 0 0 - . . . o     . $   . O   . .   [.+   M b F c v v @ ~ v B % $ N $ V N V $ 2 , r | | 1 2 , , < Y [ M P x x D U I .XOX] ] r.}.`.*X*X`.`.=X*XyXyXrXzXzXMXNXDXBXDXDXNXNXnXvXNXNXzXrX%X@X@X$X3X3X3X>X,X;X;X;X:X:X:X;X:X;X1X>X#XXX.X[.}.[.{.{.].).].( ! v C Z Z ] OX@X@XwX].%XXX$X$X$X@X#XOXqXqX6XlXnXZXnXDXDXDXDXDXnXnXDXnXcXcXDXDXFXFXnXcXjX6Xj.oXXX@XXX$X@X3X>X=X;X;X&X*X*X-X*X|.] ( C m M x H x x M m m H J /.{./.J /.(. X}. X`./.J } ].).J J J F K P ' m Z N E Y R Y ^ E  .d e r 0 i <.t u t e 9 t u t u t t d t t t s s a a e ;.y t y d t e e e t e e 3 q t 2 - J.;.< 3 1 0 r - y 1 1 e 2 1 e u o.r u y u o.1 u e y u y 0 y 0 e e o.:.8.e  .O.=.| | Y R %.-.2 | N | N 2 V $ @ =.R 2 r 2  .N $ R 3 , < < , Y , 3 < ",
"d.^ [ N *.t.i.u.c.x.a.x.i.) x.aXv.i.i.y.y.[ y.*.<.:.:.O.O.O.1.O.o.d o.| t s 2.d f ,.O.o.O.R r >.O.+.+.+.A r.] r.] L ' ] H F r.K F F A A A H P P P P P P P P e.e.e.o.:.O.>.g X.u d 2.3.pXH.g 3.9.f g f C.C.u Y.g g u s X.;.X.,.N u r t ;.u g d s u r , ;.s 2.t t r e s a t y t a f a a t 2.1.t 1.r s f f s a s s s u t a g g | e 1 e u <.e 9 9     . .   O . . ,   . @   .   + M O o X ].G n F F C v C ! % @ % 3 , N N R $ , , $ | r +.3 $ < B ( ' H x x x L $ ' .X.X.XOX|.`.`.`.-X`.-X`.<XrXzXzXvXMXMXMXNXNXnXnXNXNXvXFXNXNXxX$X%X3X%XXX%X3X`.=X;X:X;X-X=X:X;X&X;X1X1X3X$X.X].}.[.}.[./.{.} T ! ' Z ' ] ].qX%X@X3X].@X@X%X@X$XXXwXwXeXj.6XkXcXnXDXDXnXNXnXcXcXcXnXFXDXDXFXnXnXnXcXlX6Xj.~ ' ] XX].]..X@X(.`.`.*X'.'.`.`.|.XXe.^ B M b m M M M S C m G J /.)./.(. X X}.`.>X{.I F ].].].} L L K K P H F v @.*.*.^ Y ..8.u q : <.u 0 e t t d t t u u d ;.1 y u u 0 1.r 0 9 ;.1 y y 0 0 1 0 , ; 1 0 > , , q e 1 - J.t y e e e t 1.u ;.u 9.>.r u <.5.,.u t ;.u o.y y u q.0.| y r 1 r  .6 6.$.6.$.p.u.u.x.-.M... .X.=.$.O. .O.Y 1 n.N N O.=.O.| R 6 @.N N Y , R Q +.R ",
"u.a.[ / u.u.a.a.x.x.x.m.x.n.0Xm.c.[ / / t.y.y.[ t.*.=.$.$...O.O.+.u g o.r t s X.s f g g u 3.2.>.X.;.>.$.A A r.] ] ' ' I G H ] G H H K n K Z M A M P P P P P A P e.e.w.#.O.>.>.>.g g 2.U.2.2.4.U.g j g C.g u >.f C.g a g O.o.s ;.;.y f u u y r u u | < r 2.3.9.o.o.d g u d u t u a f f a 1.>.g g 2.s f f f d a h <.t a j y >.y r e t e ; ;.0 o   . . . . @ .   $   $ $ X O @ b % ] }.{. X(.I m L G m n n B B N V 3 E N +.2 6 , 6 6 @.2 - R ..C S A x S x S C ( ' ' .X] ].>X*X=X;X&X*X*X<XyXxXzXMXMXNXNXMXvXnXcXbXkXcXvXDXNXvXzXwX#X%X@X#X%X4X|.*X=X:X;X=X:X=X=X:X:X;X1X,X}.].[.[.[.[.{.{.[.L Y C ' ' r.] ] ].#XXX@X#X%X$XXX] @X#XOXqXeXeX6XnXnXDXFXNXcXcXcXnXnXcXnXDXDXDXDXDXnXcXjX6X[ ^ / ' ]..X] ].[.)._.`.'.`._.'.`.@X%X#Xr.~ B ( m M b C m K m I J m )./.(.}.>X>X}.`.)././.J G K ' ' ' P m b S S C B Y Y E < @.o.<.u t - o.e y u y 0 u ;.u 1 e 0 1 r 0 0 0 1 u q r 1 r 1 ; e e u ;.u t u d e e u u t u <.s 9.t <.<.<.;.t ;.u 3.<.<.d <.d t ;.d h ;.o.;.5.;.u o.;.;.;.;.:.O. . .$.&.@.+.^ @.a.{ ( / ( ~ ~ #.E =.f. . .*.*.y.! T O.=.O.$.o...+.*.^ W W W *.&.R ",
") m.c.[ / W a.x.x.c.a.p.n.a.u.m.c.i.i.i.d.d.y.y.[ / ^ #.;.>.;.d d s t r u e d d r u d o.u :.X.+.O.X.X.| A A ' ] ] ] ' F m G d.G F m L m m Z K Z Z M M P P P A P P ' e.e.#.| :.X.:.o.<.9.<.9.j G.G.>.;.d d 4.#.u g d s u :.X.y 2.X.r s u X.y d u u X.| X.d 2.Y.:.+.+.X.u >.d u u a s s s 5.d 2.d 9.;.a d s h a t <.u 1 t 0 : t 0 - : #   ; w           . o # @ c O < c % % c c b I [. X X[.]./.).)./.I m ' ( B N B ~ B 3 &.> 1 6 Y W R ..-.Y n b C P S M H B B ' Z r.Z ).}.(.`.`.*X*X'.yXrXzX7XzXzXzXzXzXvXnXbXbXjXcXNXvXlXcXzXeX#X#XXX#X@X$X3X*X=X:X:X:X:X:X:X;X:X:X&X=X*X[.[.[.{.OX].{.J K & B ' ' ' ' ] ' qX3X@X$X%X#X3X%X$XwXwXeXeX6XlXZXnXNXDXnXFXNXcXnXcXnXcXjXcXnXcXnXkXkXjX6X/ E / ' .X]..X@X3X|.,X,X;X=X=X=X`.}.XXoX' ( ( v n Z M m n F H J ).G }.}./.(.(.).J J G G F ' G ' m n C ] ' v c 3 < W < Y R 7 X.;., 1 0 t 0 y 1 e u y e o.e r <.e 1 0 t s t t o.u t u w d s a 0 d s a d 3.j f g j f f d 3.s 4.d >.3.s 2.s <.4.d 3.u t u d t <.<.u ;.<.;.u q.o.5.q.1.O.=.=.=.a.t.*.a.u.^ [ ( ! { C t.' { ' [ ' ' ' E W / d.( [ ( ( E r -... .=.^ W , ^ W ^ ^ ^ ",
"t.*.m.c.u./ / ^ u.u.i.-.m.i.u.x.x.c.u.c.t./ / d.^ *./ [ / O.>.u d h y r r y h a d u u d ;. .| +.O.O.O.X.+.A A P J ] r.] F L 8XJ G F L G m F G Z Z Z n A M P P P L P ' ' e.#.;.1.d <.>.<.3.d <.X.9.:.>.o.f j $.+.>.r d e d y r ,.d y X.| | o.o.X.X.;.+.+.u 3.3.2.o.| | y g d u y y e r o.<.s 3.f s g g d s s d s f f u t s a s e ; O o : ; 9 o . . . . . . : @ * $ *.v c v n n K I I }.[.J [.|./.G J ).L ' ' n B N ~ B T *.R , 2 W ..p.&.*.5 C M n r.L ].).XX' .X] r.].|.`.`.|.*X*X(.`. XrX7XjXvXvXzX7XjXjXjXjXkXkXcXDXNXvXvXvXzXwX%X].#X#XXX$X>X=X=X:X:X:X:X&X=X:X&X-X&X;X'.[.|.{.OX{.[.).F < T B C B Z ] oXwX4X%XXXXX#X%X@X$XwXwXeX8X6XcXcX6XcXcXNXDXcXnXDXDXDXnXnXnXNXnXnXjXjXlX_ ^ ^ / ] OX#X%X3X>X,X=X=X;X*X*X=X*X[.] ' ( ( n n v K K K m G J /. X X$X|.>X>X{.I G n m F ] J ' Z C ( Z M &.u.R R $ < R < : r e 1 1 @ e r - X.2 ; e u ; 9.1 t ;.d y 1 t t s d ;.s t <.t a s s a s t t d d a 3.2.s s 2.d j d 9.f 2.3.g d t d d u u u d ;.d ;.u 5.1.d 1.;.q.1.8.6.-.=.s.u.^ E &.*.^ u.i.y.] ( ( ( ' ' ' K L L ] ' K ' ' / ' ! { ( ! ^ | | | 5 ..Y Y , E W < @.t.",
"^ T m.c.u.x.^ p.t.a.x.x.p.u.a.m.p.x.a.i.t.t.t.i.i.d.i.{ / y.$.O.X.o.y g X.o.r a o.R y u d q.d ;.o.O.O.X.O.C B A P L r.] ] G d.] ] J G L F n ' K K F Z Z C M M M G I ] r.e.s.s.7.f.s.q.o.T.<.<.,.;.7.+.+.>.d r o.s d s s u r y y d u u r | 2 e u u r r y d d 0.3.h X.X.X.d u u d r e r r u s >.a y ;.2.d y d y s t s u u a f t g s e t 2 ; ;   . . .     o - @ , c y.b b n n K K L [.>X>X<X>X<X|.F I ).} Z ' K C N B B N N R , 2 R R p.R &.W n M Z ' H H G .XOX#XOXOX%X|.>X=X,X;X=X=X,XrXzXzXzXMXMXMXNXvXlXkXkXjXjXkXjXcXcX6XvXzX[ ' ] #XXX] OX>X'.*X&X&X:X-X-X&X;X'._.`.'.'.[.}.%X}. X}.J I u.! N ( Z ( OXXXXXXX] ] XX$X@X@X$X#XwXeXeXlXcXnXnXNXNXnXNXcXnXnXFXDXDXDXNXDXNXnXcXkX6X[ ^ / ' ] .X%X[.|.,X=X,X*X=X'.'.*X}.' B ( N ( b C m m ' L F L _.'./.F OX(.}.].K b m Z c K ' ' C ( Z C K c O @.Y Q =.2 r r e 1 o.u <.y 5.7.r ;.y 0 u d s d <.1 t s t a t t a a u w s s t d t s y t t d d d u t d <.d ,.3.d e u t t >.d r O.r u d d 3.;.u ;.o.o.;.1.:.:.8.6.6.p.t.@.t.*.a./ ^ &.E t.' { { ] ' ' P ' m m M F F G F F K F B b N #./ b R R r  ...R ^ < n.u.^ @.^ *.",
"t.T *.d.T ..&.^ ^ t.p.x.x.p.p.m.m.x.t.^ / [ [ / i.y.! ! ~ / @.+.R | r d u u u a y r r +.| o.d u +.+.X.O.+.+.B c A H L ] ' K y.' G F H G F F ' I H G F G K m F F H H H L P e.e.s.r.e.g.g.n.T.<.4.;.3.d u ;.u t a 1 u d o.X.| 1 2 e y 0 y e 1 2 R | < | o.r o.>.k.g s ;.;.g d X.X.y e u y ;.d s t y u >.g u u d a u u y s f s t t 9 t e o : : . . . o       @ , , , W v n n Z Z F I  X,X>X3X<X|. X/.{.{.).I I I G C B T B B T < < < E R E < &.Z H H K H M K r.OX#X+XOX$X%X>X;X=X=X:X;XyXVXxXBXMXMXvXvXvXnXcXZXAXCXkXbXbXkXcXlXcXcX6X{ 3 ' ] ] .X@XH '.'.-X-X&X'.'.&X&X`.`.-X`.n P .X}.}.[.[.] T / ! B .X#X#X%X] #X#X%X$X@X@X3X3XOXv.v.8XzXnXnXcXcXcXnXDXnXnXcXnXnXnXDXnXnXcX6X6X6X8X[ ( [ e.' C .XI '.*X=X*X=X*X`._.(.L Z X B @ % N n n n ' L Z } /.{.{.J XX(.G } K Z ' ' K F C #.e.y.e.K Z T Y Y ,  .9.d <.q.o.u <.o.d u o.1.t d h <.t e t t 1.e w t w a t d t e <.d d d d d d d d t <.s d d <.u y d y u d u u d t e u d t <.u d 1.q.3.,.u 5.<.;.o.O.O.+.p.*.c.) t.@.u.a.*.[ ( ' ' ' ' ( ] ] ] L L G M K G M M M F M m M n C B ~ ( ! T ~ O...=.*.W &.c.^ t.^ t./ ",
"/ B Y t.) W m.u.T T Y T p.t.u.u.i.y.{ / ~ N T ! / { / ! ( ! ~  .| y s | r y u t d d r u s X.o.O.R +.+.O.| o.+.C ~ K G L ] r.8X] C N m ' G F H } J G G L ' ] G G M F M M H L L ' ' K e.r.#.0.d Y.>.d 0.r :.r s | 2 0 u 2 2 2 , $ 1 d 2 2 1 r | R | N 2 | 2 u r <.4.d ;.u d s X.R e e t t d t t s 0 t <.s u a d s s a s s t 0 e ; ; ; 9 9 z   . o   . .   o @ > , , $ % B v v n n Z K K  X>X>X|.{.m G /.I I ] L K C C V ! ! B T Y Y E R R R W C M M K ] P K ' ] OXOXXX%X$X4X:X;X:X;XyXyXxXxXMXBXNXNXNXDXcXnXGXGXAXSXAXFXbXZXFXcXmXmXrX8X8XOXoX] .X|.*X-X=X&X:X:X:X-X*X*X'.*X*XI [.] {.@X).[.Z @ ~ B ' Z ' .X].#X%X$X3X].XXXX@XXXOX8X8XeXjXkXcXcXcXlXcXnXnXcXlXN.kXjXcXnXnXcX6X6Xj.E N V ' ] ] .XXX%X}.*X*X`.-X*X*X=X'.K Z B ' v c b n Z M L J J {.}.(.}.[.]./.} m ' ' ] } F m K e.r.L H M e.*.t.*.R r r t ;.9.d 1.r y d e ;.t d t a 1.r 1 t t t d s t t 9 t d t e u s t d d t u t s t d s d r y d d s g g y y >.g <.d t ;.<.u <.;.r u y o.u o.<.=.&.u.@.^ W W x.*.i.W &.a.' ' K K K K ] L P I I G I M L F M H F m M m n Z Z ' ! y.' ( T 6. .| $.*.^ / ^ W *.R *.E ",
"T ! E [ E / *.p.[ N $ $ 5 T % 3 T ! / { [ / / ! / ~ ~ / [ ( ! #.#.o.d d X.y d s a t r y f >.O.;.+.| o.;.O.r ;.@.+.Z A P L r.8X' C ' ' m ] G H H H H F F F G G G G m F F H M M P A M P P e.e.6.o.;.| 7.:.O.o.| e y y d 1 e 2 e | , 0 2 , $ 1 1 1 y :.r y h u X.h <.g o.u s g ;.d g s y u d d u s u t t a a y t 0 t a t y 1 O : : t : : 9 .   . .   . o o > > @ 5 , , N c v C v v K L ] |.|. X|.{.} /.J G n L K K K Z C B ! B N T Y 5 R W E E C m x M ] L L ] ' XXXX@X3X3X,X;X;X:XyXyXrXxXMXMXMXvXNXNXcXcXCXGXGXAXAXSXAXFXDXFXFXDXDXNXrXwXwXwX$X#X4X*X=X-X&X_.'.&X&X=X;X;X=X*X|.|.[.}.@XI L {.A ( ' ' @ V .XZ .XP XXOX.X.XXXXX' oXqXeX8XlX6XlXlX6XjXcXcXcX6XcXjXjXDXDXnXnXcXcXlXj.E V C Z ' .XXX|.>X`.'.`.;X-X*X=X`.[.r.] XX).F m F L m ] (.(.{.}. X(.(.OX/.J ).J J I I L K K K I H M ( / t.T @.;.d d u u r u 5.3.d 2.g >.,.d d t t t h d t e e u t t t e u u y 1 u t d t t t a d a 2 r 2 e e t d d t ;.2.s d o.u ;.;.d <.:.t <.u u o.y u o.e | &.@.R R *.*.^ ^ Q ^ ! ( ( ' L ' G n n J U /./.U G H H F M M m I G ' m m m Z C C y.~ O.$. .#.+.-.^ *.W #.W E @.E W ",
"t.^ t.i.W x.u.M.*.*.y.T ^ / N ^ ~ ! N T [ / [ ( ( ! N N ~ B B @.#...X.;.X.;.| X.r d o.r d +.| X.g X.u | g g +.+.% V V A A P r.r.' ' ' Z F G H F H F m F G G J G G G } I G M M M M H F M L Z g.W =.s.s.n. . ., 6 2 , y r X.2 1 R 2 2 r , N < N R 2 X.+.N 3 3 r y 1.9.:.u d d d y y r r u u ,.u g f u t f t e h e t g t q 1 1 ; a w : O o     . .   e < O @ , , , 2 , < v B ~ v c K ).{.@X<X|.|.}.[.{./.{.G G L F L K Z n B B B N 5 < 2 5 5 Y N K D H ] L P ' ]..X.XOX@X3X,X*X`.=XyXyXxXBXBXBXBXNXBXNXcXFXZXHXGXSXHXSXSXGXFXFXFXZXDXcXzX7XtXtXwXOX$X>X`.`.=X`.(.'.-X`.*X&X:X*X'.).[.@X}.}. X].r.XXXX].oXoX.X.XXXoX] A .XXX.XXXN [ 8X9X6XlXkXZXnXjXcXcXDXDXnXDXFXnXDXnXnXnXjXjXlX_ *.T ' C .XXXXX`.'.*X*X;X:X&X&X&X`.I ~ ].{.I G F M I ).[. X`.(.}. X}.{.} I I J I G ] L K K K Z M C / ^ u.@.O.d >.u d 2.u >.d 0.2.j g s d o.>.d t t 0 , > ; ; u d y 0 0 u , , : y u s t r 1 y u d y e u y u t d a a t t y u d y t e ;.u q.6.<.6.e e $. .r R 5 Y Y Y , , 5 [ ( ( ( ' ' K K n Z M m M H G H G U J G G J J I K L F m K m Z n ' ( ( / 5  .f.O.8.O.| R | ..#.R N W E W ",
"/ *.E x.u.m.m.x.-.x.x.a.p.t.u.p.m.y./ ~ *.[ ~ Y T E y.T ! @.@.R R V < N | | R % R * - 1 y V % 2 | X.| 6 y g h >.| e R B ( Z ] J L ' ] ' n C m G G J J J J J ' G G m H ].I m n S K G H P L K r.r.r.r.' d.*.T V +.+.R 0 o.r o.e r o.2 r | R N 6 R R 2 r X.| X.o.o.g 3.3.d d u d t t y e t r y u s s u s a a 7.1 y a s t t t ; ; 9 ; 9 . o :   . : : @ R $ > $ , , 2 < * N % b c C L I M I }.@X>X>X|.}.{.[.I m F Z P Z C n v N B B 3 3 , 2 5 5 c M x H L H P ' ] r.OXXX%X>X,X=X=X1XyXyXxXzXzXMXMXMXMXNXnXAXAXAXHXAXGXGXHXGXFXFXFXFXFXnXmXVXeXeXwX#X$X$X>X'.`.&X;X=X-X-X&X`.:X=X>X$X<X|.[.}.[.].XX@X%X#XOX%XXX@X$X%X3X%X#X#X[.XXoX8X9XeX6XlXkXbXnXFXZXDXFXFXFXnXDXFXnXnXnXcXnXcXlXj.u.T r.] XXXX@X`.`.=X;X:X:X-X;X:X*XXXI ).).G G J (.}.}.).(.}.).{.J {.J I ].J I n n F F L K m m E Y ^  .:.u u r o.u u d s d <.d d d d >.e u s s u 0 u - 9 t e e e 1 ; 0 e - 0 e e e e e e - 0 e u e u u <.2.s t t u 0 u u u u d e <.7 u e 5.o.r O.r | R Y E R &.W Y N B C B ' Z K K K m L M F H H J G I J G J _./.J J /.J G F F m K K m C ( / ^ ..6. .| X.o.o.| |  .|  .=.i./ ^ T ",
"/ / t.p.a.a.c.c.c.x.t.u.*.p.u.^ ^ u.d.t.) i.[ [ / W m.@.R 5 |  .o.E N 2 h s d q y r - 1 ; u | 2 X.| d | e d h d :.O.u +.b V e.b M H F K Z C v G F I I m G G Z n m F F ] G L m ' G G M M H G L ] K L L ' [ Y ^ +.+.R 6 O.O.X.r r e u <.2.:.O.| +...| r o.u X.+.| y d 3.j g u y s t y t d u e t e t t u t 1 9.| t e d t 1 ; - O o # z .   o   X : ; X , *.T , , =.2 , , B n n v F G F M ).}.}.[.@X>X3X X(.J ].{.[.].] ] L n C B C ! &.E Y 5 Y v x H H P P ' r.] OXXXXX%X%X>X*X=X;X2XyXxXxXzXzXMXzXzXvXcXkXCXSXAXAXSXSXCXSXDXDXFXDXFXDXcXcX7XeXeXOXwX$X3X@X'.-X;X;X&X;X:X:X:X;X,X>X X$X[.}.|.@X%XXX@X.XXXXX@X].K [.3X%XOX%XtXwXwXeXeXjXkXjXkXbXZXFXFXDXnXDXFXFXFXFXDXDXFXnXnXkXN.[ a.t.r.#X].].@X1X:X;X:X:X:X-X&X-X'.{.'._./.H H J {.{.[.{.).[./.I /.].J ] F n n Z n Z Z m m v &.Y | | u y t y 2 - e e e d y u 0 u u 0 e u t t 1 e ; t t h t t t e u e t e e t t 1 t u e t t t w t w h s e 0 e e e r e o.y e e <.;.1.2 e , 1 1 e 2 R ^ -.u.Y N , 3 C C ' ' K ' K F F M M G J H G G J J G G )./.I J J H D D H F M K m Z C N E < , e d r 2 e 1 u o.O. . .| R p.^ < W ",
"[ / [ c.v.t.a.c.) t.t.i.u.a.x.*.W M.0X[ / / t.{ [ / 6.-.E N E +.| | X.r a s a s s p s s e t u V 2 2 y % , r | 2 3 $ O X.$ c #.B c v S M ' Z B B C N ' m m K C v n n F G } m ] ).b n m b x M H G M M K K ' ( ( A B 3 3 $ 2 2 +.| 2 | O...O.2 V +.2 | X.| y ;.o.u u y 5.d t y t e e 1 t o.a s s d t t t s y e 9.e t 3.a 0 @ # - O   .   . :   : o o # , *.Y , , -., , , % B v C J I )././.'.[.|.>X|.}.[.{.G J J ].I ] I ] K n N B B ^ T < < 5 n x x H ' L ( ' oX.XXX@X@X%X|.*X*X>X<XyXxXMXMXMXzXzXzXvXZXkXCXHXAXSXjXkXSXAXZXFXDXZXZXnXkXjXlXlX7XeXwXwX$X%X>X,X=X=X;X;X;X=X;X;X`.|.|.3X}.}.%X] [.@X%X%X@X.X[.XX@X%X%X$X%XwX$XtXwXrXrXVXmXbXbXZXDXFXFXFXDXDXDXDXDXZXcXnXDXDXbXjX[ ~ E y.' ] ].XX>X;X:X:X-X-X&X&X&X'.I L /.'._./.(.).F J G }.[./.J H J G n m c c v v K F M S b 6 y u t t u 0 t e t 0 # ; - 9 e 0 e 0 9 d t d a a a s s e t t t t u t d t t t : e 0 ; e u e w w s t w s d e 0 e 0 t - e <.e ;.u o. .o.$.6 2 6 , 6 R < Y $ < T * ( B C K K K M ' M ] M M H H H J J /././.(.J ).J I /.G U H H H S Z L K ' ! / ^ ^ r 0 e s u d t u O.X.O.=.@.^ E T ^ N < ",
"y.[ / u.y.) i./ ) ) t.^ p.i.u.x.m.0Xv.v.d./ ! ^ / @.X.6.O.O.O.O. .+.u a g ;.u d d d r t s 2 r r X.| | r d O.R y | < $ 0 u 6 8.O.R W v S L ' ' ' ( C C ] G % b N C * N % n I } b c c n b S x M M M M K K Z ' K Z A C B $ 2 2 N 2 E N N +.&.R | R 3 N R 2 R R 2 y u r 5.d d d d d u 1 ;.y t d t t e u 0 t a t <.t w <.s 0 0 : :   . z 9 z 9 : : 9 9 e ..W ^ , ..R , , , & T b m J [.'._.(.`.>X>X|.[.I [.|.I } ).G I G I F K n v B B C C ( N , b b M x e.' ' ' oXOXXXXXOX%X3X1X1X2XyXyXxXMXMXMXMXMXvXjXbXZXAXAXSXSXSXSXGXAXFXFXZXnXnXFXDXjXj.6X6X8XqXOXL ] ] }.'.'.'.`.(./.(._.(.`.>X4X}.%X@X[.@X].@X3X3X@X].@X]..X].@XXX#X].OXwXeXeXeXjXbXnXjXnXcXDXDXDXcXnXnXcXkXcXcXkXcXjX6X) Y ~ ( ' ] ].].}.'.'.-X'.&X:X'.&X'.}.|.(.`.'.|.`.}.(./.{.G /.J H G H H M F m M m M M x S Y , o.e t t e y e e w t e w a t ; w 9 ; t w w 9 s a s j a f 1 : e o ; t t e e y e e r u u u 9 t 2 1 1 e u r 1 - e 2 e e r o.r O.| 6 Y $ 1 6.3 1  .@ , Y , B #.( A / C A K P Z M M H S H 4 M m m G F G J J F S G G m ' F H H H M M n ' K B m.~ W $.<.2.,.X.;.X.o.2 | 6 6 5 @.^ N T N W @.N ",
"/ / y.^ [ / [ [ u.u.p.u.*.t.^ *.u./ / t.{ ^ / ^ ^ ..o.<.o.e y t e u e t y r X.r d d u 1 w r q r d o.o.+.r X.2 h s s u t ;.e 0.;.q.O.' F F F L ] ] ' K L L G F F G J F v F J n m G C c G M G J G F M L P Z n n C C A ( N 3 < < 3 , 3 , 3 < =.N | E E Y R R N 2 2 e 2 e e :.e 0 u e t 1 > 0 d d s e u r ; e 1 ; H.u <.a 0 w 9 : :   . w w 9 : . o : ; ; e +.Y -.Y < $ , Y N B Z J _._.[._.'.`.`.`.>X|.$X[. X<X|.].J I } I I Z n v C C B ! N 2 C M x M Z e.K ( .X#XXXr.OX3X|.`.`.;X<XyXxXxXxXMXMXMXMXcXZXZXkXkXSXCXCXSXSXZXZXDXFXcXjXcXcXcX6XN.j.6X8XeX.X] ] .X@X[.`.`.'.*X=X'.*X`.`.`.%X%XXX%X@X' ] XX%X@X].].b @ $ C ].#X#XOX} 8Xv.eX6X6XbXnXnXcXcXnXnXDXnXjXlXlXcXcXlXlXjX6X_ Y B B ' ].] P }.*X:X&X-X:X:X-X`.'.}.).).)._.).J {.I {.I G n v n G F m m m n K b c 4 4 4 %.t d - : ; # ; ; ; , 0 1 t e e : 9 ; t y t e 9 t w d d e t d d e 0 1 0 r N < , <  .1 0 1 r o.- @ 1 2 1 e 1 u d u y u o.7.6 e O.| r | $.2 =.2 +.s.( [ ' e.' ' ] ' ' K K m K ' L G U J J ).J J J /.G M L F $ O m O b F 4 M M c % C b c % 5 @ 1 r - - 1 t d r $ 3 @ , @ > , $ , 3 , < < W N ",
") T a./ i.) t.x.m.c._ n.t.*.u.a.u.u.i.t.i./ y.) [ ) ..6.<.d o.r u t d s s a a a e 9 d 0 9 a e 0 1 y y t t X.y u 2.o.d d y u 0.o.5.5.#.K M S M M L K ' ' ' K G F F J G G /.J G I G G F J G J /.J J L H G G F L K ' K K B , T ^ ! Y ^ E ^ @.6 V 3 < , 2 2 1 y r | | u 1 8.u y r r q 0 < $ > y 2 o.3 : u 1 0 2 $ 9 2.3.t 0 w w ; : :   9 s : . . . z 9   ; 6.6 ..5 R < , Q < T % L J U {._._.'.'._.*X`.|.|.|.|.n n n n Z m Z ' K c C B b C B N S M x M n ' ' ' r.] .XOX3X4X`.>X`.*X,XrXrXrXzXzXzXzXMXNXZXCXbXCXAXAXCXAXHXHXAXZXFXDXDXnXcXkXkXkXkXjXlXeX8XOX%X$X@X@X`.*X=X1X:X*X,X=X;X*X|.3X@X.Xb Z @XXXZ XXXX[.].].[.[.#X$XtXtX#XOXeX6Xj.N.bXDXnXnXnXnXnXDXnXDXDXZXZXFXFXnXjXN.[ ` ! ! ' K L G _.(.&X:X'.-X&X&X-X'.[.).).)./.F m {./.}.F F m n % M n % b c b Z M S 4 O r ; : : : O o # # o 9 t t t ; u ; @ O : e $ t t d 1 u X.0 u 1 e u :.o.R < < < N @ R Y 2 @ O r o.@ > 0 u y ;.i u u d <.:.<.o.X.6. .u r o.f.&...~ r.' ] ] ' P K F H H H I H D D J U U /./.(.'.(.(.(./././.J /.H G J G M m m n b b c ^ R , r @.1 1 1 0 1 0 0 s t 1 @ ; u  .< 1 1 1 , @ < @ > # ",
"i./ W ^ u./ ^ u.*.c.t.) ^ &.x.c.u.i.c.c.i.c.c.d./ ~ @...1.+.| R +.r ;.u g s f d d t s 0 1 9 a 0 e a s p f t t r t X.2 e e u 7.o.r +.| b Z / ( Z F L Z ' ' C % b K n K ] Z J G M m F J J /././.J J /.H D m M H H M m A Z ' d.oXoX[ E / [ u.O.:.6 | r r e d d | < 2 u y t y u | 3 1 1 r 2 t X.2 u 2 e t 2 q r r 2 y 1.1 0 1 > - - #   . w 9   . .   0 $ $ r =.t., R < , 7 2 R N P /.U U _.U /._._.*XJ c OX).G b $ O v Z c Z ' ' c b B v b B B c b S M b C ' ' ' ] XX#X3X>X*X*X*X*X<XrXxXxXBXBXMXMXMXvXbXbXCXHXGXGXAXSXAXAXAXFXAXZXDXFXFXnXcXjXkXmXkXjX6Xd.#X].XX@X3X=X`.=X,X;X=X=X;X,X`.}.%XXX@X%X4XXXXXXX%XXX$XXX].XX.XOX#X.XXXOXeXlXkXnXZXZXDXFXFXDXDXFXFXDXnXDXFXZXDXDXcX6Xj.T T B C r.].|.`.*X-X-X-X&X:X'.(.U n ).[.[.{.J J F {.J J m b b m m v n C m C M n #.| ; e 1 : e t t s s s a s f a t e t t 0 t 0 1 $ ; y | 3 X.r 2 o.r 2 3 O.o.R ^ &.T E < @.Y R 2 r 1 r r u u u d ;.d 1 9 y o.u u r r  .O.r r t.e.{ y.' L L F K L H P H U H H H H G J M J J /.J )./.(.{.(.{.J G G J J J J I I M M ' *.~ B R u 6.r r 5.6 1 y y y r t <.d d o.X. .O.o.e  .< T E W Y < ",
"N N N Y a.^ ~ ^ T ^ v.t.W *.*.u.i.[ i.[ i.t.i.[ { @.*.@.o.:.o.| | 2 2 | r 2 0 y e e t s 2 e a t t t t a s a s t t <.e e t t 1.<.<.o.u o.W ^ ^ B v K F P ] K K Z K Z ] ' K F I m m G F F J J J J /./.M H U F M L H L P m M Z L P ' ' / ) ^ u.8... .| | X.X.| | < R r r 2 u d ;.e 0 e 0 ; t y t a e 0 t y , , > e # <.9 0       9 : o . z : . . .   ; q N $ O.E Y , $ 3 O , @ E % ] x D U U D _._.'.>XH r.{.).}.I $ v Z v C v A v O c c 4 < N c C C b B b e.( ' ' .XXX@X`.=X=X1X=XyXyXxXxXxXzXzXvXvXNXcXZXZXZXSXSXSXbXbXCXAXkXZXZXjXnXDXFXFXnXjXmXmXmX6X` d.oXr.] @X>X`.*X=X*X*X=X;X=X*X[.@X%X%X%X@X[.XXXX@X@XXX.X.X@X].XX#X#XOXeXeXlXkXnXnXZXcXDXDXDXDXDXDXFXnXcXnXcXkXkXkXjXj.^ T ^ ' ].] }.=X=X-X-X&X&X&X'.'.[.{.K c J (. X{.} m M n Z n b ( n C n b n S B 1 1 e u >.w w s a a s 0 a s y t a a a w e t e 1 1 0 t >.e 0 , 1 y r y :.2 ..W @.u.^ ^ *.^ &.^ W 6 u o.r e o.u e e u u e 1 r r e e 7  .@.#.+.e.' ' K Z L K H H H H H H H G M U J J G H H [.'./.J J J J J ).J J } J J ] } m e.Z n B E | $.X.y ;.u q.| u y , 1 1 1 e ;.<.d <.;.o.q.o.<.o.8.p.^ R p.^ *.",
"  X # , Y $ N 3 T N W t.^ u.u.y./ T [ T / ! [ ! E E  .O.O.7.o.X.u ;.e r u r q r r r e s d < 0 w t : 9 e X.r d y h t s t y e ;.u 3.<.O.X...R E [ ! n M M ' ' ' ' n ' G L G m F m m m m F G I H J /.J J J J J )./.H M M H M M L L K ' ' e.*.^ *.=.E R R | R | | X.| 2 2 r d f f 2.s d e t s y t s 0 - : ; - ; - - ; d a ; o . . . . . . . 9     : ; ; t 2 : Y.> Y 5 2 < < @ $ Y % C M x J _._.'._.D `.).b )./.].J G b K % C v C ' v b c B B N b n b c c c y.( e.r.r.' ] ).}.`.>X,XyXrXrXzXzX7XzXjXzXvXcXnXbXCXkXCXkXCXSXCXbXkXbXZXcXkXnXnXcXcXnXnXFXmXmXmXeXqXoXr..XXX}.*X=X*X'.`.=X1X'.[.@X%X%X@X] ] ].XX@X@X] Z .XXX].$XtXwXeXeX6XlXlX6XbXDXNXnXDXcXDXDXnXDXZXDXnXkXnXnXkX6Xj.&.E s.' ' ] (.-X&X'.&X:X&X&X-X*X>X|. X[.I [.J J } I I N N $ c C v n B A x M X., ; 0 t t t t ; t t t e e 0 1 ; t t t t e , 0 0 1 , t d e e u t ;.1 u o.Y ^ ^ ^ W *.) u.t.W _ x.^ r o.$.r r 2 6 r o.r u e r o.r r +.e.( ] ' ] L K K K G D D D H x H H I J J /./.(././.'.(.).(.(././.J J I F I I I ).' ' Z r.A A ..6 6 q.<.u o.d <.,.u d d y y t u u :.r o.u u 1.u r o.O.@.^ &.[ E E ",
"$ @ @ , R $ @ 3 T ! < / Y Y Y N T N N ~ N N / / T ~ E 2 < 6.N $ q y d u y u d r d y r u s s t t t e t a g u f g o.| u y t h 5.u y y | | | ..W v./ t.Z M Z ] L ' ' ] m F G J J I G G J J /.(././.J J ).M M D ]././.H M M m M H I K Z ' e.d.d.^ p.#.@.E N R +.R +.R N % < r u y 0.u r 2 e d e 0 t h q 1 0 0 0 - - - 9 w : .   . . . . .   : 9 9 t w w 0 9 9 0.5 R *.& , 2 , 3 @ , $ M x D U '._./._.'.*X'.|.|. X X X|.{.F I n c n b c c b % c v c S b 4 % #.% V r.r..X] .XS H _.|. XrXrX6X6XzXjXjXjXzXNXcXcXbXjXkXkXCXSXCXjXSXCXSXZXcXnXZXnXcXnXDXDXnXmXmXjXqXeXOX.X.X@X`.*X1X1X*X*X,X,X|.[.@X$X$XXX#X.X[.@X@X] .X[.#XXX$X#XqXeX6Xj.lXlXkXbXDXDXnXnXDXDXFXDXnXnXnXnXnXZXnXkX6X_ < N #..X.X] J _.*X-X&X=X:X:X&XJ ).OX[.XX} {.] n C v B % % 3 c % c c Z A b V 0 e t h e t t t t t t t t t t e e 0 e t u r t a s t e t t d e t ;.;.1 e 1 < % E W E T / W u.W *.u.u.E R r | O.X.| u O.r 6 2 r #.#.' r.K m K L H H M H H H D D H D D J G H H ).(.'.'.[.(.(././.)./.J /./.J J F G F m G K Z ' v.@.+.o.,.;.,.u y y >.u <.d u u y d d >.X.0. .y u d >.o.o.o. ...u.*./ ^ E ",
"[ ! T T @.! N B N N T , W W Y Y ^ ^ E ! B T / / T T ! V | u ;.o.+.R 2 2 | < 2 < 1 d h r e a s t t t 0 a u < 2 d o.X.| >.| r <.t s d d o.Y 2  .&.y.! ( m n ' F x ] K C B Z F C n m F } m J J J J J /.).J J H G J /./.m M F M x H m m P Z ' r.e.#.@.< R Y , 2 Y 2 5 N N V 1 o.e t >.2 2 t u 2 1 0 q $ > 9 0 , - o   0 ; :   . . . . . o   9 h a ; t 9 9 9 <.e r 5 @.Y 2 , @ , @ @ $ % H U _.'.U /.(.'.*X`.'.|. X}.}.|.}.{.J F G n m b n % c C b n A A b B +./ C r.XXP XX@X] ).%X`.rXrX7X6X7XzXzX6XN.jXjXjXjXN.j.lXkXkXjXjXN.kXkXkXbXkXbXnXbXcXnXFXNXnXnXcXcXjXeXoXoX+X].[._.`.=X*X`.>X1X,X|.%X@X@X#X@XZ ].$XXX].XX].C oX$XwXeXeXlXlXkXnXZXZXDXDXnXDXDXnXnXZXZXZXnXnXnXnXbX6Xj.@ - s.r..XB N ).`.*X=X&X`.-X-X-X-X>X}.[.].L C C b n % V C n C B B ( M b c $ 0 e t e 0 t t d t s e 9 a d f 9 t a s s d 0 t t a s s t u 1 ;.1 t ;.r O.@.R *.5 @.^ u.Y @.W *.u.^ N < < W Y W R | #.s.g.s.g.s.r.e.K K ] M M H x H D D D D H M G U U U J G J /./.'.'.(.[.).).J J ]./.J } ].J G m m K m C ' ( m./ $.;.;.o.r X.o.d 3.o.d y >.u u >.;.d o.o.u >.d u o.d <.1.6.#.W @.^ a./ u.",
"/ ( T E u.[ ! ! B N B * Y R < T N Y 3 , < 3 N N N T N 3 N 2 1.R < 1 2 X.o.E % $ q d h s u X.y r t e q e y Y N r y 2 r s d 2 y 1 t d d u 1 1 e | ^ T E m ( u.' F G L K ' Z Z C c n n v F I F M J ).(./.(./.J J J G /./.).F F M M H H H H K L ] r.e.W W  . .R r r o.1 u 6 e 1.t 0 ,.t ; t t 1 : e e @ - ; e - ; - # ;.; 9 . . . . . . z : w 3.u t t a d e Y.e <. .*.&.^ Y < , 2 6 , 3 M U U _.(._._.'.'.-X*X|.|. X[.J (.{.J J /.] I I F m m M Z A Z n C t.^ t.r.#X$X@X@X@X#X3X4X,XyXxXrXzXxXzXMXBXMXNXnXcXbXkXkXkXkXN.kXlXlXlXjXjXkXkXlXjXlX6XjXcXcXcXcXjXlXjX7XVXeXqX' ].].}.`.>X'.`.1X=X4X|.XXXXXX].] .X].] N ] [.OXOX.Xd.j.j.lXkXkXbXcXcXnXDXDXcXnXnXjXbXCXnXnXnXbXcXcX6Xj.T $ / ' P 3 N L `.`.`.-X(./.H /.'.F B ' ] Z c % B n n B C n v ( C Z b < q : e t e - ; t t t , w t 9 t t f e t e t d 0 1 t t e y r 1 2 e u r u O.@.c.v.t.*.^ W E E T @.^ Y @.^ ^ N 3 Y E T Y e.e.e.' P F H H L M m M x x M H H x x H G L J J H G (./.(. X/./.'.(.J J ).J I J J J G L m ' K v b K ~ ^ Y -.u.X.;.>.o.| ;.d g h >.y y d 2.u d ;.o.d u u t >.d o.X.o.;.;.O.@.*.~ / t.E c.",
"^ / ! N u.a./ / ! T T ! T W ^ ^ ^ ^ E T ~ Y T Y N % $ 3 * @ e R 2 y u r 2 | N $ r V % < N 2 | 3 w t 0 r r ;.y X.y r 2 t f y u < - ; d u 0 t 0 u 6 T / / T T ( K n M Z Z K C C C K v % B F G G G F G J [.F m M G J G J J G m F F G G H G H G L G ] r./ ! ^ ~ Y E +. .r 6 r o.0 u d u 1 0 9 ; ; w t 9 9 9 w # : o : t # z z   . .     z 9 9 t t ; t s t t u t d o.| R W Y R 5 < 2 E N N M U /._.'.'.(.'.*X=X=X,X>X[.].{.{.J {.G G L K M K b b x M M M C / [ t.oX$X@X@X#X[.XX4X>X,XyXyXxXxXBXzXMXMXBXvXNXFXFXHXAXCXCXCXCXAXCXkXCXkXlXlXN.N.j.j.lXlXlXjXlX6Xj.lXjXjX6Xj.{ ] $ c }.1X`.|.`.*X>XI .X] P P L L n Z O A K ] N = ` ` ` 6X6Xj.jXkXjXcXcXcXcXjXnXlXcXcXjXjXnXcXlXjXlX) Y $ 3 V B 3 K b J _.`.'.-X'./.(.(.I v Z Z b n v b ( n b n v ! b v % 1 e e e e w t 9 a s a e 9 9 w s t 0 t a t t t t 0 e 0 ;.e e e e e u e o.R Y @.t.Y @.~ ^ E W R N T Y ^ W W *.T N V @./ #.' M H H F b M S x x H x m x x m M H H H H F H H G H /.[.'.J H ] F {.J n K I G F G m K K Z ' K Z ( Z ^ *.E 8.o.;.o.| | | y d u 1.u ,.d d 3.u ;.u y d u d t d u u | | | O.O.@.u.T / ^ *.a.",
"i.d.[ i.t.d.y.{ d.y.[ ! T p.c.{ T / y.! / T T ~ ! T T ~ T 3 < u < < < 3 % < < 2 r N $ $ @ @ O $ % w s X.< X.+.V < u N $ e y d r e d d y u | r u y e ..E N W / [ v b m M F m Z K n Z m n v m G G G F /.}./.G G J /.J /.J J J H b v M m m M m m K M K ' ( ( [ / [ / / ^ R X.o.e r X.u 1.o.r u t t 0 t t t w t 0 ; : w 9     o . . z o : w w w <.e t 0 - d t e y y y 2 2 5 5 > , , R 3 3 v F D U _.(._./.`.*X`.`.,X>X{.}.>X|.}.J F } ] L ] L F M M m C A ' ' s.] XX%X3X3X$X4X%X%X<XyXrXxXxXxXMXBXMXMXzXvXnXZXSXSXCXSXAXHXGXHXAXHXAXCXkXbXbXlXN.jX6XjXj.j.6XN.lXlXj.j.j.j.{ N M ).'.(._.x ).L b 3 3 c @ O Z ] A P P $   # 8 ` ` 6XN.lXj.N.N.N.lXcXnXnXkXnXjXkXnXnXkXcXcXcXjX6XN.u.R < / .X' ' S _.(.'.-X;X;X=X=X=X'.I ] m K m n v b B v M c B B B 2 r e e e 9 t 9 w s 1 9 t t t e w a w d s s d t 1 t u 0 y e e r o.;.;. .#.^ T Y *.E E T ^ T ^ ^ ^ ~ N E ^ T #.s.*.r.r.P Z M M K H x H x x S x M M M M m m M G L J J I H G /.J ] m J F M ] m m G m v C B m C 3 % C c c B T E 3 3 Y O. .R @ 2 < 2 2 2 q e q.u u ;.u u y u e y >.o.y u 5.;.u r r | O.-.f.N E 3 @.u.t.",
"d.[ / y.t.c.d./ ^ t.d.[ ! W a.c./ T [ / [ ~ / / N E a.t.*.@.| 1.2.X.+.R | 2 , e u e u | 2 R R $ < > t y N 3 N % $ 2 $ O O 1 u r 1 y h e u N $ 3 3 2 @ , 6 u.T @.C v b M M M M M v C Z v v m K n K m J ).(.J )./.J J H I G H G H H n m n n M M Z C Z Z K K Z ! ' C T E ^ E =.r X.| 2 Y.;.6 2 2 X.r u 2 2 0 0 2 , @ : a 9 : u 0 o : o 9 t @ 1 t s > - - u e q 1 e t y 1 6  ., , , , N 3 3 v M G /.(.'._.(.*X`.`.`.|. X|.>X).{.[.{.].{.} ] G L H H K K ' ' +Xd.] .X@X%X@X$X3X3X4XyXyXrXxXxXMXBXMXMXMXMXnXnXCXCXSXAXSXCXkXbXCXCXAXCXSXAXAXAXkXjXbXcXnXcXjXjXjX6X6XjX6XlXeX{ A I [.I )._./.J XX[..X.XXX] r.XXXXK XXXX].#X} 6X6X6XlX6XjXbXDXnXcXkXcXnXDXcXCXZXZXDXcXZXZXZXcXj.u.j._ _ Y T .XXXXX}.,X,X*X&X&X`.*X&X&X'.I L m Z n ( ( n v v c N c N 2 | e r 1 r t t e 0 t @ - 9 t t t e t s t d h t y 1 e y y e r r u e | E E W T E T a.[ ~ Y W / t.T N N ~ T d.r.r.d.' L H H M x x x S S M x M M M M C m Z ' Z G J I M I ].(././.].].J /.{./.J J } ] F ] F r.K Z Z Z K N B &.N Y ..R R $.r | 3 r 6 2 2 r q 5.o.2 6 R 2 u X.2 e 2 2 | < 2 7.o.o.u O. .O.=.-.Q a.T p.y.t.",
"y.[ { [ / a.8X( ! / / / N W ) m.v.[ / y./ ! ! / / / / ~ a.^ 2 o.3.o.;.| d y r y | | +.| y | r 2 t a d d d 2 | X.r 4.s s 2 1 r 2 @ O 0 0 r | 2 2 2 2 $ 1 o.5 N N ^ b b S S S 4 S S M Z c n n M c m } m I _.M n m G /.M H J M F M G J G m m Z n b v n B v C n b n v b < Y Y u.$ O.r | o.1.2 6 2 2 2 2 $ $ - - @ # o o : . z . u     : # ; 1 e e t u e s ,.u d y h d y y 3 1 5 < < 5 5 < 3 b b M H _.'.'.(.'.=X`.&X*X|.`. XI {.].}.[.J I L m m H H H H L ' r.qXXX%X@X$X3X3X$X$X%XyXyXrXxXxXBXBXBXBXBXMXNXZXCXCXCXCXbXbXkXbXSXkXAXAXAXSXAXAXCXCXAXZXDXDXnXnXnXcXcXcXcXvXzX7XeXoXXX}.|.|.>X|.[.]..X%X@X@X@XXX@X%X%X%X%X#X#XeXrXjXjXjXkXFXDXDXFXnXnXDXDXZXZXGXFXZXDXFXZXnXkXjXN.j.N.c.) ^ .X@X3X,X,X1X=X&X&X`.`.*X=X(.] L K C Z n b B b $ 3 N < 6 6 e 1 r 0 r e e 1 e t t e 0 9 u e 0 e t e ; t 0 1 e e e o.u y 2 O.< R Y N Y T W ^ R N E W E N E V #.r.r.e.Z b K H G x x x x x x x S b S S C C m C ' I } J I {././.(.G I }.J G I {.(./.} /.G H G G F K m ' K m M B @.@.^ *.=...u.W r 6.u ;.;.u >.;.0 e e 7.u 1 r 3 0 ;.r q 1 r 2 2 2 , r u 2 $ 2 2 $ , $ N W T / < N ",
"[ [ [ ( ! p.a.y.y.[ / ) t.*.y./ [ [ / [ t.y.{ t.d.v.d.{ i.i./ @.n.@.O.o.:.,.2.2.o.+.V +.| u 2 | X.u f g Z.>.| | 2 <.g f t t >.t e , 1 t 2 r R V | N < 0 X.R N 3 N N % b b b S S S b M n b A b c c Z n M G F c c v b F F ).m Z C 4 v S M v c B v n n n N c c c b M n C / ~ y.t.-.+.2 3 o.o.| r | 3 1 r q t t 1 1 : : 9 . . . . # . ; 9 w y 0 e a g u d ;.t t e t 5.r r 2 1  .N 3 5 < 5 < % N % n U _.'.'.'.`.'.-X&X`.>X/.|.>X,X>X/.F G F m m x H M P L L ] r.+X$XXXOX4X%X$X@X%X3XyXrXxXxXzXMXBXMXMXMXvXnXbXSXbXbXCXSXCXbXCXZXSXCXCXCXAXSXCXbXkXbXcXcXkXcXcXcXnXjXjXjXcXjX7XeXoXXX|.%X|.@X@X[..X$X%XXX] [.@XXXP .X%X[.] OX7XzXcXbXDXDXDXDXFXDXDXZXZXZXCXZXCXnXZXcXcXZXcXkX6X6X6Xv.[ / .X@X>X=X*X*X*X&X&X&X`.*X|.I L I Z C C B v C N 3 N 2 R | o.1 u e y 0 e e e u 1 1 t e - ; : 9 e e e 1 t t t 0 0 r q 1 e , @.^ @.W < ^ Y < 2 3 N Y ~ e.B N e.B C P K P m M x H x x M D x S H H M S M H H I H J J ).).).).}.(.'.(.[.(.)./././.J F b n G J J G Z Z Z m ' C &.^ *.@.r r 1.o. .R 1.o.u u d y t 3.r e 3.g >.u s t s >.y ;.u <.u u ;.q ; r 2 , 3 R 3 $ @ @ O @.N @ , ",
"d./ [ B N @./ ! N N T T &.a./ T T ! ! ! ~ T Y T T ~ ~ ~ T [ ! T *.t.T T ^ N | O.O.~ T E E E @.~ T N N 3 o.| N T N $  .N < 2 r ;.< N $ e | 3 Y N Y N , O.B N N 5 E N , ~ c 4 c c 4 4 4 C B Z N b B v C B ( ] Z Z n S Z K K L b v c 4 B C Z c % N N B % c c % b b B b v C A K A N @., , > r > 2 X.N 2 u 2 , , O X O . 0 . . . . 9 .   t 0 t t t ; t e q.2 t e 0 @ o.u > 1 u 2 2 , 5 , 5 % % < N c S x _._.(.'.*X'.`.'.>X[.[. X,X}.J J J ].I I H H M H H H F ' oXP XX$X$X[.XX].XX3X<XrXrXzXzXzXMXMXvXvXzXjXjXCXCXbXCXSXCXkXkXkXkXkXCXkXCXCXCXAXjXbXZXDXDXFXNXcXcXcXjXjXjXjXjXeX8X' XX@X$XXXXX@X@X@X%X@XXX%X4X@XXX].@X@XOX8X7XjXcXCXDXDXDXDXDXDXDXcXnXSXSXAXAXbXnXnXZXDXbX6XlX6X6Xj.c.d..X@X*X*X'.'.`.-X`.*X`.`.[.XX).] K C b B N B N 2 5 Y Y  .;.| 2 1 r e t t t t r 1 0 t t 9 w t d t t 1 , e y 2 3 < 3 @ , , , R R &.Y R , < N ! ( B ( ' ' ' ' K A D D D D D D D x x x x M S n M H H ' m F {.}.(.}.(.{. X'.[.(.'.(././.).J J J H ] G F m I G L L Z C ( @.x.u.^ &.6.1.$.X.X.o.,.3.d >.;.;.o.y 1.>.t 7.2.s <.2.d j d a d ;.y u >.u u u 5.O.O.+.=.&.W @.E 5 a.& , 2 ",
"m.x.p.u.T N / T * T $ N N f.[ B B N % N T * * N 3 * N ! B N N N % ^ T 3 N N 3 $ N 3 N % % $ % $ $ $ B N 3 R ^ T ~ * E W @.N < Y < < % N f.W ^ T 3 N W ~ N 3 , , R @.Y 3 $ $ X $ % v S C C B c N N N b v ( ! B % c B ( Z b ' ' B ! ! / N c ! ' v % $ N $ % $ $ % % % 4 c B n C % B A N 3 2 1 O 0 - - - o     @     .   . . .   z :   : - - 9 > O : t u @ y - 1 1 y d 2 1 1 $ 1 R , @ , 2 3 $ % c % S U _._./._./.'.(.'.`./.I {.m F ).F } G P H M S S M M b ' ] O .X%XXX] ] XXXX.X).7X6X7XzXzXzX7XjXMXvXlXlXjXkXjXjXjXkXjXjXlXjXkXkXkXkXkXCXCXkXCXbXbXnXDXnXjXjXjXjXjXlXjX6X7XeX' #X@XXXL @X@X%X%X%X@X%X%X%X3X%X[.] XXOX7XjXcXbXnXnXnXnXDXnXDXZXcXbXCXCXCXSXZXDXFXDXnXbX6X6X6X6Xj.v.8X#XXX).(.`.`.'.&X-X;X'.}.XX@X[.].I K Z C C C N < W R T , e r e d 0 y u e e e d u e e e u t e o.t e 1 q 1 1 1 1 , < 2 6 Y Y W < E E B ~ ~ ( ( Z A M K H D D D D x x S x x D x M m M M S C ' J J J } [.{./.[.[. X X}.}./.] J H J M G J J } } ] G G Z M m m Z ( ^ R *.T *.*.u.*.O.=.f. .u ;.;.o.o.1.o.;.<.u i d 3.O.>.u ;.,.u u d u o.o.o.+.1. . .O.O.=.=.*./ *.^ ^ E n./ N E E ",
"M.v.u.u.u.y.y.( / [ ! T N -.c.d.! ~ ~ ! ! *.i.y.[ [ d.{ ! T ^ ! N &.y.^ N W 8.W E N % N % O $ N % N T T N 6 $.W =.*.T -.6.=.Y Y  .@.^ N $.f.@.@.T O.-.^ ~ T N T &.f.u./ ! B B N $ b Z Z ' ' ( ' B ' ( C N s.' ! N ( ] ] Z ' OX' } ] ' ] ( v ' J F n m n v v b T v n N N N ' ] L ' K A ( N , > ; 1 O @   @ - e - -     . . .       : ; ; > 9 t t t d s e y : 1 1 5.t e y 1 1 1 6 2 ,  ...< , 2 v v H U /.'.'._.'.-X'.'.*X>X'.}.(.[.L b $ $ O M M S S b S S M r.] XX].' %X3X] XX] ].eX` 6XzXvX7X6X7XMXzXzXjXkXkXjXkXkXlXjXjX6XkXkXN.lXkXkXSXCXkXlXkXkXkXjXnXcXcXlXjXjX6XjX7X6Xj./ ' XXXXP A Z ].].] ] @XI I b c K C # ` ` N.N.lXjXjXjXcXnX6XjXkXjXbXlXlXlXlXbXZXZXbXbXbXN.Q N.N.8 & / ] XXP H `.`._.U *X*X`.}.XX.Xc M b n Z C n C V 3 W N , < @ o e ; e r 1 y y 1 0 t 0 @ ; ; @ 1 1 o.6 1 e e e -.2 , , , , , & 5 3 B ! ! C B / K n M M H x x S x S S b S S S S S C $ N c v Z ] G ' b F {.L K n K F J F L ' } ] J G v C m C Z c B v c v v N Y ~ E ..*./ E Q W E  .5 6  .r o.6 | 5 2 6  .e r e r r X.2 e u r u r 1 e r o.r | 2 2 |  .5 =.2 R &.N Y 3 , < a.T T % , ",
"[ ^ ( T ) / / ! N E ^ ! N U.v.) / / / y.! [ / / / / / ! T ~ { / ! T a.T $ , +.N R E N V R T 2 o.+.| R +.* , d ;.r ;.| u g g d u u o.R < r 1.u >.t ,.| X.O.o.O.r o.o.O.@.[ N ~ T 3 4 4 n K K K ' ' ' ' Z B ( ' ' C ' ].} } ' ].|.{.].J } {.I v G F m m n n n c v ( n n c % E C B % c B N % ( ~ V < < e | | *.5 5 -   ;   . . .   . e t ; t e t t e ;.t s s t d d 1.s >.t s a y 1 6 7 6 6 W , 2 T C ( D ).(.'.'.'.'.'.'.`.'.'.(.(.I ].I L F ] L I G H F n Z Z oX].OX].+X$X%X%X#X#X$XwXrXxXBXBXMXBXBXBXMXMXnXnXbXCXbXCXbXkXCXCXkXCXkXkXCXbXCXAXbXkXkXbXZXnXDXZXnXcXcXvXcXjXjXjX6X0X{ .X.X$X$XK $ e.#XXXXXXX@X.Xs..X[.Z eXlXjXjXvXjXcXkXnXcXjXcXnXZXAXbXkXCX6XkXZXnXnXnXbXlX6XN.v._ [ d.oXXXXX}.'.*X*X*X=X*X@X$X#X+XK P ' M M K n n e.( E ^ =.8.o.i 7.u <.<.<.;.t d u t u o.u 1 1 r r  .6 O.O.O.Y 5 , , & , 2 , N #.~ C A ' ( ' K K M K H M M H H M n M n ( n M M B C v ! C ] ' G ] oX} L } ] {.{.b ] n Z ( d.( { ] K ( e.C ~ ( c B ! C ( $ 2 @.W -.@.Y  .W @.T 5 1 =.Y  . . . .O.=.6. .<.o.r r O.5.o.=.o.r  ...6.r 7.8.o.O.O.$...=.< , ..$ , W ^ $ 2 R =.^ ^ Y ..E ",
"! % y./ B Y ^ [ ! B ! T , b.{ % ^ y./ *.d.~ a.[ ! [ N T T N ! B N N W N O , T N +.O.+.| >.O.X.d o.d O.| | 2 2 h V t g s s f 2.u u s g ;.r ;.s s 2.O.R q X.X.d ;.o.u ;...#.~ B N $ $ * $ S M M F K K r.' ' Z e.L m m F G J ' % ].{.}.{.}.(.I G n c m J F m n b C C m c N b ~ $ O $ B Z ] ].]..Xr.s.E r O.^ ^ 2 W &   -   . . . o   ; u 1 9 t 0 0 w 1.t u t a w d h 3.h t d a t t 6 6 6 6 7 , 6 ..C B C m I )._.D U (./.x /.`.'.*X'.|.}. X{.].I H H H n C ' ] r..XXX.XOX%X.XOX+XwX$XwXrXzXMXMXBXBXBXMXBXMXvXcXkXkXkXCXkXbXCXkXkXkXkXAXAXCXCXAXCXSXCXCXAXbXZXnXcXcXjXcXvXjXjXjX6XeX8Xr..XOX#X@X.Xd.#X@X].oXOXOX+X$X%XwXVXNXvXmXNXNXDXFXDXnXDXFXFXFXAXbXAXAXAXAXFXZXnXZXCXjXmX6X0X0XqXOXwXOX#X@X3X1X*X4X`.*X|.4X}.wX$XXX+X] K Z K K K [ [ ^ =.$.b.o.7.5.<.u Y.u t o.0.d ;.;.o.$.Y.o.f...=.&.+.W , R &...@...t.*.( ( ' ' ' r.P P H D D H H H ' F L F K n ( m n ( ' L {.[.[.[.[.[.}.{.XX X].[.].}.}.[.].} oX.X{ .X' ' Z / ' C B ~ C ' / ( T Y =.f. .U.|  .O.$.O.6.1.;.7.6.0.q.6.7.6.7.1.q.o.1.0.o.P.k.k.0.o.5.o.o.X.e q.-.o. . .E | Y R R R / @.u.u.&.m.&.m.t.u...u.t.",
"/ ! T [ ! N ^ / T T N T Y x.) T N T ^ t.a.T / / T / T B N 3 * $ O O O #.R O.@...E R X.o.O.R :.X.;.s >.o.| R 2 0 | R t t 3.f s 2.O.t 2.:.X.r <.s >.| X.X.y d ;.X.O.+.o.O.O.#.~ % @ 3 < N % c b M b M K ] ] Z y.] G F G Z n K m L J /.[. X XG F G c b m } G H m M n % O O O 3 O % B B ' ' ' Z Z r.] ~ E E T , < R $   -   . .   . ; 9 ;.1 e e w a w o.0 ;.t y t t ;.,.d u t t d a 1 r  ., 7 7 , , N % @ % S S J (.'.*X=X'.*X,X=X=X=X|.}.|.}.' ].G K F Z ( ' ] ] qXXXoXOX#X#X#X#X#X3X@XeXzXzXzXzXMXvXzXvXvXzXcXcXjXlXkXkXjXkXkXkXkXkXbXCXCXbXAXSXCXkXCXCXkXbXbXnXcXcXjXzXjXzX7X7X7X8X8X#X#X@X#X@X$X%X$X$X#X%X@X%X$X#XVXvXMXvXvXNXNXNXDXDXnXnXDXDXCXkXkXCXCXZXZXZXnXnXnXbXjXlX6X6Xv.8XoXd.OXOXXX>X=X*X4X3X>X>X>X_..XOX] ' ' K M Z P M C B *...-.6.$.=.$.:.u 0.o.t o.o.<.<.y q.5.O.o.-.=.W 6 ..6 2 ~ s./ #.#.( e.Z P P L ] H D H F x K K x M ' Z ' K ' ' ' m n K ] ).}.[.[.}.}. X|.{.[.[.[.[.].r.]..XJ r.] G Z ' ( b B B ~ Z C e.' [ *.8.=.$.| r  .5.O.6.r u ;.o.q.u :.8.8.8.q.q.d ;.d <.3.<.q.;.d 0 e 2 # 2 e | $ 1 2 1 1 2 R , ^ E *.&.u.a.a.a.^ ^ *.a.E *.W ^ ^ *.",
"T / T ^ ! T E ^ T T T a.^ m.i./ N ^ T ^ *.x.^ W &.*.Y * $ $ * $ % * R ;.#.r O.O.| R X...N 2 ;.:.r g X.| r 2 | e h 3 2 y d g d 2.R 2 t g r y ;.s d X.d y t d | R +.+.O.+.| N R R , T T T T * c b C m m H P L K y.] G G m v n m F I K L F }.|.).)./.J M c M H n v 3 O @ @ 3 B v Z b B ! Z C B C ' ' K ! ~ T 3 , 6 $ . :   . . . . : w t u 1 e d s t e 0 u u t >.d d g s a a t d s 1 1 1 > - - , # $ % c n n S J '.'.'.*X=X&X-X-X,X*X|.<X|. XOX} ] ' F n ' Z r.] 8XoXOXOXOX#XOX#XOXOXOXeXrXzXzXzXMXMXvXvXzXzXcXcXjXjXkXjXlXkXbXkXkXkXbXCXbXkXSXCXCXkXCXSXkXkXbXbXcXcXjXjXjXjXjX7X6X8X8X.X.X+XXXoX#X@X#XXXXX%X3X@X#XVXmXMXvXvXvXvXvXNXZXDXDXcXbXbXkXkXCXbXCXZXbXZXZXnXbXnXbXlX6X6X8XOXOX+X+XXX%X,X,X;X=X,X1X;X=X,X%X] r.r.M K M A K M n N  .&.R O.=.8.8.=.$.$.6.u 1.5.O.5.8.e e r #.&.R Y R W 6 E / A e.Z Z M ' P P F D F x x M ' M ' y.m ( y.' ' ] L ] ] L {.{.[.).XX#X|.|. X'.}. X}.[.{.{.] d.] r.F ! ' ' ' ( ' v ^ ' / W @.p.E n.-.n.n.1.<.6.6.7.q.1.7.<.;.;.0.<.6.5.7.5.9.d ;.<.<.e o.i X.<.r 0 r e u y y u o.q.3.u u o.=.&.a.u.a.&.&.&.p.@.*.^ @.m.W 5 @.*.&.*.",
"^ / / ! / T W ~ T T T ^ u.a.[ T T N N < ..m.E $ 3 N * c $ N E R N +.O.u ,.| | o.| O.N 2 R r d ;.0 d | N N < | | t u r d 0 3.1.g g u e >.t t t g s >.d t y r R 2 u +.o.| < 2 2 R N < ^ ! ~ T ^ E E ( K M L F Z ' ] K K F m m m m n G G H {.(.J c H n n $ @ F F L ' n n m M ' M m m v n Z C Z ' ( ' K C B B R E R @ . :   . . .   o 9 y h e t t t u 1 o.u s a s y 9 d e 9 1 t 1 - > - , 6 , 6 Q , , < ( C n n H U _.(.*X-X'.*X-X&X&X,X>X>X|.}.{.].' ' Z Z ' g.] y.g.oXoXOX#XXXXX#X@XOXwX7XrXzXzXvXBXMXMXzXvXvXcXjXjXjXkXbXCXCXCXkXbXCXCXCXCXCXCXCXCXAXCXkXkXkXbXnXcXcXkXcXcXjX7X6X6XqX] oX.XXX#X%X@X] .X.X#X@XrXVXmXMXvXzXBXMXNXNXnXnXDXDXbXCXCXkXkXCXCXCXbXZXZXZXZXnXZXbXjXlXeXqXwX#X.Xd.%X|.>X1X;X:X;X=X;X=X,X3XXX.X] b b S A M K C ^ < 2 R 6 7. .6.#.r  ...e r e e r =.6 6  .@.^ ( ~ ( #.( ( ( A K K K m ' m m ' Z M M m n ! Z B ( y.' ' r.I I _.[.[.[.).XX}.[.[.[.}.}.[./.].{.] ] ' ] m ~ % #.m Z Z ! Z n C B t.! -. .1 - r O.O.O.r 0.1.<.o.u 0.u o.r r 5.o.i o.u q.u r o 1 > , 1 1 1.u d 3.3.2.2.3.t <.<.Y.7.0.q.<.6.^ *.a.a.u.u.&.&.^ W W *.*.^ @.E @.t.^ ^ ",
"^ ^ ^ % / / N T T T ^ T Q M./ N * 3 $ % T < Y $ N * T ^ ^ R ~ 2 r | +.2 1.E N | E V N y d | , u s u y +.N R R N $ u y r | y 0.>.f X.r t s p s s s 3.d h | , d u u X.r r u r e 2 2 < / / T N ^ T B B n m G m H K ] ' Z b n n n n M m F m n v O O % M F J J )./.} ] } J G n n m m Z ' n C m m n ' C e.C c A B N , & . o X   . . o : u e : t u e w ;.- u t t w a t : r   , O < $ > e y r , 6 6 6 6 2 < , B C C m H _.(.`.*X*X*X;X&X&X&X>X>X>X|.}.{.} L r.' ' ' ] y.oX#XOXXXwX3X$X@X$X%XwX7XrXzXzXMXMXBXBXMXMXvXcXvXcXcXkXCXCXZXCXkXbXCXSXAXCXAXAXCXCXCXCXSXCXCXbXnXnXnXnXcXcXcXjX7X6XeX].OX.XwX%X@X.X+XwX$X#XrXVXVXMXMXMXzXMXNXNXnXDXnXnXZXZXCXSXCXCXCXAXCXZXAXAXFXAXnXZXCXjXlX6XqX8XoX].+XOX$X,X=X=X;X=X=X*X>X*X@X#X[.e.C b K M b K v B B Q @.W b.=.6 =... . . .7  ., 7  .Y E E #.B A b b A n M n M S A x S b S c 4 V b b C ! c N B n L I P b I M ).|._._.M % O Z 4 % H H M M c M K M M ' @ % B B c B c B % $ O N N 3 R $ @ , , 3 2 | - 2 2 1 > 1 q.o.r 2 2 1 < @ 1 e o.1 2 , e o.d t d <.1.2.j 2.2.>.3.;.h 1.7.n.5.5.;.8.u.x.m.t.a.u...x.&.^ ^ u.&.^ a.t.u.^ &.u.",
"^ T T ~ N ^ N / T ! * N , 8.^ * $ $ $ % $ 3 N / ~ ! T T N E N 2 r | u >.d 2.O.+.R q ;.X.y +.3 u 2.;.u V r r N R N 0 y % o.1 5.3.f f | 2 d d s s d d 3.;.;.2 g ;.o.r | 1 y r , 2 1 o.u.^ N @.E N ~ T c ( ( ' M M L ] K m n n c c v b v b c c n {.(.[.[.(. X).}.G ' ] J } m n m n v Z m Z m m c [ B E A C C c % % N   o . . .     : r : : ; d e u t w o.u y ; t 0 # $ X 1 y t t t 3.e 1 1 6 5 , 6 , 2 < c B ( n n G ).(.*X`.>X&X=X-X,X*X,X>X>X[.{.].].] ' ' F ' g.oX.Xd.qX+X%X%X#X@X@X#XeX7XzXzXxXzXMXMXvXzXzXzXcXcXcXjXkXbXCXkXkXkXkXkXbXkXSXSXbXbXCXAXCXAXSXbXbXnXnXcXnXcXcXjXlX7XeXwXXX.XwX#X@X+X+X#X%XrXVXxXMXMXMXMXzXMXNXnXnXcXcXZXZXbXbXCXAXSXZXAXZXAXZXbXZXbXnXnXbXjXN.m.eXd.] r.OX@X|.*X*X`.`.*X>X'.}.3X3X@XXXr.s.C ' M Z M n v ! B R Q ..6 6 +., 6 >  .7 $.< +.V V N V % % % % % 4 4 S S 4 c S b x S S C b Z Z I m oXI ).{.[.[.}.%X>X>X>X>X>X*X|.'.H ].F }. X(.).I J J /.} ] I ] ' F [ ' Z m n n v B B B c , &.X.X.$.O.r 0.3.;.<.u ;.o.1.<.7.7.k.;.u ;.;.d 1.;.5.<.7.<.3.d d ,.d 9.2.h <.;.y d >.d u ;.$.q.o.o.@.^ *.t.R R u.E u.^ ^ *.u.W E *.@.W ^ &.u.",
"[ T N T W ^ &.p.t.$ O $ @ ..W T ^ ! B ! T ! T / y.T ^ T < E R R | o.s >.y 4.O.+.+.| +.Y < y 2 r u d o.X.| | u | | , t 2 > s a >.s f d , d o.2 t s 3.d Y.u R d u X.u u +.e ;.R 2 , d O.R X.o.E N / ! N W W / b S M F v Z B C B n n v n m M m m J {.J (.(.(.[.(.).I r.].G ] G I v B C n B ! b C t.n C ( Z ~ B B c % % o   . .   o o 6 @ o e e e <.9 ; @ - - X - , 1 : t w d e w d e t e e , R 5 , , , 3 - ! C v Z Z ' I '.'.|.*X*X*X>X&X&X,X'.[. X].].] ' ' ( B s.] oXoXoX#XOX#X@X@X@X+X@XeXzXzXvXzXzXMXzXzXzXzXjXjXkXjXlXbXbXkXkXkXkXkXbXCXCXbXkXbXZXCXkXCXCXCXbXnXnXcXnXnXcXjXjXlXeXeXoXqXOXoX#XOX.X#XeXVXzXzXvXvXzXzXvXvXzXcXnXcXnXAXSXkXbXbXCXCXAXCXkXCXCXbXZXbXbXbXbXlXM.eXj.v.r.+X].[.}.=X`.*X=X*X|.*X3X4X3XXXXX' e.B A M Z b C b c c 5 > @ - , #   X @ % 3 N B C B C c B c b c Z m P M M M x K b Z M M Z ] ].] .X[.[.XX@X|.}.%X,X,X=X=X>X&X>X*X=X>X-X'. X X X}.}.{.{.).(./.I ] m y.' m ( K Z ( Z ! 5 -.&.W o.O.O.1.o.5.7.5.5.>.<.9.q.r 7.<.1.u U.0.,.3.5.9.2.1.5.q.u q.<.>.9.;.<.5.<.u ;.o.u 5.u ;.d o.o.u o.O.X. .&.E R @.Y -.&.-.*.R x.W W W W W @.@.@.&.",
"*.T Y $ W Y 5 W % $ 3 3 Q n./ ^ W ^ ! B / ! T t.! u.) O.+.V N r o.X.R R | ;.;.| N , r | 2 e y 2 d s y g X.| | , r 3 9 a 2 f s 2.y s 2.a r d X.e d P.f P.d d t u d u t d u >.| u - y e d | r O.+.R R 2 , < X X c v Z m Z Z ] ' ' F m n ( m m m v n G {.{.).{.).(.}.{.].J ].J J F m m n v / m m Z v b ( ( Z c V c $ % + O . .   - , > o 6 : ; y 1 o @ ; 1 1 1 e h s d w t u t t e t d e t 1  .6 6 , , , , B B v C ' Z ' _.'.`.=X&X=X`.>X&X&X`.|.|.}.].].} ' ' ' ' .X.X.X] .XOX#X@X$X%XXX%XwXzXzXMXMXzXMXMXMXzXzXzXcXnXnXjXbXSXCXCXbXbXCXbXCXSXbXCXSXCXCXCXCXCXCXSXZXZXnXDXDXNXvXcXlX7XeXeX#XOX#X@X.XOXrXVXVXvXvXMXvXzXzXzXvXvXvXnXDXAXAXSXCXCXSXAXAXAXAXCXSXZXFXZXZXbXbXCXjXlX6Xv.8XoXXX.XOX%X>X*X;X;X&X>X=X*X|.OXXXP e.C V C b S 4 S S % b @ 1 3 $ < N 3 N B C #.C C Z A K K ' ] L P ] G D H D M ' L M M Z Z L I ).).[.@X%X}.%X|.>X*X;X&X=X*X>X*X,X;X-X|.*X|./.}.(.{.].{./.].].J F m n Z Z m K n ^ ~ R R R  .6 ..O.5.d ;.u d d ;.o.<.q.$.0.r o.d s u k.7.>.,.3.d <.1.d <.d <.g g d u o.1.u u ;.,.1.1.t 0.u ;.;.<.o.6.X.=.^ W W u.^ p.*.x.i.E &.u.&.&.-.u.u.E &.E ",
"E T * $ * O   R % T * 3 E f./ T % N T T ! / N T / ^ f.1.V R 2 | o.R 6 | 2 s 2.X.N r 2 u | 1 ;.y d s d u X.| N r R < 2 t u t s <.s d d J.u t 2.X.2 5.g d 0.f f u s g X.t u u g | e , q u 2 1 y q 1 1 3 O @ 2 2 W C Z ] L F K K C C C C v m n v v n m J J } I {.).).{.}.}./.(.{.G I J G ] m L F F n n Z ' Z C c c % N $ + O   o o @ o   o   X - @ @ u ;.0 e t t <.a d t r d d t a d t d a u o.r  ., 6 2 Y < B B C C ( ' J (._.|.-X*X-X`.*X&X=X*X>X|.[.r.].' g.( ' oX.X.Xr..XOXOX%XXX%XOX$XwXrXMXMXBXvXMXBXMXzXzXzXnXZXZXcXCXCXCXAXCXCXZXCXkXSXSXCXAXCXCXAXZXZXSXAXCXCXnXnXnXnXnXcXjXjXeXeXOX+X$XXXrXVXVXBXBXBXBXBXMXMXzXzXBXNXvXZXCXkXCXAXSXkXCXSXCXSXSXCXAXZXZXZXZXnXbXbXjXlX6X0XqX#X.X.XOX}.>X=X`.`.'.(.'._.I O A B A c N 4 b b n b Z b N 6 R , 5 #.N ~ e.( A ' Z ' K K K ' G H H F H H M K H F L L L ] {.{.XX[.'.'.`.`.'.`.`.*X>X,X&X=X=X,X&X=X;X;X&X`.`.}.{./.].} G J G m y.m ( m ' ( n C ( ! W &. ...R r r u u 1.<.d u ;.1.<.;.8.o.0.0.>.d ;.u q.9.<.<.2.d >.s h d d d 1.u d u u u <.1.<.<.<.d s d d ;.u ;.u o.5.| o.+.u.*.^ -.u.*.x.< +.p.a.&.p.u./ t.@.u.u.",
"$ Y * O $ $ O R [ E N N $ -.i.~ $ N N T / T T * ^ ~ Y +.| R N N N V R 2 e d 9.;.u u q e r 2 t s q >.X.R u | < | 2 u X.2 e r w <.s t s 3.g y s g r s 2.g 9.g d X.g y u s r t s e , X $ $ $ $ @ O $ @ 2 1 1 o.u | T B e.K M m m P Z C v v ( C c n m m G n m G L n I n ].|.>X X X{.{.G J I I } m ] m m m m ( F c v % @ O   .   . X o @ O o o @ 6 Q 5 O.r e e t d t d d a d r 9.e a t s s u e ;.r =.> , 6 Y , ! n C b Z C ' J /.|.-X>X-X`.`.*X-X>X,X>XXXr.OXZ s.( ( 8X.Xr.oXOX.XoXXX#XXXOX%XtXrXzXMXMXMXBXBXMXzXzXjXzXcXCXbXCXkXAXCXCXAXZXCXbXSXZXCXAXAXCXSXCXCXCXCXCXCXZXnXnXnXnXcXjXlXeXeX.XqX$XrXVXxXMXMXMXMXMXMXMXzXzXvXvXvXnXbXkXjXbXAXSXkXbXCXbXSXCXCXSXZXAXbXZXZXCXkXjXlX6X0XqXOX+XXXXX@X*X'.x x x x x M c X Z @XXXI Z b ' n K Z e.C C E Y , < #.b Z n M M M M K H H L m L M M ' G M M ( ' ' ' I ].[.{.@X}.`.`.`.*X*X*X>X*X&X-X|.&X-X,X;X;X&X&X*X'.[.(./.{.).J L m K C C ' n y.Z ' { Z B R ..6 -.&.$.O.o.d d <.d d ;.1.:.<.;.d q.<.1.>.d <.<.<.o.o.5.d >.>.d t s s 5.s >.7.5.q.d 3.<.3.d ;.>.>.d d u u t <.o.;.r 6.r | p.i.E p.@.p.m.Y -./ &.u.a.a.c.p.x.p.p.",
"$ @ % N T N N , ) T T N % =.) t.T * E ! ~ ~ T B * ~ T | X.O.R R R < < 2 t s d ;.| | R r r 2 t a r e u r t ;.6 u u X.r 2 1 t w 7.d a o.e 9.g f p g y 9.g d q.r h s h f d y 2 > 2 X   O < N N * N N 3 e 2 1 1 u X.| R ! Z v c M F L K C B C m n n m n n n n n C K } J {.@X>X}. X X|.{.J G G I L ' v v v $ 3 $   O         . o   > 3 3 3 < , , R , ..&.2 ..e 1 e d d ;.a s 2 1.u t t d t d ; u u ..6 6 , 5 , N B v n Z v ] I /.}.=X*X=X&X|.,X&X*X>X%X$X$X}.} ' ' ' g..XoXoX.X.X.X#X#X@X#X$XtXrXzXzXMXBXBXBXMXMXzXzXjXcXnXZXbXCXAXAXAXAXAXCXZXCXCXbXAXCXSXSXAXCXSXbXbXSXZXnXcXnXnXvXjXlXeXwXoXeXVXVXMXMXMXzXvXMXMXzXBXvXMXvXvXvXnXkXCXCXCXAXAXCXCXbXCXSXCXkXbXAXZXbXnXbXbXkXkXlX0X6XqXoX+X.X3 c D x x M D x '.}.n N %X3X$X@XI K ' m M P K Z Z C E N N B C C n M M F M M M F K m ' m M M Z Z ' ' ] ' ] }.}.}.}.|.`.|.=X*X=X;X&X>X1X:X:X>X-X&X&X&X&X*X&X*X(.[./.J ] G F n ( m ' ' n ( ' Z ( T ..&.R R  .O.o.$.<.;.d d ;.>.>.;.>.d 3.d d d <.>.a q.u 7.;.y u q.e 1.2.u d f s q.d s b.1.7.<.3.<.>.,.5.s u o.d u u d u 0.;.o.6.O.o.-.x.a.) u.a., p.*.*.*.u.^ &.*.E 5 @.a.",
"T % 3 T N T T < / ! T ! * ..&.u.t.T T E T ! ^ T Y T ^ O.r ,.X.N V N R 2 d >.2 d +.| | r t y e ;.+., a s 2 r 2 r o.r r r r w a 7.t f y r d P.2.f g d t 9.g 3.k.g y e y 2 , $ % 1 3 1 , u r t s d O.N , 2 , 1 | | X.| | *.v % c S M M Z B N ~ n n v v m ( m n v c L } G .X|.|.>X}.>X|.J G J M b O O @ O X O @   o O O % o O % O , 3 % N < 3 , R , R , 5 Y N R 1 o.e 1.e t 1 e d t t t u e t t o.1 6 ..5 , 1 < b c ~ C Z Z K L {.`.-X&X-X`.-X=X;X,X,X,X,X%XXX{.] [ d.oXoX.XoXoX#XOX#X%X#X%X$XrXrXzXMXMXMXBXMXMXvXMXzXcXbXAXCXCXSXCXCXCXCXCXCXCXbXkXSXCXAXCXSXAXSXbXbXCXbXZXDXnXnXnXcXmX7XwXeXVXmXMXvXMXMXMXvXzXMXMXMXvXzXvXvXbXcXkXbXSXCXSXCXbXkXbXCXCXCXkXbXCXZXbXkXkXkXkXkXlX6XN.v.' Z Z 3 c x `.,X,X`.`.,X4X4X3X5X%X#X#XXX' n M M P F m M C E T T N N c ( Z M b M M M M ' Z F M K F K ' ] ] OX[.}.|.|.|.,X'.>X*X&X&X;X&X*X*X,X;X&X,X;X&X-X`.(.).}.(.(.].J ' G F F m y.' ' ( ( ' Z % R 6 ..=.%.7.o.y 0.1.<.s t <.2.d <.>.s a d t u <.1.<.;.o.<.O.u 9.<.0.u d 2.e 1.d s d ,.t 1.;.;.7.d 9.d ;.;.s t o.o.;.u d y u t :.o.6.o.$.p.n.u.-.@.5 M.^ *.^ @.E R Y E ^ W W ",
"/ N N T % N Y ^ t.^ t./ [ &.^ &.u./ N / T T ^ T / T E r $.6 +.+.+.N < 1 9.o.2 o.O.N % * 1 u < u r 3 t s o.2 r 2 < r r < r 0 w k.a f y d r >.g s 3.>.2 P.3.>.9.e 2 2 $ < < N % t a e y | 2 t d u d u V r N > 2 R 2 y o.0.! N 3 3 c M M C A B C v n n m n c C b v c F L ' XX{.).].G M O L b + $ $ n m n $ c Z n c M O C c O % $ B B % 3 , , Y < 2 Q 2 Q , Y 6 R 6 y o.u t t d f.1 t ; y t t s e e | r .., - 2 N % ! ( Z n ' K ] [.|.,X&X`.&X-X,X=X=X1X;X>X#X[.{.{ 9Xg.+XqXOXoXoX.X%X@XOXoXOXtXeXzXzXzXMXMXzXMXzXzXvXcXcXZXCXCXkXbXCXCXCXkXCXAXkXbXCXbXAXCXSXSXCXCXCXZXbXZXZXnXnXnXcXjXVXVXVXMXvXMXvXMXzXMXzXvXvXvXvXzXzXcXcXcXnXkXbXCXbXCXbXkXjXbXCXbXAXCXbXkXbXkXj.N.6XlXlX6X6Xj.@ 3 ] XX%X4X1X,X1X2X1X;X,X,X4X3X@X#X#X@X@X] K Z P P P K M C B @.~ B B ! [ n Z n ' F F ' ' K K I ] ].[.).].[.%X>X,X,X>X,X*X>X,X;X1X:X&X`.4X,X>X=X*X-X,X*X X[.[.{.J I } G m ' F K F ' [ [ { ( B / Y 6 , X | =.<.;.d 9.1.9.d d >.t d s >.3.d t t u u d u ;.;.<.7.o.1.<.>.d 9.d d u q.;.d >.3.d t ,.d d s d t u d s d ;.u ,.u y y u ;.;.0.6.;.o.*.p.E R W f.*.^ &.W u.*.x.*.-.a.^ -.",
"T T ! / / N T Y u.! ) [ t.p.[ * -.x.y.T ^ / ! / B N @.O.1.O.+.r >.X.6 J.,.| o.2 >.V 2 R u ;.| u y % $ u u r e d r N 2 < , a w 9.s f X.y | y s d <.s r 1 u y , o.r u y X.3 e ; t 7.1 r | 2 r u s r u | r | r | R N 2 X.r -.$ % T C M M m K ' ( Z m n v c v c v c v % B % Z v O O O 4 O c n M ].[.).].G L m n e.m n % ^ b b c $ N C m N N 3 Y < 5 5 2 < , $ Y N , $.i r e t u o.r ; 1 0 t u y t i  .7 .., , 2 2 , T ! ( v Z Z ' ] }.|.`.}.|.*X;X,X&X&X&X,X|.}.}.[.oXg.8XqXr.r.d.oXOX@XOXOX#X$XeXrXzXzXMXvXzXBXMXvXvXzXvXbXbXkXbXkXCXAXAXbXCXAXCXbXZXCXCXbXCXCXCXCXCXAXCXbXkXcXcXnXnXcXzXzXmXzXzXMXvXzXzXzXMXMXzXzXzXzXcXjXjXcXkXbXkXkXbXCXAXCXkXCXbXkXkXkXkXlXjXN.jXbXnXcXbXjXlX6X8XoX#X%X$X4X,X>X4X1X1X;X4X>X4X4XXXOX#X@XXX] P P L H L H Z C C ( ( B ! [ ' ' Z ' ' ] K ] ] oX} [.}.'.}.`.|.$X>X4X,X,X1X;X;X=X;X&X4X:X&X>X>X,X,X>X>X`.`.}.] ].{.} ] I ' F ' m ' ' ' n ( [ ^ E R @. . ...- ; : u d ;.1.d ;.;.3.d t e >.u 5.s s y t y 0 e u d u 1.,.o.u u u u 3.y 1.<.3.3.d >.s u u <.d e o.d u <.d <.>.;.;.d q.:.o.1.;.6.q.r o.&.^ < ^ W p.&.u.u.@.p.a.*.a.*.a.*.*.",
"T T / ! ~ T T N ^ [ ^ / N -.! T N 7.uX[ ! / ! ! N N 2 u y >.O.N r d 9.9.| | | +.t :.| r r s d d s | $ t g r 0 a t r | 3 1 t t 9.f a f 1 t 2 e d e 1 r 1 d s u 4.>.e u 1 1 q e , 9.r 0 u X.r t u 2 r u 0 e | 2 +.R y o.2 q.R T % B Z n n M K ' e.C C b v b % % O $ O O @ 3 ] } I G G }.{.). X}.{.|.).).).).L e.] 4 c B C $ % $ $ B v c % 3 2 Y , < , , , , < @ , 6 7 1 7 : u e 6.0 1 t t o.y 1.u 1 6 6 $.5  ., R E B B / v ( ' K ]  X[. X}.>X,X=X&X&X*X-X|.<X|.@X[.+XoXoXOXr.d.oXoXOX%X#X#X3X@X7X7XMXBXvXzXvXBXMXMXvXcXkXkXkXCXbXCXSXAXCXAXHXCXbXAXCXCXkXCXCXSXAXAXSXkXCXnXbXcXnXnXnXvXvXzXvXvXvXvXzXzXzXzXzXzXzXjXjXjXlXjXjXlXjXjXkXkXkXkXkXlXjXjXjXkXkX6XkXlXkXbXnXDXDXFXSXmXlX6XeX#X%X3X%X>X>X*X,X1X,X,X,X,X4X@X@X@X3X] OXI L M D H L K n ( ( ( Z ' Z ' { ' ] ' r.K ] [.#X[.}.|.`.*X,X,X4X,X;X;X;X;X&X;X;X&X&X>X&X>X*X>X>X>X|.>X|.}..X' ] ' K t.' G ' ' m Z ( n C / N @.Q  ..... .| o.y 9 9 w ;.>.a t ;.d d g d r r :.d u e r e u e u o.y o.y o.0 e u ;.k.g s d s d d ;.t t <.y ,.;.9.;.2.d ;.o.O.<.q.d ;.q.t :.u ;.o.o.$.-.^ u.W u.a.^ a.i.u.u.m.*.t.*.u.*.*.",
"T T ! / ! / N N Y ^ 3 E N ..[ ! ! W E.0X[ T / ^ *.R 2 2 X.y u O.N , q.O.< | | X.t 2.;.| r y s f f a e t s u s a t t r 2 r t w 9.e t a 2 $ $ $ < r y 2.d 3.<.0.d 3.>.1 1 e ; u , 1 ;.h r r 2 6 2 2 r r e 0 o.r +.| y | u 6.6.V N Y B B B ( M K L ' ! b $ X X O N c v c v v y.].].] F [.}.).J }.[.[._.}.).}.J ' ' M b O ( X X o 3 % $ % % N N N $ | , 2 2 2 @ , , , 1 r 6 ; 7 e u e u u 9 o.u 0.$.e r  .8.6 R 5 < 3 ( C v v ! Z K I ].] }.|.|.`.=X&X,X&X*X>X,X>X|.|.OX#XoXOX.X.X] r.OX%X+X#X%X%XtX7XzXMXMXMXzXMXMXMXMXvXbXkXbXCXCXbXSXSXAXCXAXCXCXAXCXCXCXCXbXCXSXSXCXbXSXCXnXDXDXnXcXnXzXzXzXjXjX7XN.7X6X6XN.jXjXcXjXlX6XlX6XlX6XlXkXjX6XkXkXbXCXSXAXSXHXAXAXAXZXnXnXFXZXbXbXjXlXj.v.#X%X%XOX4X1X*X*X*X,X,X4X,X>X3X3X$X%X@X%X).L H x m ' ' m ' ' ' ' ' K L ' ] I ).].).}.`.`.|.*X>X>X:X1X=X>X1X-X=X=X=X*X,X;X&X=X&X*X*X-X>X X[.].{.{.J ] ' ' L m ' K K ' C C ( C V N -.5  ...7  .r 6.u u d 2.h : : 9 a s ;.w a d >.s d 1.r u d d h s d y 5.r o.u y d a d 3.Y.g s s a t e u d s d t t q.d 3.s u <.u 1.d <.d y q.;.1.d ,.;.1.5...*.t.-.&.*.a.t.y.W *.a.*.t.*.p.a.u.",
"y./ / ! T T ! ~ Y T T E / Q m.i./ ! ) x.9XE #...#.| o.X.o.r d f o.5.9.;.o.o.6 | r 9.;.X.o.r u d e t X.> u d a s s 1 @ - 2 q : o.> O o.y 1 r u r y s s g g 9.0.d d 9.y y , 0 2 < @ t a y e r < > r e e s h u d X.| r 2 r o.8.T R R E Y Y C C c v b b % $   % n b n n n v n / K C C C ' K {.m ].[._._.F ].[.I J L I M c Z % X b v v c c % B c N T Y b $ Y N , , , - 5 , - 1 1 1 7 7 7 r 0 y t u b.u o. .&.Q , 6 2 % B C n B T ( Z n ' ] [.}.|.>X,X&X*X*X*X&X,X,X>X>X$X$XOX+XOXOX#XXX#X#X+X#X#X%X@XeXzXzXzXBXMXvXMXMXMXvXnXkXbXSXCXCXAXSXSXCXCXCXbXCXCXSXAXkXCXCXbXCXkXkXCXkXnXnXnXjXjXN.6XzXjXN.7XN.6XzXvXNXNXNXnXnXnXnXNXnXZXbXHXHXGXHXSXAXZXZXAXAXCXCXbXZXHXAXZXbXZXZXZXbXlXlXjX6X8XqX[.#X#X@X>X,X`.`.,X1X,X,X%X$X%X$X%X$X[.L L K m K m ' ' m ' ' ] I ] L ].{.(.}.@X%X|.|.,X>X,X=X>X=X;X;X*X;X&X&X-X*X*X*X&X*X>X>X>X>X'.}.] r.] ] ] F ' K Z K K C ' m ( n C B 2 6 6 +.r 6 r u u 6.e <.;.1.2.s >.y o ; t 1.<.t 0 d d t 5.h u ;.>.d d 1.<.q.u u u d ,.d <.u 1.1.t t ;.<.y ;.;.9.>.d t 9.2.s r o.2.h ;.y ;.d u y 0.;.<.u ;.o.O.$.i.W a.) i.x.[ *./ &.m.u.*./ &.u.p.",
"[ [ ^ ^ N N / ! N T ! % a.^ c.[ ! ! N < W.6.O.+.V 6 +.2 r d H.f Y.U.f g t g o.| 2 >.>.X.+.2 y t e >.s e , t y $ O , $ - > , - o.2 1 s 2.y u r r u 0 d 3.2.9.d >.r <.s a u r % $ , e ;.O.> u r y s r e s d t d r y d r :., 8.O.R 2 Y < $   < $ E C S A C N C v c v c v v n v / v n v B C ].).].)._.}.).I I ].m ].}.G 4 M b + M C ' O c $ ( n ( B ! v N % R N 3 , , R 2 , 7 , 1 7 6 - 6 r o.y u k.1.r $. ...7 6 , , R ~ C v ( n n ' P ].[.OX@X,X|.>X*X&X1X:X*X>X4X,X,X|.#XOXwX].OX#XXXOX#XXXOX#X#X7XrXzXzXvXMXzXMXBXBXvXvXkXkXAXZXCXAXSXCXCXCXCXbXCXCXCXCXkXkXbXkXjXN.jXkXCXnXnXnXcXjXlXcXvXcXNXNXvXNXNXNXDXDXcXnXnXNXnXnXnXnXbXAXAXSXCXbXZXAXCXAXSXAXAXbXCXHXAXZXZXZXZXCXbXkXjXjX8X8XoX@X%X3X3X3X4X1X,X>X1X,X>X$X@X%X@X3X%XXXI M ' L m ' G r.G F ' ].}.}.}.}. X}.@X>X>X,X,X;X,X=X&X-X*X-X>X=X&X>X&X`.*X-X`.-X|.'. X}.].] r.Z ' r.' ' Z K Z C ( ' ' Z Z Z ! C N 6 1 r ..6  .X.5.h 8.e 5.d >.d s q.q.1.0 : 0 <.,.e u y u d >.u d <.d ;.5.;.q.u d ;.d u >.X.t d k.d a >.7.5.d <.0.d >.<.1.<.d t Y.>.9.s d 9.s d d b.d t d >.>.:.O.p.&.^ / ) &.) *.c.) x.t.Y ^ @.x.&.",
"~ N T / T T Y ^ ^ [ N N *.^ c.T ^ ^ N * 2 U.q.+.u d ;.N r 2.f j 3.g ;.r ;.t f f d s 0.o.r t s f u t d % X O y N 3 2 2 e t 0 w 0.| @ e d u e , u e t r 5.9.1.d 3.r t 3.t s r * q u ; t g N 0 u r q < 2 1 u y d 0 s t t t e o.9.| @ O $ @ , < / &.*.Z M M ' ( C v B v n n n v s.v b b N $ F ].{.{.}.}.}.[.{.{.] XX[.I H I C $ % m Z Z n m G Z C Z B ! v c $ p.3 < , +.W 2 , , 1 , $.6 1 e r r o.o.8.6 =.+.| R , , 5 R E N v ! C ( ' Z ] [.[.OX%X|.'.>X&X*X&X>X=X=X=X*X|.%X@XOXr.r.OX.X#X%X#XoX+XOXeX7XzXzXzXzXzXzXzXzXzXcXnXnXkXAXCXCXCXkXkXCXkXjXbXCXjXkXbXkXN.lX6XkXCXSXFXFXFXFXDXDXFXDXNXNXDXNXNXNXvXnXcXcXcXNXcXnXnXcXnXCXCXCXCXCXCXAXCXCXAXCXZXAXAXSXSXAXbXbXZXZXCXCXbXZXnXjXeX8XoX#X%X%X$X$X3X4X3X>X4X4X$X#X@X%XOX%X$X].L M ' ' G K ' ].).).{.}.*X*X`.*X*X|.>X,X,X;X=X;X,X&X&X&X&X`.>X&X&X>X-X-X|.`.`.`.[.[.XX] } ' ' ' { ' ' K m Z ( m n t.' ( ( ! W E | 6 1 r f. .o.1.<.t 0.d 0.>.3.,.5.5.1.g s s a ; ;.g t t ,.s s d ,.1.>.<.u 1.<.d d 9.2.h ;.2 d e 7.g f s ;.9.d <.;.2.s 2.d ;.<.2.1.<.1.g 2.2.g d t f.g g ;.3.1.u 6.-.&.*.*.^ &.@.*.W u.a.*.u.^ @.*.&.",
"^ &.u.u.t.y./ ^ ^ i.! ! W ^ m.[ t.*.) E  .<.I.j s g >.o.X.u d 1.2.d u o.2 o.2 a P.j P.2.w s r 0 2 X 1 < $ % t 2.+.e r < 2 t t q.| < 0 e ,.r e e y y r y 1.7.9.j s e <.d a a s s a 0 t w ;.s h | 1 , u 0 2 r 1 t t t 1 - 2 X O.e $ % N Y @.W u.R ) ^ B M M L ' ( B B C n n v / n v b v b N Z ' P ].{.{.}.{.{.[.XX}.F ].[.].m M L c L n ( L P Z n B n c v c @.v B N E W N , 5 5 , =.5 7 1 | 6 6  .8.%.$.=.R .., , R Q < N t.( ( ! C Z L r.[..X#X X'.-X`.>X`.*X&X-X-X`.>X,X4XXX+XoXoXOX#X@X#X#XOX#XwXeX7XzXzXzXzXzXjXN.6XjXcXcXkXbXkXkXkXkXjXjXkXkXCXkXCXCXAXZXCXZXCXAXAXAXAXFXDXDXDXDXDXDXNXNXNXcXcXcXcXcXcXcXnXnXnXnXnXnXnXCXCXCXCXbXSXAXAXCXAXSXCXAXSXbXAXCXkXbXZXZXbXnXbXCXZXzXeXeXwX#X%X@X$X$X3X%X%X3X4X3X$X#X$X@X#X$X@XXX' ] K ' ] K oX}.}.`.`.`.*X>X*X=X&X,X,X*X>X;X=X&X*X&X*X>X-X`.=X=X*X=X*X`.(.}.].[.].' ' ] L ' F ' K ' K ' Z ! ( C C ! / ~ @.R | =.r i o.<.u 1.u u d s 2.2.g 2.7.<.9.2.g g d s d 4.t s s t u s d d d 2.g d <.9.2.2.d d >.a d d s t u 1.2.>.3.d 4.d 1.2.d s 2.<.1.d >.>.t >.>.s d 2.u 0.o.>.k.u <.o.O.@.< u.u.t.W m.) *.m.9Xi.u.&.p.) -.",
"^ u.&.p.c.x.i.u.u.-.x.u.p.u.x.v.^ ^ $.;.O.| d P.2.;.r u s s 3.U.U.f f p d f g s d d 1 | 3 , < $ 2 2 e 2.d d e t t q y < 1 e e 9.y | 1 t <.g g 2 r u o.y d 3.<.2.s s r <.o.1 g s y 1 t s j s a t t t t t , @ O o ; r $ $ $ $ e o.O. .E E N Y W ^ p.W *.' n M G Z B V v N c v ! C n b v v b b ~ B B ] {.J [. X).OX|.}.[.}.H ].}.).Z n C ' ] I ] K ' ' n v v c ~ v b 5 N < < < , , 7  .,  .6 6 | Y =.W  .m.^ =.R 6 Q ..5 N @.( v B C Z ' r.].oX X[.}. X>X&X|.,X&X*X*X`.>X,X>X$X#X.X+X+XOXXXOX[.r.r.O * 8X6X7XzXzX6XzXzXzXjXjXcXbXSXkXjXSXAXSXAXAXGXAXCXZXSXAXSXCXAXSXSXAXSXZXDXnXZXDXnXnXnXnXnXnXnXbXbXcXcXnXZXnXbXcXcXnXnXbXCXCXCXkXkXCXSXAXkXCXSXCXZXSXbXAXAXbXbXbXZXnXbXCXbXZXjXeXeXwX#X#X3X3X4X3X#X%X$X%X3X%X$X3X4X3X3X%X@X+X].] .X].I }.}.%X*X,X=X*X=X&X&X>X-X*X*X&X=X=X=X&X&X-X*X>X>X;X*X'.|.}.[.].].].' ' ' ' ' G ' m Z ' ' K ' ' C ( B T Y R |  . .6 8.r u 9.d s 5.d t s s 2.2.s s 9.2.1.3.g d 4.g d Y.g a s s 4.s <.d >.u d d d ,.d u <.;.3.g f d 9.d d 9.d g 2.2.>.d <.d 3.<.>.d ;.h d <.d d 1.d >.d >.;.s h 1.<.5.1.| =.t.T ^ *.^ n.c.a.c.t.a.&.M.i.*.x.",
"! T N ! ! T E _ -.-.u.u.x.x.x.m.$.<.1.2. .o.i b.E.2.g g f f 4.n.3.G.J.f g t t d r e V | V u g r a f s >.s a y t a r h r t 1 o P.1 y 2 t t d r r 2 r y >.u d >.>.d d r u d 2 y s 0 ; 0 a a o.0 e t t 1 - O X @ $ e e 1 y e ;.u O.=.R Y ^ N < Y W R x.Y @.^ b Z F n B < B c b *.n C b $ B v N @.b % Y ] L {.I G ] [._.{.[.X ' }._.[.[.Z r.L ] ] ] } ' ' m n ( @.( v N B N B 3 , , , 7 2 , , , ..R 5 +.W *.&.u.&.&...5 ..R ^ ( n ~ C ( C ] ' oX|.[.XX[. X*X>X&X,X=X&X|.>X*X'.@X.Xr.r.K ' N ' A L P L XXwXrXzXBXBXBXMXMXBXNXnXAXHXAXAXAXAXAXAXGXAXAXZXAXSXSXGXAXCXAXAXAXAXCXZXDXnXnXZXcXnXnXnXnXAXCXZXbXcXbXnXbXnXbXcXnXCXCXbXCXAXAXCXCXAXAXAXCXCXCXZXSXAXSXCXbXbXbXbXbXbXCXCXkXkXjX7XeXtXwXOXOX#X3X3X@X@X@X$X3X3X3X3X3X%X3X@X#X#X$X@XXX|.|.>X>X3X&X,X=X=X&X*X*X|.*X,X|.;X&X&X,X>X`.|.*X%X,X`.(.].[.] XX[.].I L n K ' ' G ' L ' ' ' ' n / T W E R R 1  .e o.r O.;.1.1.3.s 1.j s f g g d s s 3.d d a s s 4.2.3.>.g g g s 3.d t t ,.u u ,.u y r u <.9.<.2.d <.3.g f <.2.g g j d ,.a d <.1.d ;.d d t d a d q.d 2.<.d ;.>.d ;.7.7.5.o.R a.t./ u./ @.x.-.c.^ u.p.a.^ p.) ",
"/ y.[ ! ^ / T N Q a.d./ / / p.c.6.d <.<.k.9.k.b.R.U.2.2.f s ;.5.s s 6 N @ * 3 3 d r q.Y.;.t d r e t t d e 2 , e t d d u y u - q.< 9 r 2 e 1.< 2 R , o.o.;.u 3.3.d 9.u s s 9.| 0 w 9 t e 9 a 1 1 @ @ - $ $ 3 2 u r 1 r y e u r 6. .@.W Y N N Y Y < f.T W ^ B N n S C V B v B ~ v ( v $ $ c b B c 3 < B K I I L ' ] [.[.}.{.M ).[.].|.].] ] e.] ] L ] r.] K Z C g.C C C C ! b < N & R , > 2 , R , ..Q +.5 =.Y =.-...W R < Y B ( ( e.~ ( Z ' ] XX@X#X X[.$X|.&X`.`.`.*X(./.x ).}.I A ] ] @X%X3X3X4X%XOXwXxXxXMXBXBXBXMXBXNXnXFXAXAXSXAXAXAXSXSXCXSXCXAXAXAXAXCXCXAXAXAXAXAXZXbXcXZXDXnXFXZXCXSXCXAXZXbXbXbXbXkXcXkXkXbXCXkXkXCXSXCXbXSXSXAXCXbXbXZXAXAXAXCXkXbXbXkXkXcXbXbXkXjXkXjX7XeXwXoXoX+X#X@X%X$X%X%X@X#X%X3X@X@XXX+X$X$X@X%X@X%X>X>X>X,X>X*X>X&X&X&X&X*X=X1X=X>X*X=X>X|.#X|.%X|.#X}.P d.r.] ] ] ] ] L F F F Z K Z { ' ' { m ( N E ..6  .=.i o.y u 5.u q.3.d 3.3.d 1.g f g d t >.g s 3.1.d s d s s s t d <.d d ;.>.s d d u d d t d u >.<.<.3.u 0.u ;.d d t u 3.d a d d u t d u d s d d d e t a u ;.3.d >.u q.,.,.d o.0.;.1.E E p.t.^ *.^ *.^ @.x.a.*.-.&.&.&.",
"i.c.d.^ / ) / / T M.v./ ^ &.-.0Xp.@.O.r 3.u ;.d <.P.k.t t o.u u <.<.;.<.s s g | d u s u 7.+.2 | 3 2 1 d y r , e t d o.2 e y 1 7.| e ; 2 , 1.@.N T Y T | o.d s 2.d y 5.o.t 3.y 1 w o o O - ; @ X o > 9 t r 2 2 e 1 1 s d u r 1  .@.^ T N N R ^ < W 5 x.^ ^ W Y % S b Z B C B v v ! n % $ B ( v v % N , R n ] ].] L [.OX[.{.).{.]..X[.]. X].d.].] ] ] ] ] P K C ^ { n ( m v v b 3 B E N E < < R 5 8.^ 5 ....W ....&.5 , 2 +.2 ( B s.( C m { ] XX$X[.#XXX[.{.[.H S (./.`.=X*X=X3X3X>X$X#X$X3X%X3X%X%X+XeXrXzXzXzXMXMXMXBXNXNXFXSXSXAXAXAXAXCXCXZXAXAXAXAXAXCXCXSXAXCXbXZXAXAXbXbXZXFXAXSXCXAXSXCXSXCXbXbXZXbXcXbXbXkXCXCXkXkXCXCXkXkXbXCXSXCXbXZXAXSXCXAXCXbXCXkXbXkXbXkXCXkXkXkXjX7XeXwXoX+XtXyXyXyXtXtX4X@X#X3X3X@X#X%X#X3X@X%X|.4X4X,X>X,X*X;X&X*X;X&X:X;X,X&X;X=X;X>X>X3X%X%X%X@X[..X.X' y.' ' ' K ' L ' G m ' F Z Z ' ' Z d.C B E +. . .e X.o.u d d ;.t y 1.s <.d d 5.>.s d d ,.d d 2.3.<.d d <.d u t d >.3.t u 1.>.d d d y ; t d >.2.>.>.d d <.;.u d d 2 ;.a d ;.g ;.g t t y t u >.d d >.d t a t s d u t d 5.d d d ;.7.1.o...-.^ *.^ ^ W &.u.W -.W =.W , @ | ",
"/ / T ^ / ! T ^ u.x.0X[ T T n.m.=.R 3 < 2 | R 2 3 , 7.B # 1.g s t <.Y.g 3.4.j k.2.s f t 4.k.j y N @ $ 1 t | * , 2 y | % 1 R 1 6.N < , - , - f.T Y < E E ^ u y >.2.r ;.9.u t t - X     o 0 0 r < 3 1 0 t a a t 0 1 w t t y 1 6 5 u.*.T T E Y T ^ W Y -.^ ^ E t.N c S M n B B N B v C C X B T ! n c v N ~ C ( K ' P ].} ].[.[..X X#X X}.|.[.}.[.[.].] ].] ].I } K s.K Z m v C v v ! B 3 ^ ^ N R 5 +.-.Y W R 8.@.5 -.5 5 R 6 < E B N B b ~ / C L ].L K C @ , O L `.&X=X,X<X,X=X<X,X4X3X%X$X3X@X%X%X@X+XrXrXzXxXMXMXMXBXMXvXnXZXAXCXAXAXCXCXCXSXAXAXAXAXAXAXCXbXZXCXkXCXAXAXAXAXbXDXHXAXCXCXAXAXSXkXCXCXAXAXbXbXbXkXkXkXbXCXbXkXkXbXCXbXCXbXbXZXSXSXkXkXCXkXkXjXbXkXkXkXkXbXbXkXbXkX7XeXqX8XeXeXrXrXVXeXtXtX%X@X@X@X%X$X%X$X3X|.>X,X,X*X=X&X&X&X&X>X,X,X;X:X&X>X,X,X=X>X}.@X|.%X}.[..XoX' ' e.] L K ' K ' F ' ' K ' ' F Z ' C / @.^ N 6 8.o.;.y u <.e ;.d t d t ;.a a a d ;.d d s s <.d 2.d <.2.3.g g s <.u 1.2.d j s d d t y u d s 0 9 u d t 3.d d 0.;.d d s >.>.s a k.f d d 2.d 1.s h 7.>.t ;.9.;.t t s d s d t <.d h ;.u 9.o.u  .-.W W W W 5 n.p.&.&.5 R O . . # ",
") ! E T [ T * < ^ & ..% % $  .T r 3 $ N 2 X.+.V N 2 r >.y <.s X.1 u g R u | o.u d s d y t 4.d t y e e e u r e 2 $ e 2 N 2 | X.r R % , 2 < & +.t.N % N % ^ ^ 6 1 <.9.y 3.a 9 u     @ ; e a t a s e : 1 t t t r - 1 e e e o.e o.| &.^ ^ Y E Y 3 W < ^ Y *.Y ..T T T b B C S ' C N 3 B B % % B ~ C n v v B v v B ! ( } v ' [.[.[.|.|.[.}.}.[.|.}.].[.].].] .X] ].L ' ] ' m m m n n v B ~ B R @.E , R &.5 , ..-.&.Q ..5 R Q 6 -., T % N E % N O   O O C @ } ].{.}.1X,X=X,X|.>X,X>X,X|.,X,X3X%X@X%X%X%X+XrXrXxXMXMXzXMXMXMXvXnXDXZXbXZXAXSXAXCXAXAXAXSXCXAXAXAXCXSXCXbXSXAXAXCXHXAXAXAXAXSXCXSXCXAXAXSXCXCXkXkXkXkXkXjXjXkXkXkXkXkXbXCXCXSXCXCXSXAXCXbXCXbXlXjXjXkXkXkXkXkXkXbXkXkXkXlXeX8XqXeXeXVXrXVXrXrXrX3X3X%X$X$X@X$X@X3X,X,X*X-X*X>X;X;X;X=X=X=X*X>X`.@X|.@X@X`.%X|.).@X[.].] ' ' Z ' ' ' ' F ' F K m ( ' Z [ Z m [ Y R 6 8.| 6 O.<.u >.y ;.d 7.d d s d 3.s t <.3.g s s s g a 3.q.d d 1.3.2.2.2.a d s d 2.>.>.s 5.t u <.>.s g s 1 : e d d d <.d d d u 5.<.<.s s 9.2.f >.g f g d d ,.,.a <.<.<.s a t 3.<.d u O.u u 1.r 7.r e o.-.&.&.R ..: ..o - o o X     o : ",
"^ E W T N % * @ O $ O 3 N N R / o.X.2 +.+.+.y ;.r o.u <.k.r h a s r g y <.,.N R r >.O.R t 0.| y r r q e , 1 0 e 1 r e y r o.$.i  .< $ 3 3 < 2 @.E T T 3 < ^ T < o.u 1 ; 1 O   0 1 o - w w a w s e ; e e 0 e 2 1 t 0 y o.e o.r  .T ^ @.E Y ..E Y < W E ..^ *.W , Y ^ 5 B C M Z B T < Y N $ T B C v v n v C n v N N ' Z B ].[.].@X{.r.}.}.OX X X[.}.@X.X.X.X] ] L L y.] m n C n Z n ( B ( % , Y R Y %.5 2 W %.f.5 Q R W , | - > $ O 3 @ O O B v v ' #X X>X|. X|.>X|.*X&X*X>X=X|.>X4X:X,X3XXX$X%X%X@XOXrXrXxXMXMXMXBXMXMXvXnXZXAXCXZXAXAXHXZXAXCXCXCXCXAXSXAXAXAXCXCXCXbXSXbXAXAXAXAXAXSXCXCXbXSXHXAXSXkXkXbXkXkXkXkXkXCXkXkXkXbXCXAXAXSXCXCXAXAXbXZXCXbXjXjXkXjXkXlXjXbXbXbXkXkXkXjXeXeXeXVXVXBXxXVXVXxXrX3X4X3X3X%X$X}.#X>X<X<X*X*X:X=X,X;X`.|.=X>X>X>X*X#X$X$X$X$X}.XXXX[.[..XL ] K ' L ' ' { ] L K m m ( ( C ( ! R R 6 | 6 =.7 r 1.u d <.d >.t 9.d >.s d >.s s <.9.g f s a d 3.u 0.s g d 3.s s <.g 4.s 2.2.g t t y d d 2.s s a s s t w w d 1.s d 1.d d d 3.2.a a d q.s d <.d d <.>.d d s d t u 3.d e t u u ;.9.u d O.$.o.i o.r =..., , , o >       @   - # 7 R ",
"T $ % N % N N / T T E / ! E Q v.^ 5.X.| O.X.,.g X.r d d 9.2.r d g r s f s <.O.2 X.u s :.u d | 2 | R | R $ 3 $ < $ @ r 6 u e o.b.&.^ W < Y < 5 -.E =.^ N Y ..&.E Y @ $   1 > 1 a e : ; 9 t w t <.r 0 t t d u t h a e 1 y 1 r e  .& &.^ ^ N R ^ < E E *.Y p.T &.~ 3 E ^ E @.B n K B E E R , @ B % ~ b ( C ! v B B N W ' ' Z ] ].OX}.OX|. X@X|.>X|.}.>X|. X[..X.X].] ' d.K Z C Z ( n C B t.v b B T N @.&., Q  .f., >  .@ O $ > 5 , 3 B b e.v e.' ' r.@XXX|.|.|.|.|.|.|.>X=X=X&X*X>X,X&X,X|.@X$X%X3XXX$XyXxXMXMXvXBXBXMXvXnXnXnXFXAXZXAXAXAXAXAXZXAXZXZXAXCXbXSXAXSXSXSXCXZXAXSXAXAXSXSXAXCXSXAXAXAXSXCXkXkXCXkXkXkXCXCXkXjXjXkXCXCXCXSXCXCXZXAXAXCXSXCXCXkXjX6XkXjXjXkXkXkXkXkXkXbXbXjXVXrXMXMXMXBXMXBXBXxXtX4X4X4X3X>X|.%X,X3X,X=X;X;X-X,X;X&X*X>X,X;X>X4X>X%X@X@X[.XXXX@X.X] ' L ' K ' ' { ' { ' K ' ' ' ( ( ~ N W ..r | r .. .r y y u ;.<.>.2.s d d 9.u 2.a d >.t q.s d d f s 3.t 3.g g s 1.a a g f 2.j g s s s a s a d s s s a t d a s w t 5.d 1.<.<.2.t s t s a t 5.d a 3.t d d d t g t t a w u 1.s s t u h 9.d u e 4.e o 1   @ o X > @ O R E N R R ^ Y Y Y Y ",
"~ ! T ! / T ! T ! T ^ t.^ T x.c.~ 6 1.@.< ;.:.| :.Y t g o.9.2.X.y | | r +.e d :.| | u ;.+.< 2 e R r | R R N 6 X.3 @ , 6  .| Q -.u.N $ < < $ , , W 6 < , +.@ o o X o 1 0 t d t t u ; ; t t 9 d 0 d a s t a s s t t e $ 0 N - e r Y W W @.E < Y < < E @.T Q *.&.^ ~ Y Y W E Y C n M Z B E E O *.B B v c T C C ! v ! p.v / ' B C d.].wX X}.#X}.@X[.}.|. X}.|.[.XXOXXXL e.] L Z Z ' v C ( ! ( ' n B ! @.*.B < < > 6 , +.@ < 5 R ..6 N ~ Z ( C t.' ' ] ] P [. X@X[.|. X|.|.,X,X,X,X>X,X>X,X,X3X4X4XXXOX3XyXMXMXBXzXMXNXvXNXDXnXZXFXFXZXSXAXAXAXAXAXHXCXCXSXAXbXZXAXCXAXSXCXZXAXCXZXAXAXCXAXCXGXAXAXAXCXCXSXkXCXCXCXCXCXkXlXlXjXkXCXCXbXSXSXSXZXCXCXAXCXCXAXkXjXlXjXjXbXkXjXkXbXbXkXkXkXcXVXzXMXMXzXMXBXMXxXrXtX|.#X3X3X|.$X,X,X=X;X1X;X=X=X,X-X=X*X>X*X,X|.$X%X}.XX[.[.oX.X].] r.Z { B y.' y.d.K ' ( ' C ( ( T E R R  .$.;.u y 1.7.o.>.d s 2.d d d t t >.d e 3.s s 7.s h d 1.d s d g f >.d d d d s f g g s a y t <.g s d s s 2.2.s g s s t d u t t t ;.t <.>.g a s s s d <.<.s a a s t 4.s 2.t d s t w u u t u 9 9 o., o - @ o @ O 6 $ - @.^ E W &.c.) ^ ^ t.*./ E *.",
"[ { ( ^ ( ! / T N T T x./ ! *.v.^ $ 6. .< +.R | o.r d u | R J.:.< o.| +.o.N 0 a O.| +.1 ;., u e q.R * < | , q | T N @ < R < W @.~ $ % , N % $ O =.@ O X   X X @ E 1 y u ; u 1 9 u a a e t a t t d t s a t t d a t 0 < - 2 , 0 e u e O.r E * < E W , ^ &.W *.-.^ ^ T < , E T N 5 ~ A B A V 3 R N b ~ C ! v ! v C B / C % b E ! C y.oX[.[..XOX[.}.}.}. X|. X}.}.@XXX.Xr.r.' ] ' ' ' m Z C ( C B B c N N $ $ N 3 #.Y Q =.5 &.=.=.Q Y t.C n C [ Z y.' Z ] XX}. X$X|.|.|.|.>X>X>X*X|.>X>X1X1X1X1X4X@X+XwXxXMXBXMXvXMXvXvXNXnXnXZXZXZXCXAXAXAXAXAXSXSXZXCXCXCXZXAXAXCXSXAXSXAXAXSXCXAXAXbXCXCXHXAXSXSXCXCXCXCXCXCXSXSXCXkXlXlXCXAXSXCXCXAXSXbXCXSXSXAXSXSXAXCXkXkXkXkXbXkXkXCXCXkXkXkXjXjXjXVXMXMXzXvXBXMXxXrXyX$XXX3X3X3X|.,X,X1X=X,X=X>X=X|.|.`.>X>X|.@XXXXXXX].]..X] ' ] ] ' ] m ' m ' L Z K G ' m ' ( ~ |  .6 r r r u d d d y 0.d >.g g d 2.>.d d d d t t 2.d ;.>.f d t 1.e t d f s 1.<.d s a <.g a t d a d s d s s s e h s <.s g a s s d <.d t d t d t d f s d t u 3.<.<.j s 3.u d u t t 9 0 : : r e -   ; @ o 1 1 > u 1 ; r u 1.p.) *.< *.^ ^ u.i.^ W &.W *.^ &.",
"c.a.) *.) / ! T ! ! W p./ / T M./ Y  .8.+.N | R 2 y 2.o.| N e 9.| e ;.| u ;.r e 3.o.y r y u r o.;.o.r e r r r #.! * $ , W Y W +.^ $ < 5 T Y N % @ <   X X < T W ^ N  .;.o.e u t t a a 9 t w t s s a w t t t e e e e 2 @ r 2 y t y u u r 2 $ , E E Y Y Y a.W *.^ / E T Y E Y $.e q +.V C B E 3 , N b / v v ( N ~ v N B B % N E #...( ] ].].XX X|.[.}.|.>X`.>X>X|.#X@X.XoX].].] ' r.m ' v % O $ O $ % C C B #.*.@.T Y *.*.@.*.R %.Y @.( m C ( n ' m m ] ].OX}.|.}. X|.>X>X>X>X>X>X%X<X;X,X1X,X>X|.wXVXVXMXMXMXMXBXMXNXvXnXbXCXCXCXAXAXAXSXZXAXAXSXCXAXAXCXAXAXCXbXbXCXCXAXHXHXAXHXAXbXCXAXHXGXAXAXAXAXAXHXAXSXCXSXkXkXlXlXCXbXSXAXCXCXAXCXCXCXCXAXCXHXAXCXbXkXCXZXbXkXCXSXCXbXkXmXnXnXmXvXBXBXBXBXBXMXMXrXyX3X3X$X$X3X|.<X>X,X>X>X>X*X*X}.#X|.>X@X].+X@X].[..X] K ' ' L K K m Z n K C ' ( K C ' C R 8. .r 6 r r r u 1.d g s <.q.d <.d <.a d 2.d f s t d s d d <.t d 9.g d e d 9.d ;.d s d s s s t t h t d d 9 w d s w a d t h 9 e 1 0 ; ; : ;.<.t d 9 9 9 w t - # ; y <.<.t u ; O - @     @ O o ; u e t t t t t ;.u 9.d t e y u X.p.) ^ ^ ^ ^ ^ ^ t.[ Q ^ a.W T p.",
"c.*.m.y./ T T N T T < -.[ ^ u.a.c.^ T -.*.+. .+.2 9.,.X.R R N e q.R N < 2 1.2.u e u o.| N 2 u d y 9.u y r 1 b.[ N < 3 Y ^ 5 ^ &.! % @ # @ X $ $ + > $ < 3 W T R 3 N & =...u 9.X.y 9 d 1 1 e t t t d t w 9 w t 9 9 0 - 0 t e s e a y 0 1.N - r | | &.^ T &.T n.t.@.T ^ ^ | e u y 0 ; u < #.V V N 3 N E C b C B C v C ! c v C * -.-.B ! / ] {.OX[. X}.|.>X1X,X*X>X|.>X}.].oXXXK ' O   o v Z n ' b C ( ' d.! ( / ! ! [ u.t.W E &.5 &.B B n ( ( ' n Z F I ] XX|.[.$X X>X X%X|.,X,X>X>X<X;X>X>X,X,X$XrXzXzXvXMXBXMXMXBXNXnXZXbXbXAXCXSXAXHXAXSXSXAXSXCXAXAXAXAXCXCXCXCXSXSXCXHXGXGXAXAXSXSXSXHXHXAXHXAXAXAXGXHXCXCXbXbXkXjXmXkXbXbXSXSXCXAXSXSXSXAXHXAXSXCXCXZXCXbXkXbXbXCXCXZXZXAXZXnXNXNXNXBXBXBXBXMXMXxXrXtX$X$X#X3X#X$X4X).@X>X>X>X,X}.@X%X@X@X[.]..XXX]..X] K K K G K K K n C Z n n C Z C ( @.1 i r r r y ;.;.d <.<.d t s 2.s s d s >.t t t d t t t 1.>.k >.d d <.<.>.t d d P.<.2.a a d t <.s 3.s d h d u 9 s <.1 : 0 , O O @   O   X O   ; 2 O O ; @   O 1 @ > $ $ @ , 3   @   # - O 9 s a a d t ,.s a <.s d ;.<.<.y ; o.u ;.$.^ x.t.c.^ ) &.^ *.W W T p./ Q @.",
"i.y.y.{ ! B T ! ! T 3 W ) / ^ x.c.[ Y @.p.-.+.R <.;.X.+.2 | E $ 1.2.R 2 e <.J.s ;.0 t ,.+.3 , <.5.<.;.r o., x.y.% $ < E E , &...W $ O X     O % N T < , N 3 $ Y T E N R &.y e ;.y 1 t ;.1 1 t t t u e 1 0 t e d t e t t 9 t w e t e e t d e r r r r W W W &.^ p.p.T  .r u y u y e e t r V h.V 4 V N < B ( B ~ C ! ! / c ! c N *.! *.@.~ ' ' ] {. X}.|.&X*X>X;X:X`.'._.M ].P O K K ' v L ] ] ' ' ' Z ' ' ! ' ( n T ' ! C ! B ! T ..E B v / ' ( m n Z L ] .X}.}.@X|. X|.%X#X>X>X|.%X>X,X,X|.>X>XwXrXxXBXMXMXMXvXMXBXNXNXDXbXkXkXCXSXAXAXHXHXAXAXAXSXAXSXSXCXCXAXSXAXAXHXAXAXAXAXSXAXSXGXAXHXAXSXAXAXSXSXSXAXAXbXkXkXkXkXCXkXbXkXCXCXSXCXAXAXAXAXSXbXbXkXCXCXZXCXCXbXkXkXbXbXFXDXnXcXvXzXMXMXMXMXzXzXMXxXyXtX%X$X#X$X$X$X4X}.|.>X3X,X3X$X$X$XXX#X].oXXX] ] K ' K K ' Z Z K L F Z ' Z C n B 2 6  .X.u y u t d u d s d d u a s t <.a t d h d t d s d d 3.<.<.s i e i 9 e t 4.s <.u e t 0 : r <.<.u <.3.d d t t w 9 @ o O   O @ 3 2 2 e r y r q 1 ; , 1 1.2 0 1 ; <.s s e t t u t s s w w ;.s g d 3.>.d >.d w y d d <.1.u r ; i e o.o.*.-.u.a.*.@.b.a.Y R u.^ Y @.@.T ",
"y.y./ y.{ / [ / ! / ! Q *.[ ^ n.i.v.{ ^ W n.*.&.x.+.N | o.:.o.| r 3.k.2.t 0 4.2.s d d Y.1.5.d o.U.<.<.o.b.n.^ t.^ T E &.W R T , @ $ + O @ % % * Y < E < $ $ # 2 N Y N 2 :.u 1 u e t 0 d 1 t t w t , 7.2 t t t t s e y 2 - u t q r 2 d t t ;.d d r r r ^ Y W $ %.&.+.u t u r u a u q.1 y y 0 =., V V N , @.3 ( B C B *./ ! v N ..( t./ @.B ' Z L [.[.[.`.'. X*X(.x S H J |.%X].@XXX#X}.[.]..XL K ' n ( Z n [ ' v ~ y.Z ! ( Z b B ~ 5 B C [ v ! ' ' K ' ' ' r.@X X<X|.$X<X|.@X@X|.%X%X<X>X|.@X%XtXrXxXBXMXMXMXBXBXNXNXcXnXCXkXCXSXAXAXCXAXAXAXSXAXCXbXCXbXAXCXSXCXCXAXAXAXAXSXSXAXAXAXGXAXSXCXCXSXAXAXCXkXCXCXbXjXbXkXbXkXkXCXCXkXbXCXAXAXAXSXCXbXAXSXCXCXCXkXbXkXbXlXjXcXbXDXZXnXnXvXMXMXMXMXBXMXMXMXrXyX3X4X4X3X$X$X#X%X$X4X4X$X3X].#X$X3XXXOX.XoX.X] ] K { Z ' ' Z ' K K ( ' Z Z N 6 r 6 1 8.o.;.<.d s h ;.t g d <.d t a h ;.h d d <.<.s t 9 d e - 0 1 ; ; - O o   - 0 : @ @ X X @ X O 2 @ r , r 1 1 @ $ o - $ , u , e s s f s s 2.d d s a t t d d >.t a ; t u s w w d 3.3.s d <.a d h d d o.o.k.s d t <.u t <.1.s t y u 1 6.$.f.R f.a.u.^ @.c.T *.p.*.^ W ^ ^ ",
"{ [ / { ! / / T T / ! N u./ ) x.c.i.[ ! Y p.u.-.d.[ @.+.| X.r @.N $ P.g y N e d 2 r e q.q.0.3.1.8.7.1.5.O.=.*.^ *... .R @ - $ @ $ N N < Y < T N N < Y Y $ 5 R Y Y < 6 < 0 >.r y r 0 r 9 ;.a s t t y ;.d t t h e t d e 2 2 e 2 r e e d e u d u r X.6 r 2 ..Y ..r u ;.u 0 u u t s t t e t e y r r V V ~ N R 2 E #.n ( / / C v c #.( @.B / N ~ ( C ' ' ] I ).x x x x F `.>X<X4X>X|.$X@X$X@XXXoX].' K Z ( ( Z [ C C C y.m n y.( Z v ( C 3 @./ C v [ ' m m K ] oX$X>X X}.}. X XOX$X}.$X|.3X>X,X|.$XyXzXzXMXBXBXBXBXMXNXDXcXnXCXCXAXAXSXSXbXAXCXSXbXSXCXkXbXCXCXSXSXCXZXCXCXCXSXCXCXAXCXAXAXSXSXbXCXSXSXSXCXCXCXSXCXkXbXZXbXkXkXbXCXCXbXCXZXCXAXAXCXbXAXAXAXAXCXbXbXkXkXjXbXcXcXDXDXDXDXNXNXBXMXBXBXMXMXxXrXrX3X3X%X$X@X#X@X%X$X3X%X$X$X%XOXwX3X%X#X].r.' ' L F C d.K ' ' y.' m ~ { N R r ..o.| r 1.>.d d d s <.1.d s t u 1 @ - - : 0 e , @ o - # O O O o 1 3 O $ @ @ q 2 3 3 , u r , 1 d s r r 0 d 0 , , 1 e u d h a s f s w d s s a d d d t s g d <.h d <.d >.e w w w 9 ; w s 4.s e u d s d g d 5.<.q.g g d ;.d ;.3.1.d t O.o.r <.o.*.*.*.a.*./ -.&.^ Y *.*.W @.&.y.",
"[ [ / / ! / ! T T ! ! N *.! W x.[ i./ ! T W x.a.^ ! / [ T R Y N T $ 2 y r | , r +.r 2 0.q.0.<.| o.5.7.<.u o.b.7.2 o @ @ X # % 6 &.Y E Y T , N < N , , E & Y @.E ^ 6 1 r e 3.| ; 0.O 1 r ;.r , t y t t g a w t e w 3.d u y ; R 1 u , r > ,.| N 2 2 | y r u d d u d >.>.u u e u t t t a t t 1.; ;.t V V V ..f.< ..N ~ ! / C C v *.B t.E ~ ! N < o 3 O $ 4 I S H `.,X1X=X>X,X>X}.>X4X>X XXXOX] .X] ' y.( ! [ ' v Z n ( Z C #.[ m C B e.B E @./ Z ( Z Z m m F ' OX X[.}.[.}.#X[.@X#XwX|.#X$X>X3XwXrXVXxXMXBXBXMXMXNXNXnXnXCXAXCXSXSXCXCXbXCXbXCXbXSXSXCXbXCXbXSXSXAXCXCXCXSXAXCXCXAXCXHXAXAXAXCXAXAXSXAXZXSXCXSXCXCXCXCXCXbXCXCXAXAXZXZXCXHXAXAXAXAXAXAXAXAXZXCXZXZXZXZXZXbXnXnXDXnXNXNXNXMXMXMXMXMXMXxXrXwX3X3X%X#X$X$X@X3X3X%X$X$X].@X@XwX#X%XXX] ' L Z ' Z v e.m m m v C ! @.=.$.O.o.i o.o.1.<.s d d t e 9 u 1               @   @ + o O $ , 2 > u g s s u s a f 2.s <.f f f s s f g a g s d s f f g j f s 3.u s a d d a t t 9 d u s s d d d s 2.f d >.d >.d 2.t 9 9 t s t Y.s d t g s s d <.7.s d 3.1.<.1.d 0.1.<.>.t u e d y u E p.&.f.^ u.-.x.t.R @.f.^ &.&.R ",
"i.y./ [ d.! ~ [ / [ T Y &.t.^ p.[ t.) T N Y -.u.T / { { T / / T Y $.4.4.3.s <.d P.3.0.9.>.r t ;.e q.u 1.y , - - 6 $ @ V >  .< r R , R N , % T & N * 3 < % Y % @ X.y d s t u h 1 <.| ; u t y w s t t t s a a t q e t g d | , o.y N $ $ r w ;.| | r r y u d s h a d d t q.u t t s t u a g e t a u d 2 V V +...+.Y , R B E B 3 N % O @ @ $ O O $ $ O @ N Z [.|.*X=X;X-X`.*X>X,X>X>X>X|.@X[.[.oXoXr.r.Z Z ( n e.( K Z ( ( [ ! ' Z ( ( [ C ~ @.~ C / Z ( Z Z Z ' r..X#X[.XX@X@X@X$X|.wX4XOX$X>XrXeXVXxXBXBXBXBXMXMXNXNXZXZXAXAXAXAXAXAXCXCXCXCXkXCXSXAXAXCXbXCXHXHXAXAXAXCXCXAXCXAXHXCXAXHXAXHXAXHXAXSXGXAXkXbXAXCXSXSXCXCXbXbXbXbXbXSXSXbXGXAXAXHXAXAXAXCXCXZXkXbXnXDXZXZXZXnXnXnXcXkXcXzXzXMXBXMXMXMXxXyXtX4X%X%X@X3X3X%X$X4X%X$X%X$X%X%X%X@XXX] ' Z ' ' Z ' Z C C B ~ B 3  .o.1 e : e 0 y e r 0 - ; o       O     X ; , < # 3 O.2 e t 0 t t s a t d d a >.t s a s d t h 2.a t d a s s a a p s 2.d s s s t d u t s g s 3.s a t 0 h s s s a s t s s a >.d a d 2.s s w 9 9 d t u t d h d u u ;.1.r ;.a u 1.2.9.d 3.h <.u d d t w t o.E &.R *.u.^ Y n.u.@.Y -.*.W R -.",
"y.[ [ ^ d.T / [ ^ [ / N &.u.^ a.d.T a./ N *.u.x.v.y.d./ ^ [ { ^ 5 5.<.d P.f g a >.d <.,.E % @ y y t @ @ 1 # @ @ e <.r | > o.R 7 E , , N < T N 3 N T % < , 6 N @ y e y 2 e t t u 1 ;.0 d s s s s a a a a s a t t s t t s u y s d r o.2 2 < 1.O.r u u d u r u t s r ;.e d <.s s s t t d d e t u 2 o.r V V A V +.s.R W B N N % N X X @ % % % c v B C B B ^ e.XX|.*X-X*X`.&X*X;X=X*X*X>X|.3X X|.}.%X].] ' ] ] ] K d.n ( d.m ' ( ' m ' m ' ( ! E C ' Z ( n n ' K ] OXXX3X|.|.}..X$X3X$X4X@X$X4XyXeXxXxXMXBXBXBXBXMXvXNXFXZXAXAXAXAXAXAXZXAXAXAXkXZXAXHXHXSXSXbXAXGXZXAXAXAXAXAXCXAXHXAXAXGXAXGXGXGXAXAXAXAXbXbXCXSXSXAXSXbXbXCXAXCXkXAXCXCXAXCXSXSXAXAXAXHXAXAXAXnXnXbXFXFXFXnXDXnXZXjXjXzXzXzXzXMXMXxXrXyX3X%X@X%X3X@X%X$X$X4X3X3X4X4X%X#X@X@XoXr.Z Z ' Z c c $ $ 3 O O $ > 1 6 O @ O $ @ 3 3 O O       @ O 2 V , 1 d f d s s a t 1.>.t s t d d a u y o.d d d g a t a a a u d 1.d t j d s g s p 3.<.d s a t s a e t a t d s e d t t s s e u t a u t t d a s a d e t d 3.9 w e : ;.t d d d h d 1.d 1.t u 5.d u t ;.t d t d >.d t t r W Y W R a.u.^ &./ R R 5 ^ E @.*.",
"/ ! t.[ [ ! T ^ ! ^ / ^ -.i./ ) { ! ) [ ^ p.a.*.M.[ T ^ / @.~ Y R N r 2 u U.o.u | r d ,.| , , o 0 : 3 O 1 k.u o.2 , y u , o.r o...R $ 6 ^ ! T T * T $ < | e e r t 2 , 2 r e e d u t d d g u d r e a e t d t d w s t a a t a s a s g a t r w 2.r e t s r y u s s s s d d 3.s s t u e d a t u o.y t d > y 2 +.; -.~ V N E < 3 N O N % B n m m Z n n n C B ~ Z I ).'.`.|.=X=X&X=X&X&X=X`.>X<X>X>X>X%XXX.X.XoX.X] r.r.Z ' Z Z ( n m ( ( [ ( ( C ( ( Z Z c v / ' ' r.OX$X}.@X|.[.#X$X$X4X3XOXtXeXrXxXxXMXBXMXBXBXNXcXnXAXAXAXAXZXAXAXCXZXAXAXAXZXAXGXGXAXAXAXAXGXAXAXAXAXAXAXAXAXHXGXGXAXAXAXGXGXAXGXAXHXHXSXCXSXAXSXSXCXCXbXZXCXCXAXCXCXSXCXbXSXSXSXCXCXSXSXFXZXZXnXnXFXFXFXnXnXDXnXnXvXMXMXzXjXzXzXzXeX$X4X4X3X$X$X%X#X#X$X@X$X3X@XOX] ' e.] ' B b A c c % 4 3 $ B N % @ O.r o.;.u e ;.<.s s s s u r y d d <.2.>.g f s u a 2.g g t <.d s s >.d d d u d s d s g t s g s g t 1.d g g g d >.g g s 4.2.s h a t s d g w s t t w s d s a a t a t a d a s a t d g w s s t t <.3.f t X u d w t >.s s >.s t u ;.;.s w 1.t <.t t s e d e u $.u.^ u.a.a.-.) R Q ^ R R ~ E E T ",
"i.y.d.d.{ / T / N N T Y R *./ ^ [ [ Y E -.m.t.-.M.v.^ / ! Y R R 2 6 2 3 @ e 7.u e e 3.s o.$ O O @ y 9.6 1.>.2.| 2 3 r o.r r r r | 6 < @ *./ B T T T B , r | 1 r h r 0 e t e t t s e 3.a s d d d e u e a t 2.u t w t a s u 2 y 2 r t s s h e <.s r 1 t a a t t a s t <.s e 9.t s e a g a a u 7.t s t t t s t t ; | 3 $ 3 O 3 B v v C ' Z m n Z n v B C v ( B ( C ].[.|.*X>X=X,X;X-X=X,X*X>X>X|.|.}.XX].r.oX.XXX] r.y.( ' v v ! C B ! Z n ! C ( C n ' K n ' K ' ' #XXX@X$X>X<X$X|.$X4X4X$XyXrXVXxXBXMXBXBXBXBXNXDXZXAXAXAXAXAXGXAXbXZXAXZXAXAXHXGXGXHXAXAXGXAXSXHXHXAXGXHXGXGXGXAXAXAXSXSXSXSXAXGXHXHXHXAXCXAXCXAXSXSXCXCXjXCXCXCXkXbXSXCXCXAXAXCXCXSXCXZXZXZXDXDXDXDXDXZXcXcXnXcXcXzXvXzXMXzXzXzX7XOX] L ] r.A ] .X] @ @ P r.@ > O Z ] N ' ' K K P P Z ' ( / ( p.p.R 6 8.u 9.3.3.d 1.1.>.s d 1.9.k.g s <.d s 9.>.s 2.d s d 3.2.y t >.s s y t h t d s s s <.2.g d d g d g d a s g s s a s 3.s 2.g >.d a a t a s a s s a a g t d g s t s t d a w s t d y t <.a d s f w s a w o.t s 9 w 1.s h d t t <.t d d h o.w d w w t u d t t 6.W x._ R W @.< ..&.n.*.W ^ ^ ,  .",
"/ i.{ d.[ / ^ ) ) t./ T Y *./ W *.*.Y b.n.^ W W , k.u.T =. .2 | 3 O @ @ $ o r o.< < r 1 e % % * 2 1 4.9.<.s u | , r q.R 1 d y u O.2 | < %.i./ ! T R E N < o.e 0 r 2 r 0 e e s a s - u s w d 2.s a t w t w s t s t t d s d +.1 y r 2 y X.r 2 ;.d o.2 u s t s 0 t t t >.d e u <.s t a t t w a u <.s h t @ : 0 , O 1 $ $ < ~ E B C B ( ( Z m m n n n n n n n C T N ' I [.`.`.=X&X=X_.'.*X;X;X=X>X>X|.%X%X{.+X%XXX[.].r.r.P C b ( C n ! n n ( n C C Z m G F F m ] ] .X3X4X<X<X<X$X<X<X3X4XtXrXrXxXBXBXMXBXBXBXNXNXDXSXSXAXCXAXGXAXCXAXAXAXAXHXAXGXGXAXAXZXGXkXCXAXGXAXAXAXAXAXHXSXSXAXAXAXHXAXCXAXAXAXAXAXAXSXSXAXAXAXAXSXCXCXAXCXbXkXSXCXCXSXSXSXAXAXAXZXCXZXZXZXnXnXnXnXbXnXcXcXjX6Xj.6X6X7X7Xj.j.` O           O O @ ' ] XXXX.X] ] +XXXOXr.' r.' P P M Z C *.u.u...i 7.5.<.1.d d u q.<.;.d u 5.,.1.d s 2.s d <.2.d g h h s ;.1.d d u 0 t d s g s g t >.g >.j u <.>.s 3.2.f f s s g s t 1.3.2.g d t <.d d r t t d t a t t s s a s s s s s d w t t t d t 9 9.g d a g s t w t Y.2.s a w t u d t u d d a ;.s <.;.t u t t a <.d ;.y $.5 ..Q 2 ..T Q -.u.^ &.p.*.W W -.",
"^ ) d.[ ~ T *.*.E 2 $ @ @  .E 6 2 2 , =.| 3 O $ o o =.< 2 N @ @ $ O $ 3 R 2 e d >.u o.r r | 2 1 r 1 o.k.9.1.r 6 R 2 u y e s u 6.O.| | ..2 s.T T T R 2 X.3 u | 1 e | < 1 d t e s t e , <.t 3.s s >.e s t t 9 d s a a w s a ;.t t d a a t s t t <.y u e t d s y u 1 <.d 3.2.d 1.2.s t t s 0 a e <.9 # - 1 O > 1 y 1 q. .B *./ B V ~ ~ C / ( c C v n c C n v n C E / ' XX@X|.'.`.*X`.-X=X;X&X=X;X*X3X3X|.[.+X@XXX.X] .X.XXXK C ( Z [ ' n ( ! C v ( [ Z m m n ' ' ' ] .X$X|.$X>XOX$X$X$X<XeXrXVXxXBXBXBXMXMXNXNXnXCXAXHXHXAXGXGXAXHXAXAXAXAXAXCXAXAXAXCXDXCXbXAXAXAXSXSXAXCXGXGXHXAXAXAXAXAXSXSXSXHXAXAXAXAXSXAXSXSXHXAXAXbXkXSXCXkXkXkXbXbXCXkXkXkXkXkXkXlXjXcXkXjXjXjXjXlXlXj.N.j.j.j.j.j.j.j.6Xj./ b [.@ O P XX@X%X%X#X$X4X4X3X3X#XoXOXoX] ' ' L K F M M C W =.$.i q.q.d d d <.d t q.d d d d <.,.>.d d s s s >.s 9.t d g d 5.1.d u y y t >.s >.d y e u d u d t d s s 3.f f s 2.d g g t 9.d <.s s s d d e ;.t t s s t e t s g s 2.g s s a d t a a s f 2.s t s 2.a s >.d a s d 3.7.2.t e d s d <.5.<.<.<.1.;.3.d 1.;.g d d ;.e y  .*.Y *.@.-.u.*.R u.a.@.@.W Q -.*.",
"&.T ^ [ T Y N $ O $ @ $ @ r , 1 e 2 2 y y o.V | R 3 o. .% $ % $ 2 r u r | r r y 9.9.j ,.r u 2 6 2 1 u q.1.<.d o.r r o.e w >.% o.1.o.2 2 r O. .Y < < 6 r | u u 2 d d r a g t t s 1 5.R ; 2.d d d d <.s s s t w s a s t t w d g , d t t e 0 t 0 d t t a e t e t t 0 d s ;.s p s 9.s a a t w d t : $ # 0 3.2 ; 2.s u $.6.R #.E ~ B B E B / C v v N b v n m b b B v ~ @.r.[.[.@X'.'.`.`.*X&X&X=X&X&X|.,X,X}.oXXX X[..XXXoXXX] P ( ( #.' Z ( ( ( n ! ( ' K m m C ( y.' d.#X#X%X@XOXOXqX$X3XyXrXzXxXMXBXMXMXNXMXNXZXCXAXAXHXGXGXSXZXHXAXAXAXHXCXCXAXZXAXFXFXbXFXZXbXFXGXAXZXAXGXAXSXAXAXCXSXAXAXAXSXHXHXGXAXAXSXAXSXSXCXSXCXkXkXkXjXlXlXlXkXkXkXjXlXj.j.N.6XN.lXN.N.N.6XN.j.j.j.j.lXcXlXjXjX6XN.jXMXxXrX%X%X3X%X3X$X3X3X4X@XOX4X4X$X#X$XOXOX.XP ' P M H P m n E o.<.d d ;.y s >.<.3.t u ;.g 3.3.f w P.g j 2.g a a d s 5.t 2.d t <.1.g d d u ;.y 1.;.;.r u d <.d d s a d s >.a a g d 1.>.e d d ;.5.<.d g s s f d a t t <.a t 1.t s ;.;.2.s t d t u s s d s ,.d t h d w >.a d <.g t y <.5.<.>.d d s 0 9.Y.7.<.<.<.d d q.<.s d t u y u <.-.t.Q *.W &.@.&.*.R #   #.5 R < ",
"N $ $ N N % N * V < |  .| d u s <.k 4.g s g 2.o.d d <.k.;.X.o. .u 5.k.4.d d 3.9.1.U.k.g X.e X.2 y u d k.0.9.9.s u y g | 9 >.| e <.>.,.2 r ;.6.6 | 2 r r X.u d N 0 a | t u t s s o.e s s 3.d 4.0.g 9.g d a a t t h s 2.a a t d | u | 1 X.3 2 r t g y s y t t u t e t s ;.<.a s 5.s a w w 9 # O @ 1 u t g s e d d >.r 1.;.O.;.o.~ Z ( ( / C ! n n v C ( n n v C b B ~ , ( Z .X[.|.(.}.}.`.=X-X-X&X`.=X*X>X$X|.|.}.XX].oX.X] r.' e.Z e.Z ' ' ' ' ' K m F K G m G K ] OX3X$X4X<X<X%X#X#X$XyXrXzXxXMXMXMXzXNXvXDXAXAXAXCXCXSXAXCXAXHXSXAXZXAXZXbXFXZXbXFXZXZXZXZXnXFXFXFXZXHXSXSXSXAXSXCXSXSXSXHXAXAXAXHXAXSXCXSXCXkXkXkXlXN.N.N.j.N.N.N.N.N.N.N.6XN.6XjXDXFXFXFXDXFXDXnXN.j.lXkXnXnXvXNXNXmXBXMXxXrX3X4X3X4X4X3X%X@X%X@X@X$X3X3X%XOX$XOXXX] r.] K P H ' m M | o.d y d >.d d d <.2.s 7.2.s <.3.a d q.j s g s s s s g >.g s a t 2 u 3.d ;.d >.d ;.d <.d d e ,.s a h u >.d 2.s 2.s s h d u s d 5.5.1.3.t 2.d g u s u d >.a 2.2.u s d 2.s f s f s s g s 3.1.4.d d a <.e 3.d t ,.s d <.u 9.0.4.9.;.3.d 7.9.1.9.s 9.s 2.>.a s 3.d d ;.u 0. .@.W @.&.&.-.-.Y X - , 6 < 2 $ ",
"/ T / E @.O.,.y o.2 X.e r e s t d 5.d d g u g f f s 5.n.9.d >.r d o.u | r r O.O.X.5.7.;.g | r e <.>.g ;.2.d 1.4.<.>.f ;.- ;.e e ,.6 d ;.6 q 0.Y r u h d y d u X., u y y 2 t d 0 ,.1 u f <.9.1.9.7.<.2.f f s u w a s s f s a a d t y e e u 2 q e d u t a g s h a u a y ;.d 3.0 1.d t - @   @ e ;.u d t a w 1.r e d u u 9.<.d r u A P Z ( ( B C v v v ( v v C n B B C N ~ ! ' ] XX[.[.XX`.*X`.*X&X*X&X-X>X>X>X|.[.[.).oX].r.d.].d.K ' ] ' r.K ' ' F ' G G G G K ' ' ].wX$X$X4X>X>X3X>X|.yXzXVXxXBXMXzXzXNXNXDXSXAXSXCXCXkXCXCXAXZXAXZXCXFXZXCXGXFXbXZXZXZXZXZXZXnXZXnXZXZXCXCXkXCXCXbXSXCXCXCXCXAXAXSXCXkXkXjXN.N.N.N.N.N.N.N.N.N.N.lX6X6XbXnXFXZXFXFXFXDXFXFXFXFXFXDXZXZXAXZXDXnXMXNXNXMXMXzXzXtX@X3X$X$X4X3X3X3X%X3X%X%X#X$X3X$X#X$XXX]..X] L K m m M M R o.e e 5.;.2.s a 1.<.<.<.g s t >.>.>.3.s d t a g f s g g a t s g r ;.>.;.o.$.1.,.y <.u d t ,.>.a g t >.>.s 2.s 2.y u a g g s <.5.d 4.2.s d d s s h a d g f a s s s 2.s d s 3.<.g s s >.>.d s d d a t d e ,.h u >.;.5.s ;.P.2.d 4.d P.4.4.<.9.d u 3.t o.;.u ;.d d <.u 6.| ..x.*.*.W $ X , @ R 2 N O @ @ ",
"/ i.*.O.1.1.,.s X.| o.r 6 1 >.a d d >.q ;.o.d s j g d u k.2.s d | R | N | +.+.| | ;.d P.3.R r u <.3.+.X.s X.e 0.b.U.g s y ,.% e >.o.N r 1.| y 6.o.X.u ;.e >.r u y d y r 2 > h y t q e d e ;.j d 7.2.k g s >.u s t d q s s t d <.t u 2 r r < r , u >.u s f d t f s t t a t J.; ;.@ O X O O d p s 7.t d t t ;.r y t d t P.<.t u 6 +.A b b B B B B v % N v n v B v C b ! / C B C ] ].}.[.}.|.`.'.-X*X-X-X}.=X>X_.(.).[.XX[.{.g.oX.X] ] ].] ] K ' K Z { ' m ' ( ' ' e.r.qX#X$X3X X|.}.|.yXrXVXzXxXBXMXzXzXNXnXSXkXSXCXbXAXkXAXZXDXZXDXnXDXDXnXnXDXnXnXnXnXkXcXDXDXcXbXcXnXnXbXkXkXbXbXbXCXCXCXkXkXCXkXkXjXlXN.N.N.N.N.kXlXlXlX6X6XkXCXAXFXFXFXFXZXnXnXDXDXnXDXDXnXZXZXZXDXZXDXDXZXnXvXMXzXzXzXzXrXtX@X%X$X%X%X#X4X3X3X3X$X%X%X$X%X%XwX$X@XXX] L F M M M M M  .| e u o.d s d ;.d s w ;.a s s g d t d a <.u d 2.s d d d t h t d <.0.r $.r o.X.i o.u e t d <.s t 4.a f s a s >.a s 3.2.s <.d d 1.s d a s a t u a d a s s a s a s <.s w <.s d u ;.d d t t d t t u d t d e y t 1.u ;.u 1.t w P.d u o.7.1.t <.>.t t ;.w o.<.;.t d u u u u 6.W @.< < E E $ , W , 5 R E ..W ",
"~ -.R 1.:...+.+.R R o.X.| 2 d s 3.f d o.r 3.;.d d 2.>.| u k.g f s +.+.r g :.+.d >.s d s 9.o.u 5.g o.+.| e g o.2 u Y.3.d u ,.R y 3.>.E N u ,.h P.3.r u O.| X.| X.u y y r < 1 e y u r < u y y d d d 3.g g g a 3.u s t t s d 3.t t >.s 1 r t y r , u 2.g d y s a a s t t d <.t r - O 3 r u t g y s 2.d h a s s d r a s t 7.>.,.u y y V B 3 V C C E N $ N C b v C n v v ! ! B B N C ] .X[.oXXX|.'.'._.`.-X|.1X;X*X,X*X>X>X>X}.OXqX@XOXOX[.oXXX] d.L ' ' Z ( ' ' ' ' r.oXOX$X3X3X|.%XOX|.yXyXrXzXxXMXMXzXzXvXZXSXCXCXAXAXAXFXDXDXDXnXcXnXDXnXnXnXnXnXcXnXcXcXcXDXDXnXnXnXnXnXDXDXcXjXbXbXbXbXCXkXjXlXN.N.N.N.N.lXkXCXSXAXSXAXAXSXSXCXZXbXDXFXnXZXZXZXnXnXZXkXnXZXZXnXDXDXFXZXZXDXDXNXMXMXzXMXzXzXyX@X#X%X$X%X@X%X3X3X3X%X$X3X4X3X@X#X#X%X@X.XI P M M M M M M @.e i 7.t <.d d t 1.t t 1.<.<.3.f s a d d ;.d d s s t t 9 ;.y o.o.X.f.o.5.o.o.u r u t a a d e d s >.2.f s s a <.f f <.s a ;.d s <.2.d 2.>.a t w ;.d d t d a d s t <.s t <.t t t e ;.t d t u <.d u <.5.1.d t 9.d u 1.t P.t t <.<.e <.<.i 1.k.<.1.3.t u 9.t <.<.;.y : e 0 X., @ , W ^ ^ W @.v.W u.*.^ ^ u.",
".. .5.6.$.O.#.| +.r O.| r d d d g g | | +.d d ,.u d 3.f p P.T.d s 3...V X.| X.g g :.d | 5.U.l.0.X.N +.6 d P.X.r w U.k.2.s g | u 2.s d O.2 t 9.b.7.g >.O.R u X.| r u s t +.$ 1 y r t u 1 1.y u a <.q.d 3.s s y 2.d e t u t s s t >.d d 0 d s s a d 3.f s t a a w 9 u - ; 1 , , 1 t s g 2.a f s f s s h d t t >.d a s d <.u 9.;.r e 1.r r  .+.Z Z C N B B c B v c b v c ~ b B v N Z C K g.OX[.`.|.`.>X,X,X&X:X;X&X=X;X1X,X,X|.#X<X[.qX%X].qXXX.XXX].' ' ] ' ' r.] ].oX#X$X3X#X}.%XwX>XyXyXxXxXxXBXMXMXMXnXAXCXAXAXGXZXZXnXnXnXnXnXDXDXnXnXnXnXvXcXvXcXnXnXcXnXnXcXnXNXvXvXvXzXzXjXcXvXkXkXN.N.N.N.N.N.N.kXAXGXHXGXSXHXAXAXAXAXZXbXFXZXZXZXZXFXDXDXDXnXDXZXZXnXnXDXFXFXDXnXnXDXDXDXNXzXMXMXzX7X%X4X$X$X3X3X$X4X4XXX3X%X%X$X3X$X3X@X@X%XXX.XI L H P M M m M C u d u u u t t t <.<.;.3.s t q.d 2.s 2.d >.d s t s d d 1.q.5.5.7.:.7.b.X.o.o.o.o.o.d d 2.s d g a d d g d d s s s g y d s s 2.<.g 2.3.1.s s d u 1.d >.s s s s a <.;.d <.1.h s ;.d s d s d ;.;.a t e 7.d s i P.s ;.u t 5.0.t ;.Y.t I.1.i 0.t u 5.;.t o.O.u u t u 1 2 1 1 u X. .^ u./ W ^ &.< ^ / @.E E T ",
"6.O.;.O.O.;.;.g o.X.R 2 d d 3.d f d O.| +.0 ,.| r d u 9.g k U.9.d t 7.o.;.X.o.X.f g s g <.U.9.g o.R r a 2.3.o.h f 9.d 9.d 2.o.d g u 2.d o.| | k.k.4.3.O.e g ;.+.0 s u t s V < 1 X.e d 1 9.y d g d >.3.d s >.;.r d t t y R , u a t ;.y 1 r 2 t g s <.f s t d t w ; @ o $ @ t a g t f d k.2.f f s s f f y d u t 4.u d 1.d <.>.h 0 u u ;.r u +.+.A B B B N N ! v v v c b ! v c B v c B ] L r.@X}.`.|.`.|.*X-X;X&X`.&X;X&X,X,X<X|.wX}.OX}.@XwX%X#XOX].] ] ] r.] d.]..X.XXX#X$X#X#X%X3X<XyXrXxXxXxXMXvXMXvXnXSXCXZXAXAXZXZXZXcXnXnXDXDXNXvXNXNXDXvXvXvXvXvXvXvXnXcXnXcXcXzXjXj.6X6X6XN.N.lXcXjX6XCXSXHXHXAXAXGXGXAXGXHXSXAXHXAXAXbXZXFXZXjXZXFXDXFXDXnXDXDXZXDXnXbXZXnXbXZXnXDXnXnXNXvXzXMXzXzXrX$X4X3X] XX3X%X+XwX$X$XXXr.#X@XXXXXXX@X.XXX].I L H M m M b V C #.h ;.d y ;.t t t u d s t t u 1.d g d d 2.s a ,.u d 1.0.1.;.;.1.o.1.X.o.o.<.5.:.5.;.>.d s d t t d s s 3.s s d a f s d 3.s <.0.<.d 5.<.s s t t d <.t t ;.d t e o.u ;.u ;.3.e <.d t 5.t 4.<.u o.e <.t u d <.e e P.u <.$.y e r 5.e r , 0 2 o , 1 y u d ;.0 y u d d s d d d u 5.=.*.^ ^ / *.u.& u.t.^ a.^ ",
"f.@.O.;.2.X.>.g ;.d u u 2.f d d g g f d y d s u | t u t Y.k.k.k.g d k.9.2.d o.O.s f g 3.5.n.b.2.s | 2.A.r t 2.g 2.2.s s 2.2.d d 3.u d u ;.R 2 ;.2.4.4.j d g X.R 2 >.r e s j R $ t 0 d t e 1.t d t d ;.1.3.<.d e e a s e 2 2 u t t 9 u e 0 e a a s r >.g a t e ; $ @ , t a a s s d a t 3.>.e t s s w s t e d s s a t e 1.<.s 9 ;.y u t q.e u +.V V B B V N T B B b c c B n c ~ c c C P ] ' XX#X[.[.).XX`.*X-X=X&X;X&X-X*X,X1X}.XX3X|.%X3X%X|.XXXX.XOX].XX] r.r..X.X.X[.XX$X%X}.[.$X>XrXrXxXxXxXvXzXvXcXbXAXFXZXZXZXZXZXnXnXDXNXnXvXvXvXNXvXvXvXMXvXzXzXzXvXvXcXvXzX7Xj.j.6X7XjXvXvXvXvXNXvXnXDXZXAXAXGXAXAXAXAXAXSXSXAXAXAXAXCXZXCXbXbXAXZXZXZXZXnXnXZXZXZXcXkXZXnXnXZXnXDXnXnXnXcXzXzXzX7XOX@X[.XX.X@X%X%XoXOX#XXXOX#X#X@XXX]..X#Xr.r..XI P P H K M b E E o.t <.e 1.1.d a s ; t t >.s d d 9 w w w <.0.<.;.;.d y u 5.o.o.o.1.;.;.<.u u <.<.o.7.r u t s t u 7.d s d t 9.k.y a t ;.>.d t <.<.u u 9.g a t e e <.u t ;.w e u y t r e ; e 0 ; e 0 e : o.r r X.u u 0 <.u o.0 o o.r u y - , $ 1 | O u e t t s s u 3.f s >.s d >.a d g s u ;.1.O... .-.^ *.a.E R *.^ -.c.",
"@...@.:.1.:.O.+.;.>.u j s s s f j g d d s d f ;.X.y t s d R.k.<.2.4.3.g s s >.o.s s 5.k.0.9.k.b.j g f X.r y P.9.Y.9.o.> t 2.s d 3.o.u y 2.;.y s f 4.2.2.f d u | , u d u s s s r t y t y 2 t u d s d ;.4.<.0.s s a s a t e 2 r r t t s t 9 a f t s y t - $ $ @ O y y s s s g s >.s f s s s g a t <.e w u t t d a a t t u s s t h d d 1 1.o.y d r r 2 N 3 N , R N N N % T n v C C v C m I ] L +X#X.X#XOX#X|.*X`.*X-X&X*X;X=X;X,X>X4X1X,X3X|.}.OX#X$X#X$X]..XXX.X] OXXX$X%X%X}.}.}.>X|.rXrXzXxXxXzXvXcXkXbXcXcXkXjXcXcXcXkXcXnXcXjXjXzXjXjXzX7XjXzXjX6X6XjXzXzX7X6XjXN.jXzXmXNXBXNXNXNXNXNXvXNXDXNXZXbXCXSXCXHXAXSXSXCXSXCXAXAXCXCXZXZXCXZXCXSXZXZXZXnXnXbXbXbXbXZXbXnXnXnXcXnXnXcXcXcXzXzX7XwX%X3X%X%X%X$X3X@X@X@X%X$X4X@X$X#X#X@X#XOX] ] I L L L ' K Z < r $.o.r r i y <.t t t s s h t :.; : 9 d w o.u 5.y u u o.o.1.6.o.1.o.o.u $.o.<.1.o.5.o.o.u <.d u u <.h 3.u w 3.7.o.d w u e o.t t d d 1.5.9.t d u o.o.9.u e 9 5.0 0 q 1 y 0 y u e r r 0 y u y r 2 2 , 1 0 2 ; r 1 1 y d d >.u d t 7.<.>.s d g j s <.3.g g >.<.d 2.d >.s s u ,.O.R X.O.O.^ W &.*.@.R W < W ",
"X.1.O.O.+.| +.X.o.o.<.g f 2.f p g :.N +.| o.d d X.| o.;.r f k.k.Y.g d s f s 3.2.2.4.b.n.b.G.2.4.R.U.g s 4.2.1.n.n.Y.o.e t 3.y d 3.d s g f s d s f h >.2.>.g O.< X.t g u t y 2.s t u 0 d +.1 ,.2 t d >.t 5.<.g y d e s a d s s f a s a t # # t 2 > , $ 3 % < N @ ;.u f h s s s 2.g s s f s g s t u s d t 2.d t d t d t 9.<.t d o.1.d e 0 u t t u t 0 V 3 3 N E N N B B ~ C Z n n ( v n F L P ' OX].#XOX#X|.|.`.|.*X*X*X&X;X&X&X>X,X=X*X|.,X|.$X%XXXOX$X@X@X@XXXXX@X%XXX#X@XOX}.|.>X<XrXrXzXzXzXjXzXjXjXjXlXj.6Xj.6XlX6X6X6Xj.j.N.j.N.N.7XjXjXzXjXN.7X6XN.7XzX6X7XzXvXMXNXMXNXMXMXvXvXNXNXBXDXNXNXNXZXZXZXCXZXSXCXCXSXSXCXCXCXZXbXbXZXbXbXCXbXCXkXkXkXkXkXkXkXkXbXbXnXnXDXnXcXnXvXcXcXzXrXyXtX$X3X3X%XXX%X@X%X$X#X3X%X$X$X#X$X#X$X#XXX].).I ' I L K A N R 6 ..@.R &.R r r e r o.e ; : i 6 1 : e e r =.6 | 6 r r r $. .o.e 1.y <.u o.o.6.b.:.$.o.8.1.y t u o.t e o.5.u e r o.0 u 1 > | 1 0 e u ;.<.u d t t e 0 y 0 t e ;.r y ;.y s d g s d g s 2.g s >.d d d <.t t u ;.5.>.y 1.9.<.u 9.2.g <.1.;.t t s d t d s s s s d ;.>.d d >.o.0.5.o.O.6  .o...&.u.^ W E Y Y N ",
"O.O.+.O.N | d g u s 4.d 2.4.d f f X.| | u ,.d ;.| o.:.u f f 9.P.j 9.:.u g f 2.g Y.4.9.9.k.A.j k.uXT.9.J.9.k.k.T.E.f g g t 9.u d 3.s f f f u h 3.,.2 t >.g f s o.X.e 2.d a r 0 s 0 d s y d e t u e d u s t 9.g d e d r e d t s f s w 0 @ @ O $ O O 1 2 d y s s r q s s d f a g >.s f a f s s a t t y d u u t t s f a d ,.t t e ;.u t : t t d t t t t u e V V +.V < < , < B B n m ( n m n ' ' L ' oX.X+XOXXXXX[.@X`.`.*X|.=X&X=X-X>X,X=X>X,X,X>X>X[.3X$X3X@X#XXX@X@X@X[.XX%X[.$X>X>X2XrXrXzXzXzXjX6XN.j.N.N.N.N.N.N.N.N.6XN.N.zXzX6XjXmXMXMXMXBXBXBXxXxX6XVXxXxXxXMXMXvXBXMXMXMXvXMXMXNXNXNXNXNXNXNXDXZXZXZXZXAXZXCXAXAXCXCXSXCXCXCXSXCXCXkXkXCXCXkXkXkXkXbXCXZXbXbXbXnXDXnXvXDXcXjXjXzXtXtX3X@X] XX#X$X3X%X3X3X$X$X4X3X3X$X3XXX$X#XOX].G L ' P P P C < ..2  .6 R 5 $.5 , 1 7 1 @ : : 7 7 , 7 r  .6  ...6 .. . .6 %.1  . .r o.$.$.=.r 6.$.o.o.o.e 1 @ 1 r < 2 o.r t y $ r r r e $ , r 1 r r 1 r 3 1 e 0 ; w w w <.s 2.d <.3.<.3.3.<.<.2.<.>.<.d <.t <.d d <.3.d s u 7.5.;.e o.1.d y u u <.d u 5.u d 2.u t t d s s d <.d s d d <.<.o.1.1.o.2 e o.=.^ -.u.E Y ..*.Y ",
"*.N X.o.;.o.d j >.2.;.d 2.g ,.u s ;.X.| o.o.E r +.u g g g f f f f k.G.f j 3.j 4.b.k.3.s 2.4.R.U.k.T.T.9.A.f j k.E.f 2.2.e 9.d g j f u a 2.X.y <.C.| < y f f f f y e >.s u , $ 0 e e 0 r a u - d y t s g u <.2.g u u r 1 e e ; O @ O + 1 q 0 t r d g d a s u s h s y y h f d r t g y h s a s t ;.t t a s y 0 d q d e >.d e ;.d t e d t t t u 0 ;.r t o.0 +.A B C V < < , < B B ( C n ( n ( n ' m ' ' oX+XXXOXXXXX>X`.'.|.-X;X&X;X;X>X,X1X;X,X,X,X>X>X>X|.%X#X#X$X@X@X3X%X@XOX%X>X<X>X7X7X6Xj.6Xj.j.j.N.6XlXlX6XlXnXmXnXNXvXNXNXvXMXMXMXMXxXxXxXxXxXxXxXxXVXxXxXxXxXxXMXMXBXBXMXMXMXMXNXMXvXNXvXvXNXDXFXFXFXFXAXAXCXAXAXZXAXHXbXAXSXAXSXAXCXkXCXCXbXkXlXjXkXCXCXCXbXcXnXDXnXnXnXcXzXjX7XtX$X@XXX] OXOX$X3X%X$X3X@XOX3X@XXXXX@XXX#XXX+X.XP P L m C Z A N R 6 R R W R -.< R -  .7 , , 6 : 1 7  .=.5 , - 5 6 , , 2 @ , -  .< - 1 6 , | r O.| 1 6 2 - 2 | ;.d >.s 2.g s d d s d >.s d 3.<.2.2.d a g t d a s w w w u P.d <.1.s g d d g d <.g d >.;.q.t t t d u t u 5.5.e 7.6.o.o.u t t <.u ;.u u o.Y.t 2.s t t d 9.d d >.1.d d u t ;.y t r o.r 2 o.2 O.E -.a.^ T f.W Y ",
"@.E ..| O.O.+.>.3.d d >.2.g :.r a g d g o.O.E 2 X.o.X.;.d g ;.s J.9.U.C.f g 2.T.b.4.H.s s k.E.U.3.4.T.b.G.B.f <.E.f g s y 3.X.d 3.d u d g >.u s G.+.V N t 9.g y s s s y y r | 1 2 ; d u e ;., t s a a s <.d 3.d 3.2 1 , O @ O > , < < t g u ; a s g a a s y y y d r q d f d r s >.y h d a d s s >.s s s t t t a d 2.s d d q.d 3.>.t ;.>.a t y ;.d 1 1.>.s X.X.#.B V T Y E T C ( n n ( ( n ( Z M K ' oXOXoX#X%X#X#X@X@X`.*X*X,X-X,X>X=X&X,X1X1X,X>X|.>X|.|.}.OX@X@X@X@X@XXXoX].U (.F } j.j.j.j.6XcXnXmXDXFXDXZXZXFXDXNXNXNXNXvXMXxXxXrXxXxXxXxXxXxXxXxXxXxXxXxXxXxXxXxXxXMXMXMXMXMXMXMXvXMXMXvXMXNXNXNXZXAXGXAXAXSXGXAXAXHXAXCXSXSXSXSXAXCXCXbXCXkXlX6XkXkXkXbXbXZXcXnXDXnXnXcXjXjX7XeXtX[.@X$X3X3X@XXX@X@XOX$X#XXXoX$XXXXX].#X@XXX.X' P ' P ' ' n E B E ^ *.E +.< 2 2 W 2 2 $ - 2 > , : Y o @ - > , , 5 2 , , & 5 5 2 2 Y 5 ..Y R R +. .O.| 6.O.o.$.<.>.4.d y d >.d ,.d d >.2.<.d <.<.d d d d f d t w w h u o.5.;.1.;.y d 1.g u ;.;.>.d >.1.3.y ; t e ;.u :.:.o.o.o.:.o.0.u ;.u <.5.1.>.d ;.u ;.u e t d d d s d d e ;.u d u u u d ;.t o.r , X.+.*.^ ^ / ^ W , ..",
"*.O.1.O.o.g >.j 2.2.2.4.3.g >.d t s g Z.:.R | u d | o.;.;.d >.s f f 2.A.C.g 3.T.U.G.C.f f f f Y.U.f 3.b.P.p f b.b.f f s d >.g g 1.g g s g g o.r >.;.O.R r | t d f s >.s y r 2 e e 1 a d | 0 s 1 ;.s s s s <.; :., 3 $ @ 3 $ t s s s s t s 2.3 ; t >.s s f f s d t d y a s g s t <.s a g s a d t 3.2.s a s a a 2.g <.d d d 1.u 5.>.t t <.d d 9.a s d d d s y d ;.+.V ~ E @.R B C C C ' ' m m C m v e.' r.oXOXXXOX.X+X#X}.}.`.`.*X>X>X=X&X=X=X=X;X*X|.>X|.|.}.oX@X@XXXr.P Z 4 4 M U  XeXVXMXNXDXDXZXnXZXFXFXDXnXDXDXNXvXvXMXMXMXxXxXxXxXxXxXxXrXxXxXrXrXrXxXrXxXxXrXrXxXxXxXxXxXMXMXzXzXvXBXBXNXMXvXvXvXnXZXCXZXAXAXAXSXCXAXAXSXCXSXSXCXCXSXAXCXkXjXjXjXbXCXbXbXkXCXnXcXcXnXcXcXjX6X6XeXtXXX+X$X$X%X@XOX@X@X@X@X%X].@X$X$X$X#X$X%XOXOX.X] r.' ] K V N B 3 @.N R N $ $ $ 3 N % $ % , 3 $ 3 $ , , > 5 , 6 6 , 2 , Q Q , , 2 ..Q ....Q R  .5 ..Q R  . .O.O.o.o.;.;.r ;.;.d <.s d u 1.>.d ;.d <.<.>.s u t u 5.<.1.:.o.9.<.d u u <.;.;.<.q.;.u u ;.,.u e e u o.u q.O.o.<.r u 6.6 q.=.f.6 O.o.1.o.r ; 0.o.t u d d a s d u d ;.d >.u 1.d ,.;.;.;.u 2 r ^ &.E R W E E < @.",
"[ / @...o.<.2.2.g 2.j g j s j g f f g f f d u f Z.o.d d g p B.B.B.p d Y.H.k.9.b.0.C.d 2.f f p f T.P.2.7.P.f f k.b.f p C.s d 9.g 3.g f p f s s u P.e s u u u a s f u ;.j g u e u , t a s t t t t ; t - e t e 1 y y d s a s h g f s g a a a d o.- d t s s s s r t u 1 u t e a t a s a s s t s w 2.u d >.t 2.s u h y u 2.t 3.d s ;.>.h 1 i 9.d d s a s d y t d u d 2.o.V V ~ < N B C C C ( Z m m n v t.n y.' ' ] oXOX+XXX.XXX[.}.*X-X*X;X&X;X&X&X&X1X&X>X1X>X|.{.[.$ X O X % M ).,X1XyXyXxXBXDXFXFXDXnXFXFXFXDXDXDXDXNXNXMXMXxXxXxXrXrXrXrXrXyXyXyXrXrXyXyXrXrXrXrXrXrXxXrXrXxXxXxXMXzXMXBXMXBXBXBXNXNXNXnXnXZXFXGXAXAXZXbXSXHXAXAXSXAXAXbXSXSXSXkXjXkXcXCXZXbXbXkXCXbXnXcXDXnXcX6X6XeXeXwX#X#X#X#X@XOX$X@X%X3X[.@X$X%XXX+X#X+XXX] ' Z Z ] P K Z 4 3 N c c c B B N C c B v n v N Y T / C ! ^ < 2 , < , , 6 5 2 , 6 , Q 5 ..W 5 R < R R 5 , 6 6 5 Q  ...o.r |  .o.o.d ;.o.o.o.y <.:.;.o.u 7.o.1.o.i d u i <.;.u o.<.1.<.1.o.e o.o.5.o.<.u <.y u ;.o.u ;.<.o.6.0.1.o.o.o.o.|  .^ -.u.E R | o.o.1 <.1.t d t d d s s d d ;.d ;.;.<.>.t u o.q.o.o.X...u.u.p.v.~ ^ t.i.E ",
"c.v.d.9Xu.x.-.5.3.9.3.J.H.H.j 9.2.Y.H.G.Y.U.U.S.9.E.C.B.B.B.B.A.j Y.uXuXY.Y.E.uXH.J.k.E.S.P.H.j b.R.pXT.W.U.Y.E.T.J.C.C.C.f j d 2.f s g s u s s 3.s f s g s 2.| t g g g d g s t $ 1 e - y $ 0 r , 2 1 u h g g s 9.3.f g a s g f d t d t a s d e t 9 t e r u q t y y d y u s q d a a >.d s g t 2.s u <.d a d r d e u >.s d d s ,.<.a e e <.b.r <.g s t e d d d t 1.s d e +.V N N V V C Z C n n m v [ Z ' ] ' Z ' d.oXOX.XOX$X@X@X>X`.*X*X=X*X*X`.`.-X`.'.x M M ).S % X ] }.,X,X=X:XyXrXxXMXvXNXDXDXNXDXDXZXnXDXNXNXvXMXxXxXrXyXyXyXyXyXyX<X=X;X:X:X;X:X:X=X<XyXyXyXrXrXrXxXxXxXxXMXxXxXBXMXBXBXBXNXNXDXNXZXnXFXFXAXFXAXAXAXHXAXAXCXAXSXSXbXbXkXlXeXlXjXjXkXkXkXkXkXbXnXcXnXcXjX6XeX7XoXd.$X$XOXOX@XOX%X#X$X%X#X@XXX.XP r.K ' N $ O B ] ] L K L C ( ' K K K K K F m M m n ( n c / ( m n n n n ( v v B C T N N N 2 , E < 5 5 5 5 , 2 , R , 2 , 6 Q 5 5 < 2 2 Q R 6 r u o.e $.o.8.o.6 r  .-.W 6 %.R R .. .O.r e 6 o.r O.@.-. .O.R ..@. .X.8.r o.o.1.o.O.o.e q.o.o.o.o.6.+.^ *.^ *.W a.W  .O.r i $.7.<.9 t d d d d d t 1.>.<.g s h d a u ;.;.<.$.-.a.[ R 0X^ T p.&.u.",
"u.W &.^ p.9Xc.n.f.b.b.5.o.o.o.$.7.5.<.7.<.o.<.d 1.r <.u ;.<.5.n.uXn.b.n.0.1.7.Y.k.7.E.b.1.b.8.7.8.6.5.o.o.7.<.8.;.y R 3 2 - u r u o.2 e e 1 r y o.1 t <.<.y t y t u u o.r X.> X o   o $ X > 2 | N 2 o.| r u t >.6 o.u o.r y u 6 1 1 r 2 2 r 1 | , r e 2 2 r e o.u o.2 u 2.r u u t u q.<.;.u o.e t d r <.1.d u e ;.d o.,.2 7.1.;.1.d s u t 0.1.u ,.d >.>.o.9.2.d 1.d 9.;.:.A C N ~ B #.C v C ( ' ' [ { ' y.] y.' g.) d.qXwX#X#X.X#XXX}.[._.).U H x _.J (._.(.>X>X1X,X|.3X,X,X,X,X,XyXrXzXzXzXnXnXnXnXcXnXcXcXcXcXzXzXrXrXyXyXyX,X=X>X*X*X>X=X:X&X&X&X&X&X=X*X=X&X&XyXrXrXrXrXrXxXxXzXzXxXMXMXvXzXzXMXNXvXNXcXnXbXnXbXZXAXAXCXCXCXSXSXkXCXkXkXkXlX6XlXjXkXkXCXkXkXkXkXcXjXkXjXlX6XeXeXA e.XXXX.X] .X.X] .X].B ] @ @ c A ' C ] ] @X@X].#X.X.XL ] Z K L ] K K Z K m F m ' m n ( B C ( n C C n v ! C v ! C ! C C C v T B v v B < &.Y < 2 &., , R 5 , W 2 < 2 5 5 5 6 6 =.X.r $. . .O./ 6 p.T Y Q Y ^ Q @.&.7.R =.6 6.E E E ^ W E @.u.a.W p.=.=.=.O.$.1. .r | | @.$.8.-.&.^ ^ @.E W R ^ W *.^ 1 r  .o.q.y t t d 1.t u h d d 1.d t d d h >.d <.;.<...&./ ..a.^ @.*.&.u.",
". . . . . . . . . . . . . . . . .   . .   .     .     o @     o 5 X   # o , # # 5   , & ,  .5 T @ O X , # $ @ , < $ $ o @ # & < & & @ @ 3 & 3 N @.< N $ # @.@ , , $ ,  .5 5 # R < # @ 2 # 2 & @ < O > 3 $ Y 3 N 3 Y O.N N < Y $ N 3 N $ $ $ 3 R $ , < , < < 5 N $ $ , < 3 < R | .. . .=.6.Y < $ 3 5 N 5 =.R 6 R  .6  .| 2 r =.5 $.< 6 6 6 6 8.Y 6 6  .& 3 6 r R < , , r , 4 % c $ N N N N $ 3 N N B $ , O , #.N N E T < < 5 , 2 o > N 4 4 S x x /.J U _.[._.U ).[.G L N {./.J _. X7X6X6X6XlXlXjXjXjXjXjXlXjXjXjX7X7X{. X>X X'.'._.(.'.(.'.'.`.=X`.*X_.`.*X=X-X`.-X`.<XrXrXrXrXrXzXzXzXzXzXzXzXzXzXzXzXzXvXcXkXcXcXkXcXbXbXkXjXkXkXkXlXlXkXjXlXlXlXjXkXkXkXkXkXkXlXkXjXlXlX6XN.j.j.` P Z A A ] ] ] ' $ ' 3 O - ' Z %X$X@X#X$X%XXX$X@XOX.XXX] M K K K ' ' C ' ( { { ( y.' n ( ! B ( ( ' [ B B / { C ( ! [ C B ! v ' B C ! C C @.@.^ ^ @.! T f.! E < < R R E E R R W R ..=.Q R , W @.E p.T &.Q m.*.W Q f.6 =.f...=.&.u.p.u.@.W p.x.a.a.&.8.=.O.f.n.8.=.$.p.&.u.u.*.a.*.W &.t.p.*.a.&.u.^ p.5 8.=.=.Y. .y ;.y <.<.<.3.>.;.o.1.>.<.3.;.7.7.1.O.=.p.^ a.n.9Xu.*.u.@.^ ",
"u.^ ^ ) 5 < & & 5  ...8.0.8.f./ $.8.n.7.n.q.9.f.5.T.0.U.J.9.1.u <.1.q.T.M.iXuXn.3.4.4.5.9.0.Y.3.b.9.J.H.9.q.O.@.O.6.6.w.*.@.$.#.=.s.~ ! ~ ~ ~ T 6.q.t.( E 0.q.@.E T O.$.#.6.6.q.1...B O.=...$.=.O.@.^ #.@.6.#.=.=...O.8.#.^ +.=.@.@...+.#.~ 6.=.O.#.E E R -.=...-.-.+.#.#.#.-.=.=.=.=.=.8.O.=.O.8.=.=.=.=.6.6.-.@.@.=.8.=. .O.n.f...O.O.=.| ..f.O.| =.W O.#.| Y < , , | Y R 3 c c B ~ ~ ~ B ! N % N $ N $ @.< / B ^ T , < T ~ / Y Y E E ( c ] I ).{.[.[.{.).K ).F M C Z n P H H {.eX6X6X6X6X6X6X6X6XlXlX6X6X6X6XeX X X[.(.U U _.).U _././.J _.`./.'././.'.'._.(./.U U  X7X7Xj.7XrX7X6X7XrX7X7X7XzXzXN.lXjXcX6XN.lXkXkXbXkX6XN.N.N.lXN.j.N.j.8 ` N.j.6XN.N.N.N.j.j.6Xj.j.j.j.j.j.` X $ o N # o A ] $ O @ @ N N B N O N O V N @ @ # C # $ #   V b c c % N N 3 E / B ! B @ % b N B ' b N * $ % E ~ ! % B B % N N N v N N % N B % N 3 , N @ Y E N T $ Y T O , @ N N $ O < , $ , # , # 5 $ - 1 > 6 , &.&.E @ - &.5 2 7 R 2 < > @ o o , , @ Y @ , , R 6 , # > , 2 5 Q T @ , 5 W W , $ R &.5 > @ 5  .2 , 1 e 7 y 1 ; o e 1 o , @ O X : - - @ @ , @ , O , o  .@  .-. .8.",
"0X0X9XqXqXqX9XgXqXqX0XqXv.v.8Xy.<.k.4.Y.k.g g A.g H.f A.A.C.C.C.C.H.4.P.9.n.E.P.C.S.B.f f f 2.G.Y.J.P.g g f g | | >.g O.#.N ;.O.,.O...N +.+.;.>.2.g ;.:.O.o.g g 2.>.O.O.:.;.2.d 2.s :.o.X.;.:.;.;.3.O.X.>.;.>.o.o.o.y 9.2.O.o.:.;.,.o.d ;.;.g :.;.>.u 2.+.2 5.<.1.<.X.o.<.1.3.1.;.0.;.3.;.>.>.o.<.:.,.r q.1.2.2.,.,.1.9.1.o.:.q.n.q.,.,.,.X.O.b.1.o.o.7.<.,.,.<.:.o.1.:.8.X.O.V #.E #.#.( ( [ ( ( ( ( ' ' y.( d.} { { r.oXd.+XOXOX#X#X$X%X@X$X%X>X>X4X,X4X3X5X1X<X3XtX1X,X>X,X1XyXyXxXzXMXNXcXcXnXnXbXmXmXvXxXyXyXyXyX5X5X,X4X1X5X4X4X5X4X5X1X5X,X4X4X5X2X1X1X5X,X1X,X*X1XrXzXxXxXxXMXMXBXBXxXBXBXNXNXmXNXNXDXDXZXnXbXnXCXZXAXSXAXAXCXbXkXkXjX6XkXlXlXkXbXkXkXnXmXnXmXmXcXjX6X7XeX] ] %X@X] A Z .X] ] .X#X%X].%XC O 3 A ].] ] .X' ' C ' $ ~ ( C Z ' K ' K Z ( ' Z ( ( B C C Z ( ] ( v B #.C [ ! ! v ( B ( ' C t.! v B B ~ ( ' C % N B N ! C / C ! ( ! N N N ! B B C B B B T E B , 6 , R 5 < 2 , ^ W ^ Y Y W W &.E R < 2 R < R < E 3 < Y W < Y W , < , @ , < 5 W ^ Y < W R < 5 R , &.W Y Y 5 R 3 & O.7 2 6 r 1 - 1 r 2 o.2 1 1 , 2 # O e R R E E & @   R W -.-.Q.",
"v.i.v.v.8Xi.v.c.v.i.t.i.i.t.u.y.E b.9.2.Y.g g B.B.C.f C.f A.C.p C.H.A.f 4.Y.A.A.S.J.f f B.p J.S.J.C.C.B.f g 2.d X.2 g :.| u e >.u ,.g ,.;.d g ;.3.g y g ,.:.u ,.2.f d >.u g d d g s g f d g ,.| >.o.X.r y t d d ;.f f f g d ;.d s d u d d d s d s d d d >.2 d >.>.>.;.g g g 2.;.>.>.d >.>.j d g >.s g f g >.>.d >.d >.3.d ,.d d 0.9.>.d s g s u q.y ;.u d u d d 3.t <.;.;.;.| o.u e | #.B B C c B C C m m K ' Z F ( ' m ' ' y.oXr.OXXXXX%X$X$X4X,X1X;X;X;X1X2X1X<X4X1X5X5X1X,X1X2XyXrXxXBXMXNXcXnXnXnXNXvXxXyX2XyXyXyX2X2X1X1X;X1X1X:X:X1X2X5X5X5X4X5X5X2X1X:X;X1X1X1X;X;XrXzXxXxXxXMXMXBXBXBXBXBXFXDXNXDXNXFXFXFXDXFXDXZXGXGXGXAXGXAXbXcXcXbXbXCXCXCXZXZXZXZXDXnXDXNXNXcXjX7XjXeX%X%X%X%X@X%X@X%X%X4X%X4X3X$X4X@X] Z r.$XXX$X$X%X#X#X#X] qX.X.X].XX].] ] L ' ] ] ] ] +X].L L ' ' K ] ' K Z ' Z ! ' n m C Z ' [ ' Z Z N *.' { C ' m Z ' Z m ' K ' m m m m ( ( B ( Z n C / Z C n n C / Y 5 T C N Y < R N < Y Q R Y W R R R W *.t.y.a./ @.m.t.c.i.) t./ y.&.u.t./ / c.*.a.&.a.a.x.*.u.^ p.i.a.W *.[ a.| o.e ;.;.5.;.;.<.,.:.;.<.;.5.1.O.=.t.a.c.m.v.d.^ v.t.[ a.p.",
"d.y.d.i.v.c.8Xi.c.v.i.d.t.v.) x.$.1.;.2.g f g g f f f C.s j 4.G.2.j G.C.f C.G.A.A.G.f B.f d g u 3.f s f g d g A.2.X.r <.g d 2 9.>.9.g 3.2.o.0.g f g g +.o.:.;.+.9.d f f ;.y d u u d s f f g g o.;.r u d s ;.s g d g g d j 2.g d f g d o.d d s g r 1.:.u >.;.d d g >.<.1.1.2.3.:.,.o.2.>.3.>.>.>.g 2.>.g d g <.d 2.u 2.>.d q.d d 9.2.9.>.d e d d 3.>.<.y u s g s 1.o.;.:.r 6.o.|  .| +.R E C N ~ B B T C m ' ' m K ( ' n ' d.' y.y.r.oXXX@X@X#X>X>X,X,X,X:X;X;X;X>X,X:X:X1X2X5X1X2XyXrXrXrX7XzXcXbXnXMXrXyXyXyX2X2X2X2X2X:X:X=X1X4X5X1X5X5X5X5X5X4X4X4X4X4X>X,X,X,X1X=X;X*X*XrXxXxXxXxXxXBXBXBXBXBXBXFXBXBXNXFXFXFXFXFXFXDXFXHXAXZXCXCXkX6XjXbXbXZXZXZXZXbXZXnXNXvXvXNXNXvXzX7X7XeX}.|.|.>X|.3X%X4X4X5X[.%X@X#XXX].Z .X.X.X.X@X%X$X$XXXOXOX.XXX%X.XoX#XXXOX].] ] .X].[..X[.] L r.] r.] ] K ' P Z s.' n K Z F ' Z ' ] Z B e.' ' K ] L ] ' ' P m K ' m ' m m n m m Z m m v ( Z n v b n ( n n ( m C ! C B * B ~ v B < < < Y 5 W Y W W ^ E R p.p.^ p./ u./ ^ ^ ^ *.) E *.&.-.u.a.i.u.*.&.W @.u.t.E E &.a.&.| 1 r u 5.o.;.o.e u e ;.y u ;.| &.&.u.u.u.&.a.a./ / t.~ ~ ",
") ^ t.*.c.c.v.i.i.v.y.d.[ [ t.O.7.,.| q.;.H.g >.d g f f p f f 2.9.k.A.C.d f P.f f 2.2.C.C.d O.o.Y 3.j C.f g j 2.9.g s s s s >.9.2.k.2.>.4.X.9.j o.0.:.+.+.R O.E X.9.;.g g u >.s d r y 2.g s >.,.d g d 2.o.2.d u g g s d s 9.g g f o.;.o.s 2.y 2.<.;.3.0.:.>.,.e o.1.1.:.1.;.<.1.d ,.,.;.<.1.O.1.>.4.o.X.,.;.o.<.0.X.1.d ;.1.1.o.,.2.9.3.u d u y ;.q.O.r u y ;.d o.:. .6 -.6 6 R ..+.< Y R T R ~ B B B B C Z F K G m t.' m ' r.' / u.r..X] @X$X3X>X>X>X,X;X;X:X=X,X,X=X:X:X:X2X2X2X2XrXrXrX7X7XjXjXzXyXyXyXyXyX2X2X2X2X2X;X2X5X4XtX5XtXtXhXtX5XtXtXwXwXwXwX$X,X,X>X,X,X=X'.`.yXxXxXxXxXxXxXBXBXBXMXBXBXNXDXNXDXDXFXDXFXDXnXDXAXHXAXZXZXbXlXmXZXZXCXbXZXbXbXDXvXNXNXvXNXzXvXzXzXrX|._.(.>X1X,X4X4X>X4X4X4X4X3X4X3X}.] XX@Xr.XXXX$X$X$XXXXX.XXXOX#X.X.X%X%X#XOXOX].].XXXXXX] .XXX[.]..X].L ] .X] ' r.] ] ' L I L m I [.] C ' ] ] ] ].] ] ] ' ' ' K K F ' Z Z Z C Z C C n n n m n n m Z Z m Z m m n n ( n n B ~ b ! N B B C C B C B T R Y < &.^ *.^ ^ ^ ^ ^ / ^ / *.t.^ ^ @.t./ u.u.^ *.E / a./ ~ *.^ @.Q 6.| R , 6 o.u :.u u r 1 u r u e =.*.t.Y E @.m.a.t.d.t.t.t.",
"t.i./ ^ i.i.i.v.[ / / [ d./ +.o.1.9.9.O.1.2.;.,.| X.g g d u g j E.U.G.S.f f B.f 3.b.P.f B.C.X.| N o.g f g 2 2.g f g f d 2.X.X.o.b.b.>.d 2.<.g s >.9.O.o.+.| +.O.| ;.9.o.g :.r >.>.r r y 2.4.o.d d g g g ;.d g s g s g g g d 2.g g d d d g >.,.d >.d <.<.:.1.X.X.| :.6.:.;.:.3.:.1.1.;.:.1.q.O.1.:.:.;.o.<.2.o.<.o.u d ,.o.:.1.:.o.>.<.u $.o.r r r r =.6 | r | 6 | R 6 < ....B N E ~ N ~ ~ N ( ( ' n n n ! Z m ' F G F ' G m ' ' ' m./ ' oX4X3X3X}.,X,X1X;X:X*X=X=X>X>X;X:X:X:X:X;X<X<XyXyXrX7XcXrX<X XyXyX2XyX2X2X2X2X2X5X5X5XhXhXhXhXhXhXhXhXgXgXfXaXiXwXwX3X3X>X3X,X>X*X`.1XxXxXxXxXxXxXBXBXBXBXBXBXBXDXMXDXDXFXFXFXFXAXAXGXAXAXCXAXZXbXkXbXAXbXbXCXCXDXDXNXcXvXNXMXvXzXzXrX7X*X*X'.,X1X1X,X1X1X,X>X1X1X,X>X4X>X4X|.}.].[.@X].XX%X@X[.XXXX@X%X%XXX@X#X%X$X#X%X#XXX]..X+XOX%X@X[.[.}.}.[.XX.X[.@X%X@X[.).[.[.{.{.{.}.[.] ' r.OX[.[.{.{.] I I ] ] L K ' Z Z C Z B ! B B v n n C m n m n Z n ' n ( m n n C v v ! v B v Z C n ( n n C ( b T T W ~ [ ! ( e.^ *./ / u./ E @.u.^ *.*.m.E ^ / u.p./ @.@.T W f.+.X.R 3 r 1 r ;.r e , 0 t O.|  .O.R 6 ^ ^ a.m.t.u.c.v.t.",
"/ / ! ^ m.{ i.d.v.[ y.y.i.d.O.<.1.n.k.9.1.g J.j C.d f 2.2.3.k.U.T.b.k.Y.2.H.f j 2.g j g g f g d >.r O.r 2.d j d d P.j j 2.#.r 5.m.0.g >.,.P.g g ;.3.d d y ;.r d d r o.2.d ;.r ;.;.+.o.;.d 3.1.d d g >.d g y g g d d s g g d g j g d >.d >.2.3.>.>.;.<.:.6.O.:.O.O.| t.u.$.p.-.=.-.-.=.$.=.6.1.O.O.O.$...u.t.^ &...@.o.6.X.=.+.*.@... .r O.5 2 2 < 2 R +.2 R V N , < < E T B n v C C B ! Z n Z [ ' F n m Z m ' ' K ' G m d.G m ' ' d.' ' .XXX$X@X%X,X1X1X1X1X=X1X:X=X,X:X;X1X:X:X;X=X;X,X X$X<XxXyX2XyXyXyX2XyXyX2X2X2X5X5X5XhXhXhXhXhXhXhXgXgXdXJXsXfXpXaXaXgXtX4X3X4X|.>X,X,XrXzXxXzXxXxXBXBXBXBXBXBXBXBXMXDXFXFXFXFXFXGXGXFXZXZXbXZXAXAXkXkXbXnXCXCXDXDXDXDXDXNXMXNXNXMXzXrX X=X;X1X;X:X;X*X=X;X;X1X;X:X;X,X1X1X1X1X,X,X|.>X).L [.|.>X|.}.|.|.4X>X,X<X3X$X|.|.|.4X[.].$X}.|.>X|.|.|.3X|.|.}.}.>X,X|._.|.|.>X%X|.|.|.|.%XXX[.XX}.|.}.}.[.{.].].] ] ] ] K K ' ' Z Z Z ! v v ( v n n n C C C m n C n v v ( n n B C n n ( m ( C ( ( n n ! ( C ( C ' ' Z Z ' ' ' ! y.' ( ~ ( p.*.^ m.T @.@.*.a.*.u.E t.R n.p.O.O.+.6 N 2 r r y u r r o. .| | O.#...^ *.a.[ / i.t.a.",
"~ 3 *.m.i.y.[ [ v.d.v.y.v.t.8.3.9.0.4.9.U.g d U.j A.f j k.k.R.A.f 9.n.n.Y.k.4.G.f C.f 2.2.f f f d o.y u s Y.G.g g 3.0.b.T.;.d ;.b.f.:.o.;.o.>.2.<.4.2.O.| X.X.y f d 6 1.d u u X.y o.u s d >.d <.d >.>.g g d u g d g d d g d ;.>.g ;.;.>.3.,.>.,.o.o.1.q.<.5.1.O.-.^ @.t.t.i.t.c.u.t.t.E -.O.6...@.u.^ ^ ^ E ^ ^ ^ W Q E T ..< @.! B T E Y *.Y N N B N ! B C C B v B B C C v m Z m v n n Z C ( y.m m m m m Z ( ' y.' m F { K F m ' ' ' y.r.' $X%X3X|.,X=X;X=X,X=X*X;X:X;X;X:X:X1X;X;X2X2X<X|.<XyXyXyXyXyXyX2X2X2X2X2X2X5X5XtXhXhXhXhXhXhXgXKXKXKXPXKXJXKXJXsXdXtX3X3X3X%X3X,X1XrXxXxX7XrXzXxXMXMXBXBXBXBXDXNXFXFXDXFXFXZXGXFXFXAXZXbXZXAXAXkXkXCXbXAXZXnXDXDXNXDXNXvXMXBXxXzXrX&X;X:X:X:X:X:X&X;X-X&X;X:X;X;X=X:X;X;X1X,X1X2X2X,X|.).[.|.,X1X2X,X1X2X2X1X,X>X>X,X,X1X,X>X|.|.}.>X>X>X>X>X>X>X,X,X,X1X*X`.*X>X,X>X*X`.`.`.|.|.>X|.>X|.}.@X>X|.%X}.].[.[.{.].] ] ' Z C B ( n m m n n C v C C m v B n n v C v n v ! v v B C m ( v C C n C ( Z n C C ' K m m Z ' K ' ' ' ' ' ( ~ ( ( ! ! ^ E / ^ @.a.^ ^ &./ x...O.$.r X.| | r 1 6 | | o.O.r O. .=.+.@.E ^ u.t.t./ u.",
"/ / a.m.d.[ ^ y.[ 0Xv.d.d.*.q.9.k.b.J.4.U.3.o.;.J.C.f 3.0.E.C.s a g f Y.4.b.J.j s j g f j g f g ;.:.s f j T.Y.G.>.d 2.0.E.n.O.2 8.n.6.O.O.V :.0.<.P.2.O.o.O.:.+.d >.o.o.1.;.o.X.o.r r u y u e u d u u d d ;.;.;.>.d ;.2.>.2.2.g g >.>.;.<.,.3.:.1.<.1.6.1.q. .p.i.) *.T &./ ^ a.t./ t.( t.@.^ @.^ ^ T ~ W E T T B T N N ^ T < ^ T B ! C T y.t.( n n ( ( ' m n n m m n Z m n m Z n ( m n C B ^ y.F m F m Z m m m ' ' K K ' d.m Z { ' ' e.r.XX@X$X%X%X,X=X,X*X1X1X;X:X:X:X2X:X:X1X:X;X2X-X<X$X>X2X2X2X2X2X2X2X2X2X2X2X5XtXhXhXhXhXhXhXgXLXKXKXPXKXKXPXPXPXKXJXdXgXwX3X3X%X%X4X<XrXxXxXzX7X7XrXzXzXMXMXMXMXNXNXFXFXFXFXZXZXGXGXFXFXZXbXAXHXAXZXZXAXZXZXFXFXFXNXNXNXNXMXvXvXzXrX>X&X;X;X;X;X;X:X:X&X`.-X&X:X&X;X&X;X:X;X;X,X1X:X:X;X1X>X>X|.`.*X1X1X1X,X1X,X,X,X1X1X1X,X,X,X'.>X*X'.>X,X'.'.*X*X>X;X=X=X-X=X=X-X,X,X*X`.|.`.|.>X,X>X=X>X`.}.`.'.|.>X>X>X>X>X>X>X|.}.[.[.].].} } G } G I G F G G L ' L F m ' L G ' Z n n n C n F F C v Z K F m m b ' F F K m K ' m F K ] ' ' ' ' K ( ! Z Z Z / { [ ( ' B ' v ^ a.) @.| R O.=.O.N $ 2  .6 O. .6.| O.| | E #.*.t.^ / u.",
"a.a.i.i.d.d.[ y.[ [ i.i.v.8.O.1.2.b.G.S.9.k.Y.o.d 9.9.U.T.Y.g j j G.f 2.T.T.j 4.g s 3.f 9.2.f g 3.s f f g 0.j J.,.+.1.2.7.T.7...Y uXO.5.:.O.o.0.9.>.<.;.o.O.| +.+.| :.X.;.>.1.O.:.X.o.o.o.1.X.u u d d t y d d u o.y u >.;.d g d ;.1.1.<.q.@.O.<.9.1.O...#...^ / ^ u./ R Y T E ( ( ! ( ! ' ( ! ~ ! B ! B ~ C ~ N ~ B B C ( n ( m Z ( n m ( Z Z [ m m y.' ( n C ( n ' m ' m n n v c e.K m b B ! ' ( ' K m m ' m m Z ' ' ' Z { ! ( e.( ' ' ].#X@X%X$X%X3X,X>X1X,X,X2X*X*X:X:X:X2X1X:X;X=X|.1X X>X2X2X2X2X2X2X2X2X2X2X5X5XhXhXhXhXLXLXLXKXKXKXKXPXPXKXKXPXKXPXPXKXaXgX$X$X3X3X4X,XyXrXxXxXzX7X7XzXrXzXzXzXzXMXNXDXFXFXFXZXDXGXGXFXFXZXcXAXGXAXZXCXCXCXZXDXNXDXDXvXvXcXzXzXzX7X<X>X;X;X=X;X=X-X;X1X;X-X'.-X&X=X:X;X&X&X:X;X:X:X;X:X&X&X;X:X1X1X'.`.(.`.-X2X1X1X1X;X;X;X;X=X=X*X=X1X=X;X;X*X`.=X=X*X=X>X=X-X&X=X&X&X=X&X=X=X*X>X-X&X>X*X*X>X>X'.`._. X>X>X,X>X>X>X X|.>X|.|. X}.}.[.{.].].{.]./.{.[.{.I G I I } ].J J J } I G I G } G G } } G } G G G I I G ' m ' ] ' J } J ' ' ] J C / L m ' L ] K ( ' Z v C B a.' ! C B ( ( | ^ N N Y < 6 R 8.=.O.O.6 | ..t.*.^ / p.",
"m.m.c.[ y.d.v.[ / / c.d.c.8.0.1.9.n.2.j b.4.T.E.o.9.E.W.k.9.f f j g f d <.T.j 4.b.2.2.Z.g 4.f 2.3.4.f ;.r 3.g 9.b.1.1.6.O.n.iXi.T p.8.:.;.O.+.,.3.g 2.;.,.O.V | O...E R o.| q.1.O.O.:.o.>.>.>.>.g >.g 2.,.2.d ;.u X.o.r u e o. .R =. .R #.~ E +.O.O.6 ^ *.~ / ~ ! ( ~ C B N ( C C C C C C Z C n C B C Z Z Z C C ' F m F m F F m ' ( ' m F ' m ' ' m ' m / C ' m n Z m m Z m n m v e.Z Z v C B ~ ' ' Z ' ] K K ' ' ' ( Z ( C ( ( ! ( ' ] .X%XXX#X@X$X%X%X4X,X>X,X2X:X:X:X:X:X:X:X:X:X`.<X<X,X=X;X2X2X2X2X2X2X2X2X5XyXhXhXhXhXLXLXKXKXKXKXKXKXKXPXPXKXdXdXKXKXPXdXgXwXtX3X3X4X,X,XyXrXxXxXxXxXxXzXzXzXMXMXvXvXNXDXFXGXFXDXFXDXGXFXAXbXAXAXAXZXZXbXbXDXDXNXnXnXcXcXcXzXzXjX7X>X1X1X,X,X:X1X`.;X,X1X;X;X;X-X*X:X:X&X=X;X,X:X:X;X;X=X&X;X:X:X:X;X=X'.>X1X;X&X;X:X:X:X;X&X&X&X&X:X;X&X-X&X;X&X&X>X&X&X,X*X`.=X&X=X&X=X;X&X&X=X&X=X,X|.>X*X,X=X=X,X*X`.`.(.'.|.|.|.|.>X}.|.|.*X'.`.|.}.[.}. X[.}.{.[.].{.].I m L I J J I I ].J J I ].).G G ] G G I I F ].J J /.I } } ] ].).J ] ] } /.M ] } I G ' F G G L J J } K ' ' [ K Z Z ( ! / T T ! [ ! ! T V #.e.O. .=.&.E *.~ ^ ",
"m.0X0Xd.y.[ v.d.d.i.v.v.c.6.k.<.0.n.9.b.b.k.U.n.4.R.A.H.2.j p g u g t h 2.2.P.2.Y.f j 2.2.s 4.d d g f s d 4.3.k.E.n.<.<.+.-.v.i.[ N d./ 6.1.X.6.:.1.3.O.,.o.+.X.:.+.O.V :.+.O.q.O.+.<.;.,.X.3.;.d >.:.X.:.>.;.1.o.o.o.o.o. .R ~ E E E V B V V B V N E T ! B C B C C C C B v B ( C n C n Z C n n Z n m m n ' n F m F m n m F m G m ' m m Z ' F m ' ' m m ' n ' n Z n Z n n n m C C Z C C c C B ( C ' K K d.] ] ] ' ' / ! ( C / ( / ~ y..X#X@X@X#X@X$X$X%X4X,X,X=X:X:X:X:X:X:X:X:X:X&X-X>X>X,X;X:X:X2X2X2X2X2X2X2X5XtXhXhXhXLXLXUXKXKXKXKXKXKXKXPXPXPXPXKXKXKXPXKXgXgXwX3X3X,X,X,X>XyXrXrXrXxXxXBXMXBXBXMXzXMXvXnXZXFXGXFXZXZXGXFXGXCXAXAXAXZXZXkXnXDXFXDXnXcXcXcXcXjXjX7X X>X,X1X;X1X2X5X1X1X1X1X:X:X=X`.*X=X&X=X;X;X>X;X&X;X:X1X;X;X&X;X;X*X,X=X;X:X:X&X&X-X>X;X;X;X-X&X*X-X=X*X&X&X>X>X*X|.;X=X=X-X`.-X'.>X*X>X*X`.`.,X;X&X,X|.*X*X&X&X=X=X&X&X*X'.(.'./.[.|.|.|. X}. X}.'.(.'.'.}.}.{.XX[.).I {.[.].].J {.{.[.{.} [.[.[.{.{.[.{.{.J } J /.G ] ].J J I J G } ] } /./.} } I J ] ] J J G ] J I F F G F H J F ' L J G J F K ' ' Z Z Z ( ( C B B B N E 0.+.E &./ ^ ",
"c.a.v.{ / / / x.8Xi.c.c.qX-.q.<.9.4.2.3.<.k.3.2.j Y.G.o.s 4.g f u u s 2.4.g 4.U.0.f f <.4.y s j j a 9.9.9.f g >.>.2.2.,...t.t.u.c.~ W y.t.u.=.+...O.1...| O. .+.X.+.+.O.O.$.O.O.w.s.s.s.#.#.q.o.:.o.1.w.f.q.:.O.#.@.+.+.E +.E B B B V ^ B B B B v N C B b B b v v v n n n n n n n n m F m K m m K m F m F m m m n m m n Z ' F n m m m F m ' y.m n y.y.Z m C ( ' C v ( Z Z Z ' C ( B Z B C Z C Z Z C Z ] ] XX.XOXOX] ' ( ( ' ' ] ] ' r..X@X$X$X$X$X].OX$X}.3X>X,X=X:X;X;X:X:X:X;X:X-X>X X|.>X;X;X&X&X&X2X2X2X<X5XtXhXhXhXhXgXKXKXJXKXdXKXKXKXJXKXPXIXIXJXKXPXPXKXKXgXwX3X3X,X,X,X>X,XrXrXrXrXxXxXxXMXMXBXBXNXNXjXcXnXZXGXGXFXDXDXAXbXAXAXZXZXZXZXZXDXDXnXcXcXvXcXcXjX7XN.OX>X1X1X=X;X,X,X5X5X1X*X2X1X_.'.,X>X>X>X,X=X,X1X=X*X;X;X;X;X`.-X,X>X,X&X=X&X,X;X&X`.`.-X*X&X&X-X*X*X&X&X=X=X*X|.*X*X=X=X*X>X*X'.>X,X>X>X>X>X>X,X&X*X`.|.>X>X,X>X*X`.=X*X,X>X,X=X>X(.|.[. X>X(.}.}. X'.'.(. X(.}.[.}.}.{.{.[.(.}.}.[.{.[.].].].].I } G ].J {.{./.{.{.(.J J /.G J G L ] I ] J } } G G n ] L } J J L G F ] J I G G H G ' ].J J J G G G G F F m ( Z ' ( ( C B B O. .W &.a.^ ",
"x.t.) c.u.d.c.i.c.v.i.! m.v.=.9.1.9.4.2.,.7.b.U.0.9.U.A.f Y.E.d a 9.l.4.3.p 2.Y.k.9.4.<.Y.9.f 3.k.j g 2.Y.G.g d d <.9.q.6.*.t.t.m.y.E [ i.t.^ R ..+.1.| +.| #.2 X.O.< R #.e.e.#.g.e.' e.' e.y.y.g.s.s.s.e.e.e.~ ~ B ~ C V B C B B B C / Z n C C n n n C n n m m m K n n Z m m b C m n m n Z n Z n Z n n n v C n m m m m n ' m F m m M m ( ' ( ( C C y.C C Z C ' C Z ' ' ' ] ].K ' c ' P ] K A C ' A ' ] ].XX@XXXOX[.].] ] ] [.}.}.}..XXXXX%X@X#X%X] .X@X%X3X>X>X>X;X&X;X:X:X&X&X&X&X-X`.}.|.*X*X&X&X&X&X1X5XtXtXhXgXgXgXgXdXdXJXdXdXJXJXKXdXJXJXdXdXKXKXKXKXKXKXdXfXwX$X|.>X>X>X>X>X<XyXrXrXrXrXzXzXMXBXBXNXNXcXjXjXbXZXFXGXFXAXAXbXAXAXCXZXFXFXZXDXnXnXcXcXcXjXjX6X6XeXOX>X1X1X,X1X,X,X1X5X5X|.5X5X).L ,X|.@X@X|.>X>X>X>X>X|.>X`.'.>X|.[.}.`.`.*X*X|.>X`.>X'.|._.`.*X=X*X*X'.*X>X`.>X>X*X`.|.,X>X>X|.'.|.|.>X>X>X>X|.|.|.|. X X|.>X>X>X(.`.>X|.,X`.'.'.|.'.[.[.{.}.I ]././.(.)./.(.).XX(.{.{.{.[.} ).J J /.} J I ] I J J I G ] I I J ).J ].J } J J ].J G G G G ] ] ] J } m ' ] } ] J F ' G ' I J } J ] G } J d.J J F K G F ' ' G ' K Z ' ' ' Z C #.|  ...^ *.u.",
"u.c.u.M.M.9Xv.c.x.c.c.u.c.9Xx.b.1.l.9.4.l.n.l.n.k.U.7.k.9.b.9.Y.k.g f f 2.p A.g 5.n.9.k l.T.Z.g 2.9.s j 9.Y.A.g >.o.O.8.O.8...a.*.m.g.( ~ t./ ) e.#.g.#.=.s.s.s.s.s.e.~ e.e.' ' ' r.' ' ' r.' ] P K m M A A n A b C C C C B C C C C m m K m Z C n m m M m m v m Z m n n v ( F M C C n n n n n m n m v n c c c c Z n n Z m n ! Z Z ( n [ ' C ! y.( n ~ @.! ( ' K r.] ] ].XX].XX].K P K ] ].].+X]..X].@X[..X#X3X3X%X%X%X@X[.}.}.}.|.@X@X@X%X%X3X$X@XXXXXXX].[.[.}.|.=X&X:X:X:X:X&X&X;X&X,X1X,X1X&X;X:X:X1X5XtXhXhXhXhXLXKXLXKXPXPXKXKXJXJXJXJXJXJXdXdXJXJXJXKXJXKXJXdXgX$X3X4X>X>X4X,X>XyXrXrXrXrXxXMXBXBXNXMXDXNXnXjXbXbXnXAXGXGXGXZXHXHXAXnXDXFXZXnXnXcXcXcXjX6X6X6XeXwX3X,X`.>X1X1X1X1X1X5X5X5X5X5Xn XX3X%X#X3X%X%X%X>X4X4X@X|.|.|.@X%X}.}.{.}.}.|.}.{..X}.@X`.(.G ).}.}.|.|.|.}.[.].[.[.[._.}.|.}.{.} I I ].].].[.].{.{.[.}.].].[.{.[.).)._.(.(./.)././.].J } G I F K m M G G F F ' J J J F G J G J G L G L F L I G G ] G G G ] G } } I ] G } ] F ] K } J I } ] ].] J ] I ] ].].} J ] } ].I I } F I J G G I ] J J F ' G ' K ' F G K m K m Z B ( t. .O.+.@.@.W ",
"M.M.m.x.uX9Xm.m.c.x.M.M.v.M.0Xn.7.b.3.4.4.g 1.T.j 9.T.k.Y.0.3.U.!.P.d 3.J.f f d k.E.E.f g 9.Y.;.r 1.g G.:.9.q.;.o.O.O.O.s.f.s.g.d.d.9Xy.' ! ( y.r.e.g.g.g.g.r.e.e.' ' ' P L L L H G I G G G H H H m F m Z C C Z m Z F Z F F m Z m m m m Z K m m F m F G F G n F F m Z m n ( F m m v F n F F m F m m m Z n v n n n n C C n ( ! ! ^ ' ' [ ( ( ' r.( Z ' ' r..X[.[.OX#X%X@X@XXX@X@XXX@X].[.XX#X#X#X#X|.%X|.|.|.>X,X1X1X,X,X,X,X,X>X,X,X,X,X5X1X1X4X}.$X|.|.}.%X] [.).`.-X'.'.-X:X&X-X&X&X*X,X&X:X&X;X:X:X5X5XhXhXhXhXLXLXKXKXLXKXKXKXPXJXJXdXsXJXJXJXdXJXJXJXKXPXPXKXPXgXwX3X4X4X4X4X,XtXyXrXVXxXxXMXBXBXBXNXNXDXFXGXDXFXZXnXbXAXAXAXbXAXZXZXZXZXDXDXnXcXkXjXjXjXlX6XeXeXtX$X5X1X,X,X2X2X2X1X4X5X5X4X3X@X4X5X5XtX5X4X4X4X5X4XtX].A $X4X%X#X@XXX#X@X[..X[.].r.].[./.].L M % ' ].{.).{.{.] ] ] ].I ] ].] ] ].} ] ] ] ] } ] ] ].].} ] ] ] ] ] L ] ] ] I I I G L ] K ] J I I L K L F Z n n ( m ] J I ] I I J J I G K G G G ' m ' ] ] G ] ] J I J I J J G I J F J J J ] } ] } ] ] L I ].{.{.].].].).).].} } J I ] G ] I I J I I L Z K ' ' Z K L L L K ' ' *.8.8.-.f.^ @.",
"x.c.m.c.m.iXv.n.m.v.9X9X9Xv.0X0Xi.m.M.U.2.k U.T.3.b.m.T.b.U.3.7.T.T.m.uX0.2.g s 1.f.Y.0.q.w.U.f.w.h >.w.f.g.g.g.f.g.f.#.g.g.e.e.oX' oXoXoXr.' P H H I G L H H H H F m m H H M M M F K H F F F F L F F Z m G F F F F K G F G m G m m m F m ' G F m n ' F F H H F m G F F H G F G G F F K L ' K K K C ' K K G L ' ' K ( ] ] [.].r.] [.].] ] r.] ' ] {.].[.[.OX%X}.[.%X|.[.}.@X#X}.}.{.|.[.[.].[.[.].[.}.`.>X,X*X>X=X&X=X=X=X=X;X:X:X;X*X>X,X1X,X|. X3X>X>X<X>X3X>X>X*X-XU /.'.-X'.'.`.-X-X&X&X&X:X:X:X:X5XtXhXhXhXhXLXLXLXLXKXdXdXJXsXdXsXsXsXsXJXJXsXJXsXJXJXJXKXPXPXgXtX3X4X4X4X,X>XyXyXrXxXxXxXxXBXBXBXNXNXnXFXFXDXFXDXjXlXkXbXCXbXAXZXCXbXnXnXnXcXjXjXjXjXlX6X7XeXtX4X4X1X2X2X1X1X,X5X1X1X5X5X4X@X4X5X5X5X5X4X4X5XtX4XtXwX$ . g.$X[..X] ] r.' ' y.] I ' ] ' I I ' v 3 B ( ' G } J ] L I ' ] L ] ] ' ] ] ] ] ] ] ] ] ] ' ' ] ] ] ' L K ' ' [ ' K K m K Z K C [ ' ' Z v ( ( v v v % B b ( m ( ( n m m m m K L m m m m Z n m ' G m ' m m ' J F ' m G F G m ] J ] ' L } } L I I .X]..X{.).] ] ].].{.[.].].].].] ] ].] L P ' ' r.r.] ' ' ' ' ' ] ] e.s.8.8.f.@.a./ ",
"^ ) { i.v.0X0Xm.M.m.iXc.M.9Xm.iXm.m.0Xm.2.k.<.9.k.b.0.n.7.U.k.<.0.n.m.m.g.f.q.f.g.g.f.T.g.g.s.g.g.f.f.g.g.e.e.e.e.g.r.r.] I I L I G H L J I H M n b K H F F M M H M m M M m b b M m n K G G F ' G m G F G F G G G G ' ' H F ' ' F F F m F m } F F m K m G m F m m F J } } J J ] J ].I I {.}.{.].].].].[.}.[.{.[.|.}. X[.@X>X%X3X%X>X}.#X}.#X%X}. X|.[.[.}.}.#X#X}.{.#X X|.[.|.>X[.] [.K ] ].}.}.|.>X>X`.`.'.|.>X'.*X-X&X;X&X&X:X;X;X*X>X;X;X|.>X|.|.|.<X>X>X<X<X<X,X*X&X:X-X-X'.-X*X&X-X-X&X&X:X:X:X1XtXhXhXhXhXhXhXKXKXdXdXdXdXJXsXQ.Q.Q.Q.sXsXsXsXJXsXsXJXJXdXKXgXwX$X%X3X4X,X,X,XyXyXrXxXxXxXxXBXMXBXDXNXnXFXDXDXGXFXFXFXjXjXkXbXZXAXCXcXZXbXkXjXjXlXlXlX6X7XeXwX5X5X2X2X2X:X5X1X1X1X,X4X5XtX4XXX4X5X5X5X4X3X3X3X$XXXwXwX] r.+X] r.' ' ' ' Z Z ' { K G C C ' Z ( n v C v C ' ' F K m K ' ' ' ] L L ' ' ] ] ] ] ' ].] C ' ' ] K y.K K K Z C ' ' Z C C Z n Z C m m n C C n C v C b v b C n C ( m n C [ ( ' m ' m m n m m v Z n n m n v ( ( m ( ( ' ( ( ' ' K Z Z Z ' ( ' K ] ].].OX[.].].[.OX.X[.XX@XXXXXXX].].]..Xr.r.e.r.r.r.r.r.r.' r.' r.e.e.s.o.6.#.E ^ *.",
"c.c.0X9Xv.M.M.0Xm.0X9Xc.i.c.v.0X0XiX9Xc.a.8.;.9.T.7.n.M.T.T.uXL.n.m.g.9Xg.g.g.m.+X+Xg.e.r.P e.e.e.r.r.e.r.P P P P P L P P m H H H H m M K L M F n c C m L F m F I m m m F m m n m m n m ] J ] ' G G I J J J J J I G G G F J ].J J I G I I I F } J I ].).J /.J /.).{.[.[.}.}.}. X}. X X}.|.<X X X X{.|.|.[.|.} OX[.}.>X>X X|.<X<X|.>XOX$X<X3X$X<X<X|.|.|.<X>X X#X|. X}.#X>X>X[.>X{.' L [.}.|.|.>X1X1X1X1X1X'.4X:X;X:X;X&X,X&X&X&X&X,X=X>X,X*X`.>X,X>X<X<X<X|.|.3X<X>X|.;X&X;X&X&X;X1X&X&X-X-X&X:X;X2X4XtXhXhXhXhXLXgXKXKXsX~.sXfXsXQ.Q.Q.Q.Q.~.~.sXsXsXsXsXJXJXJXdXiX#X#X@X@X>X1X4X,XyXyXrXxXrXxXxXBXBXBXBXNXnXFXFXFXFXGXFXDXcXlXkXbXAXAXAXZXbXbXkXlX6XjXlX6XeX$X$X3X1X1X2X:X1X1X1X1X1X1X4X4X3XtXXX.X$X3X4X4XtXtX%X%X].XX3X3X$XwX.XoX' ! ( ( C C C C ( ( m C ( Z ! Z C C C C v N #.( Z n m m F K ' ' L G ' L L ' ' ] ] K ] K L ' Z / K m K ' C ' K K m m B Z m m m n n ( Z C ( m n v B C C Z B B ! n / n m C n ' m Z Z n C ( C b B C C C C C C Z n C [ [ ( ( m Z ( n ( Z ' ' ' ] ] ] ] ' ' r.r.r.] r..X] .X.Xr.] r.d.+XoXd.r.r..Xr.r.r.r.r.r.' P P ( s.+.O.-.*.*.",
"a.c.x.c.x.m.c.m.9X0Xm.v.i.i.x.iXM.M.0Xi.c.m.8.7.T.8.m.v.g.r.r.r.g.+Xr.oXd.+Xd.d.r.I H D ' P A H P D D H P P M m H L G I ] I G G /.{.{./.} oX} I J Z Z m F G I J J G J m m J G G G J G I ] /./.J J I J J J J ).J J } /.).J )./.{.{.{.{./.{.).} {.[./.[.}. X X X<X>X,X<X<X>X4X1X,X1X>X<X>X X}.}.>X|. X>X X<X<X|.|.>X>X X>X[.>X3X|.|. X#X$X<X4X<X1X>X@X>X1X,X>X>X%X$X>X X$X<X>X}. X}. X}.>X>X|.>X,X=X=X-X=X;X:X:X:X:X:X:X:X,X;X:X-X&X1X=X>X|.>X,X,X,X<X<X<X<X3X<X<X<X<X>X*X>X;X&X*X,X:X:X:X&X&X;X:X2X5XhXhXhXhXLXLXLXdXKXKXJXsXsXfXsXQ.Q.Q.Q.Q.~.Q.Q.sXsXsXJXdXJXJXfXqXOXXX@X}.|.,X>X,XyXyXxXxXxXxXzXxXBXNXNXNXNXFXDXDXFXDXnXnXZXnXjXkXkXbXZXCXbXbXjXlX6X6XN.eX$X%X>X,X,X1X1X1X1X1X1X;X>X3X4X4X3XtX@X+XwX3XwX4X5X$X].XX$X3X3X%XXXoXr.[ [ ' Z ( Z ' ' m ' [ m ' Z n ! m Z C ( ! ~ ( ! ( m m Z ' m m ( ' ' ' L L K K L ' Z Z ' m Z ' Z n m m n n ' Z m m n n v ! n C v C C ! ( Z v C B v N C v n B C B C ~ C n n ! n C m C n n C B N N B C C C ( ( ( ~ ~ B / E C ( ( ( C ( ' r.r.] I L I P L I I I I I ] I G G I ]..Xr..X.X] r.] I I I I I G L L H A A A #.o.+.#.a.y.",
"i.u.u.M.9X0XaXm.0Xv.c.v.c.v.0XiXm.0X0Xm.0XM.0X9Xv.oX+XoXr.] I I P r.r.oXoX+Xr.P D x D I I ] oXJ I J H H G H G I /././.].]./.).J /.]./././.J ]././.J G Z n n L J L I G F G J I I G J J ] m } /./.I J {./.).).(.(.{./.(.[.(.(.[. X}.[.[.}.}.|.>X|.3X>X}.$X<X1X>X,X1X<X,X,X3X3X,X>X,X>X>X<X>X>X>X<X<X,X}.<X<X>X$X<X4X>X|.>X>X>X$X X#X$X<X<X>X3X<X2X|.}.3X<X<X>X<X|.wX5X>X XtX|.>X,X>X>X|.,X`.>X=X1X;X:X&X;X:X:X:X:X;X,X:X:X&X&X&X&X&X;X:X*X>X|.3X,X,X>X>X<X,X<X4X4X4X|.<X>X|.*X-X-X,X:X:X&X:X:X:X:X2X5XhXhXhXLXhXLXKXdXdXdXdXsXsXsXsXQ.Q.Q.~.W.Q.~.Q.~.sXsXJXdXJXJXaX+XXX[.[.}.|.>X>X,X1XyXxXxXxXxXxXxXBXDXDXDXNXDXnXFXFXZXnXnXZXAXAXCXlXkXZXZXbXkXjXjX6X6Xd.oX%X%X4X1X1X2X:X1X:X2X1X:X,X4X4X4X5X5X4X3X3X4X3X4X$X$X3X3X3X#X$X+Xr.' s.! [ ' Z ' Z ( ' [ Z Z C ( Z C / C C ! C ( B ( C C C v ! Z m ( n ( Z ' K K Z n ' n ( Z Z n n ( C v B B B C [ v b v C B N N C C B ! < < R ! C N 3 < < Y T N V E N T 3 R b ^ B N B N Y ! C ( T E ~ #.#.#.#.s.e.e.e.s.E E ^ E #.~ #.e.e.d.r.I I P P P P L P H P H D U D L L G I U U U U U U U U U H H H H P A A A #.O.w.O...^ ^ s.",
"m.m.iX0Xm.0X0X8Xi.v.c.M.iX0Xv.c.c.M.v.9X0Xm.9X8X8XoXr.r.r.r.L I P H P I U H ] G L J J J ).).).).G G I ).J J G G I G J /.J G G m J /./.J G I } /.I J J } v F m I G G m J G J G J G J I J ] Z ].(.{.{.{.{.(.(.{.}.}.}.{.{.{.}.}.|.|. X X X>X>X>X,X<X<X<X<X>X1X2X1X<X,X<X1X,X5X<X>X<X<X>X,X>X<X>X<X,X<X>X[.$X<X<X<X,X,X<X<X<X|.OX|.<X$X4X,X3X$X$X,X>X3X<X<X4X<X,X<XwX4X,X}.$X4X1X,XI (.|.=X`.*X:X:X:X:X:X:X&X'.,X;X:X;X:X;X=X>X*X>X|.,X>X`. X}.#X|.<X>X>X<X4X3X4X3X3X<X<X|.}.|.|.&X=X:X:X:X&X&X:X:X5XhXhXhXhXLXLXLXKXdXdXdXsXsXsXsXsXsXsXQ.~.W.Q.~.~.sXsXsXsXJXdXJXaX+XXX_.(.'.|.3X4X1X:XyXxXxXxXxXxXMXBXFXFXFXDXFXnXFXFXDXDXFXZXZXSXSXlXlXbXZXbXjXjXjX6Xv.d..XOX%X1X2X;X;X;X1X1X;X;X2X1X5X5X4XtX3X3X4X4X4X4X$X$XOXwX$X$XOXOXd.s.E E @.^ B C [ / ! e.[ C B ^ B ( C E t.B ~ ~ E Y N ~ ! ( B B v B ! n [ C N N B ! B ! ( C ! N Y < N B 3 < N ~ < < , 2 , W < 2 5 2 < < Y , < < < W N 3 Y < +.^ < R < T T T N < R E T ^ ^ #.#.^ ^ #.t.d.d.d.d.e.e.e.' r.r.' ' e.e.e.#.e.e.L m M A A A A A P A P A P P P M M P K H P P P D H x D D D H P M A A A B B +.O.1.1.-.@.^ N @.",
"i.) a.i.i.a.c.c.i.iX0Xm.c.m.v.t.t.x.v.x.c.m.9X9X9X+X] ] ] ] G D P L ' D x L I J J J /./.J J J J J G J ).m K n J I F G J /.I G G J J ] ).J } G ).).K F /.n m m m n G H J J J J I G } } } ].].I [.}.|.[.[.}.}.}.}.|.}.[.}.(.>X`.*X*X>X,X>X>X|. X>X>X,X>X<X>X1X1X,X>X1X<X4X1X,X,X<X>X,X>X<X>X>X}. X<X>X|.} .X3X}.>X<X<X>X4X<X}.}.3X5X|.4X>X3X3X<X<X<X3X,X,X>X4X<X<X3X4X1X1X,X,X,X*X,X,X>X,X=X=X;X1X;X;X=X:X;X;X:X;X;X;X:X=X>X$X,X<X3X|.|.|.[.@X$X>X}.4X3X%X3X3X4X$X3X5X,X|.|. X<X&X&X&X&X:X&X:X:X2X5XhXhXhXLXLXLXLXKXKXJXdXsXsXsX~.sX~.~.Q.!.!.!.!.Q.~.~.sXsXsXdXJXaXOX).)._.[.}.4X4X1X1XyXxXxXxXxXBXBXNXDXDXFXZXFXZXDXDXFXDXnXCXbXbXjXlX6XkXmXkXlXlX7X8Xd..X#X$X>X1X2X:X:X:X1X:X;X=X1X4X4X5X5X3X3X4X4X5X3X#X%X$XXXXXOX#X.XoX( E E E *.*.E E ^ R E N Y *.N R Y < ^ N B N E E N R , R 3 Y B N , < Y N ~ N 5 < < Y N N T E N R N Y , N < < 3 < , , < 2 < < , , , , 5 < < < , < 3 Y N N E E ~ N T T T T T Y N E V E t.e.' e.e.' ' ' ] ] e.e.P P P K P A P P e.' e.e.P K A A A A h.A A A A A A Z A Z P Z A A P n A A A A M A A A M M M A A A A A C h.V o.1.=.O.*.@./ @.",
"d.[ [ u.c.u.a.m.m.m.aXc.d.x.0Xc.) a.v.c.c.u.v.d.9X8X.X] I H K H F K ' M M F G I J J G J J J J J J J m ] L G J I I J J I /.J J G G F G I J J J J J J n {.J v Z m % c I J I J J I /.{.{. X|.}.[.{.|.>X>X}.).(. X'.'.'. X`. X`. X(.}.}.'. X}.(.).[.}.|. X|.>X>X,X>X>X>X>X,X,X>X1X1X,X,X X<X>X1X X|.>X}.|.[.}.$X|.>X|.>X<X4X|.>X<X|.3X>X4X4X|.4X>X>X>X|.|.4X|.<X}.>X,X,X,X,X*X'.|.,X:X:X=X>X;X;X;X,X,X=X*X*X*X*X=X,X>X>X>X}.}.@X$X4X3X|.[.[.3X|.4X4X%X%X3X%X3X%XXX#X4X<X>X|.|.}.<X-X&X&X&X&X:X:X:X5X5XhXhXhXLXKXKXKXdXdXfXQ.Q.Q.Q.Q.~.Q.Q.W.R.E.E.R.R.R.W.Q.Q.Q.fXdXiX.X/.U )._.'.,X,X=X,XyXrXxXxXxXMXNXvXvXDXDXnXFXFXZXDXZXnXcXbXkXkXjXjXlXkXkXlXeXeXeXqX#XOX$X5X,X*X;X:X;X2X2X:X:X,X4X4X5X5X5X@X$X4XtX4XXXOX$XtX#XOXOXOXr.r.T N E R W R W < E @.T N < Y < ^ W W R N N , @.E < E < < N Y R < 3 N Y < E N Y Y W N R N 3 T < ^ N N N < R N R < , , < < , , , , 2 , < < , R < N < < N N N E ~ B ( e.[ *.E E ^ ' e.' Z ' K K ' ' P M A A A A A e.A A A A A A Z Z K r.P n c V #.h.A V A A A A A A A A A A A A A A A A C A A C B A V V V V V V | w.+.:.;.:.O.n.6 *.=.@.s.",
"d.c.y.i.t.a.v.c.a.a.m.9Xc.a.x.9Xv.) i.i.v.a.r.] ] J I L ] F F H ] H ' ' G m J } J {.J J J /.G I J J J H I G G G G G G G J G J ' n n G } L J J I J I G {.G J G L K O m I J ] Z J /.{.).'.'.(.'./.(.(.'.'.(.'.`.`.'.`.'.(.(.(.(.{.}. X(.(.{.{.J {.{.[.}.}.|.}.[.}.[.{.].}.}.>X>X,X>X|.>X>X X>X X|. X|.}.|.[.[.3X>X|.>X|.[.%X3X|.|.|.$X}.$X|.|.$X3X|.}.%X|.>X4X[.>X*X'.*X*X*X'.'.4X'.`.*X*X;X=X=X*X>X>X(.[.[.(.`.|.}.[.XX]..XXX#XOXwX#X.X.X#X%X%XXX%X%X$X%X@X].].OX%X[.{.[. XOXOX-X&X&X-X-X-X;X1XtXhXhXLXhXgXKXKXdXdXfXpXQ.Q.Q.!.Q.W.!.R.R.E.E.b.b.T.R.W.W.!.Q.fXdX+X.X/./.)._.`.=X1X;X,XrXxXxXxXBXNXNXDXNXFXFXnXDXFXZXFXZXbXbXkXkXkXbXbXjXjXmXVXeXeXeXwX$XwX5X5X5X;X=X=X;X2X2X2X;X5X5X5X5X5X5X4X3X4XtX3XXXwX$XwX#X#XOX.X' ' ! N T N E B R N N @.T N N N < W T E Y W B 3 -.N *.N Y R ..E @.< N R N < W @.E Y Y 3 Y Y Y < < N W @.Y Y R W E % N < < , , , 5 2 +.R < W N &.Y R R R E N @.~ ! #.' ' ' e.y.' ' K K K M n n A Z A M 4 c V A A A A V V V V A A A A A A A V V X.V o.+.V V V V V V V V A V V V +.B C A #.6.+.w.B B o.;.X.>.;.;.g d 2.>.:.,.1.=.-.#.8...$.*.",
") v.u.v.v.c.c.m.0Xm.c.m.m.m.qXi.c.u.c.t.i.y.' ] K G L ' oX} ' ] d.} oX} G G G J H } } J F G J F I G G G J G m m H G G J J G G m L m m G L L J G I G I ).J L G J K % v G J J J ] J I G G J J J J J {./.(._./././.J /.J G J G G } /.{.J G G G G H G K K L ] L K L } } ] ] ] ' L ] I ] ] ].] ].].[.].I ].] ].].#X{.[.@X].] @X[.[.}.[.].[.[.[.}.%X%X[.[.}.[.`.}.`././._.`.-X'.'.`.*X*X`.-X=X`.`.'.}.}.[.] ] ' ].].] ' ' r.' ' ] oXOXOXXXOX#X]..X.X.X$X%X@X].XX#XXX%X@X%X}.XX[.OXoX*X&X&X&X-X-X;X5XhXhXhXLXLXLXKXdXdXdXdXJXJXsX~.Q.~.!.W.Q.W.!.Q.Q.!.!.!.!.!.!.pXdXiX.X_./._._._.`.,X1X2X5XxXBXxXBXBXFXFXFXDXFXDXnXDXFXnXZXcXkXkXjXjXkXkXkXjX6XeXeXeXeXwXwXtX5X5X2X2X:X:X;X;X1X2X2X4X4X4X5X5X5X4X3X3XtX4X3XtX$X3XOXOXXXr.' / y./ T N #.B ^ Y E ~ ~ Y T N N N Y Y Y ^ Y N N W V T N N R E ^ @.Y N N , < R R R < Y Y Y R E < N 3 T W Y T T u.T < T 3 3 , N < R R E N , R E R N Y N Y E #.[ ( Z ' K ' K ' ' ' K [ ! V #.B V B +.V h.V V V V V V V V | 2 V V A +.O.V V V q t h r d u ; d 0 t t o.y | >.u X.;.O.O.=.O.-.=.-.<.<.1.3.s >.<.d >.d u :.,.:.O.w.f.$.O.1.1.$.*.",
"i.i.t.a.i.i.m.c.9Xv.x.m.9Xv.x.c.a.M.c.i.i.x.v.i.y.r.] ] 8X} } } } oX] G U J H F n F H H L n m F L F F ] G G F F F G G J J G m C C m Z F ' m ' G F ' m ' ].L L G m C Z m F G } Z n M n S H H H J G J /./.J J G H G F F m m m ' F F F F m F m F F F G K m F F K G G ' G G L y.Z m Z F L K K L F ' Z Z L K I L ] ].L ] ' ' ' t.y.' ' y.' ] r.].] I ] L C L H M )._.(.(.'.'.'.`.-X`.`.'.'.'.(./._./.).] r.' L ' Z ' K ' ' ' ' ' oX#X#X.X.XOXOX] .XXXwX%X%X@X%X3X4X3X3X[.[.XX[.}.}.`.-X*X`.-X;X5XhXhXhXLXLXLXUXdXdXdXdXdXJXsXsXQ.Q.Q.Q.Q.pXW.Q.pXQ.Q.Q.Q.!.!.pXpXdX9X.X)./._._.(.*X,X;X1XyXxXxXBXBXBXFXFXDXFXNXFXnXFXDXnXcXcXnXkXkXjXjXmXjXlXqX8XeXwXwXwX4XtX5X5X2X:X:X:X5X2X;X,X>X3X3X4X5XtX5XtX4X3X3X4X$XwX#X#X] d.r.' e.t.#.^ E B E B ~ Y ~ *.^ E ^ R W N Y E E ^ E N N R T @.^ Y E E ^ *.@.N Y 3 < < R , < < @.W N Y Y E Y < Y R Y N E E N < N < 5 , < N < < < N Y Y Y 2 @.Y Y ~ ' ( A A Z A A / e.#.~ b.f.#. .f.8.O.y e u 2.g a h h ;.X.d d h d ;.;.;.<.d h t r e t r ;.d d u u ,.;.;.6.;.>.>.;.O.#.#.u.*.#.*.#.:.d 2.,.;.;.U.o.2.;.>.u ;.:.:.O.:.3.1.u 5.6.*.u.",
"i./ i.[ / a.v.y./ y.t.i.t.9X[ m.c.c.c.a.c.c.c.x.i.] ] } ] } G G G G J H G m F F F n m H G m m G m m G n ' F G G K F n K m m v m n n m n K n m m n L m K G G G G m m m Z b n n n v b n b M m M H H H H I G J G M F m m n n n ( ' m m m m n F m m m m m m m K m ' m F m G m d.F m m m m F F n m K Z m m K F L Z ' Z Z ' C Z ' y.( m K Z ] } ] K Z ' L n M J /._.(.(.'.'._.'.'.'.'.'.}._.(._.J J J G ' ' ] ' ( C v C n Z C ( ' ] +XoXd.d.{ d.d..XOXXXXX#X4X3X3X$X$X#X.X] ] XX}. X|.`.'.'.`.,X5XhXhXhXLXLXUXUXdXdXdXsXsXsXsXQ.Q.Q.!.W.Q.E.E.R.U.uX!.!.W.Q.W.!.pXaX.X].)./._._._.=X=X:X2XyXxXxXBXBXBXNXNXNXFXDXDXnXFXDXnXcXvXnXkXkXlXlXVXVXeXeX8XqXtXtXtX5X4X5X5X:X:X1X5X5X2X2X1X@X#X$X3XtX5X5X4X5X4X3X3XwX#X#XOXe.y.d.' [ e.( T @.~ N E ^ ^ u.E ^ N ^ *.E Y N T E E @.< W T ^ t.*.^ Y W R E 5 < N < R R R 6 Y R Q *.N < < @.N < -.W +.5 2 R < R E 2 Y , , , 5 , , 5 2 5 6 6 %...| =.$.-.X.6.b.k.f.6.6.1.8.6.$.o.X.i 6.d t o.| u 3.f f g d d d d u :.;.d d ;.u ;.t e ;.u 9.;.2.>.<.>.>.o.<.b.o.1.;.o.1.1.=.y.t./ =.<.:.,.1.O.o.0.n.y d d >.1.<.1.1.1.d 1.q.;.q.=.*.p.",
"a.y.d./ ^ / / y./ t.y./ / i.d.i.u.a.c.c.i.d.i.c.d.{ I G G G F m F m G m F m m m m v v m m G G m M F F M K Z ' m n n n n b c b m v n b c b c c c c v m b M K m m n b b c n c b M m M n M n m n S L M F m m m ' m m m n m n m M ' m m m F m F m m m F m m m ' m ' F ' H H m L H H F F m K F F ' K G F F F Z Z Z C Z Z ' m n m ( C Z n Z Z K K n n C C m b L )./.U [.(._./._._.(._.(.).J I J H m m F G L d.G m Z % % $ N $ $ V 3 *.~ ^ t.t.y.r.oXOX[.@X#X$X4X%X3X$X.Xr.d.B r.].XX].[.[.[.|.4XhXhXhXhXhXLXUXJXJXdXJXJXsXsXsXsXQ.Q.Q.W.Q.W.E.E.E.E.E.!.!.!.E.uXE.9X].] /././._.'.&X=X;X2XyXxXBXBXBXBXNXNXDXDXFXDXnXFXDXvXvXnXcXkXjX0XeXeXeXrXeXqXwXwX3X5X5X5X5X1X:X2X2X1X5X2X:X2X3X$X%X3X4X5X5X3XtX%X#X#XwX+XqX' ' g.e.( ( ( ( ~ *.~ E E ~ t.^ E Y Y E -.Y 5 < R ^ ^ @.W @.&.&.R R R 2 R Q Q N N 2 W -.&.Q R 6 +.Q =.W R 6 W 5 R &... .&.5 6 , Y 6 R R Q 7 Y 2 5 , 5 R | r r O.$.O.5.o.0.O.5.0.:.6.$.q.:.7.X.o.o.o.o.1.d d 1.:.| u d t a t ;.d s e 5.;.d ;.1.u 5.<.d u u d d 3.o.<.<.>.u <.7.>.1.q.O.o.1.-.-.=.;.<.1.:.;.>.2.1.;.1.g >.d 2.2.>.d d <.,.0.0.;.1.6.-.c.",
"a.a.y.[ / a.) v.t.i.a.i.d.^ x.c.a._ a.i.i.i.a.t.) i.' Z ' G F F F F G m m F L m m n N % M m ' m F m m m n ' ' m m m m c m n m m n m m Z n m n v m M G n K m F m n m m F G n Z n C G G L K m K m K F L G m m L F G m m n F m n F m m m ' F m m F m F m m F m F F F H F F H G F F F m F K F F ' ' Z F F F F K ( ( ' m m F m Z ' ( Z m m C m Z C C b B n b L ] /./._._./.U J U /./.J H ' K H F Z F F m Z Z m ( Z n m n B C $ N T W R E ^ d.r..X[.}.}.3X@X#X3X3X3X@X].] ' ( ' r.] ] r..X#X3XtXhXhXhXhXLXUXKXdXJXJXJXJXsXsXsX~.Q.!.Q.!.pXpXQ.E.!.E.E.pXpXW.E.pXpX+X].)././._._.(.=X;X;X1XxXxXBXBXBXMXNXNXNXnXZXFXnXDXnXcXvXcXcXkXlXeXeXeXwXtXoXqX#XwX3X5X1X1X2X:X2X2X:X2X2X2X2X5X5X5X3X#X4X5X4X3XtX3X#XwX$XOX9X/ ' ' ' ( C [ C ( ~ ~ E ~ ^ &.@.W 2 ..Y -.W W Y -.*.&.p.-.W -...Y R R R E 5 E R W ..&.=.n.-.=.R =.&...R  .6 &.%.....=... ...6 R 6  .$. .O.R  . .6  .| %.6.X.y <.7.8.;.0.q.0.<.<.u o.1.<.o.o.o.;.>.;.1.d d u u h u > o.t d d d d d u 7.>.<.d u u u <.d t 1.y d 5.u <.d <.>.2.<.>.;.6.1.8.n.$.7.,.;.u q.1.d g g 2.d 2.2.>.>.0.2.3.2.g >.,.1.0.;.1.6.a.c.",
"d.[ t.t.t.c.i.9Xi.u.m.c.x.=.*.-.-.^ a.t.p.@.#...E ..t.! ! ' ( ( ' ' [ ' ( ' ' ' ' ' ' ! ' ' ' ' ' ' ' ' ( ( { ] ' F ! B ( Z n F K Z ' Z K m ' ( ' m K m L m K F G L L G K ' K m b Z m G m m ' ' K n F L m ' ' F F ' m ( m n ( m m m m ' K m M m m m m F M F m K ' G m F ' F F m m m m F m m m F K m m F m K Z ( ( Z m Z ' ' ( { F m Z ' m Z K ( B C B B K ] /././._.U H G F F G G m ( ' F m m m ' F m m F m ' F m m K m n ( W W R t.r.] ].@X].].[.%X@X@X%X}.}.].].] Z y.' d.r.] r.+XtXtXgXhXhXhXLXUXUXdXdXJXJXsXJXsXfXsXQ.!.!.Q.pXQ.Q.Q.!.pX!.uXpXQ.W.E.pXuXoX]./.)./._._.-X1X2X1X2XBXBXMXMXMXBXNXDXnXnXZXFXnXZXcXjXjXlXlXlXeXeXeXwXwXwX] oXwX3X4X5X2X1X2X2X2X:X1X2X:X:X5X5X4X3X3XOX@X4X3X3XwX3XwX#X#X.Xt.*.! ' / e.! t.( ( ~ *.^ &...-.Q 5 Y 5 -.-.W -.Q n.p.W R W R R T R 3 R R , +.E R $.-.8.$.=.=.=.%...=.=... . .=. .O.6.O.=.O.=...$. .=.8.1.O.r 6.O.X.$.X.u r <.;.u 7.8.1.0.;.<.<.;.u <.u u q.7.;.s u d u d e y t d h X.r u d s s <.d d d u 7.<.d <.u o.>.g d 0.u 2.d 1.>.g 2.d ;.2.;.<.q.0.3.;.<.3.,.>.<.;.d j >.g d <.g 2.2.4.2.2.4.2.2.q.<.<.<.6.p.a.a.",
"y.^ y.[ { / / p.p.E f.=.6.=...O.6.O.=.*.-.E E E ~ < =.*.@.E ! ( ! y.[ u.d.t.y.y.a.y.x.y.*.a.y./ { ' y.y.! [ t.m.{ ' C / ( ( C ' ' ( ! ( C ' ! ( ( T ( ( ' ( ( ' ' ' ' ' ' ' ( Z m v v n M F F F F G F F K Z Z Z K ' K ' Z C ( m m m C n Z Z m m m m n ' Z Z C Z ( ' m M m m m m Z Z Z Z Z C n Z Z Z Z m n ( Z ( ( Z Z Z ( ( m ( m C C Z m Z Z B ( C B B ( m ] G G H n C Z n ( n y.n ' m ' m m m m m F m ' { ' F F m F F m C ^ E m.r.3X}.[.}.@X%X}.%X|.3X}.}.).).I ] e.' ' r.d.r.9XqXwXgXhXhXhXLXUXUXKXdXdXsXJXJXsXsXsXQ.Q.!.!.pXQ.E.E.W.!.W.Q.W.!.!.!.E.pXm.oX)././._._._.&X2X5X2XxXBXBXBXBXBXBXDXFXFXDXFXDXcXnXkXjX6XeX6XlXeXeXd.wXwXwX#XXX#X4X5X1X2X2X:X:X2X:X2X:X:X1X4X5X3X$X$XtX3X%X#X#XwX#XqXOX.X' ( @.t.e.a.[ t.e./ ~ / ..f.-.n.@.| 6 =. .f.-.O.O.%.6. .6 3 < 1 R | r 6 r o.r X.r $.7.O.b.8.$.8.O.8.$.8.=.b.8.6.7.<.q.q.q.5.1.0.6.8.6.7.b.<.6.o.8.7.$.f.5.;.e o.o.q.u 5.d d <.;.5.;.3.u u o.1.O.u ;.d t u ,.d u <.u d ;.| e 1.;.>.2.3.>.d 7.5.q.d d y u <.g d 5.2.s d 2.;.d >.<.2.d ;.1.;.>.d >.<.>.2.>.g 2.2.2.3.2.2.>.g j g >.2.g >.3.d ,.1.0.6.s.p.a.c.",
"y.i.t.[ @.^ T 6.@.E @. .$.O.O.$.o.b.6.5.1.6.6.q. . .$.8.8.6.#.) / d.) a.c.x.0Xc.m.c.i.a.t.^ @.p.*.t.c.t.*.a./ *.x.d.N a./ / [ T / / / [ ! y./ ! ~ ~ / T [ [ / ! [ y.[ ( / [ ^ [ ! N N T ! N / Z ( ' [ ^ ( C W e.' y.' ( Z B T B B E ( n F m ' Z n m m m Z B B C Z m Z n n n m m Z Z Z ( B E E B C Z C ( B E ! B B / ( C T N Y B C C C B C C B B ( C B B ! ! ( ( n v v v n v @.b ! ( n ( [ n C ' M M H H F ' ' m ' m F m Z B @.d.9X%X3X%X$X>X4X,X,X,X1X1X>X|.(.).)./.L K ' ' e.' oXwXqXgXhXhXLXLXLXLXJXdXfXsXsXsXsX~.Q.Q.Q.!.Q.Q.pX!.pXpXQ.Q.pXpXpXpXpXpXpXoX]././././._.'.=X2X2XyXxXBXBXBXMXBXDXDXDXFXFXFXnXcXcXzXjXlXlXeXeXtXtXwXwX#XwX3X4XXX@X,X1X:X:X,X1X1X1X:X;X1X4X3X$X$X3X$X$XtX3X$XoXOXqXoXg.t.s.[ *.e.t.t.t.y.t.t.e.e.-.=.n.8.$.6.=.=.b.$.8.0.>.u o.r r 5.5.s 0.9.9.7.9.4.b.k.<.7.9.1.m.8.b.8.n.8.6.n.8.5.9.b.3.2.0.5.4.<.2.d <.q.O.6.o.<.b.<.$.0.O.8.r 5.7.o.y 5.u <.>.u 1.y :.t 1.y o.<.u u u 5.<.u q.t u d ;.;.d ;.;.u o.7.s g 3.<.d 0.d 9.d d t ;.<.<.d ;.9.<.9.2.>.<.6.7.>.u <.1.1.>.;.1.1.,.,.<.>.j g 2.g g 2.g g g g d d >.o.1.>.1.=.f.-.f.t.d.c.",
"@.#.T E E ....1.8.=.q.1.O.X.<.:.O.7.0.3.<.5.0.5.<.q.1.$.q.7.O.O.O.a.[ y.u.c.i.i.i.9Xt.m.c.t.^ u.*.x.c.t./ a./ ~ ^ v.[ c.y./ / T y./ ( T / ( / ~ T ~ ^ ! / / [ / [ y.( / / ! T y.! T ~ T ~ N ^ / / ^ t./ / ^ &.&.^ *.a.) &.^ W W W W T _ ^ E / ( ~ ~ ! ( e.! B B ^ B T T B B B B B T B B B B ! B T T C B B T T T T E B N #.N N Y N N N N Y N < R T R N R < Y / B N < / b n v @., N / C B ! ^ N B n M F G m m ' y.m ' ' n ( ' r.OX#X%X).@X4X,X,X1X1X*X*X>X>X'.}./.J J Z ( ' e.' ' +XgXgXgXgXLXLXLXUXKXJXJXsXJXsXsX~.Q.!.Q.!.W.pX!.pXpXpXpXpXpXpXpXpXpXpXuXaX.XI /./././.(.>X<X2X2XyXxXxXBXBXMXMXNXBXNXDXFXZXnXjXjXVXVXVXVXeXtXtXtX5X3X$XwX3X5X5X>X>X1X:X2X1X5X2X1X:X,X3X3X3X$X$X4XtX3XwX3X$XOXr.r.d.[ t.y.t.' ( ( e./ t.e.s.' e.8.$.8.o.T.n.7.b.<.5.b.2.y ;.d q.d 3.3.2.0.H.2.1.7.4.2.0.>.<.1.7.b.8.b.8.8.7.O.T.0.<.5.Y.d d ;.9.7.u q.<.k.8.8.$.O.r Y.1.O.X.7.=.$.o.o.<.o.t >.<.;.o.r d y t 5.o.q.u d o.1.;.<.5.5.d d ,.u 1.;.d d y o.<.s g g 2.;.1.;.1.>.d u u y ;.q.;.<.1.d 7.5.>.q.<.q.,.d d 3.>.9.0.2.<.1.>.d g g g g g g d d >.d d <.q.7.o.q.1.8.b.8.c./ c.a.",
"=.R O.O.8.m.T.b.E.T.9.3.1.1.q.b.6.o.7.1.:.:.;.q.1.5.3.O.1.:.1.+.8.=.=.f.7.8.6.n.m.m.m.m.a.m.y.^ i.c.c.i.i.a.y.t./ x.m.v.d./ *.[ / / [ ( ~ ~ ~ t./ ! T [ ! / ~ [ [ [ [ [ [ [ ! y./ / t.^ T Y / [ / ( / t.[ a.i./ &.^ &.m.) ^ t./ &.^ T ^ ^ ~ ^ #.e.e.' ' ' e.' ' t./ ( ' ' ~ R T ~ ! E T E B E T E E R Y Y N B B R Y E N R Y E N R < N V N N N N N < N E E N E ^ < R @., < 2 R < < < @.< < Y N n ! m Z ' m m n { m Z ' ' ] %X%X>X$X|.>X>X}.>X,X1X1X,X*X*X'._./.J J F v N ~ ( #.s.iXgXhXhXLXLXLXUXUXKXdXJXJXJXsX~.~.!.W.!.W.!.!.pXE.pXE.aXpXE.W.E.E.E.E.T.g.r.).U /./.(.[.<XyXyX2XyXxXxXBXBXBXDXNXNXNXZXZXZXbXjXzXeXeXeXwXtX#X$X3X3X$X#X#X3X1X5X=X1X1X1X2X1X2X2X2X1X5X3X4XtX3X3X3X3X3XwX#X#XoX] Z ~ T ~ s.B ' t.! / t.( ' ' ' =.f.O.b.q.6.8.b.b.q.3.3.e q.9.f j g d 9.Y.5.k.4.<.9.g g g d <.1.1.9.7.q.6.6.q.d 7.;.0.<.5.j d 2.1.9.2.0.b.7.q.1.o.8.O. .O.O.$.-.$.8.r e 5.u o.>.d 1.1.1.o.1.u u q.1.u <.;.5.d >.;.d <.,.3.1.q.2.s u 2 6.t d u d 2.0.1.3.;.>.t <.y ;.o.0.5.d <.u <.>.>.;.5.d d d d d d ;.;.d a d >.g g g s g 2.g g d s >.<.>.q.0.1.5.X.-.f.x.c.c.c.i.",
"n.8.1.q.5.1.:.o.b.b.7.0.<.b.0.b.0.5.1.n.1.1.3.7.7.4.2.1.O.;.3.1.0.<.2.1.0.E.7.8.n.-.M.v.c.a.c.i.y.c.i.c.c.i.c.a.m.i.a.0Xy.[ / [ T ) t.[ ~ ! ^ ^ *.@.E +.#.~ E E #.@.#.*.#.@.@.w.@.-.+.+.N N +...*.^ / -.*.f.-.-.*.-.@.=.f.*.-.u.&.^ @.@.=.@.*.@.t.@.t.g.d.d.r.y.e.e.e.#.s...R R E E +.| R R R E E R | |  .+.6 5 R R R R 5 6 f.|  .| R 6 5 B N R Y Y R Y V ~ @.^ E E Y 3 N < N N N < ^ E , C ( m m m ' F m ' m ' ' e.8XoX@X4X4X|.%X>X,X,X1X1X,X,X1X=X`.'._./.J ] m v Y N N E #.g.iXgXgXLXKXLXKXLXKXdXsX~.sXsX~.Q.Q.!.!.R.!.R.E.E.E.E.E.E.E.E.uXn.E.T.b.E.oX]./.U /._.(. X2XyX2XyXyXxXBXBXBXNXNXNXMXnXZXbXbXcXVXzXeXqXwXwX3XwXtX3XtX3X+X#X3X1X=X*X,X1X1X2X5X2X2X2X5X4X4XtXtX4XtX5XtXwX3X#XOX.Xr.! B V / [ ! ^ g.[ ! s.] L e.s.n.f.-.n.6.7.0.0.9.J.g o.r 7.3.s 3.9.<.3.4.b.9.9.2.5.g g s >.<.<.1.q.q.8.8.q.3.d 1.:.k.d 2.4.<.3.2.4.2.8.T.1.;.;.;.7.8.=.O. .=.W $.$.O.5.b.$.q.d u d ;.q.0.5.;.7.0.3.d ;.d ,.d d ;.<.<.q.<.q.q.9.s y r q.u >.a d 0.1.q.b.<.<.O.b.9.<.,.d ;.2.;.d d d <.>.d t ;.:.1.>.d o.;.<.d d ;.h d d s >.y g j g d 4.2.>.,.1.5.;.;.O.m.u.c.a.m.a.",
"1.<.;.o.>.;.d d 3.<.9.0.k.9.9.4.3.2.d b.9.2.>.>.4.1.:.O.O.<.1.b.U.2.9.2.9.9.9.3.2.9.0.0.7.8.-.x.*.a.t.a.c.t.0Xc.m.9Xi.m.a.^ *.^ E E =...@.E E E E #.~ < =.E N +.W #.~ #.#.@.#...O.O. . .| N E < o.O. .O.7.1.6.q.$.f.f.-.n.iX*.w.#.O.6.o.$.=.O.O.-.O.O.w.g.g.s.s.e.t.*. .O.$. .| | X.o.o.| | f.E | | | X.|  .6 R  .| | .. .r =.7.;.;.X.| T 2 | R R R &.E R ....&.&.W 5 5 5 2 N N N Y E a.m m F F m m F F F K K G ' ' oXOX|.4X|.[.>X,X1X1X:X2X;X:X:X;X-X(././.U ' v N T 5 N ~ ~ g.aXgXgXKXKXLXLXKXJXfXsXsXsX~.~.Q.!.!.W.R.!.!.W.T.E.E.uXW.T.E.aXE.E.E.uX9X].)./.)._.(.(.&X2X2X2XyXyXxXxXxXMXzXvXvXvXvXnXkXjXjXeXtXtXwXtX3X5X3XtX3X$X4X#X$X4X1X'.>X;X2X2X2X2X2X:X:X3XtX5X5X5X5X4X4XtXwX#X%XOX] y.! ^ N @.~ d.[ ! y.{ ' r.0Xf.n.M.6.f.$.o.U.0.>.g >.d d o.<.4.g 9.7.9.2.g 4.3.k.g 9.g g d ;.<.1.9.1.U.3.1.0.<.2.>.2.2.g >.>.d q.q.2.3.q.7.;.Y.7.k.7.f.x.p.=.u.) o.5.q.8.5.0.,.;.;.u ;.1.3.d ;.7.0.3.d 1.5.d ;.5.<.<.>.9.>.d 3.2.g u ;.;.3.f 2.<.9.<.;.P.d t 7.4.2.2.>.y d 1.1.d >.d >.2.d ;.2.<.d s t Y.>.2.g d u h d d s >.d s d 3.d d 1.q.;.,.;.<.O.=.m.a.c.*.c.a.",
";.;.>.>.d <.7.b.7.9.0.4.9.2.g >.O.u s 9.P.j g >.g 2.g 9.<.2.k.n.T.G.2.J.2.3.Y.9.j 2.2.4.7.0.0.7.6.w.*.t.m.i.m.v.i.x.n.=.7.6.+.O.O...=.....+.@.......=.R O.+.N +.+.6.@.@.O.O.$.O.O.o.;.d o.R * R +. .O.O.1.1.O.1.O.7.8.8.7.b.7.O.;.1.7.q.1.f.o.3.q.q.2.<.4.w.f.s.w.w.w.d d ;.;.>.d d 2.d d o.8.o.<.;.u ;.;.<.X.O.:.o.o.:.;.5.8.<.9.<.2.O.6 | O. .o. ...-.W *.&.^ Y Y 5 5 5 5 Y N N N T Z F m ' m F m m ' ' ' G ' oX@X%X%X3X3X}.|.<X1X=X:X;X;X;X1X&X`.'._./.J M v Y * N Y W s.u.9XgXhXLXLXLXLXKXKXJXJXJXJXsX~.Q.Q.!.!.W.W.E.pXE.E.uXE.E.W.pXE.E.E.uXT.M.r.] /./._.(.(.(.2X2X2X2XyXyXxXxXxXMXzXcXvXNXNXcXcXlX7XgXwXtX#X$X3X3X#XwX$X$X3XtX4X,X=X=X=X1X2X2X2X:X:X:X2X5XtX5X5X5X4X4X5XtX$XOX#X.Xr.( ~ *./ s.B B ( / ' oX' y.m.m.8.=.U.b.o.<.T.q.>.t 5.5.9.4.<.1.4.<.s d 2.s j 2.9.g k.j j 2.>.>.3.>.7.9.3.<.4.1.3.<.g >.3.>.1.>.4.7.d 0.;.q.6.7.f.o.8.f.u.p.*.*.+.u <.;.<.;.9.<.1.0.t 1.3.d d ;.q.q.2.3.1.4.d 3.<.1.1.>.1.2.g 2.>.u X.y ;.3.f 2.3.;.1.1.<.>.d d d >.d d o.>.,.u 1.<.d d d d d ;.d 1.d 1.1.1.1.d d 2.g d s d >.d u d <.,.d ;.;.o.<.1.f.f.i.c.v.d.t.*.t.",
"E.3.g g >.r 7.0.0.3.3.j :.X.o.;.;.o.t 9.:.>.d 2.>.d g g >.f g k.k.k.9.j f 4.b.Y.2.Y.3.9.9.9.0.2.5.1.O.#.u.u.f.7.6.6.7.1.8.q.6.......+.=.@.O.=.| 1.:.,.1.:...T +.E | 1.O.O.,.:.>.,.;.g g d +.N ;.o.+.o.:.o.1.;.1.7.1.0.1.<.;.Y.0.o.o.q.q.<.1.<.1.3.q.1.1.,.d 4.:.1.4.g g Z.g g j g g g A.>.3.;.3.>.g ;.o.>.>.<.1.>.2.d <.1.;.U.;.;.;. .N r :.o.u $.=.W x.*.&.c.R R Y 5 5 5 , Y T N C m m ' ' ' F ' ' m ' ' ] ].[.|.%X%X%X|.}.3X1X1X:X*X;X;X;X;X=X`.'.(./.I m N &.^ W Y Y E a.oXqXgXgXLXLXLXKXJXdXsXJXJXsX~.Q.Q.Q.Q.Q.pXpX!.W.E.E.pXE.E.E.pXuXuXaXaXiXoXI I U /./._.(.-X2X2X2XyXyXyXrXrXzXzXzXvXNXNXvXzXzXeXtXwXtXtXwX#X3X4X$XwX3XwX3X5X5X=X>X1X1X1X1X:X2X:X:X1X2X5X5X5X5X5X4X5X5X4X#XwX+Xd.g.! C ~ t.s.C B ! ( y.9X0Xa.n.f.8.7.uXo.U.1.U.,.u 6.7.9.3.4.d ;.<.3.3.s d d 3.g 2.g 3.2.>.;.q.<.g g >.o.0.<.s q.q.g d 1.U.3.3.9.<.9.2.1.3.9.3.;.k.7.6.6.$.<.q.o.e <.1.>.<.<.k.d <.3.>.d d 2.>.3.3.b.1.3.>.d d d <.,.>.2.d 1.X.u 1.d 5.u 9.d 4.5.>.j ;.9.<.d 4.d 3.5.<.2.1.;.1.d 1.1.d d <.1.o.;.<.1.7.1.s 2.<.<.3.3.g 2.s d >.d ; e e ;.;.u q.1.6.f.m.c.i.a.i.v.y.a.a.",
"W.T.k.,.s g 2.>.9.g 4.2.:.o.,.o.,.o.t 3.+.;.d d g ,.d g 2.g o.4.g 4.k.9.f 2.T.Y.k.k.9.2.J.2.k.3.<.d 5.1.:.u 7.q.d <.3.3.3.3.1.O.+.O.O.O.:.$.O.o.<.:.o.r o.O.+.| +.+.d >.o.o.;.f g ;.d g s u | Y d :.+.o.q.;.2.>.0.2.2.2.4.2.,.9.,.,.:.9.2.>.;.q.3.1.9.4.g 2.j 2.>.2.j j C.Z.g g 2.g g Z.g 9.;.>.g O.R o.d g ;.d 4.>.d 1.0.:.1.1.u u | 2 o.<.6.=.Q &.&.Q W Q *.5 W @.5 Y N N Y N n ' m m K y.G ' L ] ' ] ] @X%X>X|.[.}.#X|.>X,X,X:X:X&X1X&X;X;X-X'._.(./.m N Y Y ^ Q Q 8 E y.qXgXhXLXLXKXPXPXJXdXsXsXsXsXQ.!.!.Q.pXQ.pXpXpXpX!.uXE.uXE.E.!.uXE.uXiX0XoXI )././.).(.'.2X2X2XyXyXyXyXyXyXzXzXzXzXzXzXrXrXrXtX3XwXtX4X4X3X3X4X3X$X4X3X4X5X1X*X=X:X2X:X:X:X:X2X:X:X2X5X5X5X4X5X4X5X5X3XOXqXoXy.#.! t./ t.*.s.y.' C &.x.m.m.M.f.f.8.b.7.b.0.q.<.7.b.4.2.2.0.3.3.u 9.,.h 2.g 2.2.2.3.2.g >.1.1.>.g 3.>.<.q.7.d 9.9.>.;.5.T.4.2.9.d 0.k.o.;.7.5.q.0.0.u <.;.<.1.<.5.u d >.;.<.<.3.4.d j 2.<.5.9.<.s 0.1.3.d >.3.d >.d s d >.y e O.0.0.4.3.3.g j 7.d 2.5.<.q.d 1.9.>.1.1.5.<.>.7.<.u k.3.d <.P.7.d 3.;.<.<.<.g d 7.2.3.s g s d >.g u u ;.5.b.1.8.n.-.a.i.t.a.a.c.m.t.a.a.",
"b.n.E.Y.2.g j d d d <.4.O.o.;.o.O.| t 2.g g 2.>.d 2.g 4.U.;.;.g g f <.b.G.j k.E.9.2.3.9.4.4.3.0.3.j j g g d ;.Y.;.2.2.4.d 9.;.3.:.:.X.r u e e s t d u o.u >.O.X.O.O.| >.,.+.;.g d >.;.u :.u d R r ;.X.;.2.g g s 4.g 2.2.2.4.2.2.3.<.d 2.2.>.;.1.>.2.3.0.g 2.j j >.s 2.A.Z.f A.g g 2.g s 9.2.g s s >.O.:.;.>.:.d 4.g u ;.;.0.<.7.>.:.u o.<.i =.=.R R &.R Y T W 5 R Y Y R R ! C ( m ' K m K y.L ] ] ' ] .X}.>X>X<X|.}.I $X2X2X1X,X1X&X,X=X;X;X>X(._./.J M N Y 8 & * * Y ^ e.oXiXgXKXKXKXPXKXJXJXdXsXJXsXsX~.Q.!.!.Q.Q.W.E.!.pXE.uXE.uXE.uXW.pXE.E.uX9XoX).U /._./.(.`.2X2X2XyXyXyXyXyXyXxXMXMXzXzXrXtXtXtX3X3XwXwX4X4X3X$X3X4X5X1X4X2X2X:X=X,X;X:X:X:X:X:X;X2X2X1X4X5X5X5X5X4X3X#X#XOXoX] ( T ! a.d.^ N 9X( y.y.&...p.0XM.n.n.b.$.U.7.b.o.5.4.2.<.4.7.b.9.3.<.2.2.s ,.q.2.3.<.<.u 7.<.9.;.7.;.7.1.1.5.k.0.5.<.<.7.<.;.5.0.d 3.9.3.2.d 5.b.1.3.d ;.7.;.b.<.9.9.u <.d 1.g g 3.<.3.9.3.b.6.U.7.d 1.2.2.>.d <.3.d s t o.u ;.9.5.0.b.2.3.j 9.s <.7.;.5.<.;.5.<.q.;.5.<.d ;.o.$.5.u <.0.d ;.7.7.2.;.2.d 0.2.f 2.3.g 2.d d 3.1.;.<.1.<.<.6.6.8. .a.a.a.) i.i.m.i.v.i.i.a.",
"m.m.U.n.b.>.g g d ,.u g d +.+.O.+.| t 3.d g g 2.:.o.g g 4.g d f g f C.;.f C.g 4.G.g 2.f g f g 0.4.f s d s g d >.2.j 2.<.<.g 2.u 9.g d a y t t t ;.d ,.;.u d ,.X.o.O.+.u g ;.o.s d g g u d d s o.| u o.g g g g g j f >.4.g 2.9.d <.9.1.;.>.>.d g g 2.>.9.2.G.C.A.A.g g A.g A.H.C.f 3.H.s 2.g 2.g d d g >.>.o.,.>.d >.2.u ,.5.4.>.>.X.| r 6.| | R R 5 R R 5 5 6 5 Y 5 @.R [ ' Z ( G F G F ' ' oX] ] ].%X|.3X>X,X>X<X|.>X,X5X2X2X1X&X1X=X-X-X`.(._.].G v * & Y 8 T * Y Y a.g.qXgXdXKXPXPXPXPXJXJXsXsXsX~.~.Q.Q.!.pXpXQ.E.W.pX!.W.aXuXE.uXuXpXE.E.E.9Xr.].).U /././.(.&X<X2X2XyXyXyXyXyXrXxXzXzXzXrXyXtXtXtXtXtXwX3X5X5X5X4X4X5X5X5X1X1X2X:X=X>X1X;X1X:X:X:X:X5X5X2X5X5X5X5X5X4X#X+XoX+Xr.r.( B ! ~ t.! B g.{ d.*.x.&.5 > u.uX-.n.8.=.U.<.d 7.2.2.>.3.2.7.2.2.3.g d 2.d <.1.;.9.>.d 5.d >.<.3.g >.1.1.d 3.9.5.0.3.2.2.d <.2.3.s d 2.d 3.;.0.o.1.1.9.5.9.3.2.5.q.3.9.d 5.9.b.3.1.3.4.2.Y.9.0.Y.2.4.2.g 3.s d 3.d X.q r 5.5.k.2.1.2.g 2.g 5.q.5.b.5.<.<.d 0.<.1.2.3.;.>.1.5.7.8.>.;.o.7.7.1.<.2.<.2.2.9.>.s g 2.2.3.9.3.5.;.<.1.;.o.O.$.a.t.*.u.u.x.c.i.c.m.a.i.0Xc.c.",
"U.k.2.k b.k.g g :.o.;.d s d o.X.o.u u 1.;.X.o.u >.+.s f g Y.g g C.;.;.R d ,.o.| 2.+.o.O.u y g 9.4.j g g g f g d d 2.g j k.g 2.>.d 2.Z.>.:.,.;.:.,.X.o.;.o.t j o.X.X.O.o.u s u d g g g d g f t +.X.d s g d >.g s 2.g 2.g g 2.d 3.3.<.0.1.d g g g g 2.g 2.G.A.C.G.A.C.g H.A.Z.g A.f g <.3.C.f j C.g g f g >.;.>.;.y d >.d >.o.<.,.d o.2 =.i 6 6 6 5 5 W , 5 6 5 R < Y B ( ( ' ' m F G F G G ] oX].[.}.3X4X%XtX2X>X1X,X,X,X,X1X:X2X&X*X>X'.}.(././.G n * * 8 8 8 ^ * & T g.iXgXKXJXPXIXIXIXJXJXsXsXsX~.~.Q.W.!.W.pXQ.W.W.!.pXQ.E.pXaXuXE.E.E.U.E.T.d.I ] J U /././.'.&X<X<XyXyXyXyXyXyXrXzXrXrXrXtXtXtX4X$X4XtXwX3X5X4X5X,X3X1X2X1X:X;X=X*X,X:X:X:X1X2X:X:X:X1X2X2X2X2X2X5X5X3X$X.Xr.oXoX] [ ( ! ~ / d.( y.( ~ -.*.&.Q > 5 &.n.f.b.8.8.| o.5.7.3.9.2.g 1.2.g 1.2.<.d 2.o.5.4.4.3.3.d d d >.2.2.d 1.4.3.g >.<.0.9.2.g 2.<.d b.d d d ;.5.o.<.<.o.0.1.<.0.<.9.0.k.3.3.3.d k.k.g J.g C.A.g A.g g 3.3.2.s d 2.>.,.y 9.>.4.3.j 2.g 2.9.g s >.d ;.1.;.<.2.t ;.k.d <.;.1.<.0.d 1.q.q.g s t 0.q.g d 9.2.>.2.<.9.3.g g 2.0.>.0.<.3.;.1.q.1.8.p.9Xv.c.a.a.c.m.a.v.m.v.m.u.m.x.",
",.<.4.3.4.n.T.j g g ;.:.o.d k g d d y 3.>.X.o.;.s g d g g >.d 3.g O.+.R ;.O.N ~ X.O.X.;.u d d Y.j 4.4.g g 2.j G.g s 2.3.b.f j j ;.2.j ;.>.;.>.O.X.O.X.X.s ;.d d r 2 0 ; e w s t s g s 2.d f g y | d f g s g 2.s d g g g f s d <.9.s d 9.>.g j >.;.X.s >.d 2.g f g C.J.C.C.S.C.f C.f 3.2.C.C.f g >.g C.,.,.;.:.;.d d >.>.d 5.<.1.X.6 2 ..6 1 5 5 R 5 .., , , < E b C m [ ' Z Z ' ' L G ] ] ] ] OX}.|.3X<X3X<X1X1X2X1X`.=X:X1X;X1X-X*X`.'.(.).G ' G n * N Y 8 = Q Y * y.iXaXdXKXKXKXPXIXPXJXsXsXsXsXQ.Q.Q.!.W.W.Q.Q.W.pXpX!.W.!.E.pXiXE.E.E.T.E.M.d.I I U U J /./.|.<X<X<XyXyXyXyXyXrX7X7X7XrXtXwXtX$X$X$X3XtX3XtX5X5X1X1X,X1X;X;X;X=X>X>X1X:X:X:X1X2X2X2X:X:X:X:X2X2X4X5X1X3X>X{.r.]..XL d.y.y.y.y.d.d.( Q *.&.&.@.&.0X&.5 =.f.n.n.8.u 7.0.1.7.0.1.d 7.<.2.q.<.9.d 2.d 2.g g 9.2.2.g 2.g <.3.<.f.0.9.0.2.1.q.5.9.2.d 4.>.q.5.0.<.;.5.9.5.5.<.7.2.1.7.5.5.<.3.s >.4.j 1.>.g f g 2.2.H.H.g f 2.4.3.2.d 9.2.;.:.5.g g f 2.2.g g 2.3.d <.;.<.u d 3.s t ;.o.u y o.1.q.1.d 3.<.7.3.d o.k.7.s g 9.2.2.4.d 7.k.j 2.<.9.2.5.;.U.$.q.-.a.u.a.v.9X9Xa.c.a.a.m.v.c.m.c.^ u.n.",
"1.u >.d U.<.E.b.9.j f g f s <.0.3.2.u 1.O.R N | ;.d X.u 2.,.u g f f :.X.o.f g ;.d J.g ;.d g k U.j 2.9.3.2.3.2.f A.s s 2.Y.g 2.g g d g 2.o.;.y t 1 u e e t t : a w w ; 9 w 9 w f s d 2.f C.f f g X.r g d f g g s s g f g d s g g g 2.d q.g g g 2.u u d s s d g f J.A.Y.B.C.2.j g f f g s g g d >.y d ;.;.>.:.o.;.;.1.o.;.>.u y r R < | 6 R 1 Q Y Q 2 5 , < < < b ( ' m ' F ' K r.] ] ] ] ]..X[.}.$X<X$X4X>X,X,X1X;X1X;X&X&X>X>X-X`.'.[.{.OX] ' F M % & Y * = = * & E m.aXpXdXKXPXIXPXPXJXsXsXsXsXsXQ.Q.Q.!.Q.pXpXQ.W.W.pXpXpX!.pXW.uXuXE.uXE.E.R.r.J U J J J /.[.>X2X<XtXyX<XyXyX7XeXtXtXwXtX#XwX5X3X4X5X4X5X5X5X5X2X2X5X;X=X*X=X,X4X1X1X1X2X2X2X2X2X2X:X:X:X:X:X:X5X5X1X,X>X>X'.).).).I ] e.y.' ' ' ] ! W *.W Q &.R -.p.x.W %.x.b.E.<.7.0.q.0.5.7.9.q.1.1.q.>.j 2.2.2.4.g g 9.d 4.Y.9.2.3.9.4.U.3.>.P.g 2.<.5.9.9.>.g 4.d d 3.3.3.;.;.d <.;.d d t 5.u >.u d 9.s >.2.2.d g p g s j j g A.g j 2.j 2.j ;.>.u 5.1.a >.g 3.2.3.2.>.3.3.3.2.d d h 5.d 9 o.o.d 7.7.5.<.9.<.4.k.1.0.9.9.2.0.f g 2.d 7.9.2.;.3.s 9.Y.2.J.u 1.8.8.c.d.i.t.u.a.a.9Xi.m.a.*.m.c.x.v./ m.i.c.",
"n.0.<.:.q.3.0.E.T.P.o.d ;.u d <.<.3.g >.u >.u d >.X.,.>.u j d g h j 9.2.f B.G.d d +.u g g g g T.3.3.3.4.3.j d d 2.p g s s 9.g g 2.:.f f g u r 0 e 9 u r 1 d $ >.u 4.d d d o.u g g d g f f C.s j d +.d f f f w <.g g g g d g s d d <.q.u d d t <.u d g s C.f 2.S.C.G.9.A.A.2.9.G.s 2.g f g 2.g s d ;.u u X.,.d 3.>.<.<.;.u r e  .6 Y 2 &.W R 5 5 < 2 < Y < Y 2 v ( { m L ' H } ] ] ] {.@X[.@X3X4X4X1X,X>X,X,X,X1X:X,X;X'.|.|.}.|.'.[.[.].' ' ' ' v & ^ &.N * 5 8 5 f.uXfXdXJXKXKXIXIXPXsXsXsX~.sX~.Q.pXQ.!.Q.Q.Q.Q.W.pXQ.pXpXpXpXpXE.uXpXuXE.E.c.I U G J G ].).}.<X1X<X<XtXtXtX<XwXwXtX4X3X4X3X3X4X5X5X5X5X1X4X2X2X2X2X:X;X=X>X,X1X2X:X:X:X:X:X:X:X:X:X:X:X;X;X:X:X1X2X1X,X=X=X`.'.(.(.[.I ] K ' K e.' ( C @.R W W E p.W ..-.-.=. .$.O.b.7.b.5.<.7.,.<.>.;.7.g d k.2.2.3.5.3.2.<.d 1.7.<.<.2.d 5.3.2.j g s q.5.9.4.<.<.>.g >.<.3.1.2.1.3.>.5.d 1.u o.1.t 5.<.<.j 3.3.2.j s s g X.| >.g s 2.d d u >.d u o.7.d 7.9.7.9.<.2.4.<.9.U.2.3.4.s t t t : y y ;.t k.5.1.0.2.g 9.1.0.o.9.g g 9.j k.2.>.0.0.J.9.1.4.2.7.3.7.1.8.-.c.i.d.v.t.@.x.a.0Xt.u.c.i.c.t.u.9Xu.v.c.c.",
"E.n.b.0.1.<.;.9.T.T.1.;.| o.:.d d <.d 2.d g f g g d 2.2.d 2.2.G.f 2.2.2.2.C.f 2.g ;.2.g j g s E.2.G.g f 2.B.f <.3.f f g g >.g <.3.9.>.d g ,.X.X.y u g X.u <.+.o.+.d A.;.;.:.O.X.d g ;.g f f f s g o.| s f f t J.g j >.d d u t u t d 5.u t <.g d g f g Z.C.C.g G.C.S.2.G.Z.2.J.g 3.2.C.C.Z.g g g Z.g g 2.>.,.g >.g d u i r 6 6 ..5 R N @.W W , 2 < 2 R T ! ( ( m y.{ F L ] J L ] ] ].%X>X>X%X4X2X2X1X>X>X1X=X;X&X&X&X-X'.'.`.'.}.(.].} ' y.e.y.T T 5 -.&.T Q 8 8 &.m.aXfXKXPXKXKXKXJXJXsXsXsXsXsXsX~.Q.Q.pXQ.!.!.pX!.pXpXpXpXpX!.E.uXuXpXuXE.a.y.P I L ] ] ].[.}.<X3X<X,X$X3X5X5XtX3X5X5X5X4X4X4X4X4X4X1X2X1X1X:X:X:X:X:X*X*X,X1X:X1X=X=X:X:X:X:X:X:X1X:X:X=X:X:X:X:X:X:X;X;X=X*X|.|.(.{.L ] K ' K [ y.[ ( ! Y &.Y +...Q 6 ....=. .6 ; :.6.7.6.8.1.1.;.d ,.2.d 1.8.3.d t 5.>.y k.u ;.5.;.<.<.d h q.3.<.<.d q.<.1.<.5.<.>.d 0.7.Y.1.3.3.7.d 5.1.>.<.h t t 7.2.s u 2.;.,.>.| q r r o.3.g f s s g u 5.d <.0.k.f 0.7.3.9.5.3.2.2.9.2.4.d d e w t t 9 e t d d 3.d d <.2.g t t 0.1.<.3.2.U.2.Y.3.2.9.U.Y.9.<.0.5.k.0.7.n.n.9Xu.a.a.u.9X*.m.m.m.c.9X*.a.a.i.c.c.9X*.m.x.",
"U.n.m.b.k.1.;.X.9.k.k.<.u 2.2.d ;.1.<.2.2.d d o.X.d 2.s 9.j 0.d g Y.f 2.4.j f 2.g 2.9.9.g f s E.g 4.g g j g C.f j g f 2.C.f 2.;.d k.j d u 9.:.| | t s d s 2.| | u u g g u r o.X.s C.;.d g g f f s u | :.s 2.j A.f g d u s t t s g s s 9.;.u 3.d g g g f Z.f g 3.A.C.B.f f G.C.f 3.g C.C.C.g s g g g g 2.g ,.,.X.| o.r r 6 5 2 W Y 2 &.5 R 7 , , , < E n ( m ' ( [ r.m F ] ] ' ] ].}.>X,X1X2X2X2X2X1X>X2X1X;X&X&X-X`.`.`.'.'.(.{.].' { { d.y.u.T & N _ * 8 * 8 Q n.E.fXJXKXPXPXKXKXJXsXsXsXJXsX~.~.~.Q.Q.Q.Q.pXpX!.pXpXpXpXQ.pXE.E.E.E.E.E.E.d.] L ] J ] ] ]._.>X,X3X3X4X4X5X2X5X4X4X5X5X5X5X5X5X5X5X2X;X:X1X:X1X;X`.=X*X=X=X,X1X:X,X1X,X=X>X=X,X:X1X,X:X:X:X:X:X:X:X:X:X:X;X,X:X,X*X`.[.).L ] ' y.y.y.( y.! ( W ..6 @.5  .-.....2 Q 6 7 %.8.8.8.7.8.7.b.2.3.d 0.<.1.;.d 9.d d 0.d 4.0.3.<.U.2.3.0.<.9.2.2.d 9.1.2.J.g 3.4.9.0.9.4.3.3.j g d Y.d s w w d 4.f f +.y y 1.d 2.u ;.<.3.g f f j j 3.3.2.g d <.<.d ;.9.2.;.q.d d 3.2.2.;.;.d t t t w t w u h 2.1.2.u u <.1.d >.1.0.d 9.d Y.g d 4.2.0.3.0.q.,.o.O.n.8.f.M.c.c.a.9Xa.a.0Xu.p.c.c.c.a.m.m.a.i.a.u.m.a.c.c.",
"8.7.n.9.k.3.g ;.X.>.1.3.5.3.:.o.2.2.d <.9.:.;.o.o.g s d 9.g 3.f 3.b.9.3.3.b.Y.4.4.g 3.9.3.2.g T.g k.4.J.g J.C.C.g 2.f j B.f 2.g h ;.3.g u u 0.+.R N r d X.d | r ;.o.d 2.s y u d d f g y u 2.g f f s u | r r 2.f s s h s d s g s g g g k g a d q.2.g 2.j g f C.2.J.C.B.C.g A.C.C.g H.A.f C.C.g g >.>.:.;.o.d u q.| r r 6 1 R R N E < R 2 Y % 2 < < ! ( Z m ( Z ' F F L I ' ] ].[.}.|.4X,X1X2X2X1X;X,X,X;X,X1X-X-X`.'.}.(.(./.).} oX} ' ' { ^ &.T * * T & & = 5 n.pXdXKXKXPXPXPXPXJXdXdXsXsXsXsX~.sX~.Q.!.!.pXpXpXuXpXQ.pXQ.pXpXpXpXE.E.m.E.0X] I J J J J J I #X|.3X4X>X,X2X:X2X,X4X5X5X5X5X5X5X5X5X2X:X;X;X*X=X1X:X=X=X=X1X:X;X>X1X|.1X,X5X,X>X*X;X1X,X:X:X:X&X&X:X:X:X:X:X:X:X:X;X,X=X`.(.J ' ' t.r.y.( [ t./ ( ^ T ^ Q -.x.W 5 R &...m.%.8...$.M.n.b.8.1.q.<.q.1.1.1.<.0.<.k.9.s 9.9.<.s 0.1.<.E.4.k.3.<.5.7.2.5.0.2.g g 3.>.2.g <.>.j j 2.3.2.w w t g d d d y ,.>.9.g 9.2.g d s 2.3.j 2.2.3.2.2.2.e e u 9.u 1.>.<.q.3.<.<.;.k.q.3.<.d t 9 w d d d <.d 9.u 9.<.1.d 9.g <.0.s ;.<.<.d t 5.u ;.<.5.0.q.1.0.6.n.v.9Xv.a.m.c.d.c.a.v.a.c.t.x.c.c.uXi.a.a.m.9Xv.i.t.",
"1.5.9.3.5.4.j g ;.;.:.R 8.f...O.3.:.| u <.<.O.R d g d 2.>.9.3.f f 9.U.9.g j 4.g 3.j g 3.3.4.<.b.g j 9.9.f 4.C.f f g g s C.d d 3.d y d 1.g f s 2.X.| u d d s o.| X.| y r g s d g d o.g g d d 3.d 2.g f a s # s s 2.d s s g j g s g s s d <.s t ;.g f 2.2.g f f g 3.H.B.C.A.C.C.f g 2.2.g g g 2.d 3.<.X.u ;.o.r | r 6 R 6 5 Y Y < 5 Y < < < 5 < < N n Z ( m ' Z ' G L I ] ] [.%X3X>X>X,X2X1X:X=X&X;X1X1X:X,X>X-X-X`.'.'./.I I ].] oX] ' ! ^ ^ &.T ^ ! * 8 * 8 8.E.dXPXPXKXPXPXPXIXKXJXJXsXsXsXJXsX~.sXQ.Q.pX!.Q.Q.pXW.pX!.!.pX!.W.!.pX!.uXE.d.L I G U J ] J ].#X#X3X1X1X1X:X=X;X1X>X1X1X5X5X5X5X2X:X;X:X-X;X;X*X1X*X,X:X1X5X2X2X1X>X3X4X,X2X2X5X,X=X1X=X=X:X,X1X&X&X:X:X:X:X:X:X:X;X;X;X*X'.).r.r.' ' d.' ' y.t.Z ( C / p.&.-.5 Q -...6 n.p.-.-.%.T.6.8.b.8.q.1.7.>.d ;.q.1.7.0.q.>.<.b.4.>.q.q.5.3.4.d 3.9.5.Y.<.0.d 7.5.g >.q.2.g >.r :.o.d ;.>.t 1 t o.o.g d u Y.k.j 4.9.f g g f f A.f j 3.2.g 3.3.s u 3.d <.5.3.<.>.3.>.<.<.<.<.2.j 9.s 1 u 2.2.<.7.3.q.u 9.u <.d >.s ,.q.<.1.q.>.3.d d 1.d 7.5.7.b.0.0.=.m.v.m.c.x.uXa.v.a.a.c.u.m.m.m.0Xc.m.a.u.c.a.m.9Xc.a.",
"X.w.+.X.:.0.<.1.6. .7.O.O.;.8.E o.;.g s <.3.;.o.d g 4.d s 1.2.s d <.9.2.g d g f s 4.g g 9.j 9.U.f g 9.3.2.j f f f f f s s j d g j d g u 2.f a >.g d X.u s s >.X.u u u | r s h d d y s s f u d f s f p p p w d d 4.G.C.f f f s g g g f g s 2.f g a s g s g g f g s j g C.f f g s g g 9.2.g d <.d d d o.o.o.o.r | 6 6 5 5 5 Y Y < R < < , 2 Q b B C v ( m n } G L ] {.[.].%X%X3X4X,X1X1X:X;X&X=X;X:X:X;X-X'.'.'.'.'.'.'.{.I I I } ' a.m.! Y *.T T -.T W * 8 -.uXdXKXPXPXKXPXPXPXPXKXJXJXsXJXsXsX~.~.~.~.pXQ.pXpXfXpXQ.pX!.!.pXpXE.E.pX!.pXM.' G G H G U I I OX$X%X#X3X1X,X1X=X*X*X1X,X2X1X2X2X2X:X:X:X:X-X=X;X,X,X=X,X1X1X1X1X2X,X3X4X4X,X2X2X,X,X,X1X=X,X,X,X:X;X&X;X:X:X:X:X:X:X:X:X;X=X=X|.@X[.].] ] ' K ' ! { ( ( ^ u.@.Y , %.m.-.&...x.R x.Q ..=.-.m.8.5.<.7.<.;.;.7.3.;.k.9.g <.9.2.3.<.3.>.d >.g 1.5.<.0.U.3.g 9.k.j g 2.d d d ;.t 2.d 2.d 9.<.g 3.Y.j 3.9.4.9.9.3.Y.g f g G.f g 2.f Y.>.2.>.9.j s 2.s d 1.5.2.g 2.d 2.<.d 2.g g 9.j a d s 2.j 1.1.5.0.d d <.2.<.2.9.7.3.<.3.k.9.d d 3.1.q.9.j 3.8.f.-.m.-.0Xm.m.m.v.c.i.c.a.c.t.c.t.u.v.a.*.9X*.x.x.c.a.m.",
"w.~ +.#.E O.=.=.6.=.8.=.#.o.0.f.;.o.;.<.9.9.3.3.;.+.1.9.g 4.j s s s <.2.2.g f C.d >.3.g 4.g k.uXG.j 3.Y.3.3.g j 2.f f g 2.g g t 2.g d >.y d d ,.s 2.X.;.y g :.u o.r h | < t a h d u d t s d u s g d f p p g >.| ;.3.Z.d g g s 2.g g g 2.d 2.2.d j 1.2.f g Z.C.Z.f f 2.Z.g g g g f g 4.2.2.d q.2.,.o.6. .O. .6 6 5 R R 5 5 Y Y Y N 3 < < B n ( m M n ' F m r.L L .X[.XX|.|.%X4X,X,X1X1X1X&X;X:X:X:X-X`.`.`.'.[.'.(._.{.] I ' ' K ( T &._ 5 5 W *.T *._ x.&.E.dXPXPXPXIXPXIXIXPXKXJXsXsXsXJX~.~.~.pXQ.pXpXQ.aXpXfXQ.!.pXaXpXpXQ.E.aXQ.pXpXg.] J J J I J ]..XOXwX3X#X$X3X3X,X,X>X'.1X;X:X:X:X2X:X:X;X-X:X=X`.;X,X1X4X4X4X4X$X3X4XwXXX%X4X,X,X1X1X,X:X;X>X1X1X,X;X:X:X&X1X:X:X:X:X:X:X:X:X;X;X1X,X>X}.].] ' ] ' y.e.[ ' ( / ( B p.T p.Q &.@...5 R W *.Q =.O.=.7.6.6.:.<.u y 0.<.7.3.g 5.<.g 2.d 1.5.0.g <.5.9.H.s 3.3.s P.g s >.o.o.u ,.3.d q.0.9.j T.9.g 3.3.4.b.4.0.9.3.4.k.2.g 2.2.2.d 4.j 2.<.3.2.d h d t s d d <.3.2.2.<.9.g g 3.7.9.2.f g 2.g 3.g d 1.b.1.2.<.d <.q.1.k.1.q.3.<.0.3.0.<.8.q.7.7.3.q.8.n.n.n...m.m.M.y.c.*.a.t.m.u.a.*.u.a.m.u.*.m.a.p.c.u.a.a.",
"t.*.@.#.=.+.| 6.8.b.n.-.+.O.o.0.n.;.r d >.q.;.9.2.X.d 0.2.g 2.u u y 1.d <.2.g g g 2.b.Y.g 0.7.U.4.H.H.U.0.0.3.j j f Z.g 2.g g s d f s g s d r 9.>.a 4.:.| s d u o.| | r y 1 d g g ;.g >.d d d d g g g g d 3.2.;.X.;.>.g d >.g G.>.u 9.>.2.>.2.2.g 0.g 2.j C.G.f A.g g C.C.f H.G.Z.C.j 2.<.,.0.q.q.O.=.O. . .R R Y W W Y E W T - E < < ! C n ( n n n m ' } ' ] ].[.}.|.|.}.}.4X,X1X=X&X&X&X;X-X-X-X'.'.`. X'._.{.[.].] ' ' Z ' ! Y < 5 _ = & * p.T 8 Q p.m.pXKXPXPXPXPXIXIXIXPXKXJXsXsXJXsXsXQ.Q.Q.pXQ.pXpXpXQ.!.pXpXpXaXpXpX!.E.pX!.E.uXa.] J J J I ] [.OX$X$XwX$X3X$X4X|.>X3X5X;X=X;X:X:X:X:X;X=X`.*X1X,X*X3X1X4X4X4X3X3X3X#XOX.XOX|.|.|.>X,X3X1X;X,X,X:X>X=X=X:X:X=X:X:X:X:X:X:X:X:X:X;X;X,X,X*X}.] ] r.' d.' oXZ d.' ! i.a.( *.5 W W 5 ..Y W m.*...Y ..%.0.$.0.u o.i 7.1.3.<.d u <.q.1.3.>.0.9.g q.7.<.2.g 3.k.3.>.u o.y 9.7.<.0.4.4.5.q.2.g 4.0.2.3.2.4.Y.b.T.3.3.7.9.C.g 2.2.2.<.<.g 2.3.2.9.g t d >.d 1.g 2.9.<.<.2.0.j g 2.6.1.2.s 2.0.3.2.3.1.9.9.4.j 4.u 5.7.3.9.d 2.k.<.2.1.b.,.0.0.0.0.8.n.8.n.$.m.-.&.p.a.a.a.a.p.t.a.p.m.a.c.9X/ &.0Xp.a.u.u.c.p.a.",
"y.y./ @.a.f.-.@.6.8.5.9. .o.g d Y.U.f s d d <.>.t s f 2.Y.g 2.X.u r ;.d t 3.o.u 9.4.3.4.j 2.b.2.3.3.2.2.9.k.f j j g 2.g g <.d s s 2.f d s f f u 2.f f 2.h s 9.d d u | u r y a f f u g d g u d s d g a g d k.2.g d O.R d g y 2.g g o.u <.g C.C.G.f 2.C.3.2.C.C.g f f f f s j Z.g 2.j 2.>.<.<.6.6.$. . .5 ..R R @.T T Q E &.E T N ^ B ! m m n ( ' m ' ' ] L ].[.#X}.}.>X,X,X>X,X2X:X;X&X&X&X-X`.'.`.'.(.[.[.{.{.' d.' ' Z Z N N N , > # = _ # # Y *.` Q m.pXdXPXIXIXPXIXIXIXIXKXJXJXJXsXsXsX~.Q.Q.Q.pXQ.pXpXpXQ.!.pXaXpXpXpXpXQ.pXpXW.E.m.t.I G J J I I ).}.3X4X$X$X3X$X3X$X4X3X5X2X=X;X:X:X:X1X:X=X=X-X,X4X3X3X$X4X5X3XwXtX3XXX+Xr.oXXX[. X|.|.$X3X,X,X1X1X>X,X1X:X:X:X:X:X:X:X:X:X:X:X:X:X;X;X=X*X|.}..X] ' ] ' d.' r.' T a.! a.( ^ ..-.&.&.-.6 Q -.W f...6  .r 8.5.8.5.o.q.<.9.1.>.d 7.7.5.>.9.1.Y.3.Y.2.0.9.3.>.;.u ;.k.k.2.2.9.7.9.4.2.g j G.g 9.3.9.4.3.3.4.2.3.d 3.4.2.4.9.g 3.b.2.g 2.5.<.2.g d e ;.<.7.2.3.3.7.2.q.0.b.b.2.9.d >.7.k.7.<.9.7.b.3.2.3.3.3.d q.5.3.<.G.>.4.1.q.2.2.3.9.7.b.n.8.0.q.f. .T.f.f.-.*.x.9Xa.u.i.a.a.a.a.c.y.W m.x.m.u.n.u.M.a.p.",
"/ [ t.*.d.d.d.y.@.&.o.5.0.3.g g >.T.G.t f 2.0.,.y d r e 0.E.T.o.u o.+.X.y u <.d 5.0.| d 4.2.Y.j 4.Y.j 2.3.9.j g g d 9.g f s s <.t <.g d k f f d u d y 3.g s 4.d s a y u t u a u s >.d ;.>.o.s g g s u d d 9.;.g g d +.| d u g >.d 2.d y g f g f g f f 2.4.2.f C.f f g d d 4.g g >.2.1.<.<.$. .O. .6 Y R W Y Y E T Y R ^ R E N Y v m v ( ( ( F ' F L K ] ] [.|.%X}.|.>X,X,X,X;X2X;X:X:X;X-X-X-X`.'.`.}._.] ].]..Xr.' ( B N N < , , = # # Q W Y # & &.M.aXdXKXPXIXIXPXIXIXIXIXKXJXJXJXsXsXsX~.Q.Q.Q.Q.Q.pXpXpXpX!.W.pXpXQ.Q.!.!.Q.Q.E.M.*.K ] G U J U I I #X3X4XwX#X$X4X$XwX4X>X2X:X;X=X:X:X:X=X,X|.>X*X4X4X4X3X#XwX4X3XwX$XwXOXr.d..XoXOX_.).XX@X|.>X*X,X=X>X;X:X:X:X;X;X;X&X:X:X:X:X:X:X;X=X:X=X*X|.%X%XXXr.r.r.{ ] ' Z t.u.( u.t./ / / ^ W -.Q R ..R x.+. .6 |  .o.0.b.;.<.o.5.k.3.<.1.5.0.3.1.q.7.0.<.1.7.;.1.<.;.<.b.4.0.P.2.3.2.9.2.j f 2.3.3.U.k.2.1.0.g g f 2.3.d 9.U.9.4.2.g Y.>.2.2.q.o.2.4.g d o.d u 5.q.3.9.3.9.b.5.b.9.2.G.s 7.0.1.;.5.q.<.2.2.k.3.9.4.q.7.5.3.g 2.9.m.b.2.;.>.;.5.7.b.0.<.8.8.8.O.n.-.8.8.x.c.t.u.@.y.u.a.c.c.^ -.m.x.m.u.iXa.p.-.M.",
"y.~ d.y.[ [ / y.^ | o.$. .<.d ;.r 0.3.d g d 3.k.A.s d 6 d uX2.G.t <.>.o.u y 5.<.<.Y.2.<.Y.<.b.9.H.>.2.j 4.k.4.P.j 2.9.j G.X.u >.g s 2.f 2.2.s d u >.u | >.g g f d d r u y r d s s g g s u X.d >.d h t <.q.2.G.g g >.u o.r <.2.>.o.d s u t d 2.s g g 2.g 2.3.f C.g g d u 3.d d >.>.1.O.6.=.-. . .R R ..R Y Y Y &.R ^ E ~ T B N n m m m / ' ' ' K K K ] L [.}.|.|.,X,X>X,X1X:X:X=X`.-X-X*X-X`.`.'.'.'.}.{.].+X} .X] ' C T N N , 7 , # # # = -.W & & Q E.fXdXKXKXPXPXIXIXPXPXPXJXJXsXsXsXsXsXsXpXQ.pXsXpXpXfXfXpXpXQ.!.pX!.Q.E.E.!.W.E.n./ Z ] H H D H ] ] oXXX$XwXwX3X3X#XwX3X4X2X:X;X;X:X:X;X,X>X$X,X>X4X5X5X3X$X3X3XwXwXwXqX8Xy.d.' oX] ] /.{.[.}.`.*X>X>X>X,X;X;X;X;X;X:X&X;X:X:X:X;X:X:X:X:X,X4X4X4X>X|.+XqX.X] ] n ' ' ] y./ y.[ ! ( ( R 5 ....R ..&.W +.....8.1 u <.5.;.0.o.7.<.q.0.7.5.9.q.q.q.<.>.;.1.>.5.k.9.k.9.4.g 9.J.g 2.2.9.2.g d 4.d 9.4.2.3.b.3.9.2.<.0.9.1.4.3.d 2.2.3.d <.b.b.<.<.9.3.3.<.d ;.<.9.2.d 9.9.q.;.<.3.4.2.g 2.4.0.d 9.>.9.g 2.9.5.7.Y.2.3.7.<.g >.<.3.<.b.9.>.;.9.0.3.<.<.7.8.8.=.f.6.b.8.a.a.a.u.a.*.m.m.c.t.@.a.-.u.x.m.0Xa.&.x.9X",
"y.y.d.d.[ / *.@.*.#.r 0.O.+.o.>.d d 4.j 9.d 3.T.G.C.j 3.d k.j J.3.d 9.4.d 1.7.9.4.q.E.3.q.9.3.k.0.g g 4.3.9.U.b.2.d d d A.d g s 3.g f j j s j d ;.s 2.+.y 3.P.u g d +.y :.+.r g o.d g d d u d u d ;.;.o.0.2.g g g 2.g ;.r 3.2.g d t <.g y e g A.f g 3.g g 2.g g g g s g d 2.>.,.>.:.O.O. .+...&.Y R E Y R R u.c.[ ! B ~ T B C n m F F m F K ' ' L ] [.[.|. X>X,X1X:X:X-X;X;X&X&X-X-X-X`.`.`.'.'.'.[.{.].]..XI L Z ( N Y N N , , = # # # # 5 m.8 &.E.pXJXKXKXKXKXPXIXIXPXJXJXsXsXsXsX~.~.~.pXQ.pXQ.~.fXpXpXpXpXpXpXpXpXpXpXpX!.W.R.T.8.C F L D D D L L ] ] OX3XtXwX<X$X3X%X%X4X2X:X=X;X;X;X,X4X4X3X3X$X#XtXtX3X$XwX3X$XwXqXqX8Xr.] K ] ] ] G U ] ]./. X'.$X>X4X>X,X>X,X;X:X:X,X:X:X:X:X:X:X:X:X1X1X1X2X,X>X@X$X|.`.L e.d.' d.] m [ / [ C t./ %.R Q @.&.W -.Q Q @.=.=.r r $.u Y.k.;.q.7.<.1.7.0.5.5.0.:.u q.3.9.<.4.4.Y.2.2.A.A.g g 2.s 3.j G.2.U.2.g H.3.f 7.n.Y.9.3.q.Y.3.4.g 2.g 9.3.3.2.k.0.0.5.0.k.2.j 3.q.b.d g 9.9.q.9.9.<.0.J.d 1.2.j 3.4.5.9.9.>.<.1.q.T.3.U.;.7.q.5.9.3.3.d 0.0.3.g >.<.0.<.5.b.f.<.q.8.b.b.f.a.v.m.a.a.0Xy.a.9X/ a.m.m.c.a.uXu.m.m.i.m.",
"y.d.y.[ y...O.=.#.O. .2.2.1.#.+.>.d 4.d 2.4.2.2.3.f j 9.4.1.U.<.0.7.t 7.7.9.<.0.7.7.5.Y.1.b.2.<.Y.g g j j 2.U.b.2.X.s >.2.;.;.s u g f g d o.d s g d d 9.| y U.>.g ;.s d d O.R :.X.o.d 3.>.d >.o.>.>.d o.8.q.o.u 1.1.2.;.o.O.| >.s d j g g o.t g Z.s 2.G.g g 2.g d g g >.>.,.3.;.<...R R 5 Y R -.Q Y Y E E W y.( ( T B ! C Z v m m m m m m K G ] I [.}.|.|.|.,X1X=X;X&X=X&X-X`.-X*X`.`.'.'.'.(.}.{.oX].] ] K e.~ N R W < < < , , = # # # # Y &.-.E.dXKXPXPXPXKXIXKXPXPXKXJXsXsXsXsX~.sXsXsXQ.Q.Q.Q.Q.Q.pXpXpXpXpXpXpXpXpXpXpXQ.E.U.l...C m H I D D L G Z ' OX3X3XtX4X,X<X3X3X4X1X1X;X;X:X1X,X4XtXtX3X#XqXwXtXwXwXwX4X$X@XwX#Xr.oXr.P P ] L D H L ] I ].[.|.*X`.`.*X,X>X1X=X=X;X:X;X:X:X:X:X:X;X:X:X:X;X4X,X>X3X>X|.XX] r.] r.] K ' / u.( g./ [ ! ^ -., Q &.&.W R Q =. .%.O.7 <.b.,.1.;.;.P.4.1.d 9.;.;.5.5.3.b.7.H.3.9.H.g g G.2.>.2.j 3.>.g Y.9.9.3.2.1.2.k.n.<.9.q.3.1.0.4.2.2.2.3.9.9.2.4.2.0.<.7.0.j 2.3.5.b.2.2.9.d k.4.9.3.9.2.;.7.0.2.3.3.>.Y.1.0.7.5.0.b.0.7.7.<.5.k.d d k.d 1.3.>.;.3.1.n.o.Y.6.0.7.u b.0.$.f.f.m.c.m.c.0Xc.c.0Xa.x.uXm.m.m.9Xa.m.9Xi./ ",
"d.[ *.#.o.,.3.6.R | ;.2.,.>.O.+.>.u g f g g J.1.s g j ,.3.9.7.T.<.3.2.7 5.1.<.8.o.Y.1.k.3.T.2.d T.2.d 2.g 3.j 3.J.g s Y.3.d +.X.r d f f s d d d a Z.d 4.4.d 7.k.g d d d a ;.+.| X.d s s g >.;.;.>.g ,.o.0.7.7.O. .7.2.r q.>.X.2 y g d d g g g 2.Z.g d g g C.A.g g s 2.d 3.,.<.+.| 6 5 6 5 Y R W x.T T R ^ ^ ~ ! e.B m m ' c B ( F F F F ' ' ] ] [.|.>X>X,X>X1X=X>X'.'.`.`.>X-X-X`. X`.'.(.[.{.] ] ' ' ' ! ! E R R < R 5 5 6 7 - = # # # 5 Q &.E.pXdXKXPXPXKXPXPXKXKXKXJXsXsXsXsXsXsXsXsXfXsXsXQ.Q.pXpXpXpXpXpXpXpXpXpXpXpX!.W.W.R.l.E B K H H D H H m ( r.OX3X3X5X4X4X4X4X4X4X4X1X=X:X2X1X>XwXwXwXwX#X#X$X4X#XwX$X$X>X@X$X$X.Xr.] L ] ] G G L ] ] ] I ].'. X`.'.*X&X'.>X,X=X;X:X,X:X:X:X:X:X:X:X:X:X:X,X1X;X=X,X|.OX#X#XXX] r.' d.( *.' t.( ! ! ( E , 6 R =.5 5 ..-.Q =. .O.; o.2.:.<.7.5.d >.;.q.2 G.k.1.d 7.0.g C.3.2.g 3.3.4.;.Y.2.3.3.s <.d 3.0.3.1.7.3.k.9.3.k.<.9.0.9.g q.b.5.k.3.3.9.>.>.4.9.>.2.3.5.Y.9.<.9.g f 3.f.7.Y.4.a 5.n.7.J.2.g q.7.9.0.7.k.0.1.9.,.q.<.g 2.d <.q.y ;.d u 7.9.1.q.<.7.7.5.0.<.7.0.f.8.f.f.a.x.0X9X0X/ u.a.t.u.p.p.i.d.d.t.x.*.) ",
"b.3.2.3.;.;.2.:.O.+.;.2.1.o.,.;.g g g s 2.u d Y.3.Y.g r 5.2.T.9.9.2.2.1.o.r R R o.d 9.k.1.U.k.0.b.4.;.<.2.2.g j P.A.2.g G.f :.| X.u g s 2.d g f a g g d Y.f g d 2.u o.| d 1.R R y ;.d o.d <.>.;.>.;.:.O.6.=.8.6.6.O.1.u H.A.g u ;.o.u s 3.f g 4.g f g X.>.Z.f >.4.>.>.d ;.o... .Y 6 6 5 Y Y 5 Q -.*.Q W ^ ~ T ! ~ [ F F K c K F H G G G L I [.}.|.>X,X>X|.>X,X:X&X(.'.`.`.>X-X-X'.`.'.(.[.).I K C ! *.B E , , ..Q > , R 6 7 6 & = = # = 5 W l.E.JXJXKXKXPXPXPXPXKXKXJXJXsXsXsXsXsX~.~.~.Q.~.sXpXQ.pXpXpXpXpXpXpXpXpXpXQ.~.E.R.R.U.W W B n D D D H M C ( r.OXwXwX4XtX3X5X1X>X>X3X,X,X,X`.`.}.XXr.qX+X#X#X#X3X$X$X4X4X3X3X3X$X#X[.L K K K L L ] G ] ] L G I ].(.(.'.`.'.|.*X>X=X:X;X;X:X:X:X:X&X;X:X:X:X:X:X=X;X;X*X@X>X>X%XXXd.d.r.Z t.Z ! ~ / v C B ^ 2 R R Y < 5 &.5 -. .=.| o.u O.$.o.<.;.9.3.| o.3.g 4.<.d 4.2.f j 3.;.b.<.k.7.k.3.2.2.s a g d Y.2.4.1.g g 2.2.0.2.9.k.4.0.1.Y.4.0.2.3.<.4.<.>.>.2.2.>.4.2.4.d 1.P.g <.n.k.9.H.g >.0.7.2.2.3.9.g 3.<.q.7.d 0.>.2.j 4.u <.d k.b.5.d d ;.<.2.;.7.5.1.q.7.b.1.0.0.7.b.n.i.m.a.y.v.v.t.*.@.*.*.^ ^ E / / e.^ a.W ",
"T.P.<.b.Y.6.@.O.2.g ,.3.,.O.+.d g ;.d s j g ;.k.!.T.G.| 9.I.Q.1.T.1.=.O.5.y  .V ;.;.<.k.T.k.2.Y.0.3.9.2.3.9.2.9.3.j j 3.G.g f g d s g g d ;.d g g o.2.X.9.d f o.t d >.y w 1.u y R r u o.u 2.g >.,.1.O.-.s.-.#.n.8.O.O.<.A.j d f g d O.X.d f f g 2.g d d >.g d 3.>.d u o. . .R 6 R , 5 5 5 N , 2 R &.^ ~ T B C ' Z d.' G m K F G G G L G I [.4X5X<X<X<X}.|.*X`.-X`.'.-X-X-X`.`.'.'.'.[.[.] ].L C N N *.T N < 5 Y Q 5 , , 7 , & # # # # = 5 %.R.dXJXKXKXPXIXPXKXKXPXJXdXsXsXsXsXsX~.~.Q.Q.Q.Q.~.pXfXpXpXpXpXpXfXfXpXfXfXpXQ.E.W.R.l.W *.T B H D D L m C r.#X#X#X$X<X3X$X$X,X,X3X4X,X,X`.@X#X@X].8XOX#X+X#X3X3XwX3X4X5X4X5X4X$X#X$X).L ' ( ' F H H D D G L } ' r.]./.[.'.`.'.3X*X>X=X,X;X,X;X&X=X&X:X:X:X&X:X&X=X:X|.4X=X>X%X#X@XoX] ] ' Z C B ( n [ n t.C R R -.2 , , 5 M.%.8.=.=.$.<.u 1.<.3.0.d 3.Y.H.p Y.9.3.2.G.A.G.2.J.9.9.g P.2.4.H.2.3.2.2.4.Y.A.3.P.2.f f A.Y.4.2.9.k.T.g 2.9.0.Y.g 2.J.2.H.Z.2.9.u 0.2.9.2.0.9.2.J.k.2.g d 3.2.<.9.q.>.3.2.d Y.4.0.9.t Y.2.H.j >.u 0.>.Y.Y.k.9.d 0.H.3.9.b.b.J.1.b.b.3.7.1.q.f.p.t.t./ ^ v.y.t./ T ^ t.*./ a.u.a.a.u.x.c.",
"f.8.b.n.-.q.-.! +.6.7.0.q.=.@...$.#. .$.O.<.6.+.=.n.7.6.P.I.9.7.b.8.=.R O.<.q.o.o...R  .n.b.3.<.n.<.9.>.<.<.<.;.1.0.,.<.2.<.>.>.;.u d d u o.| y d o.<.:.u 9.<.u 1 e <.;.e e ;.o.E 2 o.Y R 2 o.;.=.^ R @.*.y./ -.8.=.o.;.<.o.X.;.X.X.O.E N | >.g g 2.o.;.>.2.2.,.1.O.O. . .R E R W R T R Y Y Y E ~ ^ t./ ! C ' ' ' d.} ' ' ' ' ] ] ] ] ].|.>X<X>X<X>X|.>X|.'.'.`.'.'.'.'.'.'.'.(.[.].] ].] .X' t.E ^ &.u.N , 5 < Q 8 Q , , -   X X o # = Q n.pXJXJXJXKXJXKXKXdXKXKXdXsX~.~.~.~.Q.Q.Q.Q.W.!.Q.!.W.Q.!.Q.W.!.Q.!.pXW.Q.Q.!.R.U.n.n. .7 , 5 v M M M n b ! r.oXoX( .X[.[.].[.[.|.%X>X`.[.}.[.{.] ' v.' r.r.oX].OX].#X[. X|.}.[.[.Z ] ' B B ! B n ( Z M M M m ' K t./ ' K )._.U )._.(.`.'.`.`.`.`.'.'.'.`.'.'.-X-X,X'.[.|.|.[.[.[.).].] ].' n N ! ! ! ( B ^ B N 2 &.6 , , , ,  .6 r e u u u 9 t t 1 t t d 2.s 3.d <.2.a g 2.3.d j 2.f s d j 2.<.3.f s 2.2.g f f j d 3.3.2.<.g t <.2.u u >.3.b.f g 2.s 3.f f f a 4.3.g 2.d u d >.g g g e 9.1.s d >.3.2.t ;.u 3.4.3.d o.1.9.>.g d <.d 2.2.u 9.2.4.2.d 1.9.4.f 9.3.3.q.1.$.8...E p.^ c.t.t.Y Y E T t.T W u.&.u.m.u.c.) -.",
"*.&.&.^ W W @.T N N N Y ~ T N N < Y N E &.Y -.T * Q x.-.R | 6  . .n.R 5 R  .| o.o.=.Y R ..7.O.Y 8.+.X.E 5 6 r 6 6 8.o.| 6 1 6 N < , | R | r  .Y < 2 | 5 Y < ..R < R $ =.N % , N $ 3 < < % N < < Y N $ , 3 $ , < N Y R ..N , , N $ $ O , @ o $ $ Y Y N $ 3 $ $ $ $ & W Y 3 Y , & , ..& E & Y $ N $ 3 N T N $ Y N N ~ B % , , 3 O O V S % } ( ' B B * N % B C m S m M x S M L m n N ( B b c E T Y 3 T N $ 6 $ , , , > , : # o # o o # # 5  .b.n.7.W.Q.pXQ.E.R.7.Q.!.Q.W.W.W.W.R.Y.l.R.W.5.$.P.7.7.7.k.$.$.7.7.l.Y.$.$.6  .6 # @ @ o @ & % 4 4 4 c % 4 O @   - $ , @ 3 ' ! c S S x D x x m S c * % $ 3 $ O   , @ 3 O % % O 4 4 $ X O O $ 3 % $ N 4 c c c c c 4 O < T % b S S S x S x D x D D D D D D U U U U /._.D H x x x M c b 4 4 n B B , % # # O   o o # @ , o @ , @ o @ o O : # X @   : o o - X   ; 9 o o e e @   0 t u - X o o o 9 - ; - : w 1 @ # ; @ O o : ; ; o : o # 9 : o : 9 o - # O ; @ 1 O : : - : e e e X ; : 0 > o : - ; o : e y 9 e h u e @ d 5.3.K.o.  0 w 9 e t : 0 0 ; - : ; 9 9 9 o r : : >.K.H.0.  ; - > > < o : e =.6., o   @ # - Y < , , o ",
"*.^ @.T .. .#.^ T N T N T T T T N T E R -.! E x.t.T &.-.E 3 6 | ..%.....=.8.=.7.%.=.=.f.8.8.6.O.$...R f., | 6 o.X. .O.8.=. .O.O.E |  .=.O.O.=.| | X.O.X.=.R $.8.| O...R 6.E |  .6 Y 3 | R +.E W E E $ @ @ O > , $ , .. .R R R N N N N & 3 N & Y T N Y % < @ O , O , < N @ 5 $ , @ , 3 3 @ 3 $ $ O O $ R % $ % $ X X X > N $ O O 4 4 % + $ O + % @ 3 N , b 4 S S S x M x b Z v ( e.C c O + O > N , N , # - 2 , % $ , 7 # # X # o o # 5 =.l.b.$.%.Y.Q.pXsXE.E.l.k.!.R.R.Q.Q.W.R.7.R.l.P.R.l.l.$.5.R.W.l.k.l.$.k.R.b.Q ..@ @ 6 6 $ O O @ $ c c v b B % , E < ( B C ( Z ] ] K M x )./.H M G L B V V C B ~ 3 N ].( < $ Z B r.[.] ].' ( C C C C B n M n n Z C Z A A C ! ( b C I m x G J (.G _.'.(.(.(._.'.'.(././.(.).(.I D I H ).n M M n b C B % N $ , $ , , , 3 3 N c N @ , $ , $ # 2 - 0 y t : # - , # O 0 O - e e 1 : t t o.> O : 1 1 9 , O - e 1 $ - ; 1 0 ; 1 1 : t 1 t e e y : 1 ; ; 0 o X o o.> @ # ; @ O ; e 1 e , 1 t 1 e ; 1 ; y e e u 0 t e o.1.y 0 ; P.o.<.I.e 0 : 0 <.0 9 u : u : 9 t 0 O @ o : o : ; ;.O.0.  >   @   , O @ < R R N , N , N N Y Y Y 5 E ",
"R +.E +.+.6.O.O.@.! ^ E ..#.+.@.T T 3 r o.^ N Y -.W R =.8.Y | O.$...o i 8.7.$.=.b.=.u 6.n.M.E.k.o.6.#.X.O.R 2 6 u u 1.6.7.<.o.o.o.o.r 6.6.u y u u o.u <.3.1.<.0.<.6 o.1.u <.u o.o.r 6 6 r | X.R | | r 2 < @ 3 3 , : q.1 1 , 0 r 2 u o.2 e u u ;.o.o.o.r 6 $ > 1 6 < , 2 < , , ..< $ Y 3 , 3 N N % b c B v c v % @ @ O O O V A b I % K K Z b $ Z b b C F G M M J U H /.J m A K ] ] ' C + 3 O R , $ - @ , @ > , & , 7 : - # o o # o & %.l.b.W.E.R.Q.T.pXdXE.pXk.pXQ.Q.W.W.W.Q.P.7.Y.l.R.R.R.R.W.R.R.Y.W.R.!.R.R.R.R.Y. ...R  .6 @ , $ @ $ b b b M b M ' ] ' ' ' K I J ].[.}.(./.(.`._./.J J P C n Z A ] A ].[.[.].} K K {.{.}.).] K Z n v v b v n M S b M b M M M B n v F F M J (.'.'.-X&X-X-X&X-X-X;X:X:X&X&X;X&X*X=X*X*X'.`.M _.I M b ].Z b B C B v c c % v c b % N N % $ $ , , 1 e 1 - o ; : o @ O O - , 0 9 t 9 0 u e , 1 @ 1 - 1 - u 1 t e ; - 9 ;.0 t 0 u ; t 0 ; - : ; 1 - 1 0 1 9 e ; 9 o.q , O # X 0 , o y - 0 0 0 - t t w u d d e ; t a 1 1 0 0 u @ q.1 s 3.9.;.y t u ; 0 @ 9 e w t 9 e o O @ ; O - : @ 1 : R o , @ $ , N < E Y & W Y @.T =.p.3 R ^ Y < ",
"6 u ;.u +.e d <.d X.6 | | O.| +.R X.+.6 u | | R r | | X.=.-.&.&.W -. .; r 7.$.7.b.U.<.<.k.b.n.b.9.d 9.r u | e 2 2 u e q.o.;.y t t d d 2 1.d a 3.r | e u t 1.5.0.d ;.d <.;.0.1.>.u a a y e o.r u r u t y 6 < > , ; t t t 0 ; ; 9 t 0 ; e t t d h a a d t e $ - r 1 1 , , , $ , , 6 2 , , , $ $ $ % % @ O B n c c c c n $ X B L L c ).I ).).I I L I O B % M J J H H U J m n v ' Z B T N o +.$ | - @ - @ - @ - , , # : # # o o o o = 6 8.n.U.R.pXdXdXpXsXdXKXfXR.!.Q.!.Q.W.W.!.Q.!.R.k.W.Q.Y.b.W.Q.!.l.U.n.W.Q.R.R.R.Y.l.l...< @ @ - , 3 N b M S M M m A ' ] ] .XZ G F L [.'.(.'._.(.'._./.U H M b M m b 4 ].[.].] [.I I I G @X}.I C B b c C n c % c S S S S S b n n N c v n c Z J (._.(.(._._.'.'.'.-X&X&X'.&X&X&X-X:X:X:X=X(.`.`.[._.[.}.).I I C C n c v c v % c % % v % % @ , $ , 6 , O X : 0 o o w o o t e 1 : 0 t > : t t e t : 1 e t u e t w t t t 9 ; @ -   # ; - O - : 1 O O - , O : y , $ u 1 1 e 1 e ; e 0 e t t t a d 1 w r e t 0 w d t u y 1 u e <.0.t s t d d ;.e 0 r O ; 9 - o t 0 ; t 9 : ; ; X - O X    .E 3 O 3 $ Y < E ^ W < < , W W Y < Y % < < ",
"1.r t t >.d s s 2.d +.| | | y o.X.u u h >.d d X.2 6 O.O.*.n.u.*.E W $.u ; e o.1.1.<.9.<.9.3.k.n.E.2.4.4.3.j u y 2 > - u 1.t y t t u u u t 3.s ;.;.r t t t d ;.9.g 3.f g 9.7.4.5.s s a u 1 t y y y 0 0 y u 0 1 , : 0 : t 9 t s u t d e 1 e t e e u e t e 1 2 > , o , @ , > @ - - 2 , 3 , 3 $ $ % % c c b v C v c b b c b 4 n M I ).L ].$ K K ] L P $ K v C m M 4 M H n v K Z C T R Y $   2 % - o | 1 5 7 2 , , 7 - # o   o o o # 5 =.$...R.dXpXE.fXfXJXpXfX!.Q.Q.W.R.R.R.!.Y.!.!.!.Q.R.W.Y.n.l.R.R.l.Y.R.R.W.R.R.R.l.l.$.=., , > > , , $ b S 4 S c n B C ' B ] ] [.{.].F ).x _.'.(.'._.U x H M S S P m P I .X{.{.].). X X}.}.).b Z C B c % c c c b c c 4 b 4 n c B N % % B B E n M M H U U /._._._._./._.'.-X'.&X-X-X-X&X&X-X:X:X&X=X=X*X(.M L I Z c % % % % % c b c % @ N % 3 & , $ > 3 , ; u ; ; e # o 0 ; - @ 0 t @ : t ; d t w a t 0 o.X ; O : ;.e 1 0 @ O ; o ; O 1 # ; u , $ X X 2 , - 2 1 y @ 9 t s t e e e t s e t t , , t <.t u e , 9 e d d 0 ;.e 9 1.y 1 ; w t ; y ;.t : : 9 1 o e e : - # e ; X 1 @ , , < , W & 5 , < E 3 < Y ^ T < @ 6 *.R < E Y Y < ",
"7.g s s d 3.2.t 2.g d y s d y u o.e 6 u <.u o.X.R | Q -.^ *.x.m.u...O.o.5.r e u 5.d 9.5.<.<.3.T.T.Y.1.k.b.Y.>.d u 0 0 e Y.1 <.e ; e :.3.h 9.s 0 4.1.d s 2.s ;.9.g 3.2.s s d 7.5.2.t e o.e 1 s t t t e y d u e 1 t t ; e : e : ; 0 t s r r 0 e t 0 0 e 7 1 < $ , - 2 - , @ @ o o N 3 3 N ~ v c b c c c v n M n c % Z L m v % O O OX).).n / ' ' K n Z L L m Z K m c C b C N V % 3 E % o  .7 =.@ - | , 6 2 , # 7 # 7 o o o o o o &  .b.U.Y.pXdX!.k.pXdXpX7.Q.pXk.W.Y.k.P.P.R.R.Y.R.R.R.R.W.l.W.R.R.$.R.Q.!.Y.l.k.7.=.l.$.7. ., , , < % N $ N b M M % b $ $ V o C ].{.G ).}.'.(./.(./._.U U U D x M b M 4 m L ].XX] ].{.{.).P F I K K #.% 3 % % b c v c c c b S b b b B % R * $ N B c c m J H H x U U _._./.`.-X_.-X`.-X-X-X:X`.'.'.`.&X&X&X-X/._.).).I C c @ $ $ % % $ 3 c b % N % , - @ - - 1 1 0 1 @ @ 1 0 0 e 0 ; 1 @ e e ; 0 u t 9 : y ; , o 0 9 1 @ O ; # ; : 1 o @ o - O O 1 , $ 1 1 o.1 - t r e r 1 e e u t ,.t u t - - 1 1 e o.e ;.t e e t e u 9 t t t t 1 0 O - ; : 1 ; 9 y 1 o @ @ ; | o O X O 9 0 w e  . .| 1  .Y R 3 R E $ @ < $ &.^ , W , 0.&.@.R & R ",
"u r y u d 1.0.>.r d 3.X.y o.| | X.o.X.| <.| X. ...^ *.t.E ^ m.^ x.8.X.;.7.5.<.w w 1.<.5.7.<.s z.uXk.9.<.9.k.9.2.g ;.r e 7.,.0 t t t t u t 1.0.r i 0.d d s d e <.s <.1.y t s <.;.<.;.2 e t t w e t r t u y t r 0 t t e y : 0 9 1 9 t 0 t u 1 1 ; ; 1 1 1 1 < $ , , , , 2 , @ 3 $ % N % $ B v c n v v c v n K m ' K K I I I F % O 3 r.L m ' ' Z v b / K K K K L ] L Z N % % 3 O $ 2 , @ , , 6 > , @ 2 , 6 > : 7 # 7 # # o # o # 5  .E.E.Q.fXdXdXdX!.pXpX!.pXdX%.k.Y.z.k.R.R.W.k.Y.R.R.R.R.R.R.W.R.l.R.R.R.!.R.W.E.8.l.=. .2 , , , & $ N b b C b n c K Z K K Z $ K M ] I D (.`.'.U _._.U D J D S x H H M P m I .XL .X X{.m L v ).[.].C B % % c c n c c % b M c b b S c 3 < N O N % c c c b b % 4 S /.H /.U x _._.'._./._.'.-X_.'.D /.'.'._.&X-X`._._.[.P c % N c B v B b v v b v B $ 6 , - , - 1 1 1 X.@ 1 X : ; 9 : @ # e ; 1 - u 1 O # - ; t : - 1   o O X O @ X 1 O 3 $ t u $ ; t t u 0 t y u 2 u y e 1 e t e u d 0 u y - : t e @ u e u t u t u ; 0 , # u e : y ; y 9 : 9 e O ; <.X.  O   @ X , - 2 - t t e r 2 1 o.e e Y $ @ $ R & 5 E $ 5 ^ < E $ | 0.-.5 Y , ",
"t y | | u s <.4.X.r ;.2.u ;.d O.R i ;.r 7.-. .@.^ ^ &.i.&./ &.@. .8.1.d <.0.4.g w e o.$.9.7.s s U.9.2.3.f s Y.4.j 2.f y 0.4.d 1 u t e t u u <.<.u 1.0 >.t a d <.j 2.t d a f s d t d d 1 u d u r u t t y s d t s e 2 1 r @ : y 1.; t 0 s t t 9 ; 1 : 1 6 < Y $ < , @ @ @ $ 3 % % $ $ c $ N % c c % n n b % C Z ] }.[.).I G I Z $ V C C c % C v c b Z Z B ' K P Z C c < $ $ 3 > > , , , # - @ , , > , @ , # : 7 - - - # o = # 5 &.n.W.fXQ.pXdXdXdXdXfXfXE.pXQ.R.k.Y.5.5.z.z.R.R.%.R.W.R.l.Y.k.Y.W.!.R.l.Y.k.R.R.R.l.l.l.Y , < < & & % % b c n K M v 4 Z $ @ X O C @ ] [.S /.`._./.(.'./.U x b x S x x M ' M I @X[.{.OX}.I I L I }.I n ( N % B v M b n c b N S 4 4 c c $ T N $ $ , $ % v % % b v M M M H x U _._.'._.'.'./.'.-X'._.'.D D D '.'.D x J (.S % c c c c B v v c b c v c $ % N 3 $ > > - r  .O 1 - - e e o : 1 - ; 1 @ 9 0 - - O : : # ; - - > O O r 1 $ t r t 2 u u q e y 1 1 e r 2 r | r e d <.t d ; , 0 y e t a t 0 ; ; 9 e o.0 1 e 0 ; ; e 9 0 : : ; # 9 o o : 9 t 9 u 1 1 O   o @ t 1 ; t 0 e e 0 1 1 1 O.@ Y @ , , 5 R < Y $ < &.-.E Y , R R @.R R ",
"<.>.r N 2 2 d g 0.E < u ;.u h <.o.o.| 6 &.p./ N ^ ~ *.a.) T W o.;.;.k.1.d 3.4.g 2.d e ;.u 7.<.s k.9.k.3.<.<.9.4.4.k.j 2.4.4.4.o.t t d t t ;.t 9.d u :.e u t >.<.s w t d s a r t d d d d u d h u y t s y s d t s t y r r e $ - ; 0 - 1 ; t w 9 e 9 0 7 6 < 5 < , @ @ @ % O $ N % % % B B v v n b @ v Z Z n K {.I {.{.}. X).G n n Z b b b % 3 ! % b c ( K ] L Z % % % 3 , > - , , , R , , , , , $ 2 , @ > # # # # # o # o # 5 $.E.fXdXdXKXJXdXKXJXdXdXfXfXQ.W.W.W.P.P.5.z.5.$.$.l.l.E.l.b. .k.l.k.l.R.R.!.b.R.Y.%.5 i 8.< 2 , , % % $ % n n K I L P L ] K C @ @ I @ N n ).U [.D '._./.D D x c S x S x x K H I XX].O ' m I ].).K I K K C B N B N % % N % % < c c c % $ $ < N % 3 $ > $ N c c % v b $ % b 4 x D U _.'.'.-XU '.&X&X&X&X&X'._.'.-X'.D J >XH U L M n b C c v b X $ % # @ $ T B * , @ - R 2 Q 5 5 Y @ o.1 9 t 0 O ; O r ; - 9 0 : : O ; , > 0 > 0 d 0 t 1 0 t u 1 e y u e , $ 2 1 X.| u u r u y y y e e h d t t t t 1 @ 0 t 0 0 0 e o.e ; 9 ; y ; ; ; 9 O : 9 ; o X O e , @ d t 9 e w d - ; 0 - y 0 1 e o.r 1 6 2 &.^ @.E &.u.5 =.R n.^ Y 3 < < , 2 R W ",
"7.<.y | 3 2 6 u k.0.+., ;.,.R 6 =.i.^ ^ a.) c.! ~ N t.t./ *.t.o.;.d ;.9.2.<.k >.g g j s 0 t h u 0.d 9.9.T.U.a 3.1.<.9.k.4.k.Y.4.;.t e 0 e u 9 ;.t e 1.y d t t h s w d t t e t d <.<.d a h t t t 0 1 u | y y s s s a s t a e 1 O 9 ; @   o : 0 ; ; ; , 1 5 ..E , 5 R B B B B N c % % N B c ! Z K Z m m I ].F ].[.[.[.{.J J G G I ] m b C K c ' v C n ( ' b B B 3 < 3 3 , 2 & < 2 , .., , @ , 7 , @ , , , > # # o o # # # & %.b.pXpXdXfXJXKXJXKXKXdXpXpXQ.P.k.l.!.R.R.R.5.6 5.i k.7.k.R.R.W.l.k.R.7.k.R.R.P.Y.$.=.%.6 , > , , % % * , < M M L L L F L .XXX] .X.X}.I % m /._.(.(._./._.U x L M c b x x S x G + c P % Z c K L L m [.).m c N N @ % % N $ $ N $ , N B b N % @ +.N 3 $ 3 % , % b b % c v C M n H U /._._.U _.'.'.-X-X`._.-X-X'.&X:X`.`.*X=X'.'.J P C b B @ % % @ $ % % $ @ # 3 ! % $ > , , , E , & $ , r e o : -   o - 0 O @ : 0 1 1 1 , 1 0 u t h e t q 1 1 2 2 e r e | 2 , > e o.:.<.e <.;.a >.u t ;.d w t t 9 t 1 9 e - r : 9 0 0 9 : 0 # : ; : w t o o 1 O     X 0 , e 1 9 d t t 0 w y , - 0 1 r e 1 O.e 6 $ ..R &.R &.@.R E , *.N T N < T $ R W Y ",
"$.<.<.s r r +.r 6 7.1.+.| o.T N ^ ^ ^ Y m.i.t.a./ / ) T T *.o.o.d g d <.9.9.d 9.s g g p p p s d 9.2.: q.b.b.<.<.4.j 3.U.P.9.k.0.3.g y t u 2 @ @ u - : y t w ; 9 <.s d s t s a e e 1.d s d d t d 0 - u u t t s s s u a s a s y q 1 t e @ o : 9 0 - 1 1 R W W W < Y T B B v b c v b N 3 N % C ' m C K F ).{.[.I }.L ].J n m F m Z ] K M ] L C b c B c N ~ N #.N % 2 , , , , @ $ , 2 R , , , @ 5 , , , , , # # # o o # 5 & =.l.!.dXpXfXpX!.fXKXJXdXdXfXW.W.!.W.l.R.Q.R.R.z. .%.k.5.R.5.Y.R.W.R.k.5.R.R.W.P.P.R.l.l.l.2 $ , & < % , & $ , M x D D D H L [..X] .X.X] I ].}.'.`.J `.(._._.U U H c $ O 4 4 + + K I P e.].].n I K F ] ].L b $ 3 N B c $ T v c % $ @ < c C b V % R < $ 3 , 3 , % , 3 % c b N c N C S D /._._._.(.(.}.'.'.'.'.'.-X-X&X_.&X&X`.-X'.'.'.[.P % 3 % $ N $ c c $ $ # $ % N b $ , @ @ > @ @ 2 - o 1 -   # : t r ; , X # 0 3 1 y e 1 , o.$ e y e t e ;.1 e y o.r 2 u <.y o.;.0 ; e e t d y 1 e ; t e t w w t >   e ; : : 0 O   ; X # e e : 9 t : 9 1 X 1 O O : : 1 t 9 t 0 w e e t t u e e 0 o.e r :.r 8.Y 5 -.W R =.Y Y < 2 Y < &.@.R @.3 ....@.",
"u t 5.u u e y u | o.7.1.#.W t.T T N Y ^ Q p.t.u./ T u.! N r ;.<.j d 2.g d 0.1.9.s g f g j f s d <.p w w o.0.7.b.9.2.s d 9.g d k.2.9.f f g +.2 3 e 1., 9 t e t 1 1.t s t e t d 1 u d u <.5.g d t u 1 d s a s s g f g f f s p a w 9 1 9 9 ; ; ; 9 1 2 6 Y ^ , R T N C C b n b n m n C $ 3 C M n m Z ' ] {.).[.].{.).I G G } F Z % n I K A Z C $ 3 N 3 3 R N N N , > , , , , , , , 5 2 7 Y 2 5 , 7 , , @ # # o o o o O #  .b.R.fXQ.dXfXpXfXQ.dXdXfXn.pXfXQ.R.Q.W.W.Q.R.R.l.R.k.$.7 k.P.l.R.%.P.l.k.P.R.R.l.l.7.$. .5 $ , , & < % , % & c S 4 x x D H L ].].] XX] [.).}.).'.(._.(./._._.H U D c O O 4 4 4 c ' L P e.]..XL [.[.I $   Z ].m V A C c % O B B O 3 @ , $ c 4 % b V 3 3 $ $ 3 3 , N $ < 3 % c % E % $ b H M H x U U )._.'.'.*X&X&X_.-X'._.-X'.-X'.&X&X`.J I I b $ B c % % O X o @ @ N $ $ $ # @ @ @ X o 5 O o O.@ o 0 - 0 q $ , > 0 y t t 1 1 9 u e t t u u t d d t u t u $.7.<.<.r e e 2 0 e y , 9 r 1 ; 9 t o ; 9 9 9 9 9 0 ; 1 o O # ; @   1.$ o X   ; : 9 : d e u 0 - 9 9 u 0 ; 0 @ 9 a t e e 1 - t u q.o. .W < R R $ Y R $ E @ =.3 R < @.f.R E , W 2 ",
"o.t <.d d u t u e r 6.p.[ t.x.d./ N N W p.^ @.Y @.Y E Y E 2 <.X.o.u 3.d s s k.b.4.s 3.3.g 2.<.s d s 9.j a d 6.1.5.5.d t 3.f f 4.<.3.f f d J.:.e , 1.y 0 t e t t >.e t y t t d d y d ;.t ;.h 3.d s e d a s 0 t s s s a s t w w w 9 9 1 e , - 1 - e , Y Y T ^ N N c N v c n v n n m n m v K m v % ' ] ] [.[.m ] I ].G ' } n L L v v ] ] c A B 3 3 3 > 3 > , @ , 1 $ , 5 , , & > , 2 5 < R , , 5 , , > # # # o # o o # 6 %.Y.R.pXdXKXdX!.pXpXpXdXfXpXQ.sXfXR.W.W.W.W.!.Y.R.Y.W.R.l.b.W.R.7.P.k.W.Y.l.R.$.6 l.$.=. ., $ - , & % $ $ & 3 v n M x D x M K ] ] C ' Z ] L ).(.'.'.`.*X'.(.'._._./.M c % c x M m L b 4 K P b @ b K c v O e.I I K B $ O N $ N v c V O O.o 2 O O % % V 3 $ > Y * $ 3 O @ @ $ 3 % N O $ c 4 O % 4 x J /._./.(._.'.-X/.'.'.D /./.'.'.'.'.(.'._.U M Z C c $ % % $ X % % % @ N O o 3 @ 1 < , , 5 @ - , @ 3 O > r 2 r , e o.u t >.t t t t d y t 1.d t u e u u d o.y 1 X.2 1 ;.< u d u q t a t y 0 1 @ ; 9 0 9 0 @ O   |   ; o o o o 1 o ; - O u @ ; 0 0 t 0 e - 9 t 0 1 9 t 1 e t e 1 u t t u o. .1 R R N Y &.Y E N , 2 , R R Y , 5 R 5 @.< ^ < ",
";.r e t u ;.<.;. ...E f.^ Q a.c.[ Y &.N -.c.i.[ ^ &.-.+.R R ;.;.,.d <.2.s s >.k.9.g 9.2.f <.<.d 2.3.4.4.f w 3.y d <.<.h 3.f f s Y.g f d <.<.<.d X.t q., 1 0 0 ; u t 1 u d t 0 u y e <.d a t 1.0.y 9 s t t 0 f d h a a w w w 9 w 9 9 9 9 0 % $ $ - R A Z b ( % % N c b v n v n v n n F F % Z K L F oX].I ].G L } J J I ] ] n n Z C P ' C B N < N $ O , @ ; &.# : , & , 5 , , # > < < 2 | , > 6 = 5 , # # X # o o o , %.Y.E.l.fXdXJXfXE.fX!.l.pXpXpXb.R.W.W.Q.R.W.Y.R.7.6 $.k.R.b.R.!.=.7.Y.Y.k.k.7.k. .6 - 7.%.%.< $ - 5 & % & , < c b M H H x x M b Z .XXXC ].].I  X'.`.*X=X=X'._._./._.U M v c % c M x H G K ].[.O O X 3 c K N @ O A m b $ @ N 3 $ $ $ @ $  .& , 5 , o O B 4 $ $ 3 $ $ X > O > $ o - O $ O < $ @ c Z m M 4 H x D x x U D /.'./.'.-X'.'.'.'.-X&X`./.U [.{.L % 3 $ c % % % O +.$ o $ $ $ o - , @ , $ $ 2 < N < e e o.u r 1 y e d u t u t d d e e 2 y e t t t ; e e 0 e r e e 1 0 t 7., - y 9 u t 1 - : e 9 9 ; $ o o : ;.- ;       e ; 0 - 0 0 u ; @ : 0 r - 1 9 t e t t ; t 0 h d t ;.t t y r 1 , , $ , E W R &.W < < R < Y 5 R E ^ Y , < 5 R , ",
"o.r r e e o. .R &.x.T &.m.T @./ p.i.) ^ Q m.iX8X/ t.-.1.O.| X.y t 1.d s g f g <.9.3.9.3.j 2.s s k 9.9 d 2.p a s f s <.e d d t ;.Y.d f s d 1.s 2.f f 2.d u u 3 @ y e $ o 9 t 0 t d e d d s t u J.d d s a t s s t a a d w w w 9 w 9 0 9 w w 6 N , $ % b + @ 3 % B v n b C v n m n Z n F G G ].].G F ~ d.} I I L I G F L ' ] c $ B B N N B N c N , 3 @ , @ 6 .., @ - - , 2 o , 2 < R < < , 5 < > > # # o X o # O # $ Q b.Q.dXfXQ.fXdXfXfXfXfXpXW.W.R.R.P.Y.R.R.R.R.%.$.E.7.$.7.l.%.l.!.Y.k.R.W. .R. .l.5.k.#  .%.R , @ @ R $ 2 , $ N c c M H D x D F I .X@XXX].{.[.[.}.>X-X&X=X`.'._._._.U M b % % % c M x x H G I ).L I L Z L $ O c O P c ] N B % O $ O $ X < > , - 1 @ @   < 4 4 O 3 O O O O O O O $ > $ < $ $ $ @   o $ O b M H U x x x x D D '.-X'.'.-X'.`.`.'.`.'.D (._.(.P v O c O X   @ #.O   @ o 3 o > @ > @ R , < R Y Y N 2 e 1 0 6 1 e u 1 e y q e 0 u t t u h s t t 1 t e 1 e 1 @ @ ; 3.1 r - - : o e t - : 9 0 e t @ $ # 0 - ; @ O @ @ 0 d 1 , 0 , 0 d 1 # @ : 9 e ; e 1 ; t t w w d a t t w y e 2 ; u r $.Y 2 ..*.Y 5 7.-.Y < , , +.-.< 5 @.^ R Y , O ",
"7.8.o.r  .2 *.~ 5 R N E *.t.T t.*./ T ^ &.Y R uXi.c./ X.>.<.1.+.y u o.r s u d | >.<.9.f f f C.f s 3.t w u s f a d 3.3.s d 2 1 2 u ;.9.a 3.3.f f j f j j f f d r d 2 e - t y ; t u d e ;.;.t a t 7.U.e t 1 <.u r 0 t e t w 9 9 w w w 0 e 0 u , @ % % % N % 3 v C n v c C n v m K Z I } {.[.[.I b L $ < e.] I F L L Z L K ' Z C N $ 3 B N N N 3 , < < < @ > @ r 6 $.$ o : 6 , 2 2 < 5 < , +.$ @ 7 > # # X o # # = 2 =.E.!.dXKX!.pXpX!.l.W.k.E.Q.Y.!.Y.R.W.R.R.R.Q.k.6 P.Q.Q l.Y.W.R.R.R.R.b.R.!.R.l.k.1 , 6 O O > - , @ 6 & $ 3 $ B c b b x x D x M K P XX].#X].[.[.)./.'.`.'.`.'.(.(.'.U M v % , % c S S b H M I I XX[.B {.{.}.).{.Z [.).XXZ Z v v c v v $ O $ 5 @ < @ $ @ - O o > O O % + O 3 $ $ < $ 3 $ $ > $ % N   N % B @ V S H S x /._._.'.D x _.U '.-X_.D D '._.'.'.'._.I % N X O   @ @ 3 # @ $ % N % , , & 5 < Y Y , 5 Y < 1 | e u r o.0 X.1 y 1 | 1 d d t u t r 0 , 0 t ;.2 e t > @ t u ; 9 1 e ; ; 0 : t 1 : 1 @ 9 1 O @ O @ ; r ; , $ 3.y , > e e $ 0 e 0 0 t w t t w t u u t d t w t t 0 t ;.u u e o.1  .R Y , @.Y 5 6 *...R Y 2 5 & , Y R Y , , %.Y ",
"$.8.8.=.^ *.W x.^ E ^ T , n.T W E *.^ Y W *.T R n.M.t.o.;.1.9.o.d u d <.d e y 2 d 2.t d y a s s d 3.a w d s s s 9 u <.9.s t e e y y 1.t t t g s s s g 2.2.2.4.f g r e e e e o.- e ;.e t 4.>.w e 1.U.: h 9 t w e w w 9 9 t w w 9 w w e t r #.@.B B b % N c c B % C c C n Z m K K L {.{.{.{.).).).(.F c Z Z K Z Z K K Z ( B V N N N # E N N & 2 N , < $ & O , , > 6 , , o ..R < @ 5 , 2 > 7 5 @ , # # o # o # @ 5 %.b.U.pXW.JXdXpX!.pX8.U.$.Y.R.Q.!.R.P.P.R.Y.k.Y.R.W.k.W.E.k.R.Y.Y.R.R.R.k.z.Q.W.R.R.l.7.5 O O > - , > - , , $ > c b b x x S x m M v % ' ] ] .X[.[. X'.&X'.`.`.'.(._._.U H n v & & % c M F F G J ).@X].Z [.].|.}.{.I I ).[.C C v b c c % B % N , < , 2 @ 2 0 3 O 2 > c % 3 % 3 3 3 $ % 3 3 O O $ $ , % % $ @ o E $ 4 4 4 U D x x x U D D /.-XU _.U U U U D '.D H M I c O @ 3 C C b N b $ c c B b 3 , < Y , R N < W 5 =.r y u | , 2 2 u X.e d d 0 e e u t 1 @ 0 1 t 1 ; t e 0 0 @ ; 0 , e - e @ o 9 ; ; e @ ; - - 0 @ O 1 0 e : w t 9 t t t 0 e ; <.d a w d w t t d a 9 o.- ; e ; e e 0 y y e i i  .6 N 2 $ , 2 , $ , < &.W R $ > R @ , , - , o.W ",
" .O.p.m.*.u.&.W m.*.*.^ ^ R a.~ % R u.^ Y m.t.^ m.m.y.| X.<.<.1.<.5.u ,.X.y d r u 1.d 3.d d s >.d 0.s s d s p s e 9 u <.g p f d e 1 1 e 1 1 0 u t d s 2.3.s <.2.2.4.f p u 0 K.e ; t t e ;.;.e t u d 3.<.1.y t w w w w 9 e t 9 t e t y +.r.] K C B v v b b c % N N O % B b Z m n {.I ].L I ).J {.).I m v c N B K ' Z Z B 3 E B E T N N , < , , 5 , , $ 2 , < 5 < $ 6 < 6 5 > R 2 , , 6 , -  .@ # # # o # # O 5 %.b.b.!.E.pXfXdXpXl.dXpXfXW.R.R.W.z.R.R.l.R.Y.P.$.k.P.W.R.pXb.R.R.!.R.R.W.R.R.R.W.Y.=.$.%.R , % , , 3 $ $ $ , $ , % b c b x x x M m P P C ' 3 K ].).}.'.`.-X=X-X'.'.(./.D Z c N , < N v b M ' H I G ).XX].}.{.[.[.{.}.{.[.}.L C N c % c b b C C , , 1 2 , 2 0 2 - y 2 r | R N c B N 3 3 3 % $ < O + 3 O @ @ $ $ N c O $ c c S S U x D D U _.'.'.`._.'._.*X'.*X'._.'.`.[.Z b B C n c c b v v v v b b N 3 3 Y ^ ^ Y &.Y Y 2 r < 2 u r e e e o.t d t u u e e t y 1 1 ; t @ 0 O ; 0 : e 0 , r - e - - 0 : w s ; t ; t d y 1 1 @ , 1 t t 1 ; u a t s e y ; t w 9 t 9.1.@ 1 y o.e <.e 0 - 9 9 e u 2 2 7 =.@.E W E , 2 Y N , @.& W ..Y , R , 5 < , 5  .T ",
"Y Y W m.x.x.u.*.n.M.x.x.T &.m.a.T % R p.T a.Y ^ p.n.u.n.#. .1.o.d d y t d s >.u a 4.9.d P.<.j j f 9.f s h h f p p a e t 3.t s y t s s s t r 1 e e u t e 1.t t 9.d f f g 2.;.e 0.1 0 9 ;.t u ;.e s s t d 1.w t t w w w 9 9 w w t u X.#.' L Z v B C n n m m n v N 3 $ $ % C L K c L L M F G {.I I J G I I L K K % #.C % N V 3 ..E N < , < , , , < < < , & < Y Y < 2 N $ O.R 5 o > > , , 2 - 7 , # o # 7 # # # ..$.R.sXdXU.fXpXdXdXdXJXpXfXQ.R.E.Y.k.P.W.Y.%.R.R.$.l.6 z.k.P.pXR.R.!.R.R.Y.R.W.z.P.R.%. .6 , , $ , $ & % @ < @ & 3 4 b c b S S H S M S K ' .X].C ].{.L H U U '.`.'._._._.J ! c , 2 R , % M S Z M F /.M ]..X].XX{.[. X X{.}.[.[.' C C C N C v v v B , 2 6 6 o.u r r y u u o.6 , < B c N 3 N N 3 3 % $ , % % % 3 % c b v v n c Z J /._._.'.'.*X'.=X&X-X;X:X'.&X&X&X-X'.*X'.|.).K % C v v c ! v v v N B B C % 6 E Y < R 3 R E R < y o.1.r 1 e e 0 y t ;.u e 9 e 1.0 1 0 t 0 1 y t ; , y 9 e > , @ @ @ ; e t t t t 0 0 1 e u u r 0 y y e 0 1 t t d a t e - - 0 O @ r o.0 ; t t 1 0 1 t t e y ; o.r 6 | Y a.Y < Y R < R 5 -.^ , @   6 , , @ @ # Y @ ..O ",
"&.^ T &.&.a.u.p.t.x.m.m.u.a.u.m.) ^ W u.a.) B N < -.=.E.b.| 5.>.d d g s 9.g a t d u t t ;.a 1.a s <.d t w <.t s s a d t s t w t e >.p j f f a y y y 1 2 0 4.d t 3.s a s ;.2.,.3.t 2 3 ; 0 r o.d w h 9 e u o.w w w w w w w a t t 1.e.' ' Z C v v n m m n m n m Z $ N 3 O ~ ].{.I G I J J J ].J J I G ] ] m Z b c % N @ R % < 2 W N , Y , , 5 , , , , 2 , N @ , W Y Y Y < 2 +., @ 2 , , 5 2 > > > # # 7 6 @ 6 %.7.W.JXdXJXpXdXdXKXKXKXfXpXfXU.k.R.%.P.P.Y.r l.P.l.P.R.k.k.k.Q.Q.l.R.W.W.l.W.R.l.l.R.=.%.R > , $ > @ > & @ , $ , 3 % % % b S S b S S b N ' r.[.] c [.v % D '.'.'.'.(.[._.U % 3 @ @ - , % b b S H H G I [.XX[.I ] ).{.I L L .X}.] A B B N b m c B N < R < e r r e e t 1.r o.| < , 2 % c N N N N 3 3 $ 2 , 3 % , % , % B b c M n L F L J _._.(.'.-X-X-X'.&X:X-X_.-X&X'.&X`.'.|.].Z C c $ % b v v n C v c % $ % < < 3 @.Y 5 5 @.Y - 1 1 e r e ; o.; r 0 1 0 e 1 e 1.$ r e t O r 0 O - @ - t - ;.t e t e h e e a t t t y e u ;.e t 1 t u >.t s ; 9 a t e 0 r , t 0 t t P.0 O 0 0 t <.1.t 1 o.1 1 1 r ..E Y 5 Y N R < - 6 &.R Y , Q , +.R W o - 2 2 , 5 ",
") a.u.^ *.^ m.x.a.t.t.x.9Xi.i.i.x.x.^ T *.i.^ ^ / t.^ ^ 8.8.| t d t s a <.3.d k <.3.j d d t t h e <.4.f s s u s f s ; a a a w s t d a w >.a a w s a t t 0 t d 1 t 3.s f >.3.3.2.2.d | < r 0 u w 9 w 9 9 t o.u 1 t e w t t u y ;.#.' m C c N n n v n ' m n ' m n c C Z c C C ' I F F F m I J /.{.].K v n C C 3 < 3 N N 3 3 > o 1 @ 6 , 5 , 2 3 , W < E < 2 @ , Y W @.&.E Y Y < , 2 < , @ - , 6 5 # # = 7 5 %.l.E.pXfXpXJXdXKXfXdX!.dX!.U.!.R.R.W.6 z.R.R.Y.k.5.l k.R.R.R.Y.R.Q.b.W.Q.Y.Y.R.W.Y.R.$.b...> , , , , , & & & & % , , c b c n A M M M F m ] Z ' C ].S I b M H `.(._._._.{.(.D % $ $ $ @ , < % S n F H D L .X@X].I L {.I n n L [.[.I C C % % c m b v b 3 1 2 1 e u u y u r 2 e $ 2 | r R C B B B N *.B 3 , N * , , 3 , , % % $ B b n Z m H M S U (.(.`.'._.'.:X-X'.-X-X:X&X`.`.`.).[.{.n # % c b c n b % N N b b B * 5 R < 2 , R =.R , 7 <.1 o 9 r ; r , 0 , ; 0 - o.1 , ; q - 1 - r 1 @ ; t t e 9 t t u 0 t u t t t e u o.1 ; ;.u t <.<.d , - t 1 t a a w 3.0 t w 9 t ;.s t ; u e e y y 0 r , @ @ 1 @ $ > 6 @.R 2 @ , ,  ., W $ - , - o  .> ,   Y o 6 ",
"a.t.c.t.t.u.a.p.m.m./ p.m.v.u.m.9Xd./ ! Y m.i.i.c.c.[ / ^ 0.7.Y 1 ;.s d <.<.9.g 3.2.1.3.g g t d t a 2.f f f h h t s a s <.3.w s s p s t d a f d f t s a 0 > d a t <.w s s 2.d d 3.g f a q 1 e 9 9 ; : t 9 u i o.w t r e u X.#.s.e.L m B B v n m % C ( G G G F m ' [.].L L v C Z M C $ F L L K L I L B $ N C B B N * 3 , R 3 2 @ >  .6 Q , , < 6 O. ., @ , | E N ^ @.W ^ Y , 5 5 W 5 , o @ , 5 > & # = < Q l.Y.fXfXdXdXfXpXJXW.Q.pXQ.E.%.R.W.W.R.Y.$.R.R.R.5.5.5.5.$.5.P.$.5.P.!.W.b. .%.l.R.l.l...8.n., < , $ , $ O , & % N % c n Z M M P x M S M K Z B C % ].|.).x _._.`.-X'._._.U _.x b % 3 3 > , > N c S K x H M r.@XO I L ] [.[.I I ] % I L Z C $ B v v C N $ , 6 6 r e O.e r 2 2 u 5 2 | e 2 @.^ *.N w.B N B N B % , E % , < * % < b B b C n C n Z H U U _._.`.'._.'.-X-X-X-X/.'.-X-X-X'./.I F I 3 v c c $ c b B v % % N $ 2 $ @ @ , 2 Q  .1 1 1 # - - : e @ 1 0 0 0 , o u $ > 1 y 1 0 t t t a 0 , 1 0 t t 3.d 0 1 e d t d d 1.0 u t e 0 t u e t 1 - t a e t - 0 e 9 t t ; - t d 0 , @ @ ; y r 2 2 1 1 1 2 R R @ R - 1 , > - < R 6 N o , ,   1 o : 2 , # - ",
"x.i.*.p.a.x.a.u.m.m.x.m.m.0Xc.u./ ^ ^ *.^ m.c.^ a.m.i.[ ~ | k.9.| d d X.u r ;.d t d <.d 9.d j a w t s t g s s s s t d s <.Y.9.s w g t t t u a t t e 1 t s y s p s d - 2 e a 2.s d g f p 9 w w u 9 , 9 0 9 9 9 <.<.u y +.e.e.e.Z m K Z v v C m m F G F F I /.I I {.}.>X/.J L n B B Z Z K b ] ' K K Z B B B B N B 3 & # $ < , .., 1 R R 5 , 6 | r 2 e r | 2 6 , Y ^ ) Y W Y 5 < 5 Y < Y #   o , 5 # @ , R %.l.E.pXdXsXJXdXY.dXE.E.pXpXQ.W.Y.W.Y.Y.R.Y.k.Y.R.W.l.Y.%.o.l.P.R.k.i Q.Q.R.7.r $.5.=.7.$.R %.Y , < , $ @ @ @ $ % 3 N c b S M M x D M M M L ] ' ].] ).{.{./.(.D _.U _.'._././.x % 3 $ $ > $ @ R S b n M H P M .X$ L n A X ] K I r.v m I P ! b B c n B c B 2 7 r r 1 O.u r 1 1 r r r r e e < Y < , .., $ N c N , * N $ , E , 3 N 3 N b B v v ' ' n L /./.(.'.'._.'./.-X&X&XU `.-X'.'._./._.G F } 3 N c c N v c c @ N ~ N E $ X , O , R R | 7 2 1 1 1 - 1 $ - O # 1 r > e 0 e u t : ; e ; 9 0 ; # 9 t 9 t t t @ - t e t d s t t ; 9 ; O 9 e d s r @ ; r , q e - u 0 e e , e t u y 0 e 1 y e r - y ; 1 @ r , < $ @ > - > 7  ., @ , R 6 o -   o     - , < @ ",
"c.a.x.m.0Xc.a.c.u.x.M.m.a.a.x.i.*.&./ ~ ^ p.c.i.*.i.y.! E 6 ;.9.q.d g o.r r 1 ;.a d d d 1.d s d 0 t 9.e s s u e 9 9 t s 0.h 9.2.j a t e t 3.e d s a e t t t a a d k d r 2 e <.g f 9.p z w w 9 9 9 9 9 2 : - ; ; K.:.#.A A A m M S C n v n M m n L H G m ] {.}.J (.).].{.J ).G F C C c % c Z ' Z N , Y B N 3 < < , , $ @ , , , < < 6 R - 2 e ;.6 # e r o.e , < 2 E W < R R R 2 2 < , 5 & @ @ > ..& 5 5 %.7.R.pXfXJXdXdXfXQ.dXpXU.k.R.W.l.l.!.R.l.R.Y.b.k.z.!.k.5. .i $.r P.R.k.R.Q.z.W.k.l.l...7.6 < @ =., , & < & < % & B B N c b x M x x x M M G I ]..X.X].[.I H /.'.`.`././._./._.U H O 3 % $ , @ > > % S S Z H S M ' Z I ].].% o @ O e.m ).M b N N O B n b C c 2 6 1 r o.7.7.- H.<.u r 2 r | r N , < R E 3 N Y B B N 3 , < % R < 3 Y 3 $ 3 3 % B Z B c L I G U '.'.'.'.'._.'.-X`.-X&X'.-X'._./.].I % v B c c % b $ N c % N % #.% % < @ r , > ..< < < > > 1 0 , 2 2 1 2 1 0 e ; 1 u t t 9 t t s s a t a t 9 y 1 e a s s s y 0 1 ; 0 ; 0 y u e e t t y t t u 4.H.4.;.d , , ; t t t : e > : t e e y e e 1 1 > e - ,   o 6 @ , - , 1 , , , @ .   o . .     - < > ",
"0Xx.m.u.*.x.c.m.x.c.c.c.c.i.u.m.qXi.c.i.T *.^ x.v.i.c.v.-.O.:.r 0.4.f s a u e u u y t t t 9.u 3.d w <.u , 0 2 1 1 ; 0 e 1.s s 3.s w <.f s s d p a g s t e e 2 - e s g f f t 9 t 9 u 9 t 9 z 9 w w 9 9 w e 0 e 1 1 #.e.b M M Z v b ( n m m M M m F J ]./.J {.(.G /.J m ] J /./.J I L K K C ( N R 3 < N N N 3 < , , , , , @ 6 5 2 5 > 6 : r 0 t u t u u u t y o.R R ..R r , , , , 5 , & @ @ & # 7 8 6  .7.l.R.pXJXKXdXR.sXsXdXQ.T.l.k.l.R.r R.b.R.R.l.W.b.$.z.!.R.$.l.Y. .%.k.k.5.W.l.P.R.Y.l.5.l. ., & r 5 @ @ 5 , & % v Z P Z M M x x x x x x H H L ] ' ] ] I [.I M _._.'.'.'.'._._.U M c % $ , $ $ , @ c S M x M S c C b c L ].I m I L ].[.{.).L B ( B @ n % c $ $  .1 o o.r O.> r e e 1 r ; 2 r | 7 p.Y E 3 N W Y 3 b N N N 3 < 3 @ < 3 N % , 3 E % N % c C Z D /./.'._._.D _._.'.'.`.'.`.'.U J I I m % n L I c B N ~ v $ 3 @ +.B $ $ $ o # @ O @ , 3 3 2 | 2 , u r 6 2 , u y e t u 0 t u 0 d t d f a s g a t e 1.t a a t d e 0 0 r y o.1 t e 0 ; e 0 e t e u o.y e ; 9 - o t w t 0 e 1 o r 0 e 0 t e 1 - e r - : :   : O   - o   # 1 $   o   @ . O     2 < , ",
"c.c.i.&.u.x.9Xc.9XqXv.m.c.m.i.x.m.d.) c.! u.! W m.i.m.m.*.O.o.d <.9.s d a d y t 2.u y d u 9.>.t a s a w t e y u s w w 9 9.; d d t s d a s p d s s e t t t r 1 ; w w : a a w w 0 1 1 9 u 9 9 w 9 t h t d 2.d d o.~ A e.K S b C n v C F m m m m F G /./.(.*X}./.).)./.F G J J {.I I L ] C c T N < < < 3 < < , , 2 , , , , , , , 6 r r | 6 e 0 1 : y e y ; 0 e r | e e e O..., , , , & & @ $ > & > 7 , $.l.R.W.pXJXdXdXJXdXdXfX!.W.R.b.7.W.l.k.7.R.R.k.R.k.5.$.Y.Q.l.l.R.k.R.k.l.Y.R.Q.5.i i ..5.$.2 , , $ =.% , R @ , < c S S 4 S S S x x x x x H P L ].XX] [.I {.).{.).'.`._.'._.U /.U c N c $ < O 3 > 6 , S S S x b n K Z B Z c K ] I I K L O I L C $ B @ #.c c O @ @ - : 1 1 X ; 3 O @ @ 9 e # - e 1 | R @ Y N N < < N c % 3 N 3 N $ $ +.% $ , < N 3 3 N $ c Z m M J (./._._.U (.'._.x _.U U x M F I G ].F n P Z $ c c c % N $ N v c $ N $ $ < < , , , 3 T ^ E 1 <.6 1 e u u 0 y e ;.2 1 u $ r > 0 t d a >.t t 1 o.< - , 1 e u e 1 <.e u 1 - ; 0 e h t e 0 > 0 ; e @ X o e 9 u t w o.t u o 0 9 9 ; ; 0 ; @ : 0 @ o #     <   > X @   - @ , , O , & > @ , 2 Y , ",
"^ *.[ *.x.c.c.c.M.0Xx.a.u.x.m.d.u.0Xv.i.t.a.y./ u.d.^ a.p.o.u d r d >.3.j 4.j 2.<.3.s f u y u 9 ;.t 3.a t u d s f a w t <.s f 2.d s s w w s w h 0 ; w a w a w w w h , t 0 a w 9 9 9 9 9 9 ; 9 9 u <.s <.9.j g ,.e.K S ' v % c C b v ' n I G G G G J J H {.J ].).J F J G J n ' I ] ] ' Z N N N @ $ 2 Y , 5 2 2 2 , , 5 < < , @ o u d u d t 1 , - ; u e 9 e e 0 t d u 1 7.R , 5 @ & & & & = & & & Q 6 k.l.R.R.fXsXKXfXJXdXfXpXpX!.pXl.l.l.Y.7.k.k.R.R.R.l.z.R. .Y.W.sXz.R.R.W.P.!.z.R.R.- o i :., @ o o , , f.O , & 2 & S S b B S S S S M H D M b K L Z Z .X{.].c J }.H '.'.'.'.'.U /.H c c $ 3 % % % @ 5 , c S M M S M G I P L b I @ $ $ n K O L L % V % C T c c % B O o 1 1 r 1 # u 1 - # 0 r @   : ; 1 , > 5 < < 5 Y < , c N 3 N 3 3 3 N 3 3 N 3 $ 3 3 N $ N N c 4 b D U U _._._._.D S /.U (.D ).$ L G {.[.J F n O $ O X N $ @ E % $ $ b v b v 2 , 5 , < $ $ 2 +.e 0 <.d u r o.r y e o.2 0 d d d a u 9.r ;.1 e e ;.2 2 1 e e e e t 1 o.e o.e 0 1 0 d 1 1 1 $ 0 e e w 0 : ;.u u @ @ ; 9 d e ; ; ; , - @ e $ X - @ ; X o # - $ O O > o O 6 @.< , 5 W , $ 6 5 , R ",
"^ *.i.t.i.u.i.a.x.u.*.u.u.u.x.x.u.m.M.v.x.u.i.i.[ m.i.a.n.9.2.:.| u u d 1.3.2.2.2.9.g g h a t t t u t t 1 : t 9 w d t t t s a d <.a w d 9 t 9 9 : w t 1 : - - 9 : y : 0 r t e 9 9 9 9 9 9 9 ; 0 e 5.9 o.<.w.s.e.P G F Z y.C c B c b n F F G G /.J J J H J J } F I G I I L I K ' C C C V B E < 5 R < 2 , 1 5 , , , 2 2 6 5  .5 o e d u d a d e y e t y w t t r 1 e o.6 6 ..< 2 , , , & & & & & 5 l.l.U.b.!.W.fXdXPXKXfXpXpXfXW.W.!.E.Q 6 R.P.R.k.P.z. .%.l.l.l.k.R.Q.k.k.P.R.k.R.Y.5.R.b.5.7 %.o > o - : @ r 5 o @ > @ > c A C S M A m D x M 4 S m L ' N ] [.].n F ). X`.*X_.`.(._._.I O $ $ 3 % < 5 N , % % b K F H M m I L K [.}.I M ).[.[.}.}.I P ' X B % C b c N N $ 1 1 ; o., - r 0 O X.; r @ 1 1 o 1 ..R @ 2 , N O 2 ..c < < @ < N % N N c N 3 % O 3 $ N % % c % C S x J _./._.(.U /.S H x b n n L O $ ] % Z v O O $ c % b ! c % b b B v % , $ , < R Y N , @.W r r 2 - r 1 r X.r q.2 o.u 1 t t 0 0 t t u t d e ;.1 ; ; t 1 y 0 e 2 e ;.0 e 0 0 ; 0 0 1 y ; y : 9 u 9 - O O > @ ; 0 r e - O r 2 > O 1 0 3 @ $ 1 O O r 6 2 < < @ , 5 R R Q R < < 5 Y , $ , $ ",
"&.*.*.t.i.u.a.a.a.t.u.x.a.p.u.-.p.a.p.u.x.c.[ ) 9Xt.m.x.m.n.0.X.O.o.o.r d a s t d 2.3.3.f s 2.j s f s e y e : e , 9 d 9 i 9 t w 1.; w : w w 9 9 w 9 9 : :     z : 9 9 ; 9 9 9 9 9 9 9 9 9 9 0 e w d w.#.#.#.e.P ] ] G G y.d.K K n c n m H J /.J G J )./.J G G } ] J G K L ] ] y.( C ~ T Y R Y Y 5 < 2 2 , , , 2 , 1 - 7 r r r 1.e t t e t d t 0 t 1 e 1 ;.1 o.r r r 6 6 Q R , , , & , & & & 5 %.l.E.E.Q.sXKXJXdXfXJXpXE.!.pXW.R.R.W.l.%.R.W.W.k.P.R.5.$.l.l.l.l.W.z.W.R.i k.R.R.R. .b.R.6  ., X , & , @ , - ..$ @ , @ > % S #.S S A x x x M K P P K r.d..X].}.}.}.}.|.>X*X(.'.'._./.' % % , 3 % , 2 < @ & , c M M S x M H ' L M [. XI I }.}.}.}.I L K 3 E v B n $ $ c $ , 6 1 - # o : r - , O @ 1 0 e @ r 2 , @ @ @ , o @ , , , 5 2 R N c % N 3 % N % 3 $ N $ $ 3 N 3 O c c M G /.U U x S 4 + Z @ v % N O O v O Z b n L ] M L C C v v b B O N B c B $ N 2 2 W W W E < , , 6 r u e e e e r r o.6 q t u 0 1 t >.e e 1 t e t 1 e t t ; o.1 t t t 9 t t 0 t ; u ; 1 r - O @ ; # o - O O 1 e $ , O > > 1 1 2 e e t o.1 r 1 u , O.< @ R < < N $ ..< Y , & Y , % , E , ",
"W E / *.^ T R &.u.a.a.i.) a.u.*.*.p.u.&.p.u.u.Y t.^ W m.8.7.0.1.X.o.;.X.d 2.d 2.d s <.9.g f s s s d 2.f d 2.t w <., d e e w : 9 y w w 9 : z 9 9 9 w 9 z   :   z ; 9 w 9 9 9 9 w 9 9 t 9 9 t a w d #.g.e.e.P Z L F L ] G I ] ].I J m F G G /.).J H J G F G J G ].I ' Z K ' C ! ( ( ( ~ W R Y Y Y R Y 5 5 3 @ , , - ,  .r e r t d u e t u t d s s f 2 1 1 e e 0 y r 1 7 R , 6 , & 5 & Q * = & Q l.b.R.fXKXKXPXPXdXE.fXfXQ.pX!.R.k.k.Y.R.R.l.!.W.z.Y.R.W.W.R.R.l.R.R.Q.W.P.W.W.l.R.P.l.%.P.8., @ @ @ & @ $ @ , 6 Q # @ , - b 4 A S S x M x x M ' M A Z #.e.r.] oX] ].|.`.'.'.'.(._./.x b v c $ $ % & 2 2 @ , > 3 S S S x M F ' ].$ K I [.].[.I Z } ].L L c $ C v n % c % 3 , , 1 - - - ; u 1 1 1 , e o.e e 1 $ > < @ @ @ # , @ @ O O @ ..X O O $ N O 3 3 $ $ 3 O + > O 3 % 3 O % % m H H H F K M Z $ $ @ % c @ O m ].r.] L ] ] L ' n b n % B b % v c B % b N N 5 R , Y $ R R @.=.O.6 r 1 1 r u r o.y t u u 1 o.1.@ 0 t 2 > u t u u t i e @ : t r O @ ; t 1 @ 1 0 1 ; 0 @ @ @ - 1 $ O O 1 e t u 1 ;.0 u 1 ;.e y e u u y 1 e r  .Y @ , E N Y 3 Y Y < , , < 3 N < E Y ",
"R W W W &.W W @.^ &.u.u.u.t.u.*.*.x.x.m.t.*.n.*.W ^ *.a.8.<.q.<.<.;.d 2.2.0.7.7.g g d >.g f ;.a 2.t 9.g 3.s a t w d ; u 1.9 : . w i w t 9 z z w o 9   z o . z .   . z z ; : 9 ; 9 9 w w t d t w.s.#.P P P H M m m M ] I J } ] ] J J H I m m J I J G n m G m L G Z ' [ ' A ! E T T E Y E Y R R 5 Y 5 Y , 6 2 < $ @ 1 e e r e t e d u e u t t y t u e y e 1 r 1 1 1 , 1 , @ 1 > > Q = & & & Y &.b.Y.!.dXdXJXdXsXJXKXdXdXfX!.R.Y...k.R.R.k.Y.W.W.R.R.R.l.R.R.R.R.R.l.P.W.l.R.!.Y.R.R.R.z.l.Y.5 , , > & & , < o 6 & 5 @ 1 1 $ b 4 M S S 4 x S 4 4 S n Z e.Z #.].].L ).'.*X'.'._._._._.U Z b B $ 3 3 N N , 6 2 , N M K b x x H m K L I P $ ].[.[.L c M [.I B O E C v v b % N < X - ; e t u 1 - ; 9 ; ; 6 e e r r o.3 $ 3 Y < 2 @ > < # $ +.  $ O @ N % c % $ % O + $ $ $ $ N % c N N % n I J Z P Z v C % % m n c b G I C $ ] {.] F n ] m M n n n % $ v v v B N % T < E Y E R W E ..R 6 r 2 O.6 e r o.o., - o.e e 0.@ : 9 u ; e ; : y e y 1 : 9 ; e 1 1 # : 1   O $ @ y 1 , 0 1 2 1 0 r $ - s d u 1 u t e t t r e u e e d 6 , X.Y N < < < Y E N < @.N & Y < ..@.E @.Y ",
"*.&.^ ^ R *.i.u.p.u.p.*.u.^ u.i.*.m.x.-.a.x.m.0Xa.y.*.c.8.5.q.;.k.0.<.4.<.<.b.3.g g u >.3.j 2.d 4.u k.2.d d f f y t t d 5.1 9 d ; u t 9 z o   9 9 z : . z z z . . . o . 9 X : : 9 9 a a a :.w.e.e.A M M K M Z m I J I ).I ] ].{.J /././.G n G n n M c m n m Z C C ( C *.~ T E R E R Y R Y Y < , , 7 , 1 6 6 e r 2 1 2 r e r e ; e t e d s w t d 2 e t u t t u e 1 , 2 - , > , , 8 = & = 5  .-.l.!.fXdXpX!.dXKXKXKXKXdXfXpXW.Y.Y.b.Y.R.Y.R.R.R.W.R.W.=.Y.W.R.R.R.W.o.R.!.l.R.W.k.R.R.z.%. .%.@ o @ $ & > > & & , .., , 2 , M 4 #.S S S M M S M M M C Z C e.] I {.[.`.`.|.*X(.)._._./.P % % 3 $ < N N > 2 , , N c ' b S S m m % b $ n b ].}.|.[.L ].[.I Z Z C C v v B n b N $ e e y t r , > - 1 ; 0 r <.1 1 0 1 - 1 e r @ r $ - e e O.u < , > @ 2 N $ % N % % 3 3 $ 3 $ , $ N % 3 N O c n v c C n K % c n c b K n m M G I {.[.{.].].G O b n M m v n n Z b B % ! b @., Y N @ -.Y 2 Y  .2 0 r 1 7.X.y R @ X.1 0 y e e ; ;.t O o ; 1 @ ; ; - 0 0 > 1 0 $ 1 y $ , 1 1 e a e t 0 1 u t t 1 9 t t t e , t 0 t y 1 1 y e 1 r u o.2 , @.& 5 R $ < $ < W N < -.E Q W R W R ",
"&.^ &.^ Y Q p.^ u.p.m.x.) *.W x.@.x.p.&.x.p.m.m.0Xi.) a.m.n.f.<.6.n.1.5.9.2.3.4.<.2.d 1.<.3.2.2.9.q.3.g s 4.f s d 0 w w d w a 9 9 9 ; t : 9     z z w   . . .   . . : . . X   : ; 9 t a g w.e.( P A n n m K L G /.)./././.).I ] ] ] OX(./.H G F ' F n v $ $ % $ 3 N B N #.R W ..E R R Y R R 6 2 1 6 e r e 1 u t s q q r q 0 0 1 1 t d d u t a e y r 1 y t s a ;.6 , , , 5 , ,  .> 5 > 5 %.8.n.R.!.dXdXKXdXKXKXKXKXdXfXpXpXQ.Y.Y.b.l.z.5.$.P.R.l.R.Y.R.l.R.!.l.R.Y.Y.P.R.W.z.k.l. .z.Y.6 @ $.< $ o > > > @ & & , r ..1 1 X.V A A A b n M n M M n v + O 3 A b ' m P [.U D '.(.}././.U S % $ $ $ 3 % < Y Y , , , % ! M M S m M C Z K L L N ].|.Z ].|.{.[.L B c B v n c c b N N 1 e 0 2 1 1 e u X.e e e <.;.: r e e u o.1 e o.u e e e O.- f.$ 1 .., 2 > N N c V % 3 $ 3 $ $ , $ 3 3 N $ @ % c % c Z c Z Z v c v n I G n L F {.{.J {.] {.S F L M m n m C v v C v N B B $ 2 E X b.< @ Q E E $ O.1 6.e 1 0 e O.e e O o 0 0 ; e O - | # - O O 1 @ 1 r 1 t < 1 t t t a t t a e 0 s a 1 t t t t u 0 0 r < 1 y 1 1 1 u r 2 1 ; o.o.6 @ R Y , *.^ $ , 2 < @.W &.p.Y @.$ $ < ",
"@.@.*.&.p.t.^ ^ @.*.p.m.a.p.*.&.*.a.v.t.*.&.a.x.M.m.a.W p.^ 8.6.$.8.0.;.3.;.5.2.2.d 1.7.<.k.f g d k.0.g d k.d g s d t 9 <.w d w w : h d t z 9 . . . z z . . . .   . 9 . . 9 o : - 0 +.+.1.#.A P A L F L m ' ] J /./././././.J ] ] ' d.OXJ ] J G } J Z v N c % V , N N ,  ...Y Y @.R R &...6 r 7 r e e t y e d t s u t a h 1 e e e 0 :.e t a h # d u e e 1 1 e e 1 r 2 , & & , , @  .@  .7.b.b.E.pXfXdXKXpXdXfXfXdXdXpXQ.Q.!.R.$.l.k.k.6 i P.%.r l.5.Y.W.R.R.k.R.l.R.z.P.P.l.k.k.k.%.%.- @ 7 ..< @ 6 > : > & , 1 : i u , r c A b m A M H D D b b L B K ' Z O M m b H /.U U D XXU J D S B N 3 < % $ , Q W , 5 & 5 ~ c x M M M Z Z L I ].[.|.>XI ].[. X@X].r.C C C m n % N v V $ > - r y u e r u u r O ; u e u o.y y r e <.o.r 0 ; r 1 , X.$ 1 | 1 +., % N % % % % % $ , $ , $ , , 3 < N N v b b c C Z K K Z K n Z b n v K K % F G ' }.).).).G ' n b M v B B $ $ E T b @ , , =.N @ 5 E < $ 6 - -.- e 1 r 2 e X.r , , O O 1 > r , - e @ q 0 q e s 0 s u t t t e a u e t e 1 t t t t e u y r r 1 y r y r 2 1 0 d t u e i o.e 6 R $ ..^ , ^ @.2 R W &.p.) W Y @.$ , < ",
"&.&.^ E *.u.&.^ -.t.&.a.x.a.x.^ t.2 &.R W p._ u.p.x.m.a.*.p.x.b.$.=.b.0.u 9.7.g 3.5.4.4.3.9.j f f g 9.2.k 5.4.f s k f a <.w 9 t 9 w w : k 9 9 z z z z z z . . . . z z z - : :   V #.#.#.#.P ' A M ' G L {.).)./././././.J (.(.(./.].] oXJ ].].r.G K Z C v v N ~ 3 3 > , R Q &., +.Y R ..%...r u u u 1 t t u 0 2 @ t t t a y t a t y e d t d s t t t e 0 1 1 2 1 6 2 , , = & & & > & , %.k.b.R.!.pXW.dXJXpXfXpXR.pXsXpXpX!.W.!.b.r z.Y.7 $.Y.P.7.P.R.l.R.!.R.k.z.R.k.R.k.l.R.l.Y.P.$.6 , o o 6 & 7 1 8 > & $ > e 1 i <.2 o.B b S x x x x x S S F I ].XX.X}.I I [.I J _.'._.x J x G M b B $ < E N > Y Y 5 5 6 R 5 ..c S x M M Z C v ' I }.>X|. X|.).[.[.[.] K ' C n m b v v N 2 e 0 e u e 1 1 r y e 2 @ 2 r 1 1 y t r <.r y 1 @ 1 2 > q  ., | e o.r 5 $ , , $ $ 3 N $ $ $ % 3 $ , $ 3 , % N B B % Z c Z K ' n B c ~ Z c ' G v G ] ( } b L n O m M c n v n / v $ $ @.v @ O n.& E # # > o 3 - 2 3 @ , r e 1 2 | X.u u , , e t h e t 0 t s t t t s 0 1 e a t t t t 1 e d 1 r > O t u t y 1 e ,.2 u t e t ;.u u u t h u u y 6 6 < R $ ..Y R -.*.W p.% ..Y N W Q ^ < < ",
"W T 3 Y ^ &.^ u.*.^ p.&.-.x.^ W .. .$. . .%...&.*.p.m.c.i.a.d.@. .| o.k.;.5.b.2.g 4.3.g g 2.2.9.j g 9.9.j Y.k.g f a j a d w w w 9 : w : w 9 z 9 o   . z z . . . . . . .   : z @ V A A A A b A K m m ] /././././././.J I J ).).{.{.G } ].I G d.y.{ ' Z C B R Y R R N * < ,  .8.E 2 R 6 6 r X.e ;.d u d t s s a u 2 e t t a t t a h u 1 y 0 e t u 0 ; - - ; u 6 , 2 , , & & Y & & & = R 7.l.Y.Y.E.R.pXdXdXpXfXQ.U.pX!.!.R.W.R.R.R.l.$.z.l.R.$.l.R.l.Y. .l.R.l.P.5.P.W.R.5.R.R.k.Y.l.7 , & o @ > 7 > 1 , > # : 7 e 0 1 o.i r N % x x S x S x 4 + c % Z ] ].[.[.I I [.|.'.'.'./._.D D M B O O , % 3 $ $ @ , 6 , 2 , +.% b S n n Z ! C e.] ].[. XI {.L @X{.].I r.' ' m F v c T B , e u r 1 e 0 r 2 e y u e 1.y e 1 y 1 $ e u e e 0 y r r , o.r , 2 r 2 +.E Y , , , , 3 3 O $ % 3 $ , % 3 3 3 N B B c V B B v C v Z Z ( N $ @.K F ' ] ' ].O ' % b % G G m m b C c O O | % O $ 3 , ~ $ 3 , < , W p.% R < r o.u u 6 e O.1 u ; 0 <.e h s t t t 1 0 t t 1 1 , 0 e 2 0 y e t s t a a t e u d t e u 5.u e t ;.t d e t t e 0 u 1 | , R Y W Y &.*.W $ Y Y R 3 2 +.E < N ..3 O ",
"^ E ^ ^ @.*.a.u.u.u.u.p.^ &...+... .6.#. .r  . .&.@.u./ p.m.a.i.m.-.1.7.U.2.k.0.g 2.k.2.g 9.d 2.2.j 9.b.f 4.9.Y.g s 3.s d s u u t w 9 9 . 9 9 : o . . . z   . . . . . : . .   V + + 4 A n n ' ] ] K I ).U J /.(././././.{.{.)./.].} } } ].' g.' e.a.( B R Y 5 5 5 Y Y < 3 | 6 <.r 1 1 1 i d t ;.t u t t y h t s a t a t a e s t s t y 2 0 - - t 0 e t u 1 e < $ @ , , & & & $ > 8 5 7.R.W.E.l.R.pXfXdXsXpXR.pX!.W.!.Y.$.P.5.k.R.W.R.!.Q.Q.Q.R.l.6 6 k.k.P.Y.P.z.z.W.R.R.Y.R.l.k. .6 @ , - 1 @ , %.# # # # ; ; : e ; ; 1.R 3 c S x x x x x M x v O b K ' ] [.F {.[.(._.`.(._._.J H Z c % $ , $ $ , < < 5 , , , @ +.% 4 B b Z n B B Z ' ' K {.b {.).[.{..X].] Z C C m @ % ( v R , o.r 1 ; e u o.u y 1 e o.1 u t u e e 1 e 0 e d t ;.d ;.t 1.1 , | r r ^ E Y R 6 X @ , , @ $ 3 3 $ , % < 3 N , 3 T $ N N b 3 C c N N ~ ( C b Z m C ( ].n d.n L n F I M c b n 4 c N % C N 3 $ B b B E N W W @.Y 5 R Y R | 2 r 1 2 r 6 e e <.d d t t y , t t t u d t t ;.t t a s s s d s f g a s d >.d t u ;.u >.t e e 1 e d h t u e 0 1 r  .-.*.T 2 Y Q T , , R 2 R R @.@.5 ^ 5 ^ , ",
"^ &.*.^ T @./ < &.*.E R &.&.n.8.O. .o.-.| o.f.E =...R n.u.x.c.x.p.n.o.;.0.k.;.0.2.g s 3.>.<.P.s g 2.1.U.j p 2.Y.4.3.g s 4.s s t a w 9 9 z 9 9 z z z . . z z . . . . . . .   + 4 4 4 S c b ! L I [.(./.).U J J J /./.(./.].{.).].].].]..X] 8X] K T W R < 5 5 5 R 6 6 6 6 6 6 6 r O.1 r - ; e t y t ;.e e r r 1 t t 0 t f a a s r a a f y u 1 , 1 t r 9 u y e 2 , $ > & & & & & & 5 -.l.b.!.!.pXJXdXdXdXdXpXpXpXR.W.R.Y.R.R.!.W.!.R.l.k.R.Y.l.l.z.l.7.7.R.l.k.Y.P.R.!.!.R.Y.l.l.l.2 5 R 6 @ 1 > @ 6 > @ o @ ; ; ; 0 1 ; e *.N 4 S x x x D x M M Z Z A B ' ] v L }.}.).}.(._./.J J M ! c N , % 3 % 3 < 5 5 & , 6 , f.% c C b ( c b c B ( B e.OX{.{.I M Z ' Z K B C % N c C v c E , O.1 r 1 1 0 O., r 3 , e t t u 0 u r e 0 u 0 0 r 1 0 y e u r :.O.0 e r R Y 2 r , , $ - 6 < R % O 3 , 2 3 3 3 3 O > 3 V B % #.@ % $ N ( B $ c % C % ' ( C c c % O b c 4 K K m c n m m c % v ( n ! @.Y W W Y < E Y W p.-., 2 r 2 e r O e r u t t t d e e a t ; u t a t s y t d 1 t e <.r d t t d d 1 t t t t a e y - e ; u e r r u u O. ...W Y Y N , < -.W Y $ R , +., , Y  .< Y R ",
"t.) *.*.^ ^ ^ 3 E E @.T W =.-.8.q.X. .8.X.u -.@. .O.....-.*.x.W *.n.1.d >.0.1.<.3.2.g g P.d k.U.<.4.4.Y.3.a g s 4.4.2.a 9.p f p w t w z : . z . . z z . . . . . . . z o 3 4 c 4 S S b b c e.H U ].]./.J J J J J } ].J /.J ].]./.{..Xd.r.L ' Z @.*.Y 2 5 , > , 6 6 7 7 e e e e u r u y e e e y e u d ;.1 u 1 1 t y t s a t d d y r u t t s t a y s a 1 e e r 3 - @ @ @ @ > 8 & 6 8.U.E.R.!.pXdXKXdXJXKXdXfXpXR.R.k.Y. .Y.R.W.Q.!.W.k.Y.P.R.l.%.l.Y.R.W.W.R.%.l.R.P.R.R.Y.P.o.1.$...& 7 6 , & @ & @ %.& , - ; u e - 1 1 e +.~ c S S M S S H S b C ] ' ' XX[.}. X}.[.{.}.'.U U U D n C c N 3 , , % , 2 Q 6 Q Q 5 , -., % c S Z n c N @ C C Z ] ].n M L ] ].M O B r.Z [ ' m n B N .. .6 e r 1 > e o.e 2 # y d 1 @ 1 t e 0 t 0 u , 0 @ - - u 1 ; <.o.u u u 2 , 2 e 2 1 1 , 1 ....% 3 3 3 3 $ , , < # 2 < < < 3 N ~ ( C ! B 3 % O O B $ B N O $ O L m % K ] J J G G F G F M b n Z ( v B ! N < 5 Q ^ 3 < R ..^ +.| +.2 o.0 r 2 0 y t t t e t s a t e 1 0 e a e e ;.u - e t , 1 t e d r 1 t h 0 t t e e e y r - r ;.u <.5.$. .W < , , R $ < &., Y < &.*., 5 R @.2 E < 5 ",
"a.u.a.t.u.i.u.m.*.*.u.*.^ R 6.O.6.O. .7.1.u 8.| | $.$.^ @.&.p.&.-.-.U.2.d 7.2.s 0.9.Y.3.9.9.<.Y.1.k.<.2.k 4.j f 4.d <.1.P.a f k w 9 a 9 z z z 9 . . z z . .   . . - V @ + + 4 + 4 4 4 x I I D x P K ] ] ).J ]././.oX)././.]..X].r.r.] ' y.t.*.m.x.Q 5 Q T < 6 , 1 1 e e t t a f s g s ;.u u u ;.u e 1.d w t 1 e 0 a g s f s s a u a d y a f f y s s s y 0 1 $ @ > @ , , , , Q =.b.R.W.W.!.dXJXKXKXKXdXQ.Q.Q.l.Y.k.R.Y.P.k.z.k.k.P.!.Q.W.R.b.R.b.Y.R.!.R.!.R.l.R.$.5.Y.k.l.l.5. .6 Y @ r  .5 @ @ > %.W ; ; i 5.1 > - ; 1 2 -.b M x P M H H c b % A c r.XX{.{. X).] c 4 ].J J ] M c c v N 3 , < 3 R %...5 Q < @ , .., R % n n v v % b b C c ].Z {.I Z $ K ].b c A C ~ C F v O 3 E r  .- r o.e e u y 0 @ : o.- - e , e 1 y 1 o.2 1 1 > - o.o., e y 1 e 0.2 X.u q r , , O ; | , #.$ N N % Y , < < < 2 R 3 3 3 O R $ T / C B E B c #.v n b c @ K G J J {.I G ).{.J G ] G F F n % N C $ 3 N % $ Y E T N Y Y @.W ..R 2 0.r y ;.6 u e 0 e y t a u t s e ;.r t u t t t u e 1 0 1 t u t y > e e r u r r 1 1 e u u o.u o. .O.Y Y @.R Y Y *.N Y < W T E &.*.W T n.T $ ..E R ",
"m.m.c.c.c.i./ x.a.u.t.a.@.=.1.5.7.b.8.<.1.u $.| | | o.f...-.8.8.6.-.7.9.d 9.2.3.0.k.5.9.9.k.k.9.k.3.9.9.f 3.k.f 9.j j 4.u w t d a 9 9 t z z z z . . . z z . . . O 3 + 4 + +   + X   + x U U U H H F L F ] {.H } I } oX] ' } ] ] F n ( u.u.&.W &.8.&.6 7 7 e 0 e 0 e 1 1 e ;.d a s d d 4.;.r y d y 0 r y 9 e 1 9 t e e a s >.g y u s y e t s g y u r y X.u 2 , & @ & , & & 6 z.b.U.n.E.!.pXdXKXKXPXKXKXdXdXfXT.k.k.k.T.R.k.l.P.R.l.P.W.W.W.%.Y.Y.R.5.k.k.R.Q.Q.Q.k.R.R.k.Y.l.6 , o - ,   7 r Q & @ , &.7 e ; ; e ; ; ; # r N ( M x A H P H P m n A K r.@X{.I I O I ).m I ].J L n b N C v , 3 3 , 7 &.Q R Y < , < 5 , R , % S v b v C v v Z %X}.}.[.m B I [.].O b L C c B C b $ 3 , e , r 1 - - # u r 1 @ r # - ; - 0 ; 0 1 1 o.1 , - :.2 r 3 - 0 1 1 X.e t t e y , 0 1 ; o., 1 6 - V O R $ 3 $ 3 3 $ < $ < 3 N O < $ N C ( v v C C C C Z m m % M I ).J J /.I H J J /.M F m % % ' v b ( ! B ( / T Y T T Y ^ Y 2 R 8.5 e o.@ r u y y 0 u t d t t 0 t 0 1 r a d 1 u 0 0 1 1 e <.y d r e y r y r e u d d ;.<.u u 6 r | ^ W T W E Y ^ @.&.5 f.N 5 =.Y  .Y R p.T 2 *...",
"x.n.c.x.x.c.M.x.M.m.x.p.$.5.o.d 1.5.0.4.<.5.;.1.;.o.O. .O.$.| -.R  .r u d <.d 9.u 1.d 1.s a t <.9.2.b.T.p s P.<.9.3.g f f w t w w 9 z z w 9 z . 9 . . . z @ O > + 4 4 4 + +   + + S 4 x D H H G J G F F ] H G } J I ] ].] ' m ' / ! N p.Q  .o.1 =.%.r e e e e e 2 > X @ 1 1 0 t t s d j f t s f y e 1 0 t ; t ; u t w a t >.d e u s r t u s f s y ;.;.y =.E , & * & & * 6 %.l.n.T.Y.k.pXpXJXKXKXKXKXJXKXKXsXQ.E.R.Y.l.P.l.7 P.R.R.Y.R.E.!.R.W.Q.R.7.k.Y.l.R.R.!.!.!.W.W.R.n.& @ , @  .> @ 1 %.& & $ , 7.; ; o e 9 ; - ; 2 > #.M x M D D H H F C K [.] {.{.).).{.).(.J G L K n c c v b * $ 3 % 7 6 %.6 R 2 R R , 6 < 5 @ , v v B c b n ' P ].].{.[.[.}.[.I I v L L C v v m m v % 2 r @ e , $ @ O ; r 1 1 r # > 1 1 @ 0 @ 1 ; y - > - e @ ; r 1 ; e e e y e ; 0 ; ; 9 t e <.2 # 1 | 3 X , $ $ O $ % $ N N 3 3 N E $ 3 3 N B n b *.! Z % *.n v Z m M m G H )./.(.'.(./.J H G G F m v C Z n b v ! B ^ ~ ^ E Y ^ ^ Y -. .2 i o.e e u 1 o.e e u u 0 t y 1 e e 1 e 0 t u t e e t s a t t t a d >.a a t d s d y u o.|  ., Y W N W a.N Y W ^ < Y Y @ &.E N 5 R p.^ Y W Y ",
"x.a.u.x.x.x.c.x.x.x.m.=.;.<.1.;.d 2.2.3.d <.3.f s >.u 6 r $.O.O. .r d 1.5.s d 1.<.g g g d >.d ;.7.3.5.b.f f f 3.d u t t 9.w 9 9 9 w 9 : o w z z z z   .   V V V + + 4 4   S x S S S S S H H J H J J /./.).G ' } G } } L F m B -.u.p.&.W  .6 $.r e i e w u e e e e 0 1 1 e y y t 1 1 e t f f B.V.p p t s s t 6.2 1 y t a a a w s s a t u t f s s d <.>.o.^ 5 & & & * = & 6 -.-.b.n.n.U.W.dXpXpXfXJXJXJXKXsXQ.!.!.R.!.R.Y.z.i %.7.R.!.Y.R.W.W.!.Q.W.b.k.b.6 l.Y.Y.R.!.R.R.n.m., @ , $ o 6 @ & # ..> , - $.e 1 ; 9 ; 1 ; e 6 > E ' x x D D K G M K Z ] XX] ].m M I F J I H L C $ % % % E $ $ % c , 6 6 5 Q , , 5 Y Q & Q < , N b N v v v n L ] ].XX}.{.Z K I {.}.[.L Z c v n c c % < =.< , e 0 ; 1 0 @ e t t u 1 u > $ 1 , o @ e 0 3 # X > : H.e 1 X # ; - y @ 1 X e O   1 $ 0 q > e 6 $ - , $ N N N B N E N < Y p.N -.=.#.@.N % @.( ' % N c v n c n n L J ].{.)./././.J J /./.G M G v v v B B v * ( Y *.t.^ *.@.W ^ p.$ u 6.1 e e y u u 0 e r u u d y t e e t d e e t a s t 0 1 ;.e d t <.<.s a 0 , : u t i r r  .W Y N , , n.^ E < -.% & R 5 R &.> 5 < 6 @.< , W ",
"m.i.t.a.i.u.u.p.u.u.8.6.1.o.1.2.g g g d 9.d <.d >.<.<.7.;.7.2.1.6.:.u >.q.,.d 1.3.d 1.h 2.5.3.0.8.0.d Y.k 2.d 9.s d 1.t 7.w t 9 9 w 9 : o   w w   z > + + 4 4 S S + + +   + H 4 4 + + 4 M M J J J /./.(./.).G ].' Z m C E E T R ..&.-.r o. .7 i e e e e r t t t e u t t t u t s y q 2 1 r o.y t s f a <.4.P.s d r 1 e 1 d 0 t s s y 1 1 0 d s d 2.;.o.^ < * & * & & & 5 %.l.l.U.T.T.E.!.dXdXfXfXdXdXdXfXQ.W.R.R.R.!.Q.W.R.W.-.6 b.l.R.R.7.5.k.k.Y.l.k.k...l.Y.l.z.Y.b.l.=.R > 2 @ > # @ # @ & 5 & @ 6 7 4.r o r 9 - ; 7 +.< N A x x K x M ] G ] Z ' ].XX}.].I M I I XXK K n c N v v ~ $ < 3 c 6 5 6 < > , < , R 6 & , , $ & b b v v C c Z K P [.[.{.L [. X}.}.L ' c % b v n v c 3 r | 2 0 u e t s e t h t 9., u q r t d 1 1 u 1 1 t q r e u 1 , $ $ 0 e e d 9 3 0 y - u # u t y e $.| 2 r 6 1 2 , N V N V < w...R +.N < N N N N B ! v c v v Z % v c C F n G F G {.{.J {./.J /.M F F M n v c $ 3 B ( N E Y Y & W < -.N  .O.o.r u d y u e e ;.e o.s s s r h g t q e y e q., r e <.>.u t e t d 1 e e u r 2 e r y r *.5 W Y $ 6 -.Y 3 R E <  .*.@ ..R @., | Y @ @ , ",
"t.u.u.p.u.) @.a.*.=.O.O.O.o.d g g g g k 0.1.<.<.<.<.<.5.<.9.d <.:.s s u >.d e r ;.,.,.r u <.d 1.k.k.<.k.0.<.d <.s a <.u 5.9 w w 9 9 9 : 9 ; z 9 y > V + + + + + S X X S x D D D x x S M H m H J H J G J /.{.} ' ' m )  .e 1 1 1 e o. .r 7 5.e e 0 e e e u ;.t t t y y a s y t a a y e t d d e e t t ;.1.u d f t 0 t t r y 2 y t t t ;.y d d u 1.>.u -.Y 5 & 5 & & * 5 %.8.n.n.n.U.E.E.fXdXdXdXdXdXdXfXQ.!.R.R.W.R.R.W.!.Q.W.!.R.5.R.R.W.W.k.k.R.R.P.R.R.Y.l.l.R.Y.k.7. .R , , , > , & # > @ 8 # 6 7 ; e o.y O 1 @ O @ 1 | 3 c B A x M x S n ] ] Z C K ] [.@X{.).{.I I n ( ~ C C B b 3 3 % 3 < 6 5 7 7 - 2 5 < , ..Q & R , > < % % $ V B C b A L ].{. X>X}.).).O ' % @ % % b n % N N , 0 0 e < , 0 t t a y u r e t u e d t s t t d a e 0 t u 0 t e e s h 1 a t e 9 s 9 t r e y 1 e e u o.1 e 6 1 , , #.N N N N N < < < 3 , N N * 3 N $ N c % ! n v v v 3 % n K ' ] } F m {.).J M K ] H H H K m v $ ~ ( v @.T &.E W @./ Y n.f.e 0 0 1 0 u 1 r e 1.e t d e 0 t t t 0 e 1.J.5.u 1.t t t d t d t - e d y 0 d 1 u 1., +.< 5 E < $ 1 ..$ @ R , , R , , Y @ , , W @ 2 # ",
"/ p.) [ *.[ ^ / N X.O.O.O.;.d u d t s d 3.9.<.3.1.1.u 1.5.<.>.u d s 2.3.g j 2.u 2.2.d d t d g d q.<.u 9.5.k.t d <.w u u 5.9 9 w 9 9 9 : : z 9 : u #.A 4 + + 4 4 S x S D S S S S m x x K I H G I M G J F b ' F n C e e e e e e e 1 e r r 0 r o.e 7 y w t t d d t s ;.r t y e s a s u t t s s t s s t t t 1 > t t w p p p r 3 3 1 1 ; o.a e r q r o.@.@.Y < Y < 5 * 5 Q %.b.R.R.n.R.pXdXKXdXfXdXdXfXfXW.k.R.W.R.R.R.l.z.R.R.z.R.!.b.W.!.W.R.Y.Y.R.W.R.W.W.R.R.R.R.W.l.l.=.5 .., > > # > # o & @ , @ %.7 t t o.r - , , O 1 6 N b b B K M x A b ~ ] K A ] Z ] {.[.F I m P M r.Z v B b C c R $ < 5 6  .1 7 e , r 6 T -.Q @ W , , 5 % N b N b m K c ] [.I [.[.I I ).I .XZ v c $ % c v % B @ e t ; ; 0 e 1 e t u w t t t <.t t <.t t 0 d q 1 - 0 ; o.e t 0 1.1 e d u 0 1 ;.y t y , 0 ; 9 e 1 <.e r ;.r 1 6 Y V N Y < N N N N 3 , < 3 3 , N $ B c % B B $ B v v n K n Z M G J c } (.).{.J ] L G M G I Z C B ' N T Y a.E ^ W x.n.m.f.r 1 , 1 e ;.r e 0 o.t e u t t e u 0 r u K.w <.;.0 1 1 t h d ; w t w e : ; u , u e 1  .Y , @.R R o b.Y , R 2 3 o @.O o > @ @ - E $ , ",
"[ [ / ! ( y.y./ E O.O. .O.+.u u u u d s g s 3.d d ;.d s 2.d <.d 3.a a 3.3.f 4.3.2.f f f g g f s y ;.5.k.;.5.u 9 o.t t u 1.w 9 9 9 9 9 t - :   1 h.C A S + X + S 4 x D x 4         4 b H S F } J I G K m m Z ( e e o.e 0 e e o.e e 9 e 1 e e 1 0 1 ; t u w u ;.t e 0 a t u d e e d r e u t u a a g s a u y r 1 y , t t e t t t y u < 1 0 e 2 r 2  .N 5 , & < & < _ Q &.=.n.R.R.n.!.pXKXPXJXJXKXdXE.pXQ.=.Y.R.W.Q.R.5.5.l.k.P.7.Y.Y.R.R.Y.5.5.6 l.R.P.R.R.Y.5.R.%.k.Y.l...5 < > @ , # > #     o # @ : t i e u u w e e e 7 6 c C b 4 M M x 4 A % #.B ' ] Z K ' Z e.].[.L K L ( b b B V B +.3 2 , r  .r 6 r 2 1 1 6 =.%.2 ..5 , Q < b B c E ( ' $ b [.[.].n {.[.{.{.].K B c C c b v % N $ e t u w t 0 ; t 1 t a s a u 1.r a s a <.P.o.2 0 y 0 1 u e 1 1 t e e t e e e 0 t t a a s t u ;.e ;.2.2.y ;.e o.r e e X.V V 3 N 3 % 3 < 3 < < 3 , 3 % N N B v n n b m K H G F J } G J G J G I F m ' M m L H ' C C B B *.! < E +.Q.Q.U.0.r $.1 u t y r 1 2 1 u ;.0 t e t t t t q.y , # 1.y 1 ; t a d e t t u , - @ 1 0 2 @ : 1 2 3 R < E T -.W 3 , R O o  .3 $ $ < $ O =.$ N ",
"u.v.d.[ ! T ! ~ #.$.q.1.>.<.d <.d s d h >.u 1.d d d >.d d <.g d y d s s 3.g a P.3.f 4.G.G.j f g f s d 9.2.e 1.t e t t o.u 9 9 ; 9 t t d e 6 +.h.A b c C   + x S + + S S     .       c M G G I J ].} } K A o.u r 1 r e e e 0 e e 1 e e e e e 1 0 e @ r r : t u d h 9 t t u d >.u d d r t d t g s g f s h t t s s r , 1 , 1 d f p f u y 2 2 0 2 < < Y & , < & , < Q Q %.l.b.n.b.U.!.dXdXJXdXJXKXKXJXfXpXU.7.%.l.W.R.R.R.P.R.R.R.l.k.W.P.5.P.Y.R.R.Y.R. .7 5...5.5.%.7.6 , 2 , @ > # > & # @ o @ @ o : ; e 1 e y e ; 0 e r 6 3 b v b S K H 4 n % C r.B C ] Z r.].K ( .XI ] m B c c *.b E N , , , 1 i e i r u 1 r 6 z.5.i r Q , Q < 3 N ! T $ y.v K XX[.}.}. X[. Xr.Z A N % B v b % C c N 1 e - y y 1 t 0 r 1 e d a s 5.t t t 0 r o.t y e u t a s a e 0 a s e 1 u e ;.h g w f t t d e e e t u 0.y o.o.y y e e y r | V 3 2 N % N V N 2 E < 3 < 3 N ^ C v Z b Z m M m n F G ' } m I J I m J I G J G F I L v s.B / N * < E p...U.8.6 X.e 0 y 0 e : e : o.e 1 e r 1 y 1 e < @ r @ 0 :.0 9 u 9 1 u y 0 1 > r 3 @ X.$ @ $ - - N X R < Y $ 2 N 3 O # $ | Y T N W T N T ^ E ",
"/ ^ [ [ c.t.t.*.@.6.O.7.o.;.o.;.d d 2.u t d s s >.2.d ,.o.d g g s g g s g g f s 4.>.d s s d 3.f p g s k.j a h t 9 9 w w o.o.; t 9 t t t O.V #.M S S S A H x S S + S 4 S X X X S c + m M F I I ] ] K A +.r e e e e 2 e 1 1 e e e 1 $ 1 e e r e t d < - u 1 0 - : u 5.t d t t d e t s t t g s a s u a s s t e t a f 2 t s y r 1 9 a s s u e u N 3 # 5 & R & , 5 Y < Q $.n.n.n.U.E.pXKXKXW.dXdXJXdXdXQ.!.U.l.l.l.k.Y.R.R.W.R.z.R.l.P.R.R.k.R.R.R.!.R.R.R.7 ; %.; - 7 %.@   > 7 , > > & # & = # @ - 7 7 y e , e u 9 1 1 ; r N < c v v S m G F F H L r.] ] {.{.{.[.% ' I P r.Z #.C b N N N N R , 1 , e e e e r e 6 6 5.z. .7 ..< , , $ E v v ! m K J L ].XX[.}.|.[.].].b c O $ 3 c % C n % 1 - ; t e u 1 1 e q 1 o.t t 0 e e 9 e 1 $ > e h t t a <.e t e e u 1 u a d a t 9 e t d 1 e y t t e , 3.k.u 1.<.e 0 e 1 1 o.| 6 1 Y N N B < < T , , ..N 3 E N B / m C n n Z v v F c ( G m ] G G ].J G J I m H J M ' ] ( C C ~ ! f.T Y ..Y 6 1 , - 1 y ; y o.$.o.r , r 0 1 0 y 0 > o.$ ; e 0 $ @ r O - y r $ $ q $ 0 o.- e 1 2 , > $ a.^ $ $ , m.T N < N < W < R Y < R Q p.3 ",
"^ T ! ) / x.v.@.6.O.1.1.;.o.>.,.d d d d r <.t s d d >.;.u y d u y s g f f g f f d 2.1.g f s 3.f f 4.d 9.2.<.w h w 9 9 9 u t 9 y 9 e q X.#.A M S S x S x P L + 4 S S S c S 4 4 S b S F K F ] L A V 3 1 1 e 1 e e 0 1 1 e , 1 9 0 e , 2 | 2 r e d d r 2 y r 1 1 e ; 1.5.t d y r 1 e d e t d y t s u t <.d s s r 1 a u 2 t a r 1 1 q , 1 e e ..^ E < , 5 < , , 2 < 5 %.b.l.n.b.R.pXKXdXJXdXdX!.fXdXQ.Q.R.Y.W.R.R.Y.R.W.W.i 1 : z.l.P.l.l.R.l.k.R.R.!.Y.R.Y.l.k.$.l.R R > , > %.& 6 , , @ @ @ , @ 1 u r d e e r y e e ; O.6 < , T b M x x P G U H ' ] OX[.[.|.}.[.].].{.I ] M C c B $ V 3 V < > , 1 7 1 e 1 1 r 1 7 l z.6 r Q 7 5 , , 3 N v y.n ( Z K ] ].].[.>X X}.OX] B c N B @ % c ( b 2 e e t e t r y 2 , 1 9.u u q 1 1 e 1 1 0 1 e u e r 2 1 y t >.t u q.9.t t 1 1 @ 0 # u ;.;.;.t e ; - e 9.u y <.r 0 0 t u 1.r 0 e 1 V V N N N ~ N % +.V N N % B B B N #.c ! b c ^ n v Z % ' G M K ].G M L m J G H G G ~ *.B #.N s.T Y W *.*.r 1 @ e 1 u e r 7.6 e $ 1 1 > 1 1 e 2 1 $ - ; :.X.0 r $ 0 a 1 u u 1 1 t X.0 u u e 6 E Y x.N % N E &.T ^ T N & W T , < Y Y Y @.Y ",
"W ^ ^ ^ ^ / ( R 6.O.O.;.9.3.;.d o.+.| >.d g s g g d 3.2.d >.d d o.h d d f f f f g d 2.g f f g g f s 2.3.s t t w t u 9 9 d w d w.w.f.s.s.#.e.4 x S x x x + V Z 4 4 X X 3 4 S x H 4 m J H I A B e t 1 ; 0 1 9 1 ; : ; 9 e 1 ; ; e w u t t 2 r y u t s u t s r e s y - 2.<.o.u u e t t u t d r r t s g t t d u e t u u , @ t p s t t y 1 1 5 W W 5 5 & & < < , & , 5 Q l.n.l.b.pXdXJXJXKXJXJXJXdXdXfXQ.R.R.R.R.R.!.Q.Q.Q.l.6 7 o.R.R.l.7.P.R.l.R.!.Q.R.R.k.7.%.Y.l.%. .# R @ -.$ R 5 7 & & @ 7 1 - 9 ;.e t e e 0 e e e e V 3 $ #.b S S x M ] H G K ] [.$X}.|.|.|.|.{.}.).J K K c v n C N B N N , 7 $ ; e 1 r e 1 7 <.z.r 7 R , , R > , < C B ~ v C K L L {.[.[.@X<X}.[.B B E ' b C % v ! N 2 , , e t <.1 e 0 t d :.- u 3 , r 1 t a y e @ 1 O 0 e ;.0 d u u ;.t t t t t t t t d a t 1 e e t @ @   :.< @ ;.u O.o.t o.;.q.r 6 , E 3 E N ~ N V V E #.3 V B N ~ N ~ c c ! O s.n n C ( K ' c ( ] m Z r.G ] M H J M 4 ( B B $ T [ ..fX-.-.R 1 1 r @ X.2 $ O.2 2 | 1 t ;.u e t d 1 ;.s q o.<.>.1 u h t e u s r u s t d r t o.e 8.^ ^ T R Q E < ^ ^ R Y < R W < < Y Y < Y ^ ",
"^ ^ T ! ! ( T R N 6 ;.;.7.0.d d j X.O.| ;.2.g d d <.;.2.d ;.d f f f d f g f f f f j 2.A.C.f f s s a s 5.t w t t i :.i w u y 7.e.e.e.e.P ' P D U D S x S + O ~ C 4       c 4   c M ] [.m V V R e 0 0 1 e 0 e 1 e e 9 9 9 9 9 9 9 9 w t w ; ; 1 0 e t t e t r ; a t , 9 1.5.e o.e 0 1 e t e e 2 0 t s s s d y y s t u 0 y 1 t t t e d u R N Y < , , & = & & = = & R  .=.8.8.b.pXpXdXdXKXJXJXJXJXpXpXQ.E.l.W.R.R.R.W.W.W.!.!.R.$.R.l.5.$.l.z.k.Y.R.!.R.W.!.R.%.$. .r , , Q & & # & > & & & @ - e - ; e ; ; 9 9 1 : e t e | , < < c S x x M K G M B Z Z r.].I }.{.}.}. XI I K m m b n v N B N N e i @ 1 0 e y r e e l z.7 1 2 , @ =.@ Q Q E v t.v ~ ( K ] {.XX] ].[.[.}.Z % V % E v C c E t.R e 1 - 0 o., , 1 t 0 ;.1 t 0 q r u r e u t e <.e t >.u 0 t 0 t t t e t u ; u ; t e 1 e t t t d ,.1 1 e J.# 9 u 1.u r 1 y 0.< 1 r r ,  .< s.N V V V V V ~ V V N V N N c ~ c @.m b N ! M K % / b C ( Z ' J L ' ).M G Z I L * % ! N m.*.N W O.1 1 , e y 2 e o.2 ;.d s 2.u >.t a s d d 0 u t s t ;.a t w a a s e t h u r t $.r 1 1 Y W *.Y $ < < R W R R Y E Y Y < E < 5 Y ",
"/ ^ ~ / N ^ ^ ~ N R  .1.<.<.o.R o.| +.| u d d >.d 3.>.X.d <.d f f f f f g g d s g j 2.g s j j 2.2.s t u u t e w t i :.u $.g.d.e.e.] L I G U U D U D x S B 4 3 ~ B O + c N O X + c e.V e u e o.e 9 e 0 0 0 0 1 e e e e e e t 0 e 0 t a d 2 1 t t y 1 t a e t e t e w ; 9 t t 9 t 0 e ;.0 - 0 0 1 1 t r t a <.X.a t u y t d 0 w t e 1 - R E Y < < $ & & 5 & = = = 5  .8.$.l.7.Q.fXfXsXfXpXfXsXpX!.W.R.W.W.!.l.l.R.!.R.W.W.k.R.!.!.b.r $.k.7 5.R.R.R.l.W.W.Y., O 6 6 - Q & , # , = > > & @ $ @ @ r , X ; ; - : e ; e u e - 6 , > c S 4 S x m I G C v Z A ].}.}.{.}.{.).] F K v b n v v B N N V i l e e e y e e h d l 5.6 r  .< > , 2 < , < N B ! N c v n ] ] ] oXZ K ].{.A B # % V C c ~ ( , 1 0 0 1 e 1.t t a e ;.d t t y 2 e y 1 0 1 y e a h 2 0 y u 1 1 o.y e t <.t u 0 ; h 1 y t s t e u t u 2 r r 1 u t e :.$ 3 - -., y e e o.< #.c c c V V A A A B N N #.% ^ N B % ! % #.B V N @ #.v n b N C G G ] I m ' n H H ].K d.C ( ( B t.W 2 o.r 0 d u d ;.r 1 ;.d e e y a t d d t d d t s a t t e e w s t e e 1 u u r 2 , 6 R , , ^ 3 2 E 3 R E Y Y Y T N < N R $ < Y ",
"t.t.y.[ [ ! [ ~ E T $ +.2 u 1.+.o.| | o.| r 5.o.d ;.d o.u q.3.d a s H.f f g d d g s 2.2.d g g s d w u w 7.t <.9 9 7.$.f.d.oXd.r.] K H U U J U U H G G H F M c S ' ' % O c v S c ; o.u e u e e o.e 9 e 1 0 1 9 - ; e y 2 e e y 2 u r t d | 3 0 e ;.r e d d s d d u e t w s s t a 0 t u 0 y 0 t t w t e t t w u 1 t t t a t t t a s o.E T T Y < < % % $ % & & & & = Q 8.l.E.n.pXpXl.pXsXfXpXQ.R.R.W.!.R.l.R.R.W.R.Q.R.!.W.U.Y.R.W.!.b.l.R.%.%.7.k.k.%.z.z.$.7. . .2 , < & & , & # < & & & 5 2 2 r r r e y 2 < 1 e 1 r o.7 6 , =.c b b b S M M .Xn K C ]  X4X X>X X).).H K L v c % N N N B N 7 i i e r e 0 e 1 e u <.l.| r O.R , 2 , , % , B B ! v O ~ Z P K C [.Z J I OX] N B v C B B ~ B , r 0 t r u ;.;.e t y w y - 1 e y e t 0 e > q.N 1 d u 1 t ; t y u y t >.t ;.t >.e ,.1 e 1 :., e r t d e e <.7.0.e o.u y e 9 9.o.e d u <.2 3 3 V V c V A b A A A #.e.% V B N N C B *.v B v N e.F m v n n ' ] J H {.J ] J /./.J e.Z C ( ( ( ! O.o.o.e u d d >.r 2 e u 1 u t e 0 e u 0 t a <.s s t s d 0 e u s a r e e t o.i 1 5 Y < Y W Y $ ..-.Y , $ , R W ^ < < R , 5 *.",
"d.[ y.y.d.[ i.p.=.w.+.6. .O.O.:.o. .6 X.o.r 1.1.u d >.5.1.1.g s s t d j C.f 2.f 2.g j g 4.f s a w u t u 7.w ;.o.e f.g.+X+Xr.] ].J D D U H H H H M x K H H H n M m Z ' M n Z C ; e 1 e r 1 9 1 0 r 6 0 1 1 e 9 w w t t t t d a t t y t t s e r 1 t d y 1 u t s g r u t t t u <.d d u t r 1 0 r 1 e t u 0 t e ,.1 9 > e a w t w t a ;.T Y N , $ @ , & * * & & * * & R ..l.fXKXKXKXE.U.dXdXfXpXl.7.P.R.b.$.W.W.!.b.R.!.!.E.E.W.W.R.W.W.z.5.R.l.z.R.k. .- 7 7.7 $.@ > # @ > & 7 > # O o @ , 1 5 < 7 u d d e $ @ 1 1 e , o.k...% -.b M M H M M m Z ].K L ] ] #X}.{.}.|._.).K m C C v b N N B N r i i e e e e e e 1 ;.<.5.;.o.$.5 5 5 < , 5 * B t.Z c v m K I {.XX{.}.[.J }.{.% B C v ^ B $ s.3 e $ 0 1 1 @ $ @ $ e t d t y 1 3.2 0 y ;.1 q.$ > e d u w a t ,.u d t e 9 ;.e t e y 0 u @ 0 r t e t 1 t s e 4.0.y 0 1.0.d u r 7.r 0 u <.e > - - < c c #.c A S b e.e.( ! ! C B ! C Z C B Z n n m ' F G I { } I ]./.(.{././.J J H J m ( ' ( ! ^ 1 1 u u 2 1 1.+.R e 2 1 0 0 u e e t r t q.e o.q.<.e o.0 t - t e t y 1 u 2 2 2 @ , &.N , 6 ^ Y Y W , E Y Y Y R E & < Y R E ",
"d.[ { { [ d.y.i.u.y.W 8.*.+.O.$.X.u o.o.u ;.;.9.o.y ;.<.1.>.d 3.d d s d t g d s <.j f f j d d w w 5.e t 7.9 9 1.w.s.g.r.] U G H /.J J G J x M K H F m F H H I ' ' ' ' K ( 2 : e e e e u r e e 0 0 r 0 0 1 y 0 t t t d s t d y t e 0 e e w d 2 e t a d t t 1 u 4.1 r 1 u 1 y 1 t u y e t e 1 e % $ 0 1 1 0 u 1 w d e 0 t t a a y e r E Y Y & & > > & & # = = * * @ , Y $.Y.Q.dXKXKXpXJXJXpXR. .l.l.P.W.R.!.W.!.Q.W.W.!.W.R.R.Y.R.k.k.5.i 5.5.z.l.R.P.6  .%.6 6 # @ , , > , Q & 7 & , 2 , 7 | 6 e y d d t e e e e e r @ 6.| $ ~ B M M x x M ] c oX[.[.|.{.{.#X}.|.}.{.).M v n ( Z c N N N 5 r i i 7 e 0 e e e e r i o.y o.$., 2 5 < % < % N / Z v n m ' ] I @X[.{. X[.).].v N $ v v v % t.% % 6 < < 1 @ > r @ 1 e o., r $ | r , , r y 0 0 > 1 r r e t e u 0 u <.$ > 0 e e t t d t t w <.0 1 0 e t q 1 q.o.X.3 1 O.1 $ , X.r < ; u 1 1 q 2 e q y +.V A A b A P P P ' ( ! ! ~ C B N B C n n e.F m ] m m } J J {.J H H J J /.J /.G n ( % N E N o.;.r 6 e >.u 6 q e 0 e e y e 1 u t u u 2 e 7.e ;.u d o.1 y y u 6 O.R 2 R =.^ E ^ Y W ) Y ^ < W @.E < $ < @.N N # R Y ",
"/ / t.( ~ d.[ [ [ t./ @.*.@.#.6.:.O.O.| u ;.2.g d ;.o.o.;.1.q.5.<.q.<.>.u u y d u u 4.g a s t h t w u w 8.y w.f.g.r.r.I H L F F J J J G ] F F F F F F F M G m b M K C e e i e i e 9 e u y 9 e e 2 1 e e 0 e 0 0 0 e t ;.t t r 1 1 - 1 < 1 u 2 < q r e e y ,.<.g y 2 < e q e t <.s d 0 t y e a u r q r r e e r e >.t e 0 0 t r 2 r | R Y Y < < * & & % & & = & & 8 Q b.E.U.R.pXpXfXsXdXdXfX!.R.R.R.R.W.l.W.W.R.W.Y.Y.Y.E.R.l.Y.R.W.R.Y.Y.l.R.l.k.Y.k.l.l.%.l.Q < & & & $ , & 7  .W 5 R , 1 e i u r u d e e e t e e e d O.Y N 3 b m M x M M ' J Z wX] ].[.].wX<X{.}.[.H n B n v v b 3 N N 6 e r i e i e 1 1 1 y e d u u o.o.u.R , , , , , < v v t.v Z m n ] [.].{.|.>X X}.I N B v C n B ( v v 3 7 e 0 u e <.y e t 7.u y u q r | @ 1 ,.2 r , 2 2 r u r 0 q 1 u X.$ % 1 1.1 e u ;.2 1 0 e r y 0 r * $ 1 O.0 u u y t o.e 6 :.;.y y d d r y h y s g >.o.V R V V A M A Z A / A ! ~ B B ~ B ( n C n n v G n ' ' ] G H G J /.J )./.J H } C ( % B ~ E #.<.o.1 O.e 0 t d d u y d t e t u t d u e u d d d d 1.| e o.r 6 , | R ..u.^ Y a.< E N Y E N Y & ^ E N < E W ^ ^ Y < ",
"[ ! &.v.[ / i.y.( t.t./ ^ ~ ^ T +.q.O.+.O.| ;.d >.1.2.2.2.9.3.j g <.1.,.;.R 6 d y d d d e t w w w u 9.w 6.w.g.g.r.U G D L F G ' G U G J G J G H G H L F K F F n $ , : e e : e e 9 0 9 y e 9 9 9 e e e t r 2 e e t t e y u t r 3 0 0 1 < , t r 1 e e y e 1 t >.g d 2 3 , y t t e s 2.d d u t a h u s s y y r e y e d e 1 X., r $ - X.< 5 5 , , < & = & & * & = & Y 8.fXdXfXJXJXJXQ.fXU.W.pXR.W.!.Q.W.W.l.!.W.R.k.k.l.%.l.R.R.U.R.R.!.!.R.R.Y.z.R.R.l.$.$.@ , , < & $ $ @ 5 @ @ 2 , @ 2 r 6 r y ;.X.2 r e e 0 e e e e o. .+.E N b M M H x b M G Z r..Xc ] F d..X}.[.{.J m B v B % N N N N r 7 7 e 7 1 1 1 > ; d d k <.u r u m.Q Y , , , > < ! n ~ B C m K ' [.[. X|.|.|.|.[.Z #.c N n v C b v 3 1 r 2 0 e e d g d 1.<.t t d d d 2 0 u t y r r r y t d 2 2 1 1.u r 1 e >.r u u e 2 $ $ O t y t e q e :.e a >.<.d <.Y.o.o.d g g >.y e t s u a a d t 1.t t | +.V B A n A ' e.Z / ! N @.N B N v v C C Z G m ' L F F G J J ).G (././././.} C ( C ( B f.6 1 O.1 0 u r r r e t d u t <.y 0 i 1.u u u r u ;.r , o.|  .< 2 ..E ^ E W ^ E Q E Y N Y Q N Y *.R Y Y ^ < E R E ",
"y.[ ^ s.a.[ i.c.{ t.u.) *.t.^ #.@.0.q.:.X.o.<.3.d ;.<.1.;.9.3.s f d d >.g o.2 u s g a w t e 0 e t y o.$.s.e.r.I I D K H ' { ] G G G G J H ' G L .X).} G ] ] ] [ e r e o e ; ; ; - 0 ; e 9 9 9 9 w a t t s r q , 0 1 0 1 t r 0 e q e 0 2 1 2 0 0 e r 1 1 1 0 w 3.t u u 1 t t y 0 t s d d a q t t 0 u t y t t w t 0 t a y 0 e y e ,  .5 5 , Y , , & = & & = = = 5 ..E.dXKXKXdXdXpXsXdXE.pXE.b...%.R.W.!.W.Q.Q.!.l.Y.R.W.R.R.Y.l.k.l.l.k.R.R.Y.k.l.l.7.l.%., o o # @ = & & Q 8 & & 2 $ , 1 X.o.y ;.<.d e y e e e e t e 6 7 Y ^ E S x S H b c x G K ] qX].[.}.#X} $X}.L K % V c c % < R < N N r i e e 1 0 9 9 e t d r 5.;.r r &.W Y 5 , , , , 5 v ~ B $ N C ' ] [.{.).{.M ] [.L B n n v v c v v N @ - 2 0 s r t y y u :.e e ;.X.y y u s h d r r a s t <.r t t q.;.d s t t s e d t y q 1 0 0 t ;.r e d d a d y q.0.>.9.2.s g s s ;.e t t s q a s h y a s 0 d t u V c A A A A c Z ' B #.B N N B ~ ( n n m n Z ' c F J J J {./.H } /.J J M ] G b N $ ~ ! +.o.d o.u 1 t u r 0 u e ;.s d 1 <.y u t d u u e u t u e X.| Y *.^ @.^ @.< *.W @.E N W Y a.Y < N Y , ..N 3 @ | ",
"t.d.[ ^ *.t.! ^ m.t.W ..*.a.&.&.O.1.5.6.5.u d 3.;.o.d ;.<.1.d 2.g u u <.3.s ;.N 2 d t t w w t ;.y t $.g.g.r.H D G ' ' H ' ' ' y.d.J ' ] ] J L } ] } ] ].oXd.^ r 7 e e 9 ; e ; u 9 e e e e 1 e t t t a s f f u r 0 2 $ $ 1 y e r e 0 1 3 > > , 0 1 r , e e 1 0 1.d t a t t t 1 t 0 r r u t 1 t a d t e t s s a s t a u t 0 e 1 r 6 , R 2 , 5 5 > & = & % @ & &  .E.fXdXJXKXKXJXpXsXdXfXW.b.R.l...$.k.R.!.!.5.z.k.l.E.Q.!.l.k.l.k.7.r 7 l.k.k.P.7.%.l.%.o 6 @ $ o o o @ < 5 & & < ..R 6 e r e d d u t u 0 r e e e r 2 2 , < +.t.b x x x x M M ] I ] ] wX{.}.>X[.#X#Xm M c N c O % 3 $ O 3 3 - u 7 e e r r e e e o.2 e e e e ..u.R .., @   , , N B ( v % B ( C ] L n OX} {.}.].c 3 C % c B C b % N 1 e u y 1 u e u e X.e y 2 2 | 2 o.y r u d u s d r 1.y d a ;.o.u r t t t 2 a g g t 0 a s t e t u <.u u u e $.n.X.;.d t d d r q t s u a y u y 0 d t ;.r y a d , V A V h.A A P ] ' ( B E N B B B c v m n Z ' m m L ] J /.{.]./.G J J J H H I S B B ~ B r e o.u y d u ;.u t ;.1.t t e q.u y y u 1.u r t <.;.<.2 1 6 x.&.x.*.W 3 R *.^ N N Y E R E Y R < < p.T B % O ",
"a.t.t.u.c.y.t./ a.p.[ T ^ p.u.&. .O.O.k.1.u ;.q.X.X.>.4.<.3.2.U.2.d <.3.b.2.2.g r t 1.;.t w h u o.o.s.r.r.P P H F ' d.' r.' ' [ [ ' ' ] ] J ].oXn r.y.( E r  .r e e e u e : 9 9 9 o.e t t t u r y 0 y o.y s f s y h t u +.r u y 1 $ @ 1 > 1 0 e 2 - e 0 0 0 1 e ;.t t t t t t t t t d y s >.d a s s g f s t t a s u e t y r < 1 2 , 2 3 , > ..5 & * & * , & 5 $.pXn.W.fXJXKXJXdXdXQ.Q.E.R.!.Y.W.R.l.b.W.5.; : R.Q.R.W.Q.R.8.k.Y.$.7.Y.R.l.R.7.l...$.7. .5 , Q & = # 6 Q = 8 , < < 6 6 2 0 e e e t t e r e 1 X.6 u  ., 6 $ 2 s.C x x x x M M r.] Z Z wX X}.$X>X|.wX).m ' ' n v v N N 3 < 7 1 e ; e e r o.e e 0 | , O.3 @ , o.-.6 6 .., o 5 , 3 N *.( n n Z % Z L ].XX%X|.>X}.L V B ! C ! n % B b 6 1 o.X.r X.r u e f.u u | 2 o.o.;.u d X.r u y e 1 y u 1 u d y e r t s s y u <.u u t u e r e s u y e 7.o.q. .5  .| O.r | =...| +.| R R X...R R  .O.O.| X.o.1.6 $.B B s.#.A C C ' Z C t.T N t.% N T B [ B ( [ ( N e.( C B e.] ' ' ' ] ] ' ].} ' ' @.~ R Y  .^ R #.+.Y O.R =.< O.2  .6 O. .< | 8.N  .R -. .8.R R ..W R -.E R < R ^ T Y ^ N E < *.W ^ Y ^ T ^ E , @ ",
"*.E u.) *.t.&.a.t.*.c.c.u.c.i.-.-.O.<.q.:.1.X.9.j 2.j 3.0.b.k.0.0.>.2.4.9.9.9.d s w q.k.t w 6.f.g.g.r.L ] P P ] G F y.d.8X{ g.d.Z s.r.} ' G K ] ] { s.*.e i r e e e w e e ; 9 9 ; e w t t a a u s s y t u y t u 0 a f s s s g y y r 2 e r 2 e t u e 0 0 1 ; 1 1 1.y t d ;.t d u t u e h s 1.<.>.a s y t s t t t s s d u ;.>.+.1 1 < , < , < & , 5 & & & < * Y b.pXpXdXJXdXdXsXdXdXn.R.U.R.W.n.Y.b.R.Y.!.W.E.U.n.R.b.k.W.!.E.W.W.7.Q k.Y.l.b.l.=.$.$.%.6 5 , < > $ & & & 5 & $ , , , r , 1 0 0 e ; r 1 e ; 1 0 1 ; e 7 7 3 , 3 ( M M M M S F ' ] K K ].tX} XX}.).] oXc b C c v % % % N < , 7 9 e ; 1 , 1 1 2 @ - 0 - $ X o o , +.X 1 5 , - > , $ N ( v % v C K b XXG ).}.{.[.{.P b T B % C b B * @ , 6 1 r e 1 u 1 8.u u 1 6 e q e 0 u # 1 2 X @ 3 R 2 1 r 5 2 N $ < > 6 6 < X.2 2 , @ @ @  .3 2 $ 6 6 | Y N < < E Y N Y & N < 3 O $ 3 < W Q ^ N Y N & $ @ E Y $ < $ $ N B 4 c v ( v c c E N N 3 % T *.#.N N T O % % 3 % N N ! % 3 T $ T ~ B 4 N 4 N $ @ @ $ & 5 < $ , 2 $ o R $ @ > R $ > < +.E > 5 Y 5 < < < < $ R Y Y Y 5 E , 5 W R E $ &.< X 6 *.5 < &.^ < $ ",
"c.c.c.) c.c.c.v.8X9XiXgX9Xi.u.#.%.5.6.5.5.9.2.<.2.u s >.7.b.b.>.3.3.3.d d k.b.>.w 9 u 5.<.y s.r.e.L H H P P M K M H m ' K m / ' ' y.d.] ' F Z t.d.N : u e ; 9 9 9 e e 0 9 9 : t 9 e t u s f s d t s d e t 2 - 1 @ ; 1 , , 1 t a s a t e q 3 > ; ; u q , > r 0 t ;.t t t d h e e e 0 t t t t <.>.s s f a a t u e t t u 2 t u 5 2 < 5 % & < 5 $ @ & % $ # & @ =.pXdXdXPXKXKXJXfXJXJXT.7.R.E.R.Q.k.R.R.R.W.Q.W.l.=.T.n.E.Y.!.Q.!.R.U.W.l.l.k.6  .%.k.%., @ X @ , # @ o 5 @ -.& $ > 1 > O.e 1 t e e   e 9 : 9 1 1 , @ ; 7 1 $ 1 c C P P m P M H K ] K ].v [.3X>X,X[.I r.Z C n b n B E 3 N N r e e o.1 1 - - e e 1 u t u e t u r r o.=.6 | Q , , 6 $ b ( m m F F ' I }.>X X<X<X@X$X[.C t.C n ' m n v Y R R i <.u 6 ;.9.o.<.<.u <.X.:.X.o.o.;.y X.N ^ #.*.=.-.@.T @.&.T ^ ..| @...@.^ =.^ < R 8.-.n.n.=.n.-.n.-.m.x.p.M.u.f.p.E @.p.*.m.&.*.*.-.x.m.p.^ *.Y W T a.^ W p.*.@.=.9X@.t.[ r.' e.e.e.~ t.a./ [ g.a.[ ( / / t.t.g.y.y.[ y.] ( ( ! / ' ( ] .X' .X' r./ ^ u.^ f.p.-.&.R p.p.p.-.-.n.W n.f...-.@.*.&.*.-.M.p.@.*.u.&.*.&.p.&.-.*.*.*.a.t.a.i.W p.0Xi.t.u.c.u.x.",
"@ 5 2 , , o @ < @ @ @ @ o o @   - - o.e h u ; 9 : ; e e e e 9 w t t 0 : u t w u w w w q s.h.P P H M P ' ] ' b m F G H G L K ' m b n ( n ' ! / *.$.e 0 0 9 9 9 9 9 e w w 9 9 w w w a a a t f f a t s >.u t y y s d r y u | 1 e 2.s a >.< r | 1 u e t s d e f a d j f g f d d a d t a 3.f f t s d a d f g f >.<.2.f f j g s u 6 , < o 2 > & = = & & = * & 8 W pXKXPXPXPXKXJXJXfXdXsXpX!.pXpXpXpXQ.!.!.Q.pXpXpXpX!.Q.!.Q.!.W.!.U.Y.b.Q.b.Y.R.l.l.R.l.l.Y 5 < & & & & & &.8 p.Q R 2 1 r $.;.y s s g r 1 0 e e e e r e t $...Y @.b M ] D D D D J r.qX].XXwX>XtXtX2X$XwXoXqX} m M m / ^ B u.C r r i e e e e e t e d >.3.U.<.;.<.q.4.<.n.7.7.n.&.x.W x.{ y.' 8Xd.I ] 8X@XwXwXwXtXtXtX|.].8X' { c.d.' ' / 6 =...8.<.7.3.2.2.0.<.Y.9.q.b.k.2.s J.2.2.n.n.$.0.q.$.b.0.E.1.7.9.3.<.1.9.7.n.7.0.<.;.8.q.7.q.6.6.o.m.m.T.T.n.0.b.W.9.7.uXU.1.2.3.>.5.9.2.>.<.9.9.7.1.b.b.9.b.n.uXk.3.b.0.0.w.P ' e.r.g.d.t.u./ / t.y.t.e.' v.y.d.oX] oXr.oXOX[.{.[.XX(.].].{.[.{.[.{.oX' ' y.e.e.n.q.q.9.n.E.k.0.b.7.0.0.<.o.0.0.5.5.7.T.5.7.1.5.8.=.-.m.i.t.x.i.t.m.i./ i.i./ t.@.^ ^ x.t.u.",
", , , , 5 # @ 5 5 5 @ < Y -.*.Q =.=.7.o.<.3.2.<.k.U.b.n.7.T.3.k.U.T.E.b.U.9.1.8.T.b.b.#.g.d.r.P I ] ] .X+XoXd.8XoX.XoX8X9X9XqX8X8Xv.9Xt.d.t.8.o.u o.o.o.e 9 9 9 e e e 9 t t <.0 d w f f a 3.4.f f d 3.j s f f f C.f f f f f d s g d d ,.;.3.>.d g d d 9.o.s g d 2.3.j s d d s s f f s f 2.p B.g 2.2.s s s 1.9.9.j s 2.2.e r Q 5 , , , = = = = = = = 8 8 ..pXdXKXPXPXdXdXpXdXJXpXT.!.!.Q.Q.pXpX!.W.Q.Q.pXQ.pXQ.!.W.!.Q.pXW.!.pXR.R.W.7.R.Y.n.l.E.R.l.Q 5 & = = & & 5 *.5 &.W 6 6 7 u 3.d g t s f d u w e e e e e t d o. .6 W v x Z H x D H ] } 8X[.OXwXtX<XtX,XwX{.8X9X8Xm #.y.n N ~ ~ R 6 r i e r e e e e u d <.9.2.<.o.3.d 9.>.0.<.k.uXx.0XQ M.*.E v.d.' } ].oX{.%X#X<XwX<X<X}.[..X] ' y.{ 9X{ ! 6 Q  .7.o.<.U.2.2.3.1.1.5.3.5.;.,.u 1.3.3.o.<.d 3.o.0.2.g >.y s g X.1.>.d u ;.u ;.>.s 5.U.>.>.X.y u =.n.b.7.k.2.2.0.0.<.Y.o.3.d g f 2.g j G.j 4.9.9.f g 3.2.2.3.9.g 2.2.d 2.4.#.A A A P e.e.e.( ( ^ ^ ~ ( ( r.' ] ] ] ] ] ] ].[.[./.[.(.[.]././.]./.{.{.{.] [ { ( a.3.0.<.0.1.<.d <.>.1.3.2.| ;.o.9.0.5.0.O.<.1.O. .O.O.8.*.@.^ / T R *.^ ^ @.) ^ ^ u.) *.a.^ ",
"qXiX8X9X0X9X0Xv.9X8Xv.m.0X0XiX0Xs.f.-.6.7.b.9.9.E.4.2.3.b.E.T.T.3.T.E.uX8.b.b.<.q.b.T.+.e.d.r.] r.r.I G oX8X8XoXoX] ] 8X0X8X} iX9XM.9Xu.$.8.5.o.r i e :.o.e e w y e t w a s s s t d <.f p >.5.3.g d s f f f s h d g f g d d :.| s 2.d 2.d g f ;.g ;.;.>.2.s g t 9.d f g a f g g s s s y u g a f f 9.f p d d 2.k g a k.$. .6 %.Q &.x.& & * W * & & & & Q n.pXKXPXKXKXJXJXJXJXJXsX!.W.!.!.Q.Q.Q.!.R.R.W.Q.Y.R.Q.l.W.R.pX!.Q.W.pX!.Q.Q.W.W.U.R.R.R.M.l.&.Q 5 = 5 W * W Q Q M.Y 6 =.6.o.d s j d 3.d u 1.e o.i e e e y ;.y &.5 ~ M H M ' K D L ] ]..X[.@X#X$X4XwXwX>X{.].' v.' n ( n N ~ E 6 r r e u o.e <.t u u 5.Y.2.k.2.2.2.;.9.2.9.<.q.n.&.*._ p.p.Y g.' ( y.} ] oX@X>X3X<X>X|.>X[.{.] ' v.' c.{ v u.5 6  .q.o.7.2.3.<.1.1.O.;.9.<.q.;.<.;.<.q.>.d g 3.:.d g s 1.s g g g <.s 2.u d >.>.u d 0.g 2.0.>.>.7.6.Y.;.b.Y.d d 0.0.2.3.1.P.2.P.U.j 3.j 3.3.3.2.g g 2.g g 4.g f 4.3.4.g H.2.w.X.+.#.e.A P e.t.' ( e.' ( ' ' ] .Xr.] ] ] } ] ].{.[.{.OX{.{.J J } oX/./.{.] r.( ' ( 1.O.:. .r 5.o.o.5.;.2.u 3.e ;.,.u o.1.O.6.R O.O.=.6  .@.^ u.) / &.i.a.u.a.c.[ i.i.^ a.i.",
"[ y.[ m.9Xi.c.t.[ 9X[ u.i.x.0XgXt.m.b.b.n.m.n.b.E.E.3.;.b.E.n.T.b.E.7.b.n.l.E.<.k.5.E.f.e.r.r.] r.I I ] r.9XoX} ] ] ] ] 8X] ' x.u.&.iX-.$.7.7.7.e 9 e y $.o.9 w w t d s p f p g a e t a f s <.9.2.g f f s f 2.d u s f j o.u >.u >.P.o.d s d g 2.d 2.>.X.1.d g d Y.f C.j 9.s g f g s s f s s s f f s j s w a w d w a 9.i -.%. .6 n.&.8 & 8 5 & & 8 5 5 8.pXJXPXPXPXKXKXKXdXsXsXpXR.Q.pXpXsXQ.Q.pXR.E.R.R.R.!.!.n.W.R.pXl.W.!.W.Q.!.W.R.n.-.l.U.l.-.-.Y * , 8 & , & Q Y -.M.R 6  .O.5.s d d 9.;.d s t e o.e e e r t y X.=.N s.n P H F ] H H .X] .XXX%XwX3X1XwXwX>X[.] { c.d.m m v T E s.r e r i i o.$.r u :.u q.>.d 0.9.2.d 9.d g d <.o. .6 -.Q W -.x.c.( Z [ r.oX] ].3X>X<X<X%X|. X]..X' d.F C y.' ^ Q  . .n.3.1.<.7.0.9.1.b.<.<.q.q.2.d 9.d 3.<.u >.0.;.g 2.3.k.g 2.3.d 9.d d 2.<.2.g s d d s d ;.9.:.0.1.;.g d U.2.S.g I.T.g 9.0.9.2.2.9.2.f g C.C.f 3.g 2.g 3.9.f 2.2.Y.J.d 3.4.b.<.3.T.s.h.A #.A Z ( ( e.( Z ' P L ] L L L A K ' ] ].{.{.G ] ).I } } J J J {.L ] ' ' ( / @.3.<.<.d k.;.o.q.<.2.;.,.u u d 2.3.;.o.O.o.O.$.n.@.a.i.t.a.*.i.^ x.i.i.^ y.^ / a.c.",
"/ t.d.i.i.i.y.t.[ c.d.{ t.v.c.0XaXm.n.m.b.T.uXn.uXU.G.<.M.E.0.9.uX5.t u 7.u 8.b.t w b.M.e.r.r.I U U U I r.qXoXoX} r.} ] ' y.u.) &.r O.8.r o.o.5.e e e e y t t t t s d g f s s a d a w d w 3.d a g w s s p f s j g f f f C.g ;.+.| 2.H.f g g s 2.>.d d g s g h d ,.f f s 4.g s d g g a s j s f f p f 2.w s f p f a 3.u i 6 6 6 5 &.W = 5 8 = 5 & 5 Q &.pXJXKXPXPXKXJXJXJXsXfXfXQ.!.!.W.Q.W.Q.Q.Q.U.R.E.W.!.!.Q.pX!.Q.pXE.!.!.!.Q.!.W.l.l.=.6 l.8. .Q 5 * = 5 * & & & 5 &.&.< , 6 1 u d a g 2.d d t t e e e e e u e u n.Q N y.C H D D D oXJ } ] ] 8X[.#X$X>XwXOX#X{.L { v.a.{ m < ^ ~ E ..r e r o.r r e e o.o.d s 2.b.<.g 3.3.g g 3.3.3.i ..-.6 W R p.m.' ' ' ' ' oX].].#X%X3X%X#X#X.X] ] ' ' F ( v.v 6 R $.0.q.1.1.5.b.<.0.1.b.,.o.d d 6.1.2.;.3.d 7.o.7.>.<.d 5.d d >.9.g s y d >.>.s s >.2.2.d 7.5.5.5.7.k.2.d 9.2.f f s I.P.2.,.1.u g g 2.9.g 2.A.J.0.4.4.2.4.9.2.H.C.U.2.2.d <.1.g 2.,.:.d ;.+.C A A A e.e.( ] ] ] L ] L ] ] r.]..X].].].[..X[.).].{././..X/.{.(.{.].] ' ' d.@.,.o.5.;.1.5.;.;.3.;.d 1.<.3.;.;.1.6.O.O.O.8.@.y.*.*.p.u.u.[ *.t.c.t.x.[ c.t.a.",
"v.c.c.v.{ 8Xy.8Xd.d.c.v.d.y.i.c.gXiXf.1.0.3.b.b.uX9.1.k.f.7.3.o.$.<.t <.u <.h q.t u u +.g.' K ] L D U U r.oXJ ] .Xd.0Xi.m.v.M.m. .u u 7.o.i 7.:.5.u t w t s 2.j d s 2.3.f f f g g f f s w <.3.f s s 1 9 w s q 0 t <.d e >.o.X.O.R r 3.>.4.u >.d 2.d g f f f y t s s p f f 2.g d d g s f f s f t s f t w d s p f j 1.u  .7 , ..8 8 5 8 8 8 & 8 8 5 ..E.fXKXKXPXPXKXJXJXdXfXpXQ.!.Q.E.=.R.W.U.!.b.!.R.Q.n.l.R.R.W.n.R.!.!.k.k.R.E.Y.l.l.R.E.l.b.l., W Q 8 = = 5 & * 5 ^ ..-.6 6 r >.g 3.d j j g g t u e e r u r e i r f.~ N E M M x H H r.J L oX] r.|.$X X>XwX}.}.).L ' d.T 9X! N E #.V 6 r e e o.e e y u r e t >.2.q.s 2.u ;.d 3.d U.3.o.=.R R ..Q -.a.{ d.{ ' K d.] } %X3X$X$X|.<X}.] ] n g.F m [ ( N 5 $.:.1.o.<.o.b.n.4.3.0.3.2.g ;.7.b.2.3.o.4.>.d >.2.4.;.3.2.g g o.3.2.2.2.d >.<.>.>.u u 5.u <.;.<.7.4.2.>.2.9.2.f 3.3.I.Y.f 9.n.9.g g 7.0.3.2.Y.3.2.3.g <.4.>.X.X.1.u q.| 3.g f g g s >.g +.b.+.A A P P e.] I I I ] G I ]..XoXqXoX] oX{.].{.{.{.]././..XJ J J J /.).] ' ' ( f.;.k.1.9.3.>.1.r 5.;.:.8.q.o.1.8.q.O.6. .-.a.t./ u.a.c.c.d.^ c.m.c.c.v.t.u.m.",
"v.8Xd.8X{ a.v.y.8Xd.d.d.{ { y.d.a.uXuX8.n.k.b.m.uXaXm.E.8.8.q.7.uXM.8.b.t 1.T.o.w a s o.m.9Xd.oX' L ] I oXr.] { 0XiX0Xx.iX*.&.-.o.o.r $.o.9 u o.7.:.e w w j f f g g g g f f s y u t s u t a s j f s >.g f f a t e d s s y >.d s d 2 t 9.h d d s d 2.d y t a s a 3.d a a t 3.f f e <.j f w s : d a w w w w s p p d u e r Q 6 , Q Q = 5 = & & 8 Y 5 n.fXdXKXPXPXKXJXdXdXfXpXW.pXQ.E.Q.U.Y.Y.b.R.R.!.W.R.!.R.R.R.W.R.R.W.!.R.b.l.Y.R.l.%.z.l.$.5 6 & & 5 5 & & & , < Y R $.-.6 e r u r <.d s g t >.t e e e e e r e e r -.*.Y C M M x x K P ] ].] ].oX}.3X<X<X#X@X[.].G ' d.( i.v.T E E R e e e r o.e e u r u u >.d >.9.2.<.d 9.d 9.d 0.1.0. . . .5 Q x.Y u.v.{ Z ' { r..X}.$X|.3X3X3X>X}.r.G g.{ F Z c.! B R o.1.1.<.:.1.b.1.0.b.b.0.2.9.4.3.3.9.4.g g g d 9.0.Y.1.3.4.3.2.2.4.2.d 2.4.9.3.d s <.4.;.>.d q.1.j 2.7.9.R.E.3.0.d 3.W.A.g 0.o.3.:.e f.d ,.d 2.s 2.d 3.;.2.d d 2.G.g g f Z.f j g g 3.H.2.7.d V V V A P P P L D L L G G I ]..X.X] oX] ].].{.).{.{.].I } ).J J /./.].].' c.[ a.9.<.0.9.1.d 3.3.1.$.7.1.8.1.b.6.8.=.-.@.p.v.c.i.c.c.c.m.i.a.x.c.c.v.t.u.a.",
"c.d.d.8Xd.) 9Xc.qXd.8Xy.y.y./ i.p.-.T.iX8.b.n.n.M.M.b.8.-.f.#. .=.n.n.$.y e b.n.d 1.E.T.b.=.s.d.' H F K g.d.c.m.iXv.c.u.-.W W r $.$.e w u e e e w <.1.t s <.9.b.4.C.f s f s f s d s f s s s p f f f 4.G.f f f f g f f f g g f f g | d g f 2.f f s g d y d s a s 4.2 t 0 t s f f e d d u ; w : w 9 9 9 9 9 d d 9 t i 7 6 6 , 5 = 5 = 5 = & = = 8 ..E.pXdXKXKXKXJXJXpXpXQ.!.R.!.R.W.R.Q.l.Y.W.Q.Q.!.Q.b.!.W.R.R.Q.Q.Q.n.!.Q.W.R.!.Q.l.R...l.l.5 < & $ 5 8 & & 5 & 6 &. .6 -. .r i t d e 1.u r y ;.t e e e e 6 r r e $.x.@.E t.M M P M K H d.qX} } ] [.|.|.|.wX[.{.G qX' y.n ( m.t.B V 6 r r l o.e u o.e e $.5.2.3.>.4.3.9.3.<.>.d 3.1.9.9.o.-.f.-.&...&.a.c.' ' y.{ { ] oX}.$X<X$X$X1X<XOXG g.c.{ ' [ m.[ Q ..6.b.7.1.5.7.T.0.2.2.3.d >.d g 3.4.2.s >.d o.3.d 5.0.7.;.<.5.>.1.X.d 2.<.<.>.s u 1.7.b.<.k.0.4.2.9.0.5.0.0.9.g d >.9.I.2.y <.1.7.>.<.d j g 3.j 3.4.2.9.3.C.C.g f A.g f 2.j <.;.0.0.2.j 2.g g 2.3.h.h.B Z Z P K r.I L ] U U I ].] r.] .X].].{.[./.).].J J } J ].[./.].] y.{ [ 1.8.q.f.;.1.<.1.1.<.q.O.8.f.=.8.f.@.p.*.d.c.i./ t.t.u.t.u.v./ ^ i.^ ^ *.",
"v.c.c.9Xv.d.8Xd.y.d.y.[ d.8Xd.8Xt...o.uXb.n.n.n.E.M.6.p./ =.O...R 8.8.=.u t i T.9.9.E.uX8.p.^ T.v.e.' ' a.9Xc.M.M.^ =. .=.| r o.u u o.e e u e e t t d 3.s d 7.9.2.f g h a f p B.p f f p C.g p f j J.C.f A.f f s s f f 2.f s g g s d g f 2.s g f g y d s s f t f j s d t f p p f f u t 2.y t s w 9 9 t : ; w a w e - - , , > 5 = & , & & &.* & ` l.dXJXKXKXKXKXJXJXdX!.Q.Q.Q.!.R.W.R.E.Y.R.Q.Q.!.Q.Q.Q.W.!.!.!.Q.Q.Q.W.W.Q.!.Q.U.E.l.W.b.-.l.Q & 8 & & Q & * & * R R  .r $.R e t d g s d g d d u t t e e 0 e r e e | n.Q < ( M M x M M F ' qX{.{.].#X<X|.}.wX X].I d.r.( ( t.N m.T 2 6 ..u i i e r r e t y <.4.2.4.j f 9.4.g <.d 3.T.g j 7.b.M. .%.W ..Q p.y.' ' } ] m ] {.#X>X>XwX,X>X[.} [ Z ' ( ' ! a.-. . .o.6.1.;.<.b.9.>.2.2.;.:.>.g ;.1.s >.u X.1.<.3.>.k.9.d 3.<.u d d ;.u u u >.d e i 0.l.9.k.1.U.o.q.<.0.>.>.2.u 3.d d k.3.f g g k.Y.2.U.f J.1.2.f g s g 2.j f g j 2.2.d 3.g j j 3.3.H.g 2.3.g 2.9.2.;.X.#.A r.P r.L ] ] L L H U I ] ] ] r.oXoX{./.{.].J J G J /..X/.J J {.L ' / :.O.O.O.o.O.O.O.O.O. .O.O.@.@.p.t.*.u.t.@.u./ ^ u.^ a./ ^ *.^ *.@.x.*.",
"d.i.c.d.d.{ d.d.{ { y.d.[ i.y.y.*.=.+.=.E.iX7.b.b.uXn.u./ *.t.*.+...R 6.7.t a n.T.2.E.b.9.n.*.6.iXx.v./ M.0XiXv.u.-.%.=.=.e r o.r e 1.t e u e e s a u d g g j g C.s g y d u a f f p p A.f J.g g f f B.f g j g f g s s 4.g g f f f f C.s 3.G.g f s d g g s s g f g f a s t s f f p s p f f p p 9 9 ; t ; : w ; 9 u 1 @ > $ , , $ @ > & = & 5 8 ..E.dXJXdXJXKXJXJXdXsXsXpXQ.W.Q.W.!.W.l.E.-.!.Q.W.Q.W.R.E.!.W.!.E.!.W.E.E.R.R.W.b.U.Q.Y.b.=.-.% = & & & Q * * Q T W +.1 n.o.o.y u 2 ,.u 0 d 2.d d t t r 1 e e r  .r ..a.^ $ ( M K x M M F K ' qX].{.[.<X>X>XwX|.].] F qX' n [ N c.e.R ..8.i i u e u $.o.t u d 2.2.9.3.j d <.s d s j 9.j f 1.$. .6 ..R , W *.y.' F ' } ' J /.@X>X,X>X<X,X>X{.d.m { ' ' Z / m.Q  .;.1.o.>.>.U.2.2.d <.2.2.g 1.3.J.s 4.3.H.j 4.Y.3.9.3.4.,.u j j j >.d >.d 5.1.k.<.I.T.0.<.d b.4.>.9.2.9.0.j 3.4.f s 3.d 2.d 2.9.0.9.b.9.3.7.k.2.f f g g g g 2.g 2.<.3.g g j G.0.2.P.g 3.7.9.f g s <.1.+.+.A A K ' P H H M H H D U ] ] r.r.r.].] ].).).I J I J ]./.J } J ].].] ( #.6.q.6. .6.6.6.=.=.o.8.$.$.m.m.c.*.m.u.^ u.&.i.p.a.i.) x.c.a.c.a.a.",
"d.[ d.{ { i.8Xd.d.d.{ [ t.[ y.^ *.O.q.5.0.T.T.1.b.M.n.p.u.x.i.~ E O.| 5.s 1.d 1.b.T.9.3.O.6.=...f.n.p.^ x.m...&.^ r o.r i e e e e y i i o.t a s h s 3.s 3.j f H.f f p f d g s u t f f f g f g f f s s u d f g s d d r r d d o.t a g u X.r 9.;.d d g y s s f 2.f g s j f p p j p p B.V.p j a t : 9   . z z o z : w 7 , : > > = = = & @ = & 5 Q M.fXJXKXKXKXJXfXdXdXQ.pXQ.7.l.W.R.b.W.E.b.T.Y.E.W.Q.pXQ.Q.Q.Q.Q.W.Q.pXpXQ.W.!.W.R.U.Q.l.b.l.< & & = * & , 8 $ 5 W R r o.6.6.r d y <.o.s d r e a >.t e e e 0 e e  .o...p.! , ( x x x M ' Z J ] 8XOX].}.|.$X>XwX|.XXoXG a.8Xn ( B ~ m.@.6 ..%.5.l e i e u o.u d g j >.5.3.2.d d 2.a 2.2.G.a >.;.i ....6 R , Q ! y.] m d.d.} ] [.>X,X,X<X<X,X Xd.( y.' ' F ( m.R  .>.>.2.g g b.3.g g 2.j 2.2.k.>.d 9.3.g 2.j g Y.2.f 1.3.g 2.g 3.2.d d 7.7.0.8.b.0.q.Y.<.Y.<.4.g 3.Y.;.0.9.,.P.k 2.g 1.b.9.4.>.P.9.2.2.9.<.k.9.d d s <.4.3.g 9.3.2.2.>.s g g >.3.g g g ;.2.4.s y d d g u ;.X.o.B ( K P L H H H H H I ] .XoXr.oXr.r.[.{.].J J J } ].J ].].].].{.} r.v.a.0.=.=.n.8.6.$.n.*.t.a.a.u.a.c.u.x.[ ^ ^ *.) u.*.a./ ^ / / ^ u.",
"9Xd.d.v.d.{ t.i.y.[ { y.[ t.t.#.+.=.6.=.E $.T.n.M.M.m.M.M.iXc.W f.=. .h h k.b.k.T.E.<.>.O.,.1.6.7.5.$.u.x.M.| r r e i e t r r e i i o.t <.>.s s g g 2.g j 4.f g 9.2.f f G.C.f s h s f f a f f f f s 2.;.r s g f s f s u g d s d a f s s y >.3.g g s a s f f s f g s s y u y y h y f s s g a w 9 . . . z 9 :   : : : 6 > # & = = = = = = & 5 b.dXdXKXKXKXKXpXpXsXdXpXR.Q.pXU.!.!.Q.E.Q.R.W.T.l.T.l.U.!.R.R.Q.R.W.n.W.!.Q.Q.!.R.U.n.Y.R.Y.%.& & & * = & 8 & & < +.6 O.8.O.7.f d d ,.s s s d u t >.t t e e e r e o.O...M.T ^ v x x M M Z Z L ] ] wX[.XX<X|.#XwX[.].8X' n c.m ! C ~ ^ m.R 6 o.l l i e e e 6.u 1.g d j 3.j 2.g 3.d 3.2.j 4.f 9.d u 6.r  .Q Q W W [ Z ' ' ' oX].oXOX>X<X$X<X>X}.] y.] H ' r.m B -...;.1.<.2.g T.9.2.j j f g d b.4.9.P.g 2.s 2.g 2.2.d U.2.<.b.g 2.<.5.0.T.4.>.5.q.2.1.0.;.7.0.U.2.7.9.0.0.<.0.3.<.3.9.n.n.7.U.<.9.9.g f 2.k.g g <.s s d d ,.h d 3.s d d d 2.d >.9.d g f f g 4.g u ;.s g g 3.2.d 5.#.Z Z K ] H L ] L ] I I I r.oXoX+XoX].{./.[.{.{.).J ].J ]./.J ].[.{.' ( t.8.8.=.-.p.t.^ a.t./ *.*.*.t.i.*./ *.y.^ @.^ *.^ @.^ t.*.c.",
"d.i.v.c.d.d.y.d.[ [ / d.y.e.*.=.q.-.*.@.| 7.8.E.b.b.m.=.M.M.f. .O.o.<.o.3.7.E.U.E.T.9.3.k.2.1.0.o.u R =.-.n...r e o.e i e e t r t t t a g f k.2.j A.B.B.f 4.g f 2.j f C.f f f p f f f f a s f s g g s g g y u g f f f 2.s f s s 3.g 2.s H.a k.g g s f f g s f s s t a u t s a d r 0 w g e a 9 9 . . . . ;       : @ 7 7 = # & 8 = = 8 = 5 l.pXJXKXPXKXKXdXdXpXQ.fXfXE.W.fXpXQ.b.n.W.Q.Q.W.pX8.!.l.!.pXE.R.E.R.Q.R.W.!.R.R.l.b.l.=.%.n.%.& < = & * = & & 5 8 T R r o.1.o.0.y ,.y e u e u r y s d r r e e 0 i e | E 5 uXT R C M x x M M C ' ] .X].OX#X|.>X%X%X}.].] ' ' v.y.! V C E a. .7 i <.z.i e e e $.u d d g g T.f g 9.2.g 3.4.g 3.2.3.s 2.o. . .$.-.&.p.! ' ' ' d.d.oXoXqX|.<X>X<X>X>X).9XK F ' d.' n  .uX$.b.O.9.2.Y.Y.j j j C.d ;.0.;.9.3.J.Y.j g 2.3.4.4.U.G.2.T.>.3.>.3.<.9.4.d u 9.3.2.g 3.;.7.<.2.3.>.2.2.9.0.4.k.b.d 9.2.3.9.3.>.;.<.;.d <.2.s 5.d s d u 1 d y <.f s 3.g j g 3.U.j 4.J.H.g 3.d 2.s >.<.<.1.9.2.d | #.A A e.P ] L L I H D H U U I r.r.oX].{.{.{.[./.] } J } /.).J J {.].' ( ( *.=.^ u./ ^ *.) t.*.*.u.*.i.^ ) i.i.t.*.u./ t.x.-.*.&.&.",
"/ c.c.y.i.d.d.d.[ [ ^ d.d.t./ #.-.*.@...8.$.O.$.l.<.6.E o.7.<.+.| <.<.9.3.;.d b.d <.k.T.n.>.;.O.r e r i o.l.i e r $.y i u t t u s s 3.s f f k.b.2.C.B.B.A.A.f C.p g 2.C.s a g B.B.f f t f f f f s f f p f h y e t u s 2.f f t s g g s s d u t d s y s s s s s s t t a f a p f p f f f t a p t : # . z z z . .     o # 7 & = = & = = * & %.R.dXJXKXKXKXJXJXdXfXpXpXpXpXE.!.Q.Q.E.Y n.E.!.W.!.pXpX!.pXpXQ.pXR.pXE.W.R.Y.!.!.R.!.R.!.R.l.* & * & & & & & = Y 2 < | u <.1.| <.r d u e y d d u u f s d e e e e e e R ^ T m.R Y Z b x M M m Z L ].+X].qX$X<X,X%X>X}.).] ' ' d.( ( ( B V 6 n.r l z.l 5.e e i $.o.2.2.9.3.E.g 2.4.3.k.3.2.B.j 9.Z.j j n.o.=. .x.x.&.E d.{ ' g.d.oX(.{. X<X,X<X3X,X).d.' ' m y.' Z T l.=. .5.d 2.,.b.2.2.d 2.3.f.0.g s 0.g g >.d g 2.3.d 7.2.d 7.n.1.u >.u ;.u >.d u 5.d d q.y ;.| d ;.d ;.<.5.,.>.d ;.d >.,.<.,.3.u q.u <.0.d 9.3.9.d s j g s d u 9.g 2.2.j 2.4.3.4.2.3.<.1.d ,.2.2.s >.3.>.>.3.s ;.u +.#.B B ( Z A P P P D M P P D U r.oXr.r.] {.].OX].].} ] } } J J } } ).J ' ' / a.) t.a.t.t.u.t.i.c.*.u.t.t.*.m.t.*.a.u.t.@.a.^ x.&.",
"y.i.v.8Xc.[ { d.[ { d.[ y.e.+.0.*.*.+.U.b.=.o.;.7.<.b.O.| 5.5.t s d >.,.X.d 5.U.1.0.b.T.0.k.$.r r r O.r e $.e o.e u r y o.u t t g d 1.9.g g 2.3.>.g g g 2.f g 4.f 2.P.B.A.A.2.f g A.f g p f p p f p C.C.a s s r e g s f f f u u g f g s t 3.g s g d u f s s t u q u t a s s t t s t s t e a w t ; . . w .   . X   ; # # Q = & = = & 5 T l.pXdXdXdXdXJXsXJXpXQ.W.E.b.pXT.U.=.W.W.E.8.W.!.Q.U.pXpXpXW.Q.pXpXQ.W.E.k.R.R.Q.W.!.!.!.!.R.l.8 & & & = & 8 8 5 E Y  .u u 1.;.;.>.d u e 2.>.d g d y d g d e r r e e 6 @.^ W M.W R Z x M Z n M m F I oX[.].wX,X<X$X>X(.].].F m d.( v.! ~ T 5 =.E.^.^.l $.u y e u ;.2.d 0.<.5.g g g g 2.g g C.2.J.f g d T...8.=.-.Q 5 Y ~ m K ' ' ' ].).[.|.>X>X|.}.[.' ' [ ' ' ' n B 5 8.=.1.>.>.>.9.d d ;.>.d 3.>.f d 0.d d 3.2.d 1.Y.3.0.7.g 9.0.Y.<.d >.2.d 3.<.2.<.1.u 4.d 3.3.<.b.7.<.q.1.3.g >.2.2.9.3.<.3.2.7.b.9.<.9.<.Y.2.2.g d g 2.<.d t o.>.2.s h ,.s <.y >.;.u u g 2.2.u o.s 2.s 4.2.f 2.s d 3.+.+.1.#.A A P ' P M P P A H D U I .Xr.r..X.X{.[.{.J ] J ] J ] } } } } ' ' [ u.u.c.u.m.c.u.a.a.a.c.a.c.x.m.p.c.t.a.i.t.u.c.t./ ",
"c.i.[ / [ T x.a.{ d.{ [ t.s.#.-.@...O.n.=.O.;.d 5.5.n.n.2.d 3.s g f j 0.b.9.0.9.0.E.iXn.5.u o.r r r i o.R o.u $.e t u e ;.d s s s 3.g A.g s j g 2.2.f C.Z.f f d g 2.d g f f 2.p j s f j p f f f f y 1 3.d s s s a 2.f f j s g a f d d f f s f f s a a a d p s a t r y a g s s e t a a a w w w w 9 ; ; :   .   o # # # @ 5 = 8 = = = 5 n.aXdXJXKXKXdXJXdXdXsXpXQ.pXT.!.E.R.b.U.-.!.T.=.U.Q.Q.E.Q.!.E.Q.E.W.Q.b.n.P.k.R.Q.Q.n.R.!.!.R.%.8 5 & & = = & & 8 _ W ;.u ;.X.<.u >.;.d t g J.>.s s <.| y d y 6.r u e e  .*.^ uX^ E M S M v Z m m ' I ] ].[.XX<X3X|.%X{.].J H F d./ ! t.B E =.6 b.R.l i i e r r t 3.<.>.o.d >.j s s f s s j g f j f g f 1.i 8.=.Y R , 5 N C m m } L ] ] OX[.>X|.$X>X|..X] ( d.G ' m n Y =.uX5.0.q.3.b.2.g 2.H.g j G.g s 9.9.Y.1.Y.<.Y.E.3.s U.f f s 1.0.E.2.>.3.0.9.2.g 3.<.<.d k.d >.<.b.o.7.d ;.;.>.1.1.q.;.1.7.3.0.$.7.7.3.d >.d ,.u t >.s s w t u <.g g g 2.g 4.C.g 2.j f f 2.2.g g g g >.9.j f 2.s g 9.2.>.;.0.:.A A A A e.P P P H x P H r.r.r.d.r..X{.[.{.].].} } } } } d.].] r.] v.g.a.a.c.*.x.x.n.i.u.a.^ @.^ *.Y ^ *.&.i.E *.@.*.",
"u.c.i./ *.v.i.^ x.i.{ / e.*.*.+.R $.8.$.,.,.2.d 7.<.q.m.b.9.3.U.U.J.j 9.5.9.3.u 7.1.E.<.<.u y r 6 e e o.| o.r o.7.t t u s 3.f g t d 2.f C.C.g 2.G.G.C.S.S.f f s j f f g f p f f f e w s f a g u s r 0 t >.u e a d y s u >.d f f s k d a g s s g a 3.s y <.s 2.s p a a d s s f j f a p a w t w p w : w ; : : : - o @ @ = = 5 8 = & < R n.pXKXpXJXJXdXdXdXQ.pXQ.pXQ.W.W.Q.!.U.E.n.b.!.!.U.W.!.U.!.W.U.R.Y.R.W.l.l.Y.%.Y.R.R.U.b.l.U.8.< , = 8 & 8 & * * T u.@.o.o.o.6.9.u d j f 2.g d 9.j d d u d u r y e e e 6 R &.W 0XT B b S M b n n C K L ] ].{.{.wX$X XOXJ L ] G F ( ! T ) C ~ =. .l R.l e e e o.o.u d 3.2.j j 3.d 2.s f 2.j f 9.g 9.g H.4.4.9.$. . .Q 5 =.Y ! m ' } r.} d.qX}.>X|.<X3X>X#X] ' ( ' K { m [ R 6 R.;.k.>.3.0.;.u u >.>.1.4.d g 3.>.1.Y.2.g d >.s U.d f d q.0.E.<.3.0.<.g s 3.9.9.9.3.;.d d 2.2.2.>.d d >.>.;.1.;.>.<.;.<.>.4.2.0.f g d <.3.d s s f f f s t d u >.d d j d g 3.U.2.C.f 2.j g f j s 9.0.f 2.y g f d 0.a d >.4.+.V V A Z A A P P P P D P r.I ] r.r.r.XX[.].].J J I ] } ] } } J ] { { ( ( &.^ ^ -./ ^ W ^ W ^ < < < -.^ @.p.^ @.-.*.",
"t./ x.v.v.[ y.! ^ u.v.d.~ @.=...7.7.=.O.;.g d u :.d <.b.7.n.9.3.2.f f g d a y t s <.5.u o.6.r e e e e 6 $.u t t u d s P.2.2.f g s s s 4.f f g g f p g j f f Z.f f p g 2.f f s d a f p p f j f f p 2.s s a t 2 y y y s s s 2.f f s a g u u y a s f s 4.d s d 2 d t s g r u a g f s t s 1 w s a s s 9 w w ; ; o o > > = # = 8 = = 5 Y -.pXJXKXKXKXJXdXdXsXpXW.!.E.R.W.T.W.n.l.E.b.8.W.pX!.U.R.Q.Q.pXW.W.R.W.R.R.8.R.W.R.l.R.U.l.b.8.%., < & & & * * * Y < @. .| | r 1.o.y e u y d s r | d d e u u X.6 e e 2 r 6 R W ^ m.T % b M n n b C ( G I ].{.].@X$X%X>XOX{.J ' ' ' C t.( E @. .6  .l R.5.w e e u e u e ;.<.<.>.1.4.>.>.d >.3.d 4.j b.g s 9.g <.$.=.O...R 5 Y ^ ' Z ' L ] ' .X[.[.|.>X|.@X$X' { F y.y.v.' ( C Q n.5.d g d b.g s 2.3.Y.2.s 2.2.2.f 3.g f f s j j k.9.j 2.9.9.d 9.1.Y.j 2.f g k.2.3.4.9.3.3.2.2.2.d <.9.<.>.h d 9.>.2.9.;.s >.9.3.<.g 3.2.<.3.f g ,.g g j 2.s d 5.7.9.g 2.2.d <.d 2.g 2.j J.s <.s 1.9.2.3.2.3.2.3.4.2.P.2.<.d <.#.e.#.A A A P A P P D D P P P r.d.oX.XOXXX).] oX} ] I J J F G ] G ' ' [ x.t.*.*.&.t.&.*.*.*.u.i.^ a.^ a.a.*.) a.",
"{ ! ^ c.qX/ i.d.[ a.t.x.#.7.b.b.<.q.#.O.O.:. .| <.j p g p U.Y.P.f p p j p s a a t 8.1.u o.5.$.r e e r N $.:.a s d 9.g 2.g g f g s a s g s d 2.g f C.g 2.s j f g y s s s 2.s s s s f f f s g 2.f s g s t s s s y t f p f f d >.j f s f s u s g s s a d g f s X.e | t a s s h t y t s u q 1 a e u s t e # - - o o = > & & = & & 8 5 &.M.dXKXKXKXKXJXJXfXpXQ.pX!.W.E.R.Q.W.!.E.p.=.b.l.!.Q.Q.R.Q.!.W.R.!.U.Y.Y.b.=.R.Q.!.R.R.W.R.E.Q 5 5 5 & = 8 & * 5 E / +.;.u <.<.d 7.r u r d d s d e y t <.o.d <.r r e i 7 r =...W m.5 B ( M M b C n F K L I } .X@X|.wX|.}.(./.H G ( ( B ~ *.T =.6 r 1.l 7.:.e y o.t t t d 1.u d 9.7.>.2.g g 3.g s s 1.>.2.2.g <.-.8.6.%. .R 2 T C ' ' G ' ] J oX}.,X,X>X<X|.#X' F m a.a.' ( n @.R U.2.f g 0.3.g Y.k.k.A.f 4.3.J.g 3.9.f g <.s 3.d k.9.j d 2.g 9.n.b.<.9.d <.>.>.3.9.3.2.q.5.b.k.9.T.9.0.d j 2.Y.3.2.9.<.g >.7.9.n.d 3.3.3.k.U.3.3.2.g 2.7.0.2.3.3.>.s d r u d 2.2.s a 2.<.y d 9.u d k.2.3.g s q.s 3.2.g g g g 3.V +.>.A A P A A A A H D D H r.r..XoXr.].[.oXoX]..X].] G ] J J } } ] ' m.^ / ^ ^ *.x.*.^ *.*.^ E W @.W a.^ ^ &.",
"9Xy.t.a.m.v.0Xd.{ / [ W $.$.7.8.X.O.w.#.O.:.o.y <.f f 3.;.9.C.C.Y.S.B.P.s 4.3.2.3.0.<.h t y 5.o.e e t r u ;.s s f 9.2.j g f Z.u a f f p g s g C.g f C.C.f f C.f s f f a g g j s f s f s g f 2.g d t g r u t t e e a g t d y d d 3.s s a s s d a s s s g f s j d t y r f s a a a s a s a s t t t t ;.1 > - > & @ > = & & & & 5 & _ -.aXdXJXdXJXJXJXdXpXE.Q.W.Q.!.E.R.Q.n.!.!.E.E.T.=.R.W.Q.Q.pXpXQ.pXQ.W.l.b.R.b.R.!.n.-.E.b.E.8.5 & & 8 = & & * * Y u... .o.X.u ;.u 7.u <.d y d d d e u < o.u u u o.r e e e 6 6 | ..=.3 s.M M n C C m m Z ] ].] [.}.>X#XwX}././.J F ' ( C ( #.E n.6 i 1.l o.n.e e i d t a 4.g 2.9.n.9.g >.f g d 2.g G.d 3.Y.3.0.9.8.X.u =...=.Q Y B ' } J K ' ] } [.>X|.|.|.#X%X] y.' ' { [ m ! !  .-.b.g 2.o.;.9.7.5.k.9.0.Y.7.3.d b.3.2.3.7.9.T.<.Y.q.0.9.d 2.1.7.7.k.7.q.9.1.<.9.2.g >.u 0.7.0.<.7.<.3.d q.>.1.3.;.h 2.u d 1.1.b.1.7.k.g o.7.d d g 2.>.>.1.g g d d u a g d d 0.T.f s f f 3.f 3.d 4.I.f 2.d t U.g j g f f f g g g g >.h.A h.A A A A P x H H P D D U I ] ] ].].].].} I I ] J J G ] L n y.{ ( T *.u.a.t.^ *.W x.u.a.*.^ ) c.u.*.",
"0Xc.8X/ / u.v.d.[ ! { ^ O.i 5.1.O.O.O.O.,.o.g s 4.f 4.Y.A.C.f f j U.A.f f s 3.2.g <.k.u t t i <.t u y d r u 2.f C.j C.f H.C.B.g a g f p g s f f g s C.f A.s C.B.f g C.p C.f j f p f p f C.f f Z.s s f f e d a f d e t h t y a t 2.f u t s 2 2 t s s d s g r t u t u s d y d t t s y w s s t e s s t e 7 , , > & # = = = & & = 5 W -.pXdXKXKXJXdXJXfXfXQ.U.n.R.Q.W.n.b.-.U.W.!.E.W.R.b.=.Y.!.pXQ.Q.Q.W.Y.R.Y.W.!.Q.R.W.!.R.W.n.R < & & = = & * & & T +.o.r o. .1 q.1 5.s <.e y s g g s t 2 X.h u X.e t e e e r 1 e O.6.| ( n M n n n m K K oX{.[.[.[.<X<XwXXX{.J G ' v.Z ( ' V s. .m.o.u t 7.u i e t t t d >.g g <.7.1.d 2.d g >.4.2.4.j g <.<.j g q.;.r o. . .@.Q ^ ( d.] ' F d.} ].#X X$X|.%X#X8X9Xy.[ d.y.( ! ~ ..o.7.U.2.2.0.3.5.k.q.<.d >.d d d 0.<.0.8.q.;.k.Y.7.d 7.<.d d 2.d 1.9.<.1.2.>.d <.y d >.>.s 2.<.d d 3.3.d d s d >.s s j d k 4.0.>.3.9.2.g d j j s d k.2.j Y.j g d 3.d d 2.j g d 7.f g s k 3.f h 2.g d s d >.t 0.b.Y.f f >.s d <.;.u y ;.+.V V V A A Z A A M D D P P L L r.+XoX.X.X].].].I ] G I J J F ' } ' ' *.c.m.u.*.i.&.0Xv.i.^ c./ a.u.x.",
"v.) a.d.[ t.^ c.v.[ / -.#.o.$.1.<.<.X.O.o.d ;.d 2.d f s 4.g d s f g 2.f f s s >.s d 5.5.u d u u d 3.d r o.r U.Z.f j A.g s f B.C.f s f f f f p B.V.C.C.A.f g f C.B.S.f g f j j f f f f f C.C.f f s s s f f f f p f u y f f s s f j g f f p g u a a a t y <.s u s u u s s d r e h s a s s t u e t a t e 1 2 , & & & 8 = # = = = W *.m.aXJXKXJXdXdXdXsXsXpX!.!.U.Q.!.n.%.n.U.Q.!.R.R.!.n.R.Y.E.!.Q.!.!.Q.W.W.R.!.Q.Q.W.R.W.l.R.Q 8 * & & = # = * & 5 Y +.r u <.o.r d k b.a d t f s g f g e s d g d 3.y t e e e o.r e $.q.u / n b ( n B C ' K ' ] ].[.}.wX|.#XoX/.J ' ' t.' [ Z V +. . .n.d o.i e 7.t w d 7 y 1.1.4.d 7.1.d d 2.d g f s 9.4.2.<.k.3.2.<.k.u o.=.| *.-.^ ( ( d.d.} L J } [.wX|.@X>X@X}.+X] m ( a.' m ! R $.5.3.9.4.9.>.g o.q.;.s f <.1.k.2.3.d b.1.2.3.2.2.g 2.>.3.<.k.2.<.d 4.2.4.g 2.9.4.7.d 9.d <.4.2.g g <.9.9.a 2.j f f 4.4.7.k.b.d d k.9.9.2.d <.d <.>.s f >.s U.d 3.g d d 3.s a d d 2.d >.q.X.<.d g 2.d 1.2.g 5.6.9.s s 1.g s 2.d s h <.9.-.Y.g V V h.A A A x D r.' ' r.r.oXoXoXr.r.XX{.] ] ] } I I G ' L ' ' ' i.m.a.*.a.t.a.m.c.x.c.x.a.t.t.",
"d.{ c.8Xv.v.[ v.c.i.v.x.6.8.=.o.;.5.1. .X.g >.o.s g y s k.P.B.f 4.k.9.4.9.H.f 9.4.2.2.1.d d d d d g d | | e U.,.X.e <.>.| 4.g s g ;.s g j 2.g f s g g s f f g g f g d 4.g g f 2.f j 2.s f f 2.s f f p f f s f g t g u u a d d s s g f f f s s f s s f g 3.H.s f d s d a s t s s a f d d f f s t t e 7 6 , < < % & 5 & & * % < W p.E.pXdXdXdXfXfXpX!.E.E.Q.Q.E.Q.Q.!.R.W.U.Q.Q.Q.E.W.W.!.Q.!.R.Q.Q.Q.Q.!.l.R.l.W.R.E.U.W.R.l.& 5 & & * & & 5 5 * <  .o.u u q.r d d 9.3.s s r s s 2.y g d t ;.| u d t e y 0 e 7 $.e 7.7.o.y.M M e.C N B Z n ] } .X[. X$X>X%X]..XG K ' [ y./ B V R ..6 b.u t e <.u 6.w ;.d s d <.g g u ,.d s ;.u a d 2.2.j f g g g 2.s d g ;.1.$.[ ^ W ! ( ] G ' G G J (.{.|.|.>X|. X].J m n d.m M ! x...:.d U.2.9.9.f 2.9.9.g d 4.4.g g 9.3.0.9.k.j 2.Y.g g 3.<.<.9.0.d >.2.d Y.4.d 3.2.<.4.d ,.y 5.d t d <.<.2.2.<.3.j d 3.d <.b.;.d ,.d 4.2.s <.d d 2.g d g 3.d 7.4.3.f 2.d 9.3.g 2.2.g 4.9.Y.f f d 4.Y.j Y.2.U.9.>.g 4.j 3.f f 3.9.g g f s 0.g g j <.R :.h.A M x P I I ] L I .X] r.oX.XoXOXoX] } ] } J G { ] ' ' ' a.) c.*.m.0Xc.p.c.) m.i.u.^ ",
"m.a.m.m.a.u.m.m.a.x.c.-.=.6.q.$.1.<.7.k.j f j g s H.g g 0.9.H.H.2.W.H.2.b.Y.S.9.j 2.3.9.k.3.3.j 4.j j g d t T.g s X.>.f C.j f f f g g f P.j 9.j f f f s f f f g d s g g f s g 9.2.f g ;.d d d g d g ;.r >.y 3.d r s s a s d d s d g f g f a u t t s s s g d d s d d a s s s d d e e d d s f g h r 2 2 , , 5 % * * = & = & * Y @.E.fXdXdXdXpXdXpXQ.!.U.b.U.E.E.n.U.W.T.b.b.W.E.n.U.W.W.R.pXQ.Q.Q.Q.pXQ.Q.W.Q.Y.b.Y.n.n.R.R.< * & & & & * * < < < Y 1.;.o.;.7.| <.u u u t d , e s d 0 t ,.1 e e u d e ; u 1 1 r i e o.1.R e.Z M n C T B m m ] K ' {.}.{.>X].oX} I n ( d.( [ @.V 6 6 ..%.b.w w 7.$.l.8.t a j s 9.O.d ;.d >.d s t s 4.2.2.s 2.j d g g g g g g <.q.i.i.^ ! ( v.] ' { } } {.{.#X<X<X<X|.[.J ' m ' ( ' ! -.6 7.1.b.0.>.9.>.3.>.2.3.2.2.>.>.d 9.U.2.7.7.>.2.5.2.g >.;.d >.3.1.1.d ;.9.T.o.o.1.2.0.3.<.d d t d 1.9.d d 4.9.5.<.1.g f s 9.g d 0.q.T.f 9.9.g g d g 2.2.b.d 2.2.9.4.9.2.,.3.>.>.g f 2.2.2.g j J.g j g Y.j k.E.f f 3.b.C.f f f >.g g C.s 3.2.4.g J.d d ,.h.B A ' r.P P D D H U P ] I r.r..X] ] ' ] G ] ' ' ' ' ' t.) c.y.) y.T T &.^ @.u.u.^ ",
"v.x.c.i.*.*.m.c.p.x.&.%.-.6.$.6.7.7.8.l.9.g 4.j 4.A.A.C.k.J.9.T.J.C.P.9.T.U.U.4.9.4.k.9.E.P.3.g d g g g g a U.9.f s 3.f A.C.C.B.f 4.C.p f j j 4.4.f f f f f g 2.f B.j 2.f 2.f H.J.p f f f f f f y R V % d r t h u r s y u y u u u s s d d j f t g s s f s y g p p f | t s d r r e e f f f d | u R 5 2 2 , * % 8 % & = * & < ^ M.pXpXdXpXdXfXsXsXfX!.Q.W.T.!.R.U.!.R.E.T.n.T.W.n.U.U.U.Q.!.Q.!.pX!.W.R.!.R.W.W.l.R.l.R.R.< & & = 5 * = & 5 * 5 ! 5 r e u <.1.| ;.u X.e t g e $ e d 1 ; 1 2 1 e y e t e e e ; e r e y y q ' P P n C / C K F G ] ' [.}.<X>X(.oXJ qXF ' y.{ ! *.B 6 6 %.o.l.7.t 7.8.o.l.a s 2.s <.s f j ,.u u s p f 2.f f 2.9.f f A.f g 9.>.2.d b.9Xt./ T ! ' ' ' ' ' G ] ].}.>X|.|.|. XI K m m ( ' Z N 5  .u O.7.9.2.>.>.d >.j g g g 2.9.2.T.E.U.k.3.g h 0.s g 4.3.g j k.1.2.7.1.2.k U.9.2.d 4.g 2.d 3.j j 3.k 3.<.<.s i u a f s 2.9.3.f 3.U.f 3.9.J.s 3.d 1.9.3.2.4.g d J.2.G.9.P.2.4.g >.g 4.2.d P.g f g 9.g 2.U.4.f f g Y.>.>.g g d g 2.f d a >.o.3.2.o.h q.+.R V A A M H D D D D D U I L ] ] .X] ] ' ' ] ] ' ' n y.y.y.*.t.^ *.^ @.x.&.t.x.c.u.",
"a.a.d.! i.d.c.d.[ t.t.*.E ..=.+.O.O. . .u <.<.d g f 2.g 9.4.f 3.f f H.f T.b.E.E.U.9.k.2.U.9.2.4.G.A.f 2.2.f 3.4.9.f j 9.G.J.9.C.j g f p f 4.G.j 2.A.H.p p g f j G.f f H.g 3.2.g f j f p f f j f f g y 0 s t t s s X.y y a s d g y r d | r d f d d d d d s >.s f f d +.r d y s t d +.X.t g | | u 6 2 , , * & * * * * = 8 * E &.E.pXaXpXsXsXdXsXpXpXpXW.Q.pXW.Q.!.W.W.pXQ.Q.R.!.Q.!.!.Q.R.Q.!.Y.W.Q.W.W.R.!.!.n.n.E.-.-.l.< & * & & * & * 5 * T T o.e ;.o.r q.3.d d 0.t s f d e t s y r e d y y u u t e e e e 1 o.e 5.u t s.P ] b B t.F ' F J ] [.}.$X<X<X X].} y.d.K #.d.B #.V 6 6 6 y e 0.w e e o.t Y.s s y 2.g s <.7.r ;.f f f g s g f Y.f 4.g f g 3.;.<.3.6.*.t.t.Q ~ C C ' K K G oX/.{.|.(. X|.%XJ G L Z ' F y.( Y R  .<.b.n.j f g 3.G.2.2.j 4.2.9.j T.E.3.k.g j g b.2.3.2.4.k.4.k.U.n.T.9.g d 0.T.j 2.4.4.2.9.0.g d 2.2.4.C.s w t u a d 9.j k Y.g s 2.H.s U.U.9.q.>.h b.<.2.;.;.u :.;.<.<.;.o.5.d 1.o.,.,.<.u h d g d d >.,.d f f s d 2.s s g f g 2.s 2.f s d >.h g g <.d d j d h.A A H D D P H H L U I ] .X.X.Xr.] ] ] r.' { y.d.i.u.c.c.*.x.a.*.m.i.a.c.i.",
"i.i.i.v.v.v.c.d.y./ i.x.n.x.f.f.p.#.*.~ | 5.s t s s t s P.k.2.2.f s g a 3.3.f g 2.3.9.G.g 4.s s 2.f f d 3.g j s 0.f g 3.f 2.4.2.f p f C.f J.G.G.H.f 4.j s 3.w f 2.2.s 9.4.3.k.j 3.P.p C.C.f 3.g C.B.f y f f f s s y u u f p f f g o.r s d t s r h t g a f d a s y y d 2 u R e u y u o.N q | r | 5 2 2 & Y 8 8 * * * = = T / p.aXE.dXdXdXpXsXfXfXpXpX!.!.Q.!.Q.pX!.E.!.R.Q.W.8.!.E.!.Q.U.R.R.Q.Q.Q.R.Q.Q.Q.!.!.R.Q.-.E * * * * % & & = 5 5 T * | 6 e o.u ;.5.1.d g <.r ;.d t t y t t y y 0 u e r t t e e e e e r 1 7.t t #.n e.B B C ' ] K ' L ].[.}. X@X[.].I ' 8XG y.' ~ ^ E $.r 7 e e e k.w w y u 1.7.a s 2.d s q.7.d s g g u u u s f 2.f s s f 2.4.j 3.<.6.^ i.a.R W *.~ ' K ' G ' J /.[.`. X|.|.}./.F m F ' ' { u.Q  .-.7.0.0.2.j 2.d U.E.g <.0.d 2.2.4.2.J.j 3.b.b.j 2.3.1.b.7.7.k.>.>.2.d 2.u k.k.2.<.9.1.2.d 2.d 3.d <.f g t t s g d <.d r y 3.u 9.d t q.b.3.<.d y q.;.;.d d <.<.;.q.q.o.q.5.2.3.9.g 3.4.g 2.2.s g 4.g s g f s g f 3.d g j 2.2.f s 9.f 2.9.g 2.j j 3.j 4.j f 6.A A Z M x P L P L U U I I ]..Xr.r.] ] r.] d.{ p.0Xa.m.a.x.a.m.m.m.*.p.x.a.",
"i.v.c.i.c.c.d.t.u.i.a.x.v.x.x.n.n.-.n.~ E  .u t h g f 2.3.0.n.T.J.g A.2.a 4.g g d 9.k.9.2.k.>.s g s g f 3.<.4.f 3.j f f s g j f s a j C.p s 2.f 2.f s 3.j 2.d a s s s s g g 2.f 2.g t g g f j g G.f f s f u s t t a u o.y s A.d u d X.g f s f g f f p s s s s g s s f ;.h u 0 d s t d | | r u Y Y < < & 8 * * 8 * & * < E u.x.n.E.fXdXfXfXfXpXpX!.pXQ.W.E.!.!.Q.E.n.R.Q.!.pXT.U.Q.U.!.!.l.W.!.Q.Q.Q.!.W.Q.E.E.!.n.l.5 * & & * * * = & 5 N Q R | r 6 2 2 ;.u ;.d d d y <.d t u e ,.u o.u y a s t t r e r e e e i e 5.d t w.A P Z C C ' K Z ] K ] {.{.[.[.{.]./.G F 9Xd.Z V E E  .7 e e y r i i i w ;.1.k.d p j u 3.4.0.s g f g d g f f P.f C.f f f j s d >.d q.m.c.*.E W @.^ ] F ' ] G ' J ]. X`.|.>X|.].] ' { { ' { d./  .x.<.3.Y.pXk.P.s E.k.j 3.2.f 2.s 2.s 3.2.5.0.u d a d h 7.<.4.5.d >.;.>.g 2.o.3.<.g d 3.d d s d s d f 2.4.j s s 2.2.g d s a s f 3.g j g 4.9.9.s 9.0.9.k.9.0.k.k.5.b.m.x.n.U.H.g 4.4.2.3.9.g d 3.3.U.H.A.k.4.H.f C.2.j g 9.k.4.j f d 2.j 4.4.2.d 2.d 4.g g g 3.#.#.#.#.A A A D H D D D U H U I ] r..Xr.r.r.e.^ a./ *.W @.*.^ m.^ u.^ -.a.",
"a.c.c.x.u.i.x.a.x.c.[ y.N ^ *.@.p.t.@.*.=.u 2.9.4.g s a 9.k.T.P.J.C.B.H.J.f 9.T.n.b.T.n.k.4.d Y.p f 2.B.k 9.4.B.f 4.B.B.C.A.f j 2.G.j J.2.G.2.g g f f f 4.2.d p a s f f s g f 2.j u t d a s s s s d X.;.| | a d s a r r r u g d d ;.| t s g f g f f a a >.f u d 2.f t 9.d a u d f f f d | e r 5 5 < & # = * & = & * & Y u.M.E.uXpXpXpXpXpXpXT.W.Q.!.!.Q.W.n.8.n.!.E.E.Q.Q.!.pXl.Q.Q.Q.!.W.Q.Q.Q.W.W.W.Q.Q.!.R.!.l.=.& & = = = & & * ^ Y Y R o.u y r o.| e d u u d s 3.u d s >.u 4.;.d u u t d u r r 2 e e 0 e e w 7.t w s.A A ' Z ( Z K ' I } {.(.{.>X|.(.{./.G m v.d.C V V ..7 7 e e t <.w 1.w t u 7.s Y.f f g H.g P.g f C.d f 2.g j Y.B.B.Y.B.f j f 2.;.2.0.m.v.c.^ ^ Q &.m L F y.' { } /.(.'.|.`. X}.J ' m ( { ' ' *.Y o.1.2.u 0.7.<.2.>.d 2.2.g d 1.u 2.s g t 9.4.3.2.f 3.3.3.f 0.9.9.2.j g f 3.2.d b.Y.A.f g s s s 2.3.f 1.k.2.g 3.k.4.H.G.C.f d g 3.P.j f f k.9.9.2.k.U.9.4.b.q.6.7.n.n.7.b.k.<.3.3.k.0.b.9.4.2.d 9.b.4.H.4.9.2.f 2.f 4.f g g g j f j g 2.g f s d d d d g u s d ,.u | V V A A n Z M x D H D U H L ] ] ] r.r.d.t.T *.^ Y W u.-.x.u.t.Y -.u.",
"a.u.t./ u.y.^ u.a.*.y.{ N t./ E @.p.*.+.8.d >.2.4.j f t 3.b.9.f j 2.G.s 4.3.E.n.b.k.0.U.0.9.k.3.s f 2.s g 3.4.s <.2.j g f 2.2.4.g 2.J.G.P.J.U.T.G.f 2.j 3.k.P.f f f g f s g 2.f A.f f f f f f f f s u | r u s s f g y e u r r d d u u y d u d ;.d s o.r e d u e h 3.d 9.u a s d u d ;.+.o.r r Y < & = & 5 & = & & * Y ) M.E.fXfXpXdXpXdXpXpXpX!.!.E.Q.!.Q.E.E.!.Q.W.l.R.!.U.U.l.l.Q.!.!.R.W.R.E.W.!.$.R.b.!.W.W.n.$.5 & = # = = & 5 8 Q Q  .u u ;.o.d >.r u d g d s s d r t u d g g d d h s s d r e r e w e e e e 9.t t s.V B #.Z ' Z K L G J {. X[.|.|.{.8X.XJ G K 0XB B +.f.7 i r e t e e t u u u 5.5.9.G.s f s g d 4.d d d s u 3.d j C.f 3.f g u y <.X.;.q...c.x.c.^ R *.( ' F K ' ' Z } /.}.'.(.}.%X).' m ( ' ' m v R  .1.<.X.9.E.2.>.d 4.2.g <.5.U.3.3.3.2.s k.2.b.0.g <.U.d j d 9.n.U.4.4.3.9.9.9.n.T.T.j k.g Y.n.b.b.2.k.3.<.k.b.b.k.9.d 3.k.U.s 3.3.j j g d U.b.2.2.4.>.;.X.X.o.:.o.O.1.6.o.1.6.0.| u X.t d t d >.a s s d g s d t ;.h a y u s s u g s s s s s f f j f g f f g 4.9.0.g #.g.#.#.A ( M ' ] D H I J J H I ] ] r.v.u.m.u.W x.^ -.M.m.E W -.x.",
"t.i.t./ ^ t.t.*.u.d.i.i.t.v.c.a._ ) *.R o.o.;.d d s g j s Y.f s k 9.g f g d g 1.b.k.P.U.k.Y.4.J.f d X.g g g 9.9.3.j f f p f f f d s d s f g 4.4.g f g g d 2.g 2.f s s f f u s f s g 2.g s s 2.f f f p f g f f G.B.j g f f f s g s g s g f d s u g a 9.r t w s e e a s d t t s 0 u h r r 5 6 6 5 < & & * 8 8 & = & & Y ^ M.aXpXdXfXdXdXdXdXpXfXQ.Q.pXQ.W.!.!.W.pXpXpXQ.pXQ.pX!.Q.b.Q.Q.!.W.W.R.!.~.Q.n.!.&.l.Y.R.l.5 < * & * & * * 5 8 .. .y o.| ;.;.u d u <.g d 2.3.d d f j X.>.;.>.r y a f s 4.s a y r 0 e r e e 3.w 9.h.V B C Z ' Z Z v Z L I [.}.{.{.].{.).} ' K y.( V #.#.6 r i r e e e e 1.u t e 9.d U.>.d d d >.d r d d s X.y s j 2.g g s 3.r u o.| r f.#.a.[ *.W T @.! Z ( F ' F ' I J /.(.`. X}.OX.XG { ' ' m n x.-.7.3.9.3.<.W.0.b.0.4.s 5.b.7.9.2.9.j 9.Y.9.9.n.4.3.9.2.g 3.3.1.7.0.d 3.g g g 0.7.<.0.9.s g 2.<.d d s g t u o.9.2.g j g t ;.y r ;.<.q.;., 7.o.5.o.d y u ;.d q.3.>.7.$.8.6.0.5.Y.2.d s g 2.2.2.2.g j g f f j 2.f 4.f s d 4.f ;.9.f 9.f f j 9.2.j 2.f 2.f 3.2.1.k.9.<.5.n.7.$.V A ' L K D H G U H H G I G I ' d.^ T -.p.p.*.u.-.n.*.Y m.",
"i.[ d.^ i.x.m.9Xv.v.) i.v.y./ a.) @.O.,.u | u u d s f f s 3.f s 5.<.g H.C.p f 3.9.P.G.f 0.0.9.2.g f u a f g d g g u u g g f f 2.4.2.g 2.f f f a 0 <.d s j s a s s t ;.d s s t t s s f g s a 2.a s s s a f g 2.d j d j f s a g s s g f g s f f f f f f B.p f p g s t <.r s s t e t t y 1 1 6 2 , * * * * * Y * * & Y ^ ^ n.pXpXdXdXfXfXdXpXpXW.!.pXQ.W.Q.Q.Q.Q.pXQ.pXQ.Q.pXQ.Q.sXE.W.Q.Q.Q.R.W.pXQ.Q.Q.!.R.!.E.R.%.5 & = * = & & * & Y 5 X.r r , , 0 d r ;.7.O.r d u t d >.u o.| N 1 r y 2 r r u s a t r @ r e e w 9.1 u V B B c B N $ B C v K } ].{.{.[.{./.J r.Z L ( ! C B O.e e t O.e e w w :.n.w w j Y.E.A.G.f <.3.u 2.d j p p f f f P.C.p f j C.s 4.d d 8.x.t.m.t.W R W T ( ' ' F ' ' J J ].[.%X X X[.].d.y.F a.' y.[ p.6.<.9.9.9.b.U.n.b.0.d d q.3.3.d d >.>.d Y.o.9.>.d d <.3.s d 2.1.3.u u d d s d ;.;.5.3.s s d t d 1.s f f g <.2.f g 2.2.s g d <.9.d 3.2.g 5.U.7.U.j 3.3.4.<.b.0.q.6.f.<.1.7.<.<.Y.b.s >.d 9.<.<.k.3.3.<.g j j d 1.2.d <.9.s 4.2.3.9.3.j g 2.a d y u u t ;.t 3.t g d <.q.;.u 6.C A M n Z H H D U D L L H H F ' [ ^ &.u.c.*./ &.0Xa.a.W ",
"i.d.a.d.t.9X8Xi.d.y.[ d.[ ! [ [ u.1.k.9.2.3.4.4.3.k B.p B.4.2.j 2.3.4.g y y u u 4.g 2.g 2.Y.U.k U.f s u g g a g s s g 3.4.j j 9.4.4.3.j A.d g f a g s s a s t a a t 4.j s s t s g g a J.f g g o.s g y s s d 9.d s y a s t w 0 y d s g d s s d d f s s s g f a 3.s f g d u 3.f f f a u 1 7 6 2 , = & * * & = & * * ^ / m.aXpXpXuXpXpXpXsXpXQ.Q.!.E.!.W.E.-.E.Q.Q.!.!.R.!.!.Q.Q.!.U.R R.!.Q.W.R.Q.Q.n.R.R.W.W.E.-.5 * W = 8 = = & 8 * Q $.;.6 u 1 r r d u u ;.u g d X.e q.r X.u u r t d e s r | q t a a y e y t t e 1.2 w B N c $ N B N Z ' K L ].).{. X X/.].].d.] ] ] A A V 7.e u t t e w w w y 7.k.w 3.4.E.Y.A.f s 2.3.4.g f f 2.f 9.4.E.C.f 2.f 2.d <.3.d q...M.M.m.*.&.W R ~ C ' ' ' ' G } oXXX X X}.}.].' ( K m ' { ( E O.q.r 8.<.b.9.4.3.>.3.u <.d d d d u 3.d 9.9.9.9.b.4.9.k.j k.n.9.>.P.<.3.9.2.<.9.2.9.3.R.U.k 9.3.9.9.j j j 9.j j U.d 9.2.g 3.3.9.9.1.Y.g 9.0.5.E.j 9.U.<.Y.q.O.q.7.3.:.d ,.t t <.0.d >.e y d u Y.d d >.d g 2.2.d s 9.j s s g g >.s g g 2.2.f g h s f 2.s d 0.s t 3.2.d 4.d d | V V ( e.Z Z M M H M L F K ' ' y.t.^ *.W p.*.@.W R x.! ",
"i.y.y.d.{ ) 0Xd.t.y.) c.i.i.[ =.q.<.o.9.4.2.g g f f p p p 3.4.d s s s f f f d f Y.H.2.R.j 3.E.U.uXP.P.3.f f s 9.2.4.G.j 2.B.p 4.4.9.4.f 2.j J.j C.f s g y g j g t t a w a e e y t w a t s u u X.r f d g d r o.d s g s s e d 1 : t t u u a u d h a g 2 j s s h s g y o.s ;.d ;.y d y e e 6 5 , < & & * & & = = & W c.u.uXdXdXdXdXJXJXJXsXpXpXpXpXpXQ.pX!.n.Q.fXQ.pXR.E.U.Q.Q.!.!.!...k.R.b.!.E.l.n.n.-.E.n.8.l.R & * & & = W * * 8 Q @.;.g ;.u ;.o.;.u ;.d 2.s g 2.>.r d s f j s a g g s p u s t t g u t t t 7.u e u r t V N C ! ( ' K K G G I ].{.{.#X(.J ].].L ] ' ' A e.7.1.u h w t u e t t w t k.s 4.s U.f R.g g 2.u 3.2.g 2.k.2.2.s l.J.f g s 9.g d ;.u 6.m.u.i.&.t.E Y Y 5 v ' m m ( y.m } ].(.'./.)..XG ' ' ' b t.' ^  .1.<.3.3.3.3.W.9.9.b.9.U.g d 3.g 2.1.3.<.9.1.<.1.<.1.<.j d ;.d s <.2.d 4.d <.d d 2.>.<.1.4.g s g 2.9.h d d s g >.2.d 2.j g t Y.2.;.;.9.<.k.d P.k.k.1.k.k.,.3.o.0.0.9.j s 2.d d 9.G.g k g d 5.>.g 4.>.3.2.3.k.2.>.u 2.f f g s 2.s g g 2.s 4.4.f a t g y ;.P.3.r e s s y d t ,.;.6.m.#.B ~ B v Z b M F K ( ^ B T Y ^ ^ ^ W &.-.p.&.@.",
"y./ [ d.{ / t.[ [ a./ / ^ a./ O.X.6 u d 3.s f s f f f X.e 2.<.e u y t f f s f s d s s s 4.J.j U.2.J.j 4.k.P.k.U.s g p s f p f 2.2.2.9.2.k.9.j g 2.C.f B.f j f Y.f p p f f s g Y.g w s a p a s t e s d q d u y t a <.s y u d r t 9 e u y u u y y t y r d t f t y h ;.| y o.| u E V N < < < < , 8 N % * * * * N < @.p.M.m.pXJXdXdXdXfXdXQ.pX!.W.Q.Q.Q.pX!.Q.pXQ.pX!.Q.fXpXsX~.Q.Q.Q.Q.l.R.Q.W.Q.W.R.E.n.W.8.8.Y * & 8 * & & * & 5 Y T =.i u 3.o.u u d u ,.y d g s 2.X.d s f f g d s d 2.g a 2.p B.f f d t a u t w e u r X.h.A C y.' ' K G G G /.[.(.[.#X(./.].J F ] Z y.A Z f.l i i e u e w w e t r @ 9.s e 1.j s 3.g d r r u s s t q.f y t g | a d 2.s ;.d o.$.iX^ a.^ t.^ E W R t.( ' F ( ' m J } [.|.`. X}.).] d.8XZ y.g./ 8.<.3.3.4.j >.b.T.3.9.2.;.o.k 2.2.<.<.u t t q.<.d 1.y d g g g f f s f f 2.j 2.j H.g 4.2.d 9.2.C.B.g 2.f 2.g 2.g s 0.g d j s s <.U.9.9.9.1.9.d j 1.P.2.d >.;.<.o.<.5.u d y d d d a g y >.<.d u d d ;.;.>.s d 5.2.d h d t g g t d s g s s f s f g s >.a f f a 9.g >.a d 2.d 2.f s ;.8.o.O.+.E ^ / n Z ' Z Z [ W ) t.&.^ u.^ u.u.m.c.n.",
"d./ a.y.y.y./ / / t.y./ [ *.*...d >.d d d j 4.j 2.9.g | r d 2.f f d s s y d g g | r g f 3.9.p g d s g g 2.2.9.b.g u f g d s 9.2.2.j 2.2.d d d s 2.d 2.2.f 2.f d g f f u d f s P.C.a g f s 3.s s g 1 s s k s g a a s s g g f f f g t t t s y d r e r y r | 2 u | 2 r < X.| | u o.N < 6 Y R N < * N N N N N N Y T T f.E.uXpXpXfXfXpXpXpXE.E.T.U.!.Q.E.R.E.W.!.!.W.T.W.pXsXW.Q.W.R.R.Q.Y...R.R.Q.Q.Q.Q.E.R.l.%.R & & = & = & * * Y < ^  .5 2 O.| r X.r | o.d d s g 2.d h d 2.>.d 9.X.s d s f 2.g f g y d a t y t t t ;.r t X.A B C A C C ' Z Z G {.} } ].J F L G G C ! A n B R 5.u t e w e w i t t t y k H.u r <.g Y.g 2.s y u t t s 0.a 2.g f g g j f 2.g 2.9.b.-.0Xm.c.p.0Xc.x.x.) ! { ' ( ( m m J {.(.'.'.[.[.] ' [ v.F ' [ ..;.:.;.3.<.d 2.3.0.2.2.1.q.<.9.j 2.g f d d 9.3.g g s s 2.d g g s f 2.g s j 3.0.;.s s >.;.0 0.>.h a s s d s d d d u ,.r d t d t H.1.3.d 2.y 3.d 2.d 4.u ;.<.;.;.9.<.f j u 2.g 2.g 2.g d 2.g 2.3.2.u 9.<.2.2.9.3.b.j s d f s g s j g f f f 4.f g f 2.g p s 2.3.j 2.g j f f g g f d d j <.5.n.M.t.[ a.c.) *.x.a.a.c.t.*.u.c.*.u.&.u.u.",
"i.a.c.v.v./ v.d.) ) t.i.a.t.#.O.d Y.2.>.;.g g j 2.2.d d d 2.f f g 2.g f f s 9.2.J.2.B.f f J.f 2.T.A.J.C.j d s Y.P.3.f u g P.3.3.2.A.;.3.g p g t j :.X.d g g >.d f g f | r g s s f a y >.O.+.g ;.o.r ;.d d 2.s f t e ;.1.s s a d s s s t t s f g d f f g r r u d y r | 2 u | u r R N < Y N Y N N 8 N N N N Y ) y.p.pXuXpXT.n.pXE.pXpXpXpXn.n.n.R.W.n.l.pXE.W.Q.!.Q.!.W.!.Q.!.Q.Q.l.Y.b.=.5 R.W.Q.!.E.-.&...5 &.& = & & = 5 8 Y T T p.;.X.o.O.,.| X.:.R o.o.R 2 u d u y y ;.r X.;.2 y d r s s f f o.2 1 r r t y e t t t t V B B V V B B Z Z Z m } } }.|.(./.} G ] K ' A A V e l.<.w w w u t 1.u d ;.j s T.j g s P.s E.P.f s >.<.d 9.U.d o.>.G.g 9.3.<.b.1.2.3.<. .f.=.-.-.a.^ ^ *.Y B ( { ( [ F F J J ).(.'. X X(.J ' d.F F ' ~ O.O.:.<.3.2.;.>.0.,.d >.1.u 3.d y ;.y d >.<.2.g X.r X.d s >.>.s d 5.s s s 5.u d y r y ;.t g s 9.s d <.g s 2.d <.<.2.g g 2.g 2.f 3.g g j 2.2.f g >.2.4.2.9.3.3.4.j P.9.2.G.g 4.3.P.f 2.g 2.9.9.2.2.7.9.5.1.9.9.b.2.j f f s 2.t u a s f s d u g s f f y y 1.s s g s y g u 2.2.g u e 1.r X.=.-.y.t./ / y.~ t.y.@.^ a.t.*.p.t.^ W a.) ",
"c.d.i.d.t.[ [ i./ ^ / u.p.-.;.g g 9.j 2.f p Z.f s 3.B.f f C.s P.f g g s 4.C.u d d J.g d e b.U.E.iXG.9.2.k.U.2.P.g 9.j 9.Y.T.T.3.2.g | s G.f h d s g >.o.u d u s g j f 2.o.r s f f g ;.| O.| u f o.d X.d d ;.2 ,.d s d >.d s t y r e t e 9 e e f a f f d s f d u y s y y f d u r | 2 6 < % 5 * & = = = & * T 9X0XuXpXfXpXpXpXdXdXdXsXW.pX!.!.Q.U.n.E.n.Q.pXR.!.W.E.Q.Q.R.R.n.b.R.7.Y.R.U...8.!.Q.E.n.&., < < 5 & = = & & * 8 Y Y W #.r ;.<.O.e ;.y ;.;.;.2.o.u s 3.u >.d d >.s s s t d u t f p p p u t t e w t e t w t a h.h.B V B V C ' m G F .X{.|.|.[.]./.H G ' ' e.A V <.l 5.r u t u t e t t 1.g t 1.Y.f d 1.d Y.4.p g d 3.2.s s s g 2.9.f k.<.3.9.0.9.2.;.o.1...b.-.#.E Y Y Y B ' d.C y.m m m J } /.[.}.(.).J G Z v n b N N e r o.u ;.| r 0 9.o.y y 2.t d >.5.d d 4.T.9.f f >.d 4.j 2.3.2.3.4.g g j j f j 2.2.2.2.f f j Y.T.j 9.f 2.9.k.b.4.P.S.2.f S.Y.g f C.g 9.g Z.g f 4.j 9.0.4.2.H.g f 9.2.3.3.0.9.3.3.g 2.g 3.d d k.1.r 1.$.R  .+.r n.1.g s ,.< 2 0 ;.t 1.e d s s u a a f f g s u <.a s 0.t j s t t a j g ;.O.O.p.i.^ / / E ^ u./ ^ ^ *.Q x.t.*.p.u.a.",
"9Xd.[ [ / i.[ c.i.d./ *.-.1.;.2.d s 4.0.g f g f d <.f s g g f 2.d u d s s 2.X.y r <.j f k.9.U.4.U.4.4.W.H.P.4.9.A.g k Y.9.b.T.9.2.f H.f o.X.r o.g G.g o.s f g u d g B.j 3.>.y 4.f f s | X.+.t Z.X.u >.d f s d ;.u s f g >.>.g f ;.r u d f ; ; : a t t e 1 2 r e r X.N r X.r X.R r R < N 5 N * & & = = 8 N / *.x.T.E.uXpXdXdXdXJXdXdXfXfXsXsXfX!.Q.Q.pXsXfXW.Q.pXQ.Q.Q.n.8.b.R.W.R.R.R.b.n.$ U.W.l.n.W , < & 8 * & * * * * Y Y W 2 6 e e o.@ o d u 2 +.e d y r d 9.u u >.o.u y g s h s a f d y s f C.s r e t t e y w t d h.A B B B B B Z n v r.} ).[. XJ J } G K K ' #.A A i l i t t t t t r t t d g f d 4.Z.s e <.d Y.G.t d r r 3.s g 9.g 3.s 2.2.2.d <.3.<.1.;.O.8.-.X. .*.W 5 R E B C B ( v c v n G ] {.(.(.] L m C ( / b *.a.$.o.<.1.1.d 3.d <.k.k.4.2.a 3.b.9.2.j k 3.d Y.g j 2.g f j 3.4.j d 2.9.2.s j f f 9.k.4.P.4.3.2.4.4.9.s 2.d 2.3.d d f g g 2.9.g 4.g f 2.>.g g g d 2.5.3.d >.d s g d <.+.2 >.1.s s a d d >.s d 1.<.;.O.X.6.-.w.| O.<.;.<.o.r r e t d d d s s >.g f f f f C.p j Y.f 2.g f f f C.p p g 3.2.<.<.-.x.*.p.-.-.p.*.m.u.y.*.p.x.m.x.) p.*.",
"8Xd.[ / / / t.c.i.v.y.*.@.;.d g g j g 4.H.B.f d 2.g s 2 s 2.f j g a P.f h 4.j g d g f s b.u 3.d 7.0.g J.>.u t Y.f f f s f g 3.2.3.4.2.C.o.r >.d d 9.>.g g g g ;.r 2.f f d 2.3.j g f f s u ;.g g >.u f g d f f C.g o.a f f f g g s g d f f f t 9 w p s t t 1 0 t e 0 u e r 2 e | r Y Y * N * & * N 8 N N ~ ! / x.E.pXE.E.T.pXpXpXpXW.Q.Q.pXpXQ.E.E.n.E.W.Q.E.R.pXfXQ.W.W.!.Q.Q.Q.Q.Q.Q.W.!.8.l.!.Q.R.l.5 , & & * % * % Y % N Y  .6 , r X.,   y d ;.r r ,.r u R u <.r o.u R 6 2 t s r e r u | X.u r f s t u 0 e e e e e o.V h.A B C B C Z n n } L m (.[.J J ] G H P e.A V V r i e <.r u t 9.5.t t 1.<.t d y 4.>.y s d a J.g X.2 1 >.d d s g 3.u >.9.2.d d >.u k.2.o.q.O.;.1.$.8. . .Q B B C ' m m F F J oX}.'.`.}.[.{.I 8Xv.{ [ 9X*.T.<.d 0.d t ;.>.9.3.g s g 1.d s t 9.s g 2.d d f f s d g g g d 2.d u s 2.4.j f 3.9.U.2.2.g f g >.2.d d d u >.u d g h 2.2.2.2.g 2.g s 2.g g d d d d g 2.s s f f s g u u d 3.d s d a d d g g 2.<.5.0.7.$.-.@.O.u ;.;.T.u ,.>.s d u u P.f a <.g C.f f f f f p j f s f f f 2.B.f f d 2.3.>.<.8.-.f.6.8.=.f.-.*.&.u.u.a.*.M.) u.*.*.",
"0Xd.d.{ y.^ [ i.i.i.t.*.=.o.g s C.g j 2.G.B.B.s s g f f f f f 2.C.C.s 2.Y.4.U.k.P.j j f 4.s g 2.9.k.Y.g P.f s 9.2.G.d 2.s j f f <.3.2.>.| e 2.f d X.9.d u ;.u s d s s u h u r ;.d g d s s r y ;.s g d 2.;.u ;.y g f f s s f d a f s d s h s f a t t a s f s t a h t t u 1 1 - 2 < 5 < & * * N * N N N T / [ t.a.E.pXdXfXfXJXpXpXQ.W.Q.!.W.Q.R.R.T.T.R.Y.W.l.l.=.b.R.W.R.Q.Q.!.Q.!.Q.Q.pXW.R.l.U.!.b.Q < , # = = = & & 8 Y 6 @.X.d u 0 P.r 9 u u ;.r u d u y N 1 q.Y 2 y r e u s t t t d 0 q u r +.| 2 t y y e r 0 e e r V A A C B c B B C Z m I } (.{.G I G G I A C M b r i i t t d 1 t <.b.1.t H.0.e 4.d s b.2.C.A.j 2.A.a 2.g 4.k.g 2.2.2.f G.2.4.2.k j d 9.f 3.;.0.o.q.8.8. .$.R Y / ( Z ' F m L ].J {.`.'. X(.).} ' Z y.' N ^ 2 6.;.o.y d d g u g f g a 2.j g 2.g f 4.2.t d g 2.s <.j C.G.g f 3.s d s s d 2.>.d d d j d s 2.g g Y.k.k.4.j 3.4.g f 3.3.g f f 4.g j g g g 2.Y.d d g 3.2.j g a 2.g s g g 2.g f s <.d g 2.s 3.,.<.5.<.3.8.8.3.3.5.1.n.2.j j s g g f 2.f j 2.f f C.f f s g 2.s f s f f j 2.B.f d 3.3.2.4.;.<.8.b.O.6.=.8.+. .p...x.) *./ u.t.^ ^ ",
"x.m.v.{ d.{ / y.i.a.-.7.2.g >.;.g f j C.f f f f f 9.f 2.2.f g k.A.f f f Y.b.Y.Y.j 2.2.4.H.g f 2.2.k.E.2.9.3.Y.b.B.f k.b.U.j A.f 2.<.U.U.g d 2.s :.u 9.g s s f s s f s g d | y g d e 3.j g s h >.;.,.o.d ,.| X.X.g :.y s h t s f f s f g g h f h s t : g r u u r u d d u t e 2 , 1 , & = = * * * & * 8 ^ y.d.u.f.aXaXpXdXdXdXdXJXfXQ.pXpXb.E.!.E.Q.sXsXQ.sXQ.!.!.W.W.!.Q.R.R.R.l.W.-.l.W.n.E.E.b.=.< 5 < 5 < & & & , < & 6 O.O.u u 1.u k.1.9.1.d 5.;.t d y u o.u <.r r y r 2 , r 1 e 1 a r 3 q u u r y y t s w e t t e R A A A B B N B C Z ' G I } G {.{.).I I ] K B A ! l l l w t t t t o.7.k.H.Y.9.j 2.C.f U.U.S.9.U.2.U.C.C.Y.2.2.d 1.<.j 2.j r 7.;.,.t 3.g d o.X.X.| r $.X. .r R R N ! B / m m ' J G } J (.(.'./.] ] F ' d.y./ $.7.1.1.<.1.2.2.2.g P.3.j f j j H.4.A.G.A.C.f j j j g g s 2.A.f 2.j g 2.d s d d 2.d Y.4.j 4.3.k.k.k.k.9.0.f 4.k.j j g f g s f 2.g j g s d g 2.g 2.j j 2.k.4.d 2.3.g s >.d g g g 4.2.2.3.2.g 3.2.2.2.3.3.2.;.3.3.3.<.J.d 2.s f j g H.f f f s 2.J.C.f g <.1.9.k.2.s s f s s a >.3.d d u r d ;.6.<.+.6.|  .+.5 8.=.u./ / E ^ W / ",
"[ ) d.d.[ / / y./ a.#.1.X.,.o.>.+.r s g f d g g d 9.d g 2.g g 3.2.f s s g d s g d f d P.g 2.3.2.f 4.j g 0.3.g b.s f P.9.P.j C.3.4.3.k.U.9.U.4.g g X.s H.s g o.+.t A.B.C.f C.B.f 4.a f p f s d d <.2.j d d d ;.;.d o.r o.r d d d g f g +.| d d d h y 0 e < u d +.q e u 6 r r | < Y 3 < * * * & * & = & T T ~ *.f.uXpXdXfXfXpXsXpXW.W.fXR.=.W.U.Q.!.Q.Q.R.!.R.!.Q.Q.Q.W.!.Q.R.W.!.Q.n.l.Y.W.R.R.M.5 , , , > & & < Y , < 2 6 | e e u 9 <.1.u 9.I.0.1.>.d s d a d d g d o.e u d r a s u 1 a f g s C.f f C.p f a w w i e e 1.V A e.B C B n M m { J I ]./.{.{./.J J ] ' A e...l l u e d t 5.t u o.1.b.d g g d s d 5.U.d y 9.J.2.U.f 9.d g d h u d d >.u <.,.u d d d ;.r o.u o.R o.u 1.o.r ..6 ^ B t.' m m ] J ).{.(. X(.{.J ] } ' ' 9X' @.o.o.7.<.5.d 3.2.j 4.3.f f G.A.f b.9.f f G.C.f j 2.3.2.f 2.f g k.3.3.k.3.4.4.2.2.2.0.d 3.j 4.U.3.g 4.2.9.4.2.3.g J.2.g f g f g f g d d f g d 2.3.2.g g <.0.7.;.>.>.g g 4.g u <.>.d g d ,.| :.o.d ;.o.;.y s >.d u d >.d d d d ;.d g s d d s f g f f s f a 9.7.f C.f f f f f g a d u s >.a d <.<.r o.O.$.#. .8.=.a.t.a.i.u.^ u.",
"d.[ v.[ [ ! { { a.x.=.o.o.>.d g O.d f 2.f g X.X.| ;.g f j 2.d g 0.s g o.d t g X.u d a 3.2.k.U.9.f g f s <.E.d k.H.C.>.;.d G.g 2.g j f g g 3.g 2.p >.| 3.d >.O.X.q y u j G.f j f 2.s f B.f t d <.d j 2.3.k g >.o.X.d s y y u u u h g u o.X.r u d s y y y | r u X.+.3 $ R Y N R N 3 N N N * N N N 3 < Y T $ T ..@.R T.pXpXW.W.pX!.n.!.sXW.R.E.!.Q.!.l.R.U.!.n.W.!.W.Q.!.!.Q.!.!.W.W.!.W.!.U.l.n.b., - @ # # = & , , , , 7 r u e w t : ; u h 5.I.0.| u 1.t g y 6 ;.d o.| r o.u a >.s f u t f f f s f a s s o.e u e y 9 t 6.V A ( C C B Z C F ' /.)./.`././.{.J J I P B ( ..l l w 9 u t h d e t t d f j d s g g 0.3.H.s d 4.3.T.P.f s s d f g g 2.s 9.k.2.j 2.f g g 2.d >.d o.X.d d >.o.=.Q ^ C A ' m m y.r.} ].[. X|. X].].] { d.' d.d.X.$.q.u <.3.2.2.g g 2.g f g f g  .3.2.>.<.g d d s s g d 9.9.9.<.d 3.3.<.7.2.4.2.4.2.j P.2.g ,.y 2.s g a 7.2 e d s d u r s 2.d u e r r d u o.u 1.>.u e t <.d <.y u ;.y d y X.u d g 2.2.;.o.O.| d y >.;.g g 2.f g 2.d d u 1.>.g d o.g d 3.s f f f B.f B.f B.s f B.f f f f f f f f d s s s d >.g 2.g >.o.5.6.o.8.*.i.u.a.t.^ t.",
"8Xy.y.[ { t.v.d.c.f.:.>.j g f ;.d p B.A.f f g s g d f j f A.f 2.b.f A.g f f f 2.J.H.4.4.A.f H.g f j G.C.f 2.9.b.2.| +.O.s C.H.f f j f C.f g g 2.g f 2.H.g ,.| o.s ;.d s g f P.2.f s s j s s u 3.t s d 9.2.g s s u u s d g d u d u s u u h y a d u R r u y u u q e e r 6 2 6 < , & % * N * * N N N * T T T E *.-.-.&.U.!.R.T.l.l.R.Q.Q.b.Y.l.l.$.l.l.R.W.Y.b.W.!.Q.!.W.Q.W.R.k.!.W.R.W.l.l.R.n.6 , @ # o 6 & # ; : > ; r e >.d d 0 ; t e t u q.r y d s s a d e o.e u o.r 2 y t 2 2 , 2 2 | 2 u 1 r q r r e q e e e 9 t t t B B C b c C C C m G I G XX{.J J J J L ' A A +.l r e e e e w w t t a d f f g f j 3.s s U.f p 4.U.3.E.C.f s 4.s Y.f f p 9.9.2.d d g s d >.g >.d 5.9.g s d q.r  .+.( B ( { ' d.} J ]./.'.'.}.[.I J ' ' m ' a.=.u r u o.;.u d h g d k.g s 2.g f f 2.j >.d y u s d s s o.d 1.2.d 0.u d <.d d d s j g u :.d d d s s s a d s y >.s h h d s 2.s 1.t d s ;.;.8.;.d d g u u d s 2.d g g d s g A.f g j d 9.g 2.j g j j Y.b.j f 2.C.f g s f g 2.9.g f 2.f f f f B.f f f g f f f p j f g f f s g 2.2.g f d y d g 2.d 2.g d 3.:.;.6.8.-.i.t.t.u.a.u.",
"8Xd.[ u.9X9X9X0X9Xn.4.E.E.Y.C.>.g f B.f f f f f ;.;.g g u 2.G.2.b.f f 2.C.f f H.j U.Y.A.B.f g O.d f B.C.f f 9.uX#.o.;.+.d f J.g j 9.A.C.C.B.f f Y.G.A.2.Z.f o.| u d f B.g ;.u 9.g s f g s g >.<.o.2 t d s 2.g f g d g g d g | | o.u d ;.;.X.u ;.| u s s s s u | r y r 6 5 6 N < Y Y N N * * * * N Y / [ i.x.n.E.pXpXpXpXpXfX!.W.!.pXQ.R.R.%.R %.R.W.Q.W.W.Q.n.Y.Q.R.W.n.b.n.R.W.E.n.U.E.b.U.$.< , , & & & = # ; : ; r o.u d u e 6 2 X.u s d | u s d d d t >.d 1.r u e s t s f t t 2 < 2 t u t s > y 0 t e t e 1 i e 0 w u B A B A C C C Z b ] J I G OX).J J J F ' A C i l e 0 t e w w 9 t w t d d k.4.f s 2.f C.f P.j Y.b.P.R.G.f j k.s 1.s 2.2.d >.3.t y >.j 3.d d 4.d ;.;.u t y 7.o.=.R V V ( n [ [ ' G G ].(.(.}./.J G F m ' ' ! n.O.r y u o.d s s f f g f f f f A.B.f k 9.2.f 2.f g g g Y.f s g 2.4.y d s ;.u ;.d d s 5.5.9.2.g f f j f j f 2.3.f f f j f f 2.4.d f j 2.3.2.4.j g s g f j 2.d 9.j 4.H.s 2.s f d d g j 2.f f g g j 2.3.g C.g f g f g g f g j 4.f G.C.C.s s f f s 2.f B.f A.B.G.C.f f g j g g 3.g f f f j g 4.k.2.f 4.9.2.<.8.=.x.c.a.y.i.i.t.",
"c.) m.0X0X9Xv.v.m.uXE.m.E.H.f j J.G.>.f A.A.f C.g 3.A.f 2.H.G.4.T.J.S.9.0.U.P.A.4.k.P.g C.;.a g f p V.f Y.P.4.n.U.g B.f J.A.f J.0.P.H.f f C.C.f P.C.C.f f p g d X.T < f p f d g 0.d g s j d u 2.g d u a s <.C.s g f f f f f f X.o.u ;.X.:.X.O.u X.y y y d X.:.X.o.X.| R Y N N N Y Y T N T N N N T ^ / *.m.m.uXpXpXpXpX!.!.!.!.!.W.fXQ.W.W.W.!.R.Y.R.Q.R.!.Q.R.W.Q.Q.Q.~.Q.!.Q.T.R.E.W.Q.E.7.6 5 5 < * & < < ; 2 2 1 ;.u d d e 2 | o.d o.o.>.;.g g d d 2.X.d o.7.X.d 2 s g s s 2.s u y t f p f C.t a t e t e w e t r e t h.h.h.#.A C Z ' ' G J J J J {.#X{.J G K ' M A l i t e w t t t w 1.a t s 3.3.4.f k g f f f 9.E.G.d Y.,.9.J.g g 2.a g 2.1.<.o.2.g u ;.d 2.d d <.d X.| u t d <.u  .| R V #.Z ( ' n G J r.].).@X}./.J G ( { { ( M.m.1.d u ;.d >.g g g s f g s g f g f g <.9.j j s g g 3.E.C.f j 9.f g 3.s <.2.s 9.2.g k.k.k.j f s s 2.f f g j 2.f p f f p s g s j Z.;.o.U.j 9.2.g 2.2.g 1.4.4.Y.f j j f 2.s g g g f A.9.P.C.g j g f g C.C.f j 4.b.9.G.B.Z.g J.j f B.f f f p f f g C.V.p 4.p B.B.C.f g f j f g 2.d s g f g s <.g g 2.d 2.>.| ..^ ^ / *.*.u./ ",
"0Xc.m.9X0Xx.9X9X0Xn.k.b.1.d g 2.P.A.g o.u g f j d s j d 2.2.0.4.k.E.4.2.H.f j f 2.3.Z.g f g ;.2.A.d s f Y.C.C.f H.f ;.s g f d g 3.f j k.P.B.V.S.2.A.j p p g y f C.>.X.d f A.H.2.9.g f C.g d >.;.g j o.d s d g y u s f d d h p p s s | u d s d X.o.u u r u o.r d g X.+.R Y < Y * N * N N N N N T ! ! ~ B @.f.M.pXpXE.E.!.U.!.U.W.R.pXQ.!.Q.sXpXQ.pXQ.Q.Q.!.Q.Q.n.l.l.R.Q.Q.!.n.R.b.W.Q.Q.n. .6 5 5 * & & , , O @ < 2 r y r < 1 u r 2 y N | | ;.| X.d X.u ;.6 :.<.o.;.| a f t d s y t y t u y h s a t t e e e w e t e t y A A A P C C ' ' G J /./.{.{.r.OX/.L H ' A V #.l i e e t t t t w e 5.h e 9.e d j r t s d s d P.A.f 9.P.<.E.f 2.g f 2.d 3.o.d g g f d k.d y d 2.g 2.u s 2.2.d d o. .6  .@.y.' [ Z F J ].].].{.[.{.} oXK ( ' v.c.n.7.5.>.2.>.<.j Z.g s g Y.k.j 9.3.f f 2.b.2.f f g 2.g k.A.A.j U.d d 2.g d 3.s d 9.2.2.9.7.0.2.2.P.A.f 9.2.B.4.4.f j f C.f C.A.4.3.9.3.0.2.g P.j A.j s 3.d U.o.f 4.A.C.C.C.C.S.B.G.g d g g g d g C.f g f f f f g g f s g d d 9.2.f s y e a s j f f f s g f s 2.u t d g s g f f d 2.g g s g y g d d d d >.| O.u.u.*.*.a.u.p.",
"v.0Xv.i.d.v.c.9Xi.f.0.2.;.d j A.;.o.X.o.u g g 3.9.j j g 2.>.<.3.b.E.P.A.G.C.f G.j 2.p G.f f d g f Z.u d j B.C.f G.s f ,.;.;.| | d f g f g s g s a z.U.s a f f f o.X.h p C.s g g g g g >.2.2.2.2.>.>.g d g f d | y s a f d g s f f d u d d d d o.o.+.s X.r | | ;.;.O.T R Y < & * N N N N * & N Y / ^ t.p.p.f.*.n.E.n.pXpXpXn...W.pXsX!.T.W.W.pXQ.Q.E.W.Q.Q.Q.n.n.R.!.n.Y.l.b...k.n.l.b.E.l.5 , 5 & * & = , - - , o.o.r u e 2 1 u u r e +.r X.X.X.X.X.| r d o.u ;.| +.R r d q u r d s s s e r t t t 2 1 t e 0 e e u e t B A b A A A A Z Z m ] /./.J G } J L b P Z V A B l i r 1 e e e e t t u d u u e s s s t >.2.f d 7.uXf Y.9.b.k.S.f d 2.1.t 9.o.2.d 9.f 2.Y.j 2.2.3.3.3.2.f 4.d d <.;.:... .W ( ( y.K m oX.X} oX'.(.[.).] ] ' y.' [ v.=.b.w.| d :.<.g 2.f f 2.0.s d 2.f f g Y.d j 2.s <.d y g g d 7.d d u y d d >.r q.7.d 1.0.9.f f d j 9.3.j p j 4.2.<.3.g 2.g g g 2.0.<.9.9.g 2.2.H.P.j 9.<.b.J.f g 4.g 2.g f g j 2.o.:.u d f s A.C.f g s s s f f f f A.f g g g k.4.g d e 9 <.f A.p B.f f 4.g 2.k g j 2.g f j j 2.g f G.f A.j C.j s g k 9.4.8.m.x.m.&.m.a.*.",
"d.[ c.c.y.d.t.9Xv.a.6.2.2.g g g ;.d g f g f j 2.9.j f d 2.2.G.S.9.U.H.H.4.B.p 2.P.G.f A.B.V.p C.B.f f A.C.B.A.2.9.f 2.Y.B.f >.d g p A.j g f w i u t 4.H.s f f d u X.t f p B.:.u d g 2.O.X.>.d 4.,.g g g o.d y r d d y e s d +.+.y d ;.X.O.| X.X.X.X.y o.r X.+.o.:. .W W Y * & * * * * * * 8 Y ! ) c.m.n.E.T.pXE.T.!.pXpXfXfXQ.!.sXsXQ.!.Q.Q.W.Q.Q.W.!.E.!.!.E.R.n.R.!.E.T.8.R.R.W.E.b.=.=.2 , , & & & # , : : r y d 0 1 e 2 r | t u 0 t t y 1 d u d d d d q.6 1.R | | 2 X.y u e 2 e r y | e t s a u 2 e t t e t t r 0 V b b A ( A A n ' m G ).J /./.G I .XI G ' C A V l i e t r w w w w w t b.g j s a a 2.s 3.J.j 1.5.E.4.4.5.R.4.Y.A.C.d d g 2.2.2.2.9.d 9.d 9.j 2.3.2.s g f g s u 7.d ;.=.R 6 E B ' Z C ' } I ].(.(.}.).J } J F m ' d.@.q.5.q <.;.d s d t s f s J.d f f f j d g f g g f f g s d 2.3.g d d 2.d 2.2.u <.2.>.d P.g s d y s g j s f f <.9.f j j j g f g 3.;.d 2.d 3.d 3.<.9.3.9.3.g g C.f 3.3.k.d j f 4.j 3.f f A.B.B.B.C.A.f S.f B.f g s f A.C.J.>.f 2.P.J.s f f f s 2.p f a s d j 2.2.g 2.g d g d g j f s G.Z.g j G.j 2.j 2.3.1.=.-.x.u.p.a.u.c.",
"v.d.[ { / m.i.i.9Xp.8.k.g G.j J.C.f J.A.j j H.C.g g k.0.4.g f f P.T.Y.A.9.B.B.B.A.C.C.s B.V.p f C.B.C.S.f f f j E.j 2.k.C.g o.d 2.C.f j 2.2.w d 4.4.g 9.A.S.f s f d d d f B.f 2.9.d 2.,.:.;.;.u >.d C.C.,.X.>.>.s f g f f y y u r f g g g X.o.X.u ;.o.:.| +.+.| +...) R * * * N N N N 8 N N T [ ~ p.M.f.n.E.!.!.W.E.E.fXsXJXsXsXJXQ.E.!.!.Q.Q.pX!.pXQ.Q.Q.!.~.E.b.U.R.n.R.b.n.E.Q.E.l.Q ..8 , & , 5 2 , : ; ; r e ;.e e r 2 u u u g s t w : o t ; t e t u <.o.o.y d >.e u u s u r q e y u a s s a a t t t w t e t r e h h.h.h.e.P Z K ] } /.J J (.)./.].+X].I ] A M q i u w w w w w w 1.w w <.4.A.f s 0.C.A.P.k.b.3.1.b.T.2.4.j J.4.P.G.;.<.g g g d d 9.y >.u >.g g d s s 3.j g d y >.u s X. .| +.V ! ' m n ' ] ]./.(.(.}.].].G m m [ ' d.5.U.9.j j ;.9.2.k f A.f Y.3.f f g s j 2.f f 3.2.g 9.j 3.g 4.2.j 2.3.g g 4.4.j g k.2.f f j 2.4.2.B.p f g s s 2.A.f 9.d j G.2.;.3.j g j ;.g 2.g g 2.2.g p C.C.s g 2.f C.3.f g 2.2.Y.B.f g A.f f 2.G.B.p C.G.2.G.C.g J.4.A.C.B.f Y.2.j C.f P.j j 2.f j s g f j 2.j j s g s s f j H.2.4.f A.A.f P.2.A.g 7.b.p.c.c.u.c.x.9X",
"c.v.v.{ i.0X9Xc.m.M.8.k.j 2.2.2.f C.2.A.j 2.J.j f g <.4.f g o.s C.j U.C.P.G.H.f j B.S.2.Y.P.Y.A.C.f g Z.g G.>.f U.A.f g f Z.>.g u ;.s 3.d j f A.j G.H.C.f g s u s O.X.o.g g s 2.2.9.2.<.O.O.O.o.>.d g Z.f ,.u g f s g f ;.d u s u u d f g o.X.+.u o.X.X.+.+.+...^ ^ / Y * 8 * * N N N T N T T t.u.n.M.M.E.E.U.!.T.n.pXsXJXsXsXsXsXQ.!.!.!.!.!.Q.E.Q.Q.E.W.!.!.W.E.W.W.n.!.R.n.x.b.n.b.Y Y 8 & = & , , ; : ; e u , e r y | r o.u d g d u d e e d t w a s t d ,.y >.s 3.f d t s r t u y g a f u u y t t t t t 5.u w w u u h.( P P L r.] r.} 8X/.(.(.{.{./.).I I L A A q e o.u w w t t t t a a r 3.G.d d 0.p G.g e P.d <.d 9.B.V.B.f j 4.9.d d j <.j d d 3.j s 4.2.j s f g j j j 3.4.3.j s g d u r #.V ( K ' F F } ].{.(.}. X[..XI F K ' ] r.q.5.E.<.s 9.n.2.2.a s g u 9.9.j 2.s g 2.G.f d 4.U.9.9.3.9.>.3.4.J.g 2.2.>.0.3.0.<.g g s C.f g 2.f f f j g f s 4.9.E.A.g g 4.Y.9.2.2.3.3.4.A.f A.H.f g A.C.p s 4.H.B.p 2.j f C.f 4.A.Y.U.J.C.C.g 2.C.C.C.C.g 4.A.A.4.j A.C.B.f g 2.3.f f >.f f 2.f p j f A.j 9.3.g f G.g j j 9.k.Y.2.f C.f 2.g f C.2.<.-.w.*.a.i.c.c.y.",
"c.c.m.v.c.m.0X9Xv.c.f.q.k.U.9.>.G.4.Y.A.V.A.4.H.B.B.H.;.f f ;.g s g k.S.2.J.G.C.P.f V.A.9.E.J.2.w Y.P.S.S.G.S.p P.f H.f g 4.Y.f g f a 3.s 2.2.j 3.s j f p f f f f d o.o.d g ;.d g 2.g 2... . .;.;.y s j f 2.,.g g d d >.o.:.;.g d u u d s f ;.X.u X.| +.O.+.@.^ / ! T & = & * * N N N N * T T u.p.m.m.n.U.!.pXpXpXpXpXsXsXsXsXsXsXQ.E.Q.!.!.Q.E.!.Q.Q.Q.Q.R.Q.Q.!.E.E.R.!.W.n.n.T.n.7.6 5 8 * & = , : : ; t r ; 1 t r d y r r +.X.:.| | R ;.X.d u u d y u y u d d y d a g h r 2 u d t g t f w g h d h d 1.s u t u u 7.V h.A A A P P L F L } /./.{.J /.J J I r.Z A V o.t e 7.e e r 1 e t i t s s j g f 4.k 3.4.2.5.>.d 9.2.V.F.f j b.U.U.9.f f k.d d 2.d 2.f g 3.9.g f s 2.d s g j 3.0.j j f u u r V #.' ' F m ].J )./.(. X}.].] G { ' { y.p.T.M.n.3.1.k.Y.f j f f f G.f J.G.A.G.j C.S.C.2.k.U.T.k.U.g 9.b.U.2.g 3.7.b.7.b.9.j 9.P.C.C.f g f C.f f g g s 3.3.E.2.j g 4.5.n.n.Y.3.k.9.S.g f 4.f A.f f j H.j f j f s 2.g f f C.C.f 2.3.H.g f g f g s f g g g g 2.3.g f g d g g j f f f g d 2.j f d j 2.9.2.d g y d 9.3.3.2.d 9.f j g f d g g j >.O.=.=.-.u.i.x.c.a.",
"v.v.c.m.m.m.c.i.^ / &.6.0.1.2.g j 9.9.H.B.4.J.C.V.B.G.g f B.B.B.f f E.P.P.H.V.A.f B.B.G.P.4.2.4.: P.k.p f t 4.f 9.s f 3.3.<.1.j 2.4.p S.2.b.2.d j w f g 2.B.S.V.V.B.B.B.C.C.Z.2.g 9.>.1.5.1.O.o.;.g f g g ;.>.+.X.+.+.r | o.,.o.:.+.y r r s d o.o.X.d O.+.R ~ ! / ! N & * N N 8 N T N & * T ^ m.n.p.x.T.E.W.pXpXQ.pXpXsXsXsXQ.sXpXQ.!.!.pXpXpXQ.!.Q.E.!.Q.E.!.E.E.T.&.n.Q.Q.E.R.b.l.%.5 7 & = = - : : : 7 1 ; 0 u s d u s d X.| N ;.d d u X.r s y X.| | | u <.d u u e t a y y u e r r d h a t a t t t t e y 1 0 t e r N V b A A A P Z Z C v v F F G J J L I I ' C A i w e i u e t e e t t w s t k.j t a d 9.T.T.j d 2.j H.f R.4.g Y.Y.g Y.d f 3.3.4.2.j 2.C.s 3.9.9.g s 2.f g P.9.4.b.2.j p 2.d 7.@.s./ Z ' ' ] } )././.(.}.(.J G y.' ' } a.n.1.b.n.>.;.3.g g A.f g f f Y.f A.f A.g s g g d 4.9.d 4.g 3.3.<.0.<.<.9.9.4.9.2.J.J.2.A.C.f C.f s g s s g f g f g 9.4.k.m.b.b.b.k.2.<.H.f f g 2.C.B.f g 2.G.H.g f f f f f g j B.B.B.s j A.g f f g f g f p 2.f A.2.2.j g f C.A.B.f k.2.C.2.g d 2.d 4.9.>.3.>.d ;.u ,.2.;.g g j g f 2.2.B.B.B.g j ;.7.7.8.n.c.v.c.i.i.",
"0X9Xm.0X9Xc.i.c.i.c.c.f.f.5.>.j C.f d s f f C.f f p 2.B.f >.C.f f B.T.Y.C.A.f H.p j j E.T.H.4.P.T.f f H.C.A.G.f E.d f k.4.2.d d 9.9.C.B.C.A.C.f G.f A.A.H.B.f B.B.C.S.B.f j f j d g 3.3.2.j J.A.A.B.f g s >.g g X.O.o.g y g ;.>.,.O.d o.2 | N 2 o.u | o.O.E ~ ^ T T N N N N N * Y T N * T ^ ^ n.x.m.E.!.!.T.W.pXQ.Q.pXQ.R.sXsXsXfXpXQ.pXpXpXpXfXQ.Q.Q.Q.Q.pX!.E.m.n.n.m.E.R.R.n.l.$.& , & # # # = : : ; 1 9 s d d y y X., u h u u s g C.j u d ;.d g | | o.g 4.d >.a f s f j f s a t t t g s d s a t t t y t t t e 2 e t t A A A P K m K n Z G F F J J I L ).J P B X.i w w w d y t e e a e t h t 3.2.g g d d 1.U.g j H.B.B.j 9.U.S.f U.b.b.aXC.g b.g f 2.j s s s f g s g g d 9.<.2.g >.s s f g s ;.+.B B ' ' K ' I ]./.(.'.}.`./.} L G G ' i.f.5.b.b.3.2.;.s g C.C.f s j 9.A.C.C.A.J.d 2.B.f g f 2.g s d <.d b.3.d 3.g 4.2.g ;.d C.C.f f B.A.f g d u f C.f j >.k.2.0.M.f.f.7.9.3.Y.j J.G.g 2.B.B.G.U.H.A.j J.H.C.B.f H.f H.f C.J.k.P.g j 2.Y.U.f 4.H.f 2.f f j f A.2.g 2.g g 3.9.j f g j j 2.9.0.9.2.d 3.>.2.s >.f g j 4.4.g f f d H.f f 2.g ;.1.6.8.=.p.x.v.c.x.",
"0X9X0X0X9Xv.v.qXv.qX9Xm.8.5.<.,.,.;.:.| f f S.C.f f 2.g g g o.:.o.C.f J.C.B.f H.f U.g U.T.C.H.j H.H.A.>.C.B.C.f P.,.d 9.2.2.j o.u U.G.A.>.d s f j S.S.C.g Z.d d A.>.o.g g ,.g g 3.1.3.<.j 2.A.P.C.B.C.g f f d g ,. .o.f g d g >.,.f g u d ;.| | y u o.+.6.*.) T Y 8 * * * * * & 8 N N Y B ~ ~ p.m.E.pXpXE.n.!.pXpXsXsXsXpXQ.fXsXQ.pXQ.Q.Q.Q.Q.Q.pXQ.Q.sXW.Q.pXR.T.E.Q.Q.Q.!.T.*...Y < 8 5 & , 7 : , 7 7 ; s d u d y d r $ y a f f f g C.f g u 5.7.d >.| u <.>.d d y s s k f p f d X.e s r ;.y s u 2 2 1 ;.t w t t e t t t A A A A P I G ] /./.).G /.J ).I ).Z ( B i <.e w w w s w a a s t <.s f s j P.G.f d s 3.Y.B.f G.C.g u 4.uXg d T.d R.j j 3.g g r g g f g f 9.G.g g g g d d g 2.g s f f f s u V ~ { K Z e.J ].{.{.[.%X X(.{.L } L ' d.v.8.0.n.n.k.9.>.f C.B.B.C.f s 9.9.G.j n.Y.f B.B.C.f g G.f g 9.3.9.2.j g 2.3.g g g f C.A.f V.p B.f B.f j f f f 4.P.9.4.f.v.9Xp.8.9.b.Y.2.J.g C.2.f f G.G.G.B.H.A.j H.j 2.0.4.2.j g k.9.f H.j 2.j J.C.P.2.A.g g J.s g f 4.3.9.g j 4.2.2.3.3.2.4.b.0.3.3.9.o.9.;.d j d s d g g j s g f f g 2.j g f >.<.$.n.-.f.i.c.v.t.",
"gX9X9Xv.9X0Xv.v.8Xv.v.v.m.f.1.O.:.+.+.;.Z.d g C.f ;.3.f A.g :.>.O.X.d 9.V.f G.g a 3.4.4.J.H.J.p 4.P.C.s J.A.J.9.Y.A.J.2.Y.A.j g d 9.0.Y.g f s j g f A.>.g j g s f g g X.d d g o.6.1.3.X.;.2.d d >.d >.O.X.g >.;.d ;.| d C.o.g ;.;.g g >.o.+.+.+.R X.;.O.O.t.[ T N N N * & = = = & * * T ^ / *.x.m.f.E.pXE.E.W.pXpXpXsXsXsXsXfXfX!.pXpXE.E.!.Q.Q.Q.Q.Q.!.E.E.Q.E.E.E.Q.Q.!.E.n.-.%.5 5 & = # = 7 , ; ; ; i ;.>.+.R y u < 3 X.2 d o.s f d s A.d U.E.:.;.u 3.>.2.s 3.;.t 9.d s s d g d t >.< :.>.y r a t t d t e t u w t r | A A A A H F I ] /.J /.J ).)./././.C ~ @.i o.e e e s 3.d t l l w 3.d f f f j d d <.s f C.B.p 3.j s f s E.j j 3.2.d k.J.4.H.G.s f g f H.f 9.2.f f C.f g g 2.3.f B.p A.g s u $.E ! ' ' F H } ]./.{. X X{.).J G ] ] ] d.m.b.q.n.7.b.4.2.Z.C.C.G.2.f k.T.E.J.U.H.A.A.f B.g j J.j 2.Y.3.2.2.2.2.<.9.2.S.C.g g A.f s j g g C.C.2.C.f A.C.4.Y.n.9Xm.0Xv.T.U.U.9.U.E.U.E.U.S.H.G.C.B.f Y.C.G.f C.g j C.f B.C.2.2.f 9.G.f j C.V.C.G.C.C.f g f C.C.3.9.S.f g ,.>.2.0.b.5.5.7.<.7.5.1.2.2.g d 4.d g j G.f g 2.2.C.f d 2.g A.A.;.X.6.8.n.-.c.d.c.c.",
"0X0Xv.9Xv.v.9Xv.9XqX9X9XM.iXT.k.J.1.;.g g >.s f f >.s f C.f :.:.;.>.d 2.g f 2.p g s f p s k.U.B.C.g p H.H.H.2.b.U.H.Y.0.b.1.X.>.2.j d <.2.Z.j d g C.>.;.f 2.C.C.f C.C.f C.C.G.4.o.9.g j ;.o.O.d f >.o. .R o.X.>.X.o.+.R d o.o.X.d ;.X.;.o.O.o.+.+.+.O.+.O.^ T Y * N N * & & = & & * Y ^ y.a.m.M.m.E.E.E.pXE.n.E.W.!.Q.~.~.~.fXE.Q.Q.Q.pXpXE.U.!.W.T.R.!.E.T.R.Q.Q.n.E.E.R.E.=.Y 5 , & = # # # : : ; ; w d o.g u u r 1 3 2 +.N | u s d u g s g 3.3.X.;.u d u >.g d d r ;.d s y s g s s 2.d g C.s s f a a e t t e 5.t t t +.A A A M P m G J I G /.J /./.J J J Z @.a.=.1.e e e t r d i l i e t g d g f s f f f C.f p H.C.2.f p f f 3.uXd d P.j n.U.P.d f S.f f f f f f g A.j Z.g f s G.2.s f C.B.C.f y n.%.! ( d.' ' d.} /.oXoX@X(./.].J G ] } d.9Xc.6.n.7.E.n.3.G.C.2.4.J.B.B.2.Y.G.S.J.G.2.k.g f 9.P.S.C.4.G.g 2.1.7.1.4.k.2.A.j f 2.3.A.4.9.Y.f f f B.C.B.C.g 7.m.v.c.c.c.n.9.g j 3.2.4.k.4.g P.k.H.A.9.E.Y.J.G.g f A.B.B.f C.g G.j 3.P.A.3.g f g g 2.g A.2.J.g j 2.,.g 2.o.o.6. .$.7.b.q.o.0.5.3.;.4.<.1.;.<.d g 2.2.j d 9.2.g a d s 2.d 4.1.+.@.O.n.-.p.t.u.t.",
"v.v.9Xv.8Xc.0X8Xc.0X0X0Xv.0XuXE.uXuXG.f f V.B.S.C.p p d C.f >.g g >.;.f >.h 2.f B.f s f f f j Y.,.O.g >.g A.p Y.2.A.k.uXT.9.7.<.u 3.d 2.Y.j J.g g Z.f C.g g Z.f >.;.g g g 2.2.2.d H.>.g g w.#.:.f f g >.o.>.:.;.d d >.+.X.f g >.g g X.| ;.,.o.o.o.:.#...#.T Y N 8 * & * N N * * * 8 T / y.a.T.T.E.dXpXpXfXfXW.E.!.W.R.W.W.Q.sXn.E.W.pXpXQ.sXsXpXsXQ.Q.!.T.n.E.Q.Q.Q.E.R.n.R.&.5 W 8 & & 8 , : : : ; e e u ;.s ;.u | 2 $ t d y u g g o.X.d d g ;.>.;.X.| | r a d h s ;.y >.f f f g s g ;.g f C.f f t a t r y e 0 t r w s A A A A x ' K G ] J J (.(.(.J J G G B E $.5.o.e e w a r u <.l h w a C.g 2.A.f k F.V.A.C.G.P.U.A.B.f C.f f E.P.2.<.uXT.T.4.A.G.C.2.9.J.f J.A.A.C.C.p B.d g G.H.g g 2.2.G.g o.f...*.C e.y.y.] oXoXOXXX(./.(.].J } J G } t.8Xy.q.q.T.uXk.j C.A.C.C.s p A.2.H.f 9.G.j E.E.2.j 2.g A.g 4.4.<.n.=.9.2.2.2.2.P.4.3.2.S.g 2.2.j k.j A.j G.2.k.f.iX8Xi.v.9X0.k.3.9.2.2.H.2.9.Y.b.0.E.U.T.T.T.T.Y.9.Y.U.Y.U.Y.2.4.9.b.uXT.E.n.E.3.k.b.E.U.k.uXk.9.b.uXb.1.k.m.8.f.8.p.t.-.n.8.-.-.7.b.0.7.6.0.#.<.<.3.5.9.<.b.k.<.<.k.9.9.q.7.b.-...=.m.p.9X8Xv.c.",
"0X0X9X0XqX8Xd.v.v.v.qX8Xv.s.6.O.3.Y.H.S.S.B.C.C.p B.p V.V.B.R.V.C.g f V.C.V.H.V.V.g ;.:.g C.f P.j >.Z.,.d S.V.j P.S.2.T.n.k.n.4.j 2.g j j P.2.A.j G.C.C.B.f J.f H.,.,.O.| O.o.2.u d g g C.:.O.O.;.g d ;.>.>.#.+.| s g o.| d g f f X.u d d d ;.o.s ;.X...@.! * 8 * & & * * & = = * * / / x.m.n.p.T.dXdXdXJXdXsXsXsXpXR.Q.Q.~.sXE.E.U.E.n.!.Q.Q.Q.Q.Q.Q.W.E.n.n.n.Q.!.!.R.W.l.5 , 5 < < , 2 < , , ; 6 2 | y u y r y r r 2 u r 2 R < u d u u u u q.o.u ;.X.r r g u a s s s s f s y s o.u y f C.f g g d h d y e < 0 t 1 e q V A A A A P m K m F F G I /.J /.L H B B  .l t r u t t t l z.l l t u s g y d f a S.g g 4.<.u o.f j g u u d <.W.E.d U.3.<.W.A.s d d d d s u u r d u e u e ;.r o.y y y d r e r | | 2 C C ' n ( G ] ].J I ] } ' ' ' ( ' ! ^ &.p.=. . .x.T.O.5.W  .o.O.o.$.b.b.b. .O.$...=.8.6. .i -.n.8.m.x.=.%.=.7.8.6.7.$.$.6.$.7.$.7.O.R ..6.=. .O.-.%.x.*.) _ *.x.-.&.=.f.=.$.=.8.7.R R %...@...$.%.=.....$.@.-.&.=...=.=.n.%.x.f.=.=...=.-.=.8.8.n.$.7.=.n.0X-.-...x.-.p.W -.Y Y ..p.@...=.=.x.W  ...%.O. .$.-...R  . ...=.6 r =.& 6 .. .%...W W n.*.*.",
"u.x.i.d.i.d.T i.[ / d.[ T ^ O.|  .O.s g u u d X.y h d t f u g f u E u d f p C.B.s j g X.o.d s g 2.g >.+.X.g g | 0.>.2.7...X.o.y 5.O.R R X.o.<.;.;.o.u o.d | ;.X.d o.X.o.+.< R R 2 t j f d +.R +.r X.r d u r | | N X.d d R < s f d X.| e r r u r u +.,  .Y Y & * * * & = * = * * * * % , n.n.W ..$.E.!.!.sX!.!.Q.Q.Q.Q.Q.R.pX!.Y.E.b.T.Q n.&.%.l.=.l.n.n.n.E.n.R.-.W m.8.l.8.5 5 N * , : 2 , 1 1 6 2 e R u e t y s d t u y 2 6 2 e 1 d a d r 1.d d 2.r o.r % u u 0 s h h X.o.;.| s X.0 s s o.6  .1.6.R o.u o.R 7 X.% 3 | +.A A M M M ' Z ( B C ( C I ] ).I I ' ~ ~ $.$.$.$.o.i i o.%.z.o.i o.r y N $ ;.u 1.1.<.O.Y , < o.b.O.R  . .X.$.E.q.1.b. .T.E.5.;.| R E R +.E N 6 +.5 2 +.Y N Y N R T N N Y N 5 ..R ( ! B B ~ v ! ' ] ( ! B c ! C ! ^ T ^ W ^ ^ R Y p.u.*.p./ ^ T @.) ^ @.@.aX&.*.*.@.^ &.M.m.^ -.0Xx.p.m.-.*.*.p.x.p.u.*.-.p.&.&.p.u./ *.^ *.^ W E T & ^ T Y @.^ @.E W *.T R R T W ^ $ Y Y N Y W -.^ W -...-.@.&.p.&.n.-.-.p.-.x.x.#.f.-.-.&.-.*.x.x.-.^ E Y ^ *.a.Y ..&.n.R &.&.R W &.^ Y R Q n.N +.n.W Q W &.M.m.x.@.Q x.p.m.p.u.W W R &.-.-.-., =.p...",
"{ i.[ ) d.! ! / [ ! ! / ~ E O.R O.+.O.R R X.o.X.| r r r s o.X.d f g g f p C.s C.g g f >.:.,.O.o.3.g g O.X.>.g O.<.3.6.6.#.O.| u o.,. .O.X.g j 4.2.>.>.,.>.,.;.X.;.O.o.3.1.#.+.o.u g d d s s d g g d o.o.;.,.s g O.:.>.C.>.;.;.d ,.o.X.o.u O.o.,.R X.o.r 5 8 N Y 8 8 8 & * * N T N T ~ p.n.m.m.dXfXfXdXdXpX!.!.W.Q.Q.~.E.7.fXQ.Q.fXE.Q.T.Q.E.M.!.E.M.E.m.T.pXQ.pXQ.Q.M.n.8.6 # = = & , :   # : : r e f g g s f f B.f B.f f ;.d g f u g s 3.d 1.g g d g >.>.,.2.Z.>.:.g S.g g C.f f g g C.f H.G.1.$.1.:.o.o.u y r o.....#.+.e.( e.e.P r.] ] ].} } ].).{.).).).I #.( o.n.n.b.5.u u <.z.l 7.5.,.,.d ;.$ o.3.>.2.J.#.@.X.1.1.b.b.q.7.<.2.1.n.uX5.0.iX7.uXb.2.<.1.,.,.3.1.O.:.O.#...=.O.O.:.1.:.1.#.8.s.w.1.q.w.Z ( [ ' ' ' } .X].[.].].].[.].r.' { [ [ y.*.#.*.*.8.M.b.b.0.q.=.6.6.=.=.f.uXn.1.9.4.k.7.iXn.9.b.b.0.7.M.b.b.0.q.5.n.b.9.9.9.q.9.0.q.0.*.@.*.-.#.#.*.*.c.v.a.f.-.-.8.6.6.$.q.q.6.6.q.=.q.6.0.b.9.1.n.0.1.9.4.3.7.q.k.3.1.<.0.q.9.1.q.3.<.2.J.0.q.9.3.q.-.t.#.#.*.s.a.a.n.0Xm.m.p.x.x.n.f.f.x.f.f.n.m.8.f.m.m.f.8.n.n.n.n.n.f.uXn.M.0X*.u.p.n.m.m.p.m.*.",
"iXqXv.d.d.y.{ T { ( [ T *.~ O.$.#.#.#. .>.,.:.f g u s d C.g g >.;.P.H.A.S.B.f C.B.B.C.S.>.<.,.>.9.k.4.j C.j j 9.n.0.6.=.w.O.| o.X.O.O.@.+.2.2.g A.A.<.>.>.>.d >.,.O.| 1.2.,.>.g s >.o.g g u s g s j 2.>.g g g d g >.d g f C.;.X.>.d g >.g O.| O. .O.2 5 8 8 = & 8 * * * * Y * N N T / x.E.E.fXJXJXsXdXJXdXpXfXpXQ.Q.W.&.W.sXW.E.fXpXW.Q.sXpXW.R.!.W.E.!.pXR.!.!.Q.Q.n.l.& = & = 5 , ; ; : 7 ; 9 e u :.d d f g >.,.u g f C.C.g >.;.g d X.1.9.d g g g C.C.;.g J.g g :.X.3.g 2.B.B.g d u a f C.g >.+.g d u y | y e w w t y h.h.e.e.P P P ] } /./.{././._./.].).A C V e e e $.1.i 5.l r l <.3.;.g u g q g f B.f f d g g g g d 0.b.1.J.2.g 2.E.b.;.U.H.9.E.f f C.B.B.G.C.C.B.g g ;.+.d d j 3.f g ,.1.1.0.9.3.;.#.Z e.' ] G I {.(.(.}.|.(.(.{.].] ] ] { [ t.6.1.O.O.9.0.9.j C.;.g g :.| ;.3.E.C.B.f A.C.2.T.H.G.g 3.j 3.9.3.2.G.j j G.A.2.S.A.C.C.g g ;.o.4.:.,.O.*.#.*.#. .6.O.o.;.u o.;.g C.j ,.o.2.B.f j A.A.A.A.f Z.j 2.2.H.j G.j A.>.J.f S.C.f s H.C.J.4.G.g g 2.j G.1.q.O.O.v.y.&.uX^ aXm...7.n.b.8.7.1.;.8.o.:.<.q.y 5.;.u u b.9.0.;.;.;.<.E.M.M.x.-.m.m.m.0X0X",
"0Xc.v.{ / [ [ ( { { / ! *.s.+.O.@...#.O.,.:.O.o.g g p f f >.>.s d g G.f A.f C.C.f g g f P.,.,.:.g P.9.A.Z.2.4.3.T.0.-.=.;.:.e r u o.;.#.O.;.<.,.g 2.j C.g ,.u 0.6.;.$.X.2.g >.>.g >.d d d o.X.;.d d d j f f g g g g C.g g g g :.d g X.d C.,.>.X.O.O.R Y 8 8 = = * * * N N Y N N * < % % M.pXpXdXdXdXJXpXdXsXsXsX!.E.R.n.pXpXpXW.W.Q.Q.pXn.E.R.U.!.pXW.E.x.-.n.n.n.n.-.5 < < 8 5 Y Y 2 6 1 7 ; w y ;.,.,.>.>.>.>.O.O.E o.g f f g g >.d <.+.9.2.o.2.g >.g g ;.4.f B.g :.5.H.2.g >.O.s d y g ,.d g >.>.h t y r e e w t y y V A P A P P P L L J /./.(./.(./.).I A A e e e e 5.7.t 5.l u y t <.d g t 2 s g u 3.o.a U.j 2.g d <.3.0.k.>.2.s g 3.uX2.f 4.4.uX4.f p B.B.j 2.C.B.H.f C.f B.f 2.0.2.d 3.3.2.3.2.2.d 0.Z e.d.r.' ] {.(.(.{.(.'.(.[./.{.} ] } v.v.7.1.3.;.2.3.k.J.>.d d s 2.d C.d U.9.G.C.C.C.j b.U.H.G.A.2.4.4.9.4.k.4.2.Y.2.G.f P.C.B.f j 4.2.2.A.<.$.O.#.=.O.o.>.>.>.g g >.,.2.j P.H.g J.C.C.S.B.B.A.g f C.j >.2.C.A.B.H.G.H.J.B.C.A.A.2.3.H.A.A.2.2.2.G.H.3.1.:.q.a.y.d.t.a.*.0Xv.s.-.-.:.1.+.:.O.6...:.o.u u ;.;.7.r 5.7.u d ;.1.u 8.=.f.#...a.^ f.uXa.",
"m.0Xd.[ ! ! y.[ / [ / t.~ @.#.O.#.#.#.O.1.,.;.;.g Z.f f B.g >.g C.f C.f j 4.A.2.G.g ,.>.g A.f >.d 3.9.3.j 2.0.3.b.7.8.;.;.1 1 e u o.d O.O.o.;.2.d g j j f >.;.q.O.;.;.:.d g g ;.d j f g f g >.>.g g g g f g d g 2.;.g s B.B.g ;.d g d g d g 2.:.r R < 5 = = & = 8 & # # Y 8 Y T $ < ^ * E E.pXpXfXdXJXpXsXfXsXQ.W.n.n.b.pXE.E.T.E.n.U.E.*.=.8.-.n.n.-.n.n.T.n.n.n.p.T N Y Y 5 8 < ; ; 6 7 7 e w g ,.>.>.>.;.o.;.g :.+.X.g C.;.d g :.d >.O.d 3.;.g g >.:.g s G.B.C.:.d 4.g f g ;.>.>.d g d g g d d g s t t w t e t t o.X.V A A A P P P L F J (././.(./.{./.I A V e e e u u 7.t 4.t t t t d s s s r g f f g g g 9.C.f f g H.g g 4.>.s g g g U.P.d 9.J.g P.k.C.f g j f f f 4.2.g g j 4.k.n.9.9.3.b.4.2.j 3.0.b.#.' d.e.' ] {.(.(.{.{.[.(.[.(._.J J } [ 9X-.0.<.1.3.2.2.k P.C.B.B.B.C.y f g J.4.4.j j A.2.2.2.J.2.2.2.3.2.2.9.3.S.2.C.G.C.C.f f f j 2.3.4.J.;.4.4.7.1.0.2.j g g f j j g 3.9.Y.P.H.H.C.G.G.C.j A.g f j 3.>.3.g 2.g G.f 9.2.G.A.4.2.2.g H.A.g 2.9.2.>.3.1.0.7.b.v.i.v.i.c.8Xv.9Xn.f.5.;.q.q.O.;.1.;.d g g >.>.X.:.;.o.u ,.>.o.8.q.8.-.#.@.+.a.x.p.i.t.",
"c.c.{ [ [ { { ( ! / [ / / #.#.+.#.O.1.6.O.,.,.,.g >.d g C.g g g d ;.,.f f P.f 2.J.C.g f g A.C.G.2.9.U.b.k.<.b.m.b.8.5.2.r - X ; s d o.<.O.<.2.2.d d ;.;.d >.:.;.+.X.o.o.;.;.,.;.d 2.g C.C.g g A.g j C.g g d X.d g g f f f f f f g ;.d d >.o.;.O.R Y < * 8 8 8 N T * # # N Y ^ [ N R E.p.E.E.pXdXsXW.!.Q.Q.pXW.Y.U.n.-.R.pXn.b.n.U.E.n.T.n.M.*.N -.-.n.E.E.m.T.E.n.b.Y N * & & & > : : ; 7 e 9 w C.g ,.+.>.>.>.f >.O.O.o.;.>.>.g g 2.>.>.>.<.>.g g C.g d >.s G.d g g f C.f f Z.;.>.;.>.,.>.>.g g >.g >.d t w e t e w t t a h.A A P P P K G } /.J ].J ).].).I A V e e 0 9 t o.5.u t t t w s 9.g j s j j g g s d d Y.:.;.g g f g 9.P.2.g 2.g 2.Y.H.d U.>.g R.G.f 2.j f 4.2.3.3.9.>.2.2.2.b.7.5.k.E.b.9.9.3.T.7.0.#.P g.' ' } ]././.].XX[.[.(././.J ' { m.9X8.0.0.0.k.2.s U.J.A.g s g g f d 2.j G.C.C.C.f f A.j Y.3.3.3.2.j 2.3.Z.f f 4.2.A.C.f j 4.4.9.<.k.0.3.9.0.b.uXG.G.g 4.4.b.9.4.4.U.4.3.3.9.4.3.2.2.9.g g 2.>.2.d 3.<.3.9.g f f 9.C.C.4.3.2.j >.U.0.2.>.<.<.,.5.q.p.v.d.v.c.a.c.c.8Xv.n.T.U.7.0.E.3.3.H.A.C.j Y.H.C.g ;.g >.>.2.1.O.:.O.1.-.#.@.#.x.c.a.u.m.",
"[ / t.d.{ d.[ ! ^ / [ W p.*. .1.2.j 9.0.J.j 2.;.>.o.t 2.f f B.f d ;.g f f Y.S.C.j C.f f g ,.,.j U.uXT.b.T.0.1.E.7.e : w e o O e t s d u o.d 2.;.o.u o.6 >.>.o.t ,.X.o.o.O.1.$.X.g 2.;.>.d j j j <.;.G.>.2.g ;.2 - s C.f g d s g g X.o.o.u ;.d :.N Y 5 * 8 * * N T N = = 8 N i.y.&.p.pXpXpXpX!.sXpXn.b.Q.pXQ.!.Q.!.n.R.~.pXE.E.E.E.!.R.Q.!.E.n.n.x.E.E.E.E.!.R.M.n._ * * = # # # o : : ; r 7 w s >.g >.;.>.;.g C.d ;.,.:.,.o.>.g g ;.;.2.2.:.;.d g d g g d s G.f C.f f B.A.g Z.g ;.g g >.O.o.g f g d s <.a t e u e w w a 2 A A P P P A P J J J J J /.).I /.I A B u e e 1 y o.5.o.;.t t t s J.P.C.p f g d f u 2.s 4.G.d s A.j 4.4.k.P.g 3.Y.j 3.W.C.9.Y.f 2.W.g s A.d g g d 9.2.g g g g 9.<.>.2.0.Y.2.J.j q.9.0.w.' r.r.] ] ].).(.[.[.(.{.[.{./.] d.r.-.uXM.n.q.4.<.3.g 9.4.b.f B.f H.f C.g 2.9.G.S.C.f 2.3.9.n.3.b.>.3.d 2.j g g 2.2.4.H.A.2.G.3.Y.4.<.0.9.4.4.9.3.E.A.G.9.2.4.9.g j 4.2.2.2.P.2.b.3.j A.H.A.g 3.>.>.g j 3.4.A.C.C.f A.f f G.2.j g g W.0.g g >.4.7.b.8.y.c.9X9Xc.v.c.v.d.a.f.7.q.b.m.b.k.n.4.G.G.f 9.Y.G.C.C.C.2.G.d 3.;.1.:.6.=.p.t.[ t.^ t.u.E ",
"d.{ c.9Xc.v.i.c.a.i.t.*.e.*.=.1.2.2.1.2.g g ,.>.g g f g 2.4.f g d h f s f f H.A.G.2.A.A.f 1.:.,.k.b.2.q.7.9.>.o t @ . . o ; s f g d 1 9 j d ;.X.o.R X @ O.2 ;.t 2.X.X.y >.;.>.o.g g >.o.;.d j 2.2.;.j g 2.f A.d d e w s s g d o.g d ,.| d d ,.+.< 5 * 8 * * 8 N * 8 8 * 8 T / a.m.f.E.dX!.pXsXdX!.pXW.fXpXW.sXQ.Q.E.!.sXpXE.n.!.Q.Q.T.n.R.n.R.E.R.E.T.E.R.R.R.n.-.8 8 Y 8 & # # o 7 # z w e t O.>.g g C.g f g g C.s 2.g >.d g d g g g >.3.,.2.;.d g d g f j 4.f C.g f p s G.g H.y f s ;.R X.d s j d o.t a t e u e e w a t A A A P A Z L /./.).J G )./.J U J V q i w e 0 9 o.w 7.t e t t p f 2.S.f f g g f f S.B.f Y.g C.g g 2.s g 3.4.g 3.d d k.A.f U.A.s Y.uX>.2.H.C.C.C.g g g g g 2.9.<.d d b.9.j 4.2.3.2.g w.P ' d.r.] ].{.(./.[./.(.(.{.].d.d.] d.i.c.-.:.q.1.2.g 2.4.E.H.V.V.B.A.C.C.j P.G.S.C.f j 2.3.b.1.b.j j >.<.d 2.2.3.g 9.2.3.U.4.2.2.j 2.9.3.k.3.0.3.0.j j 9.2.4.Z.C.C.g 2.j A.G.f J.4.G.G.2.j 2.2.2.g j g 2.A.C.C.B.B.B.C.A.f H.Z.g g k.0.2.g 2.1.7.q.-.c.v.9X8Xv.v.9Xi.8X-.q.6.1.5.0.k.T.m.n.9.J.2.T.2.Y.J.g C.2.9.>.7.9.2.3.7.f.c.v.d.i.d.[ c.i.",
"v.0X9Xm.m.m.m.v.v.[ *.e.e.*.s.-.w.w.#.#.O.;.2.>.s s d g 3.2.j d d o.o.u u d 4.J.G.P.C.C.C.j ,.,.;.9.2.6.+.r y   . o . . . . ; . . . . . r 1 % , u X.$ $ +.N | t G.+.o.;.>.d ;.X.d g g ;.,.d <.>.1.;.2.g g g B.B.B.d t g 1 s d :.;.C.C.o.:.,.O.| Y < * * = & 8 * * = & * 8 ! ^ c.m.E.U.pXpXdXKXdXJXJXpXQ.R.W.Q.!.!.!.!.sXpXn.n.T.!.E.!.T.T.T.W.E.pXE.!.E.E.n.n.%.5 8 * Y T 5 , ; : ; ; w 9 w Z.g f B.f C.g g >.>.>.,.C.C.>.g g ;.g g 2.,.4.<.j g C.A.2.C.C.j 2.g g g g f g >.u g f f :.N X.O.;.>.g g g h t t t t 0 ; e t d A A A H P K I /.).J I J J /.)._.I B t i t e i 9 9 :.k.t t y y f f f 9.s g s g g g d 2.f g U.g g f f g g :.2.d f f 4.g E.A.j R.C.p W.Y.f H.C.C.f 2.9.f g g 2.1.3.<.<.U.2.j d T.3.g C.w.A L L ' ] ].{.].[.{.OX/.{.[.(./.I ] { y.t.d.-.6.b.9.2.j 4.E.9.P.G.S.4.H.f 2.3.g A.2.C.B.f g 4.9.3.j 2.g 2.2.g 4.4.2.9.H.j 2.3.2.g j 2.9.2.1.9.n.3.g 0.g 3.P.J.f C.g f k.J.g g 2.9.9.4.0.3.j 2.2.9.H.g 2.2.A.G.J.B.B.g P.4.C.Z.f 2.f 2.4.2.2.<.3.5.0.c.v.d.9X9Xc.v.9Xi.a.-.7.f.q.O.1.1.q.b.n.n.U.U.E.9.T.0.G.C.2.9.3.3.0.q.6.8.c.v.i.i.c.c.x.9Xv.",
"v.9X8X9Xv.c.d.d.[ ( ~ #.t.t.*.#.q.$.q.1.;.2.;.1.o.d u d j g g s 2.O.o.s t 2.9.2.j G.B.g >.2.,.;.;.u u | +.N .   . . . . . . . . . . .   - y d | o.d 2.+.u <.+.u >.o.o.;.:.d g d d >.,.:.o.g ,.:.:.2.g A.g A.f g >.d C.g f d f g d B.B.;.o.:.:. .5 < * * & 8 * # # = = & N ! ) a.n.E.U.JXpXJXJXdXJXdXJXsXR.W.b.R.E.Q.!.fXpX!.Q.n.n.Q.E.E.E.E.T.T.E.M.E.x.p.-.-.5 * & N * 5 5 ; 1 7 6 r e e d C.B.C.f g C.C.f g ,.>.>.>.g g >.g g ,.:.4.J.H.6.X.2.f 2.U.A.s j G.g g 2.d g f g g f f C.O.R d f g C.C.f f a a w t e e e | R h.h.P P P P L P J /.J J J /./.).).L B t e w u t w 9 $.8.8.t y d C.d d >.g g f f u 2.d d f s P.j ;.u g f g A.g 2.C.f P.f k.E.9.3.Y.g 4.E.S.B.B.g g 4.j f C.g 7.>.9.j 4.3.2.G.g b.k.j 3.d #.K L P ] } ].oXOX{.oX(./.[.{.].' r.d.x.m.u.i.=.8.5.7.g d 2.Y.0.Y.2.2.3.j 4.f s 2.P.H.f s 2.g 2.g j 3.2.g C.g 3.2.4.2.2.G.A.2.9.9.2.<.0.g g 2.3.j A.2.2.3.k.3.2.4.9.g 0.3.g 4.9.3.U.9.b.k.2.g 2.j 9.2.3.g g 2.P.B.f 4.4.3.J.A.C.S.A.A.2.2.<.>.2.9.n.m.m.d.c.i.c.c.v.i.a.8.8.m.7.9.1.1.:.1.3.n.n.M.T.9.aXE.4.A.g <.E.2.0.f.8.n.a.c.c.c.v.9Xc.v.c.",
"c.i.v.y.d.u.t.*.d.&.&...@.*.i.$.7.1.<.>.2.>.u u o.;.t d g g g 2.j f f p j f 3.2.2.j f | r 2 r @   . . . . . . . 9   . d . .   X . o t u r s g o.o.d >.o.y u 1 y e r u y d X.| e d g O.X.o.,.o.;.X.o.g g d s s g o.;.o.s g d f g ;.f g f g o.O.R & & & 8 8 N & = = 8 * * 8 / p.u.n.E.!.JXdXfXpXsXsXsXsXQ.~.sXW.b.n.n.Q.fXW.!.Q.T.U.!.W.!.E.!.n.n.m.n.E.n.n.n.&.< 5 * 8 * < 7 6 7 7 6 e w g >.>.>.g g ,.;.g B.B.B.g f C.B.g d f g :.2.<.0.:.;.d 4.B.j 3.g G.g B.B.A.f g C.f f G.g f C.X.6 s f g d y s g s a t e 5.t t u | h.A A A D P K L /.G } J /./.(./.I A A w w w k.t e e i o.b.T.u d B.f f f C.f p B.f g f j g g d P.2.d g g d g u 2.j d g f 9.T.E.A.Y.j f 0.T.f j j 4.9.g j g <.9.g j 2.3.3.4.2.j 4.k.3.9.j 9.A ' ' ] ] ] ].{.{.[.(./.{.).] ' ] d.c.m.m.i.8.8.o.;.d a s f j <.9.G.G.J.f f C.2.4.k.k.k.3.3.j g 3.1.2.g g g d f 2.A.g j C.4.b.0.2.3.k.3.4.2.f 9.2.C.d 9.9.2.j 2.H.C.3.9.j 4.g 4.2.2.9.9.g g j G.g A.g f g A.C.f A.Z.C.C.j 2.3.f f g d 2.>.>.;.8.8.8.x.v.a.c.v.v.y.c.m.8.b.8.0.7.3.q.q.3.3.3.k.b.aX4.E.aX0.b.P.3.T.2.q.f.n.8.m.c.c.a.v.v.8Xi.v.",
"m.m.m.c.x.v.c.i.i.t./ E / [ [ ..=...@.O.:.O.+.o.;.;.7.<.j s 2.j g s 2.a d s d 2.4.4.f u d 2 1 2 @ . . . . . . o w E.4.4.4.3.d t t s f f d u d d d d g d u y e r e 2 d s d u +.2 o.1.<.>.O.X.;.d ,.o.u ;.o.;.d g ;.g u d g f f g g f Z.;.>.,.6 5 8 & 8 * & * & & * & 8 8 E p.m.n.E.W.T.sXdXfXfXdXJXJX!.R.~.sXsXpXW.n.Q.pXE.E.E.W.!.E.W.!.Q.Q.E.m.!.pX!.!.W.U. .N Y N N < Y 7 1 1 6 r r o.g >.,.,.,.;.>.,.:.g d 2.:. .2.Z.Z.g Z.>.>.>.6.<.;.g g >.C.g g f 2.J.C.p f C.G.C.f f G.d g d u o.d f s ;.r o.+.;.X.r e u w 9 w u h.A A A P P K H J J J ]././.)._.).A A 9 9 e u t t t t t w E.5.a C.2.g j f A.f g 4.9.j A.;.:.>.g H.;.g g d X.>.u 9.2.f s 9.3.E.Y.g U.f g b.T.2.j 2.3.3.2.d 7.3.2.2.<.1.b.n.j f 4.d H.j 2.2.5.B m A ' ' ] ).{.{.OX{.(.(./.{.} ] ].d.d.i.n.f.1.<.2.j f C.G.A.J.A.f 2.Z.C.B.g 2.T.T.Y.g 9.A.2.4.2.3.9.P.2.g f f 9.A.A.f 2.3.2.k.q.d 9.H.2.j Y.9.g j g j 2.f j 2.j j j g j g 3.2.2.>.9.g 3.3.H.g H.j f A.G.A.2.H.f B.f f j 4.g g j 2.2.2.<.=.6.0.1.6.f.a.v.v.9Xv.9Xc.6.0.6.1.6.1.0.1.q.<.2.3.2.k.G.3.n.b.l.uXU.9.9.1.f.8.8.m.9Xd.c.v.v.c.i.i.",
"8Xv.[ i.v.c.d.y.[ [ ~ / ^ [ [ y./ ~ *.*.*.@.@. .o.<.<.;.2.;.g >.;. .u s s w a 4.g f g h >.,.:.6.O.6.E 0 d 3.Y.Y.;.U.Y.d k.k 2.f G.G.>.O.o.;.s g g >.g g g f u | 2 R | o.d >.$.R E <.j A.,.O.;.>.d o.;.u j d >.d g f g >.>.g f f B.C.g ;.>.:.5 N 8 * 8 = = = = # & & N Y ) m.uXE.pXpXfXJXKXfXfXJXdXsXQ.W.Q.Q.Q.pXpXQ.fXE.n.R.Q.!.Q.W.W.!.W.W.E.W.T.E.E.n.b...5 Y T Y 8 , 5 1 ; ; e r | :.O.;.>.>.;.;.;.;.o.O.o.,.o.+.;.;.:.;.O.;.;.<.n.3.2.2.g 2.j d f C.g 2.H.C.f C.f C.g f f ;.o.;.y g ;.;.g g f X.N X.u r e o.e w t s #.A A A H Z Z P /.J /./././.(._.).A V e e e 5.t w t t t t 9.<.d f J.3.g 2.G.B.g ;.s 2.g >.:.o.;.Y.2.:.2.g >.g o.3.E.>.f s g T.T.2.0.3.f f uXH.f 3.j 2.s 0.9.3.2.2.5.9.9.T.H.2.b.3.g g 9.3.3.O.n P r.] ] J (.(.OX[.{.(./._.{.} ].d.[ [ i.f.1.5.3.3.G.C.f G.2.0.2.f U.P.C.f 9.T.3.2.G.g f j 3.2.3.2.9.U.2.f f b.f f f g 2.j 2.j s 2.G.C.j 4.9.g 4.2.2.Y.g 2.g 3.g 2.2.2.2.>.b.2.2.2.3.2.Y.9.9.2.2.g g 2.g g A.C.f f 3.H.A.f g 2.2.2.3.q.0.1.T.9.<.8.n.p.x.x.m.a.f.8.1.6.:.1.5.b.9.8.3.2.<.2.3.j 2.9.T.n.9.T.n.n.3.0.-.-.0Xv.8Xv.c.v.d.c.v.",
"8X/ [ i.{ y.d.y.[ [ E ^ @.d.y.{ t.*.-.*...#...O.+.1.o.d j j >.>.:.O.R u t w a 3.s d o.+.3 o...O.X.1.O.b.J.4.U.k.2.Y.g 4.2.2.j g g f Z.>.d g 2.A.>.d r y , r r u X.| ..O.o.>.,.+...>.2.g g >.d g y d o.d g g g g C.C.f :.X.>.s g f d >.>.,.$.5 8 * * 8 = & & # # # # * ^ &.n.T.pXpXJXJXJXPXsXfXsXsXsXsXsXQ.Q.Q.!.Q.pXsXT.M.l.n.n.Q.Q.Q.Q.Q.Q.E.E.m.x.p.-.&.Y Y Y T N , , 6 7 : e w e o.,.:.>.s >.>.O.X.O.o.;.;.o.;.o.X.o.;.:.O.o.o.7.n.q.>.g Z.C.Z.Z.C.f f 2.g G.C.B.g g >.;.f f +.2 d f C.;.:.| u y ;.+.r r e 0.e w t a h.P A A A A P L /./.J /././._._.).A V e e e 5.t t a a t d t <.9.f f >.s g C.f g g g g g S.j >.g 2.J.>.d g g g g >.3.P.f B.B.g U.E.k.U.G.C.Y.T.f 2.g g s <.<.0.d 4.9.j 2.2.3.g 9.4.4.4.;.<.9.q.#.' r.L I I /.(.(.(.{./.(./.J ] } d.d.i.m.m.5.9.<.2.g A.C.f 2.4.U.f 2.P.P.C.2.E.9.4.P.A.f g 2.g g g g 3.9.2.f 2.d j k 9.2.g j f d 9.9.2.9.9.5.Y.g H.P.Y.2.2.j 2.2.g 4.j 3.3.9.G.C.j 9.4.J.g 2.A.C.Z.g 4.g f f G.f j g j g C.C.j 2.3.3.<.b.9.b.0.7.8.n.n.b.b.8.8.m.=.5.8.q.1.b.0.q.0.1.:.:.0.9.2.4.3.9.b.3.T.M.n.k.8.n.m.0Xv.9Xv.c.i.c.v.c.",
"c.i.c.v.d.[ t.y./ / / ! e.[ { { { y.s.p.=.=.8.6.=.#.o.<.2.g C.<.:.;.u | t s ; <.d g N $ N e 6.O.$.6.O.;.J.2.4.9.k.U.u Y.g 4.4.4.f >.2.,.d g g ,.N 3 $ N $ $ < y g ,.O.O.:.>.>.2.1.;.>.:.>.g >.d >.f C.>.;.g g f C.g C.,.>.;.s g >.>.g 2.=. .8 = * & = = # # # = # = 8 _ a.M.pXdXdXJXJXJXPXsXfXE.!.Q.Q.Q.E.Q.!.E.E.fXpXE.E.E.U.n.b.W.E.W.n.E.M.M.n.m.-.*.N Y Y N Y Y , : 6 N e e w t :.o.;.o.d o.O.O.:.;.O.o.>.,.O.;.;.O.O.X.o.;.q.:.;.<.g d g ;.g g g g g J.C.g j 2.H.j g X.g d +.% r s s g V R 1 g g X.+.e e 6.r e w V A A A A A ' L I /.).J /./.J _._./.V 9 w e w u t w s s a s s e Y.g g f j H.g s g g g g s d 2.2.j g T.2.g g o.d d g d Y.G.B.B.s 4.U.b.E.T.C.2.T.E.4.3.9.G.f j 3.G.g g 2.2.g >.j g 3.3.1 y 5.0.<.e.P L ' ] ' ].{.{.XX]./.(.{.{.G ' { u.t.m.c.=.5.;.4.g g p f f A.g k.C.f U.Y.f U.E.n.b.Y.G.2.2.2.g j f g 3.k.2.j H.2.2.9.2.j 3.j 2.k.9.H.3.4.b.k.j g 4.9.A.f J.g P.j 2.3.3.4.9.9.3.0.,.<.g g f B.C.Z.g 2.j G.C.g g G.f 4.2.G.g 4.2.2.4.9.0.4.q.4.<.8.6.0.0.q.q.f.n.6.q.7.1.n.q.9.b.q.q.<.O.f.1.2.2.3.<.3.2.n.n.U.4.n.n.M.0X9Xc.i.v.c.c.v.c.",
"i.9X9Xc.d.y.[ / i.a./ V *.a.y.y.[ d.d.g.s.s.u.#.@.#.o.<.2.A.Z.>.O.0 t e s a w t <.g r | X.<.U.n.9.2.>.u 3.O.j G.d k.d g u 1 y >.s r +.| +.+.N , % | 3 N N < ;.>.,.>.;.2.<.,.,.>.2.g g g g g g ;.g g C.,.g f g >.d s C.g g s B.C.d g g 1. .5 8 8 8 & = = # # # = = 8 _ n.uXaXdXdXJXKXKXJXKXdXfXW.W.Q.Q.R.Q.Q.Q.E.E.pXpXW.Q.!.E.E.b.l.R 8.&.l.E.x.n.n.-.W Y T < 5 5 5 7 ; 6 Y 6 e ;.X.X.o.o.:.O.O.O.E ,.O.o.:.O.>.:.O.O.+.O.X.;.$.+.@.o.>.g O.d 2.g g g g u >.;.u g g 2.f g >.g X.;.N 3 u R r ,.X.y o.O.| u r e 1.+.r t V V A A P P P H I /.J /.J J J _./.J V w e e e i o.a f f f g C.u 5.0.f j j J.A.d d ;.g g g d d s P.2.j 2.C.f u f f s f f Y.d a f f 4.Y.9.P.A.S.4.T.3.9.k.G.V.g f C.g s g 3.g g g j <.j t <.3.;.<.A P ] r.y.] } {.(.{./.{.(.{.{.I ' ] { i.a.c.p.$.<.5.d j f 2.s g g 9.k.2.2.U.g 0.k.0.j k.3.J.9.4.j g C.f 2.4.P.9.4.g 2.d j 2.k.U.2.2.9.j 2.2.7.g j j 9.k.4.G.J.j 9.g g ,.9.<.q.1.9.0.j g s f f g d 9.2.g H.g f j f C.f 2.2.G.g 4.g j 5.b.<.5.f.:.,.q.<.8.7.5.7.x.f.0.q.7.9.6.:.5.q.5.0.7.8.-.1.2.3.<.3.3.g <.T.0.3.U.7.n.m.m.c.m.9Xv.9Xv.i.",
"v.v.0Xx.c.c.c.c.x.c.@.@.-.v.{ / { y.y.{ s.s.*.a.y.y.R 1.2.j 2.;.,   : : t d f w u <.3.2.:.:.;.E.iX4.g o.;. .e X.< y r : 1 , $ 1 9 $ O O % N $ < @ < $ O O u ,.#.:.w.O.O.O.<.1.;.g 2.A.f g g 2.;.>.>.g g f s g C.B.C.B.Z.g j B.C.C.j g u 6 8 & 8 8 & = # = & = = & 8 x.M.M.E.KXPXdXPXPXKXKXJXdXsXpXQ.W.E.Q.!.fXpXQ.sX!.E.W.W.R.E.E.b.n.W =.n.U.n.-.=.&.< < Y Y < < < 2 6 6 R N R O.E ;.:.;.,.#.O.>.,.>.#.#.;.d C.,.,.:.o.:.O.=.+.#.#.+.O.;.:.O.;.;.y >.;.;.X.:.O.| X.;.g u <.2.d r , u u ;.o.d ;.;.o.O.X.r r 0 o.| r r e X.A A P P A H I J J J J J J /./.U A e e e w t <.d B.f g f f f d 9.2.j 2.j f f g f C.d d d r 1 q y u 1.a t s s p f f f l.T.f f s j k.9.4.9.f f <.U.g C.f f J.f g g g g b.g g 4.3.4.g G.2.<.0.b.#.A P r.] ] ] ).(.).)././.(.].].d.} d.v.c.i.c.p.1.o.3.s s s <.g s d P.R.9.P.A.f 3.0.A.f 9.2.Y.2.H.f f g 4.A.4.n.b.d 3.2.g g b.3.2.d U.2.2.d >.2.2.j <.k.b.j d <.7.9.d >.<.9.7.9.j A.g C.f g g d <.9.2.g 2.g g f f f g f g g j 3.2.>.1.7.;.7.b.9.4.9.k b.0.5.l.n.=.q.6.1.5.,.>.<.<.q.7.0.=.a.1.<.3.3.<.3.s 4.b.0.k.0.m.M.-.0X9XiX8X9Xc.d.c.",
"9Xv.v.m.a.c.d.y./ u.e.^ / ^ [ y.y.{ [ [ y.y.d.d.{ { R 5.2.;.g r   . 9 9 g g s d Y.d 4.P.1.6.1.1.T.U.2.;.1.R $ @ $ e $ 6 N 2 2 1 9 e > , $ % % $ $ O $ 2 ;.g >.=.@. .X.O.X.0.3.2.>.d 2.g >.>.>.o.d o.;.g f g f A.g J.C.G.:.;.u 2.C.g Z.e 6 8 8 = # # # # = 8 = & 8 E m.c.@.E.PXKXdXJXJXJXsXJXJXsXsXsXQ.E.!.Q.Q.pXQ.fXE.E.T.T.n.n.n.b.!.n.-.8.b.n.-.&.N N N N Y Y 6 1 7 R | e | e d o.:.d C.>.:.:.g f C.>.:.O.g f g g g ;.:.O.w.w.6.O.:.;.g >.,.+.;.;.O.+.g d ;.:.O.X.| 6.+.| d y 0 s | | ;.u r >.o.d X.u q e w y 6 e t r ;.A A A x A M r.J J I I I /.).I P V e r e t t ;.>.g ;.X.s g 2.j 9.a 3.g g g g u ,.g g >.X.R % + @ $ , 1 3 2 , > q , , 1 o.4.t 2.f p Y.2.4.g t u P.P.s s u ;.g g g g 3.7.g j 0.3.9.g q.7.5.0.9.3.#.A P e.r.] J {.{.{.]./.(./.].] { d.c.u.c.c.-.n.0.4.g 2.d s f g j >.4.Y.j G.g 9.7.T.g 2.g 9.2.j g g j 2.f 2.b.3.9.2.9.2.j 9.g 3.2.>.2.g j g j f f g 2.9.>.2.g d 3.g s d k.Y.G.A.j 2.f g 4.k.k.H.2.A.j A.f C.C.f C.C.C.g g j G.A.g >.>.3.2.>.3.2.3.2.3.3.3.7.l.8.1.1.q.<.3.>.3.3.1.3.$.#.-.6.1.4.4.;.3.d U.4.n.E.4.0.M.0X9X0Xv.qXqXv.0X9X",
"m.9Xv.v.c.d.[ [ / ^ *.#./ ~ [ y.d.y.[ / d.8XqXd.[ ^ X.o.<.2.k . . .   t d d d 0.U.9.1.b.1.O.#...6.:.3.3.U.j 2.O.Y d q 2 3 % , 1 r t t 2 * T E 2 o.X.| 9.H.J.2.2.6.O.>.o.,.7.9.j Z.g 9.g g g g >.s ;.O.O.g f f j G.J.G.J.,.>.;.9.g g g e 7 = = = = = # = 8 = = = 8 / x.aXdXdXJXJXJXJXJXsXsXJXsXQ.Q.Q.Q.!.W.W.W.E.Q.fXE.R.E.E.n.T.T.R.E.M.n.n.n.=.&.E * N N Y N 5 , 1 7 r e e X.O.d C.,.X.f C.g C.>.,.g g ,.:.;.g ;.:.#.O.:.$.#.w.:.,.:.d f f d ;.s g d ;.f C.g d ;.o.| | X.| | V u | r | +.R E V y ;.| 2 | e 9 e e 6 e u X.A A A H P K ] I I J I I I ).I ).V r e e t t t d g g d u g f ;.t 3.d 2.d 3.u o.;.d >.;.:.d ;.o.N 3 3 2 r r 2 , 3 , $ u t Y.3.g d g k.U.3.J.g f f E.g f g y g j J.3.U.b.2.g 2.9.2.d 8.X.1.O.;.,.o.C A Z P ' ].].].{.[./.{.(.(.] ' r.c.c.t.*.-.m.<.2.g 3.C.f j g C.f s k.k.b.U.b.3.b.2.j g k.U.2.4.j g s 3.<.0.3.b.k.b.4.4.k.j g 3.d 2.2.f P.j C.f 3.g 2.J.g j g d d j q.7.Y.A.2.2.2.2.3.2.9.2.2.2.A.g j A.f 2.f C.H.f j 2.g A.2.g 1.k.4.g 2.2.3.4.2.>.4.b.6.6.7.7.6.k.9.7.4.2.2.d 3.6.8.-.=.1.3.3.3.3.2.3.3.9.9.k.6.f.0X0X9Xv.0Xm.0X0X0X",
"m.0X9Xv.c.c.9Xd./ t./ / ! ( / { ( ! [ T ) y.qX8Xc.=.8.1.9.k s . . .   t 1.4.g d k.k.8.7.<.:...O.6.@.>.G.g 4.Y.C.g P.B.f +.N 6 <.4.s 3.2.d o.>.d k.P.g 2.k.k.2.<.:.w.u ,.2.2.2.f C.f 2.f f f j f f C.g 4.A.S.H.P.S.C.S.C.S.C.j H.A.1.u 6 5 8 8 Y # = # # = = = 8 8 ^ M.JXKXKXKXJXJXdXJXsXsXJXQ.R.R.R.Q.Q.&.-.8.-.Q.pX!.!.W.E.E.T.n.n.n.n.M.n.8.-.R N * * * & & , ; ; e e r | o.O.| ;.d O.o.d g >.:.+.+.d ;.d g g O.o.O.O.O.O.O.O.o.o.X.+.y >.o.d g g g s g d u u y u h f f o.R y d r y u s f o.y y y | | e w 9 e e r e y B A M A P A I I I I J J L I ).).U V e e e 0 y 0 y y r r u s g s a u 9.d g d s 3.2.<.o.;.1.;.;.2.u d a s g 2.2.f f s 2.s g j j p f j f E.9.9.P.B.p 9.W.C.B.J.j C.f f k.U.A.A.H.0.3.2.n.4.5.U.<.<.2.+.A ' P ] ] I {.(.(.(././.{.J } } { c.x.c.u.b.1.1.d 9.4.4.2.2.f 4.A.f Y.T.U.k.9.3.k.4.9.2.3.T.0.9.4.j 3.9.9.G.f 4.4.b.U.Y.A.s <.Y.9.E.Y.P.Y.Y.4.3.2.2.g 1.b.j 2.<.9.b.2.2.g <.2.f j g f 2.>.4.j g <.4.4.C.g 2.f 9.3.4.j 4.g j 2.9.2.2.2.0.2.2.<.g 2.2.1.1.q.q.7.1.1.7.4.3.g 2.>.1.q.8.7.7.5.;.<.b.1.j 2.4.j 3.E.n.b.v.v.0X0XM.iX0Xm.v.",
"0X9X9Xv.m.0X8Xd.{ [ *.*.! ~ / [ / / [ [ ! ! ! x.m.8.$.j s . . 9 t @ 0 s Y.U.S.d k.9.T.b.5.2.1.$.>.,.2.G.g 0.b.g f 4.f C.g f 9.k.9.9.d 9.>.;.,.X.1.>.;.s 2.>.3.4.;.;. .1.g f C.A.C.g 3.g f C.f f j f S.A.f B.f H.C.C.p p p f j f j ,.e 6 7 * 8 8 = = # X # = ` 8 W i.m.dXKXPXPXKXKXdXsXfXQ.sXpXE.E.n.T.Q.*.@.R 7.Q.Q.Q.Q.E.E.W.E.b.n.n.*.-.-.-.-.^ Y Y * * < < 5 5 6 e e r ;.g >.:.:.>.o.O.;.g >.:.+.+.;.;.;.>.>.;.,.O.O.$.6.1.:.:.o.;.+.o.o.O.| o.d X.o.E N | X.o.o.g B.B.;.R u o.X.d s d f B.B.f d u 0 9 w w t e e t u >.A A P P P I {.)././.J J _._./.M V e t r t y r ;.| ;.d ;.| >.s d t 9.u y d >.d u <.<.3.<.b.<.d 1.9.g j 2.9.d w f p g f g f a 2.f f B.d U.E.k.j B.f R.Y.B.9.Y.A.B.C.b.4.2.P.9.b.7.9.3.5.8.n.P.9.2.P.3.r.P r.] J /.(.(.{.[./.].XX[.} d.u.9Xm.c.x.l.9.4.2.2.f g g 2.1.9.2.4.R.9.f P.9.k.3.9.g 3.9.4.U.g A.S.f 4.A.C.C.A.Y.2.9.g j f 4.J.j 4.3.3.4.G.j g 2.d 9.b.P.2.Y.G.g g g d u 2.g f 2.g 4.2.4.g g 0.n.j g g f f g 0.j f g g g j g g g g 2.>.>.d >.d <.:.1.1.0.q.<.9.2.g j 2.g j 2.1.1.5.q.q.q.<.9.5.<.3.3.2.2.n.7.uXm.m.v.0X9X0Xv.m.iX",
"iX9Xc.9X0XqXv.c.d.*.-.p.*.u.i.y.{ y.y.{ { [ ! / ^ | e 9 . . 9 t t r 2 t 2.;.d d 3.<.2.3.b.u 7. .d 9.,.g 2.3.q.2.f g A.C.d f s 3.b.Y.s 2.2.d ;.O.d f g >.2.2.2.2.>.o.;.d g 2.d g d 2.b.G.C.f f f g g g g C.p C.j H.G.f g C.f j f g i 7 ; , * * & * & = = = = 8 Y _ x.uXdXKXKXKXJXJXsX~.Q.W.Q.sX~.~.Q.T.!.W.E.n.R.fXE.pX!.E.n.n.E.W.x.b.m.n.n.x.*.T Y 5 8 Y N * < 5 6 r e ;.O.O.;.g g g >.>.,.:.:.d ,.:.:.;.#.@. .o.:.,.#.6.$.:.;.>.g g d g f >.X.2 0 q u | N o.:.:.;.;.g f :.N q y g g g :.;.;.;.h d y r r r e y V r y X.o.A A P A D J ).J {.J /./.(._./.B r r 9 e t w p f d C.C.g d f s g g g 9.2 y g s >.;.X.X.:.;.d u u 5.d t u 4.f s s s r 1 1 - : t 1 a d : 5.s ;.d s f t I.f f 3.f B.g 0.4.g j 4.b.7.T.0.d 3.1.9.4.3.2.2.P P e.r.G ].{.(.{.[.{.).XX(.{.r.y.9X9Xv.c.n.<.2.2.P.f P.f 9.9.9.2.J.4.f f 4.Y.3.P.2.f d g j J.A.A.S.f 9.g A.g j j 2.1.<.g p f j g g 4.f g C.f 3.4.9.3.b.Y.j Y.G.g 2.g ;.u 2.g s g 2.3.9.J.d 7.3.2.g s s a f g j s f s 4.>.g d 2.d >.d d d g >.r 7.q.q.5.8.5.0.3.g g j 4.2.2.2.3.3.3.1.7.0.3.2.0.2.2.4.4.2.5.0.M.m.v.v.0Xv.v.i.m.gX",
"0XqXv.0X9X9Xv.9Xv.p.-.-.p.v.d.[ T [ { { [ / [ / T R . . . . d u 0 Y , e w.T | g 2.3.>.3.9.1.5.1.f j o.,.9.9.P.g g 9.G.B.g >.f 2.4.Y.H.f f A.g g C.C.g >.k.P.G.C.2.:.;.>.:.O.O.;.1.o.5.g g >.2.g d g 2.2.f f C.g n.J.f J.A.g C.f j e 6 , , 8 8 * * = = * = & N ^ x.uXdXPXPXPXKXdXsXsXY.Y.b.P.Q.!.Q.sX!.!.E.E.b.Q.Q.R.n.W.W.b.n.b.b.&.p.b.n.n.&.& < * * * N Y Y < < 2 r r ,.,.@.X.g g g :.;.O.o.:.,.X.:.O.X.O.#.+.>.:.O.$.O...O.,.g >.g f f f :.+.N y t t 0 1 u d d ;.X.o.d u N 2 X.y g f C.,.V 1 0 t y t u r e e 6 | r u y A A A P P G J J ].J /./.(._./.B r e w w e t f C.f g ;.s f g d 3.0.3.Y.2.2.d d 2.,.<.1.O.| y d +.+.u u u r u r O     O + X # # @ 1 O $ > X.1 y u y 2 5.k.g s j g f 2.3.2.d 9.0.5.0.2.g 9.9.2.j f g g A P L L ' } /.(.(.[.]./.(.(.(.] d.9Xi.v.c.n.5.2.f g j 4.2.4.4.4.g j P.j k.4.Y.A.2.2.f 2.2.9.4.9.j 3.2.2.g 2.g 3.3.4.9.7.g s 3.g f f 2.<.Y.k.2.9.2.2.j 3.0.4.2.9.g 2.>.o.<.3.>.d 9.2.2.4.7.<.b.3.s g j g u a d s g f g 1.9.s d ;.>.1.,.d d d d ;.o.o.6.8.6.u 7.3.g 3.f 2.4.9.4.9.2.4.5.8.8.9.2.3.2.2.b.9.3.3.b.M.0X8Xu.c.0Xc.c.c.a.",
"m.x.0Xv.9Xm.c.c.m.p.....&.*.^ *.t.{ [ i.y.[ / [ T > . . . e o.r u <.d j 2.>.d g 2.3.2.2.j >.<.3.g g d Y.1.j C.s >.2.J.A.g ,.d 2.C.2.U.G.f 3.;.3.j 2. .o.3.0.>.P.:.>.o.g f >.g C.g ;.J.S.g d d g d s >.<.g g 2.2.9.g f j d g j g d e 7 5 5 8 N * * = # X # = 8 a.M.dXKXPXPXPXPXKXdXpXT.b.7.%.!.b.W.Q.Q.Q.!.n.W.fX!.n.b.!.Q.E.n.n.-.&.n.l.-.W * * Y N N N N < 6 6 2 2 1 y | r O.+.r ;.o.| o.o.s o.+.E X.+.+.O.+.;.>.:.$.#.@.#.#.O.:.;.O.+.| | R R X.X.u u r e 2 r d d ;.o.y r | 2 y r d d d 2 1 t s X.u s u u e e | u t h d A P P P P H ).J J /././.(._.I P e e e e w w s d g g d d d <.d d 0.g d R.:.0 <.d 1.1.9.2.d d ;.o.| r u u 2 2 X   X X @ 3 - , , r h e r 2 q.,.t P.;.o.r P.4.h d 2.g 2.d >.u 1.1.<.>.d g 2.4.4.g f f g h.P P P ] I /.(.(.{.]./.(.[._.oX{ c.c.c.v.c.m.0.j f j s 3.4.j 2.P.3.9.9.Y.4.9.9.g 4.<.9.d d ;.3.5.0.3.s >.d g d 3.d k.5.9.9.5.<.f g 2.U.9.1.2.d ;.3.2.g d g d 2.s g s 9.2.>.3.1.b.,.u :.o.;.;.q.s g g g g a 4.j 2.g 2.d 2.s d u >.>.d d d <.u <.o.O.0.$.o.d 2.g g 9.g g 3.d d ;.u 1.O.O.f.q.1.1.<.3.3.>.5.0.8.-.m.m.d.i.m.i.a.i.i.",
"0Xv.c.v.v.v.c.c.i.&.^ R @.i.y.{ [ i.) u.t./ B ~ N > : 9 o.o.d d 3.U.2.E.U.P.j g 2.4.G.g g j 9.j j j g 4.,.j C.A.g Y.A.p C.:.d 2.C.f b.E.>.d 1.;.j 4.<.>.2.9.k.9.H.S.X.g C.j f C.>.d 2.H.C.B.C.C.B.B.C.C.f f g j >.d s g 2.g 2.d i 7 ; 5 & * 8 = = # # # = 8 T x.aXKXKXPXIXKXPXKXPXJXdXQ.E.5.Q.Q.n.E.W.!.E.n.pXdXfXpXb.!.Q.pX*.n.n.E.E.n.x.T 5 Y 8 T Y < , 5 5 e 7 r | u | 2 V R N | y g X.;.+.+.+.O.+.X.o.o.+.+.X.+.O.O.| X.O.+.+.| T V | | +.| o.X.;.;.+.2 y | | | d o.| 2 | , d O.N | < 2 X.y d :.:.o.u y e r | X.u y o.A P P D D J ).J J /././.(._./.U e e r r r a d g d g g g g 2.o.g 2.g d W.Y.o.;.u n.1.1.Y.>.>.d g g f f g O.3 + O r ;.| 2 u 2 r u s Y.g ;.o.2.>.2.G.g d u Y.2.r d g >.r >.;.>.>.;.O.;.o.u r d 2.2.d >.X.A A A ' ' } ).).{.]././.(._.].g.9Xc.m.9X9X9Xm.U.4.3.3.T.2.j 9.k.9.k.H.B.C.f 3.3.2.3.9.d d 3.d k.k.4.d 3.g s s >.d b.<.9.Y.<.0.3.U.T.3.4.<.1.u d <.0.d 2.g j j f f f 0.g g <.5.9.2.>.9.>.q.;.q.d 3.d s 3.g >.d g f 3.g g s g s d s d d d s ,.u y 7.O.o.;.>.f g f f f g f g g f >.<.3.=.-.6.:.5.<.<.2.<.7.q.q.-.m.m.0Xc.c.c.u.a.m.",
"8X8X8X9Xc.v.9X9Xc.p.f.s.y.{ { [ [ T / ! [ / t.=.>.f d <.;.u ;.d 1.1.;.uX1.2.,.:.5.Y.J.g j 9.H.G.3.k.U.2.d 2.f A.j T.H.B.H.2.G.f J.B.3.T.H.g H.j 2.k.U.J.B.G.J.C.g :.u f g A.C.C.>.;.f f G.G.C.B.A.B.V.V.>.C.B.f f f g s d d d e 6 7 5 5 = # # = # = & & 8 8 / m.fXdXPXIXIXPXJXJXJXJXJXJXJXQ.Q.pXn.n.E.!.E.T.sXJXsXpXb.E.n.n.E.n.T.E.E.b.l._ Y 8 # 8 5 , , 6 6 9 r o.O.+.+.E N % r d d :.#.#.E O.,.,.O.O.;.:.O.O.O.E +.+.O.X.o.R | +.X.;.X.y X.X.R +.u d d | d d | r r u X.h y 2 r 2 r 6 < X.X.O.| O.O.d s r e r X.| +.X.o.+.A A D x J ).I J /./.].)._.J B r e r t r t d d g >.;.>.d 2.O.;.2.s A.>.I.H.o.o.T.q.:.n.3.4.2.g >.d >.d y r r f f G.g f g u g g g 9.G.B.B.B.S.B.J.H.B.f f E.d s j f g g s j 2.d 2.2.g u d s 2.2.f f C.,.A A e.' ]./.(.(./././.(.(.{.' ] { y.m.c.i.1.q.0.<.<.o.>.g 2.y t 6.a g s g s g 2.>.;.>.d >.3.5.3.s 9.2.g g g g >.k.9.q.g <.0.5.7.Y.d 3.5.<.s d ;.0.>.3.0.9.d 2.g g 2.g g >.>.;.d 3.o.2.3.9.q.q.<.3.>.>.2.a d r d y 1.>.g d 3.d s ,.d d 3.,.u ;.q.o.;.>.d s g g g g d X.1.4.>.,.:.<.-.-.#.<.O.6.;.1.k.8.<.7.n.m.M.M.m.a.i.u.*.x.",
"c.8XqXc.8Xv.d.c.i.&.&.*.t.[ ! ^ [ [ ( y.{ y.u.O.3.2.o.<.;.1.+.u 9.1.t uXO.2.2.k.0.9.0.g 2.U.k.2.9.b.U.9.g A.f G.f 4.T.>.g C.C.f Y.g J.2.W.J.g 3.<.3.9.J.C.A.A.f ,.>.g t V.B.H.g G.g f B.j 3.J.g J.G.C.C.C.f s f p p a t t f f w 9 7 5 5 & 8 Y * = & & 8 & Y u.E.dXKXPXIXPXKXJXJXJXsXsXsXsXsX!.sXT.n.n.n.Q.E.sXfXQ.pXQ.Q.T.x.W.uXn.T.U.-.%.Y Y * = # , , 6 5 R N R E ! B B V R R 2 6 | +.O.+.+.O.;.>.O.+.X.+.:.:.O.@.+.+.+.X.+.R ;.O.X.,.o.d >.o.+.:.d ;.;.o.+.r o.X.X.N 3 u a y e e r r | r | | | 2 r d r r u t e r e u X.+.A A x M L J J J J {.} J ).I r e e r y u o.>.>.2.;.;.:.g >.O.;.d d Y.:.9.iX6.O.O.0.o.1.b.<.9.g 2.d s g d y a V.B.a 3.2.g s g j 2.2.J.A.B.B.C.C.3.E.A.B.g Y.P.g A.w j f g g >.g 2.g H.g G.2.2.j 3.2.G.Y.#.P e.e.] _.(.(.(./././.(.{.J ] ] a.m.v.y.1.,.X.s >.e d C.f f f g g 2.g g g s j A.C.f g d >.g d d g g s d ;.X.;.d d d g d 9.q.<.>.2.>.>.>.d ;.,.;.;.y q.0.:.d 3.2.g 2.;.o.:.| d o.y ;.X.o.o.2.d 3.2.q.9.<.<.d h g s d 3.<.;.d 3.0.q.1.5.5.1.7.;.;.1.>.d u ;.<.y 5.;.| | ;.o.+.O.:.=.-.@.O.O.q.6.O.q.6.O.$.-.u.u.x.0X/ t.t.&.t.",
"0Xv.v.9XqXd.oX{ [ / T @.^ / / { / { [ d.{ t.t.@.r 3.k.;.9.3.o.T.1.2.u T.k.T.T.Y.2.<.T.3.3.9.T.T.P.b.9.9.U.2.j G.:.d T.O.g g u j 3.4.2.3.2.G.>.:.;.2.w.;.9.P.S.C.A.C.>.a C.f U.C.B.Z.G.Z.g 2.G.C.H.Z.A.f G.C.C.C.f f g g f S.s e 9 7 , & = 8 Y & & & = = 5 W n.pXKXKXKXPXKXJXJXsXsXsX~.Q.W.Q.R.pXE.b.n.-.E.pXsXpXE.!.sXJXpXx.^ W.T.n.M.^ 8 Y Y * * & 5 6 6 6 N r X.+.E R X.d d o.+.N , r u o.+.O.o.X.| X.O.X.X.;.O.+.R +.2 o.O.O.X.+.+.X.;.>.o.X.d d s g X.| u d h ;.X.V N 1 a s s s d d d d :.o.o.y d X.X.e o.e e e e t y h.A A x M I J m J J ] /.)./.I t e e r e u  .X.d j g g g f d d 9.d Y.2.2.o.uX1.1.O.f.1.3.0.2.2.j A.f g A.G.d g B.C.s <.>.2.f g g j g G.J.C.f g j C.H.P.f j 4.U.S.C.f C.B.C.g 3.j g g 2.g f f f f j f s 4.X.A P g.r.] [.(.(./.]./.{.{./.} ' 9Xc.8Xv.b.2.d f j p 3.P.f H.S.G.Y.4.P.H.G.Y.P.H.4.9.J.C.B.G.C.A.P.A.H.g g o.s A.f s d u o.d 3.2.d j 9.0.2.d >.g >.y ;.;.u g ;.>.;.>.o.;.>.d s g g >.o.>.d C.g d g 2.s 3.>.d <.2.d y d ;.y ;.1.o.;.;.o.:.u ;.u :.o.;.:.| d ;.o.r d g d g ;.o.o.2.6.p.8.5.1.7.1.1.4.$.7.=.8.x.v.c.m.9X8Xc.9Xi.",
"0X0X9X9XqXqXd.{ [ / ^ ^ @.a.9X0Xc.v.v.i.c.p.*.@.r o.O.d 1.;.k.7.2.2.d H.2.0.E.9.2.2.b.4.g G.g Y.2.2.;.d 9.2.g g >.d U.#.g >.+.d #.o.g 0.2.Y.J.,.3.Y.q.O.>.3.9.J.C.C.f t A.,.g g >.d g G.d G.A.G.A.C.C.C.C.C.C.B.C.f C.C.f 3.f i r 6 = = # = = = & = # & T &.n.fXKXPXPXKXJXdXsXsXsXsX~.E.W.Q.W.Q.!.T.n.E.n.pXdXsXE.n.pXpXfXE.m.-.E.-.&.Y N Y T * Y N Y R R | R +.+.+.+.o.;.:.X.X.+.+.| 6 q | X.X.+.| o.X.o.+.E V V V +.+.X.X.;.:.X.;.+.X.;.;.O.+.| r u d h y y h | r y X.< q y y d u d s f f d u u g g ;.X.r 1.| e e t t o.( A A P P I J G J J J (.).J J r e w w t r X.X.X.d ;.d g g s ;.d <.2.d 1.o.7.M.7.6.f.0.2.1.9.g f f g g g C.C.S.B.g g g s C.C.3.A.f j A.4.G.C.f J.B.f Y.H.B.B.g E.A.j C.f C.A.s Y.Z.s o.d d g f B.f f j 2.g V A P e.r.].[.[.].OX/.J wX).} } 8Xc.v.c.m.3.g g S.p d >.a g f g j g Z.C.2.G.g G.2.9.n.H.2.H.A.H.Y.E.H.A.Y.C.C.U.G.C.f g 3.g T.Y.2.0.m.T.2.A.j Z.j A.C.j f g 2.g <.2.>.2.j 4.d j g C.<.>.j g >.;.;.:.d :.:.o.:.| ;.4.O.X.>.>.2.o.>.,.+.6.O.O.O.O.,.>.>.s f g s g f A.f p g d ,.;.8.-.f.0.9.b.1.0.5.q.6.f.8.-.c.i.x.m.qXi.i.c.",
"i.*.m.9X8X8Xd.d.d.t.N E a.y.c.0X0Xd.c.y.y.*.@.+.O.| R e ;.| q.o.2.d k.2.j <.uXT.9.j j 2.d g s b.P.<.g ;.5.l.C.B.g r f.o.g 2.;.>.o.;.3.7.j >.E.3.2.0.1.+.| d J.g g o.O.e H.=.+.,.;.>.g T.G.G.H.2.G.G.G.G.C.C.C.C.C.g C.A.2.<.a e ; 7 & = = = 8 # ` 8 8 8 &.-.E.JXPXPXPXKXPXJXJXsXsXsXQ.Q.Q.Q.!.U.pXE.E.E.b.pXpXsXsXE.E.pXQ.E.n.n.p.N N N Y Y N 8 Y Y Y R | +.@.T | o.;.O.O.O.+.+.+.+.+.| V | 2 X.| o.O.+.| +. .#.T | :.+.+.+.o.X.y ;.d o.o.X.>.+.+.| 2 X.+.N | +.V % r % $ | | o.:.o.| X.d ;.X.| +.+.u :.X.| y r R e u | h.( P P P ] L I G K K Z ].).J I | e e e e u s g >.>.,.o.>.d ;.>.>.;.u b.0.,.:.U.8.=.$.0.1.;.P.>.g g o.X.d d d g f d ;.| a f s g g s 4.Z.d k.9.C.B.H.H.j Y.C.f A.n.T.a 9.G.f H.t 9.f g g g g 2.g f f f g >.2.Z.V A P r..X[.XX[.oX/.J oX{.G ] r.) a.c.t.<.d d f C.u t s s g C.j S.B.p f f C.d 2.9.T.H.s f f f 2.G.B.k.T.E.H.k.U.A.S.9.4.T.P.Y.P.T.T.P.j Y.k.b.U.U.Y.E.9.P.Y.9.E.P.U.k.9.U.9.9.n.9.T.k.U.b.Y.S.V.f H.g f f f f A.s ,.;.>.>.d d H.g 2.3.,.g f j 3.j g f f j C.p g f g s 3.5.,.;.$.u.-.1.O.$.q.8.<.q.=.8.=.&.a.a.i.x.iXv.t.a.",
"0Xv.y.8Xy.{ y.y.y.C N @.p.a.d./ [ [ [ { y.W O.o.7.:.2.u 0.1.1.$.#.+.<.2.d u 0.0.2.2.2.f g 3.b.uX9.J.<.O.3.0.3.s g 2.T.g H.Y.U.b.0.H.H.3.G.>.m.uXT.Y.H.:.| 2.g f f g O.| g g ,.,.d f f H.C.C.S.B.C.g G.C.A.G.g >.2.,.,.g 2.w w 7 7 & # = # # 8 _ ` 8 5 ` &.7.Q.KXPXPXPXPXPXKXJXsXJXdXsXsXfX~.pXE.n.T.b.pXE.sXpXpXQ.pXE.E.n.p.^ @.N @ & * N * Y Y Y Y 6 e +.| X.d ,.o.o.:.:.:.E +.| +.+.+.o.X.g r | 3 < | +.| X.>.>.O.o.:.O.E X.O.E E O.X.o.>.;.+.o.X.X.;.o.+.X.X.R < q | N | >.g g >.>.>.O.X.o.O.O.#.+.d a u t e r e r ~ A P P e.r.r.L P I J ' L J ).).h.e y r u e u ;.u ;.o.X.O.| X.O.+.X.;.o.7.5.1.o.| T.n.=.q.o.,.>.Y.g g ;.d g s o.X.s d d y d d d s d u r d g d 9.g s g s s 1.Y.f f 3.E.p g 2.s P.a 3.g g f j G.3.J.f g f f g g C.s A A L I ] {.[.{./.J I /.J ] F v.[ i.^ o.g g u s j f f j j B.C.f f f p C.f f g G.4.P.g s f g Y.S.C.Y.4.E.9.9.2.f H.A.j 3.Z.C.G.9.G.C.C.j 2.j 3.j g 2.3.2.9.>.9.j j g j 9.J.2.P.2.U.4.T.n.k.H.C.H.G.B.B.J.C.A.B.g P.A.A.g 3.d g 2.>.g g g g 2.3.j g f g 3.g s 9.g g g g q.:.o.1.a.-.=.q.7.5.<.7.8.n.n.b.m.m.m.9X0X0Xc.m.c.",
"iXqX9Xc.{ y.[ [ / ^ -.p.s.d.{ B [ t.y.[ #.6.0.b.0.k.j 2.b.4.O.@.#.+.,.$. .;.2.3.9.9.3.A.Z.0.T.3.A.<.w.O.>.d <.<.k.E.uXA.H.b.n.n.E.T.0.9.G.2.q.<.7.U.J.g f f 4.H.g f g d C.C.C.;.g ;.s Z.>.d G.B.B.g C.f G.B.B.C.Z.2.,.>.d e w 7 Q 5 8 # # = = # = = 8 *.8.R.dXKXPXIXPXKXKXJXsXsXJXsXJXJXsXpXpXU.E.f.-.E.Q.sXT.n.-.=.@.@.~ &.*.N * @ $ N N * Y N R R r | r :.;.;.O.O.O.:.:.X.o.O.| ;.:.o.;.+.y +.N < % $ N +.N o.o.;.;.,.;.:.;.,.o.:.o.;.d ;.f ;.>.;.;.f f g u | r | X.+.+.O.+.;.;.g ,.>.O.X.;.:.g :.;.d d X.w r r r u V A P P P I I P I J /./././..X).B 9 9 e t t u >.>.O.o.:.O.o.,.#.R +.o.d o.o.:.+.+.$.m.#.o.;.1.y U.2.g ;.d s u u s d g f s d d d d s s u a j C.H.Y.g g d g d k.3.f 2.b.9.>.y u 9.s 2.g f f g f f f d s f f f f G.Z.A A P P L ).(.(.{.J /.(./.] ' d.d.y.c.=.g g s f H.g G.j C.f A.s A.C.C.B.B.f f g 2.P.J.f f 3.9.f 9.4.4.k.U.9.2.2.j C.g d 4.j j 3.A.g 9.>.2.2.r >.>.d 9.2.>.s 2.d ;.j j 4.2.g j d 2.g g g d f f g f f g O.+.o.f g >.j H.<.4.2.g 3.,.d j g j >.>.g g f j 2.g Y.4.2.3.Y.1.E.3.O.=.s...n.b.$.<.7.7.8.m.8.8.n.c.0Xc.0Xv.&.0X9X",
"0X0X0XqXqX8Xv.8Xv.s.s.t.@.y.{ [ u.c.c.-.=.1.>.>.,.,.;.g 3.o.;.O.;.>.,.$...;.G.X.2.o.j 2.2.Y.G.d 2.#.#.O.o.O.u 5.9.b.T.j 3.T.n.H.g 9.2.g k.9.:.r 9.U.A.s f f k.2.4.j B.;.f f B.B.V.f B.A.g B.f A.B.C.C.B.j B.B.B.S.B.C.P.t t i 7 Q 8 = # = = = # # = 5 -.n.pXKXKXPXPXKXJXJXJXJXJXsXsXsX~.sXQ.Q.E.pXn.@...Q.pX-.u.E E ^ &.f.x.p.N Y $ % % * % Y B R V 2 r o.+.+.E +.+.;.X.o.;.o.+.X.>.o.:.X.V N O.+.X.:.| , < 2 O. .o.O.+.>.g ;.;.f g O.:.;.;.f >.;.;.;.;.o.| q r X.;.:.+.;.:.O.:.;.d ;.d f C.:.;.g +.+.+.@.X.t r e e y 6 A A P D D D D U J /.J )./..X).I 9 w 9 t t >.g C.g g g g g g >.2.o.;.u 2.1.9...V +.m.-.<.;.1.| o.b.d y u d X.r d h d s s h g d s s a j f g 2.g 3.j f s s g 3.U.Z.s q.5.E.g j J.f 9.4.f j g f f g g j f s g f g g +.A P H L {.{.(./.]././.(.J } { v.d.i.-.0.j j G.g g 3.s f s 2.f C.C.j f C.g g f 2.P.J.G.k.T.9.H.4.2.k.J.4.9.3.2.2.g 3.j d 2.>.g A.j U.;.9.U.2.g 3.2.9.2.Z.f 2.2.g d 3.<.2.g 2.3.A.A.C.C.f C.B.B.f A.f s g ;.s g g d 2.1.2.3.G.g j g g j j 2.j H.j 2.f g j 9.f j 4.2.2.1.3.O.6.*.*.@.q.$.1.8.0.O.6.5.8.-.m.i.a.i.) u.p.m.",
"qX0XqX8Xv.9Xv.c.qX9Xt.t.u.y.[ [ ! y.-.7.<.,.O...O.d g g 3.O.2.3.Z.g 1.#.O.,.O.:.O.;.#.o.>.Y.H.<.d q.#.O.:.:.O.u 9.u 0.$.O.1.E.P.2.,.4.G.7.T.:.X.d 3.4.H.G.f 2.f j j f u d P.H.C.f 3.2.k.A.f d g g C.j j C.g s d g 2.2.H.t e 9 : 5 5 = = = = # = = 8 Q l.T.dXKXKXKXPXJXdXJXJXJXsXsXsX~.Q.Q.pX!.E.Q.m.@.-.fXuXn.E.E.E.E.E.E.T.n.~ N N N * N N Y B 2 N e ;.X.+.#.E +.X.:.:.o.;.;.:.:.| o.+.;.d >.O.:.O.:.O.O.E 2 R R R +.:.+.:.O.;.d g ,.O.:.;.s ,.o.:.O.+.N * V +.X.X.+.;.s g d f f C.s d f g ;.X.:.:.@.O.#.y w y r r r u o.A A H D x D G J J /./.J )..XA 0 e t t s g g >.g C.C.>.g Z.G.:.u 3.;.2.2.Y.4.$.O.8.iX0.<.k.0.>.Y.;.X.| X.| q ;.t d d s t s d s d s s s d r u u 3.>.a s d 2.<.Y.d 0.5.Y.2.<.<.f >.0.d >.s 2.g g h g s g 3.g >.d 4.A P P H {.].(./.] J J ].{.] d.y.c.i.a.8.g 4.2.g g s 2.g f f f 2.f g s f j f f g g j 2.H.f 9.9.f A.j P.2.4.k.j J.9.j 2.g g g j C.C.3.9.g j P.g >.>.5.Y.2.g >.>.g g 2.7.J.2.d 9.2.j 2.3.j f A.A.A.C.B.B.g d g d s >.o.;.;.9.>.s g 2.g 2.g d g >.g 2.j f j d g g d f j 2.<.3.<.-.u.-.1.m.6.b.q.1.6.=.O.-.@.t.i.a.p.a.a.*.",
"0X9X0Xd.v.v.d.i.v.v.t.t.t.[ { / / { -.-.1.:.#.E o.g f g 3.2.2.2.,.$.:.6.:.,.;.j ;.<.O.o.9.b.n.E.1.k.3.<.:.O.:.;.9.2.2.3.q.X.0.n.q.O.2.4.O.0.1.O.| s 9.4.>.| 3.A.y d s s t 4.d g g g o.<.;.o.d d g f f g g >.o.;.+.O.:.<.t e 7 , ` _ = = = = = = * Y x.E.pXdXKXJXKXJXJXJXsXsXsXsXsXQ.sXQ.E.E.E.-.Q.pXn.E.sXE.E.!.!.E.Q.!.m.n.8.* Y N N Y T B < 5 6 +.+.o.g ;.O.:.s g O.O.| T N N V R +.;.g >.;.O.+.E ..E +.O.O.+.E V X.u :.o.O.O.:.X.O.#.O.X.d O.| | | 2 r o.X.+.V o.| d d d d ;.>.f d d :.O.:.;.:.;.O.o.X.y w y r y r u o.h.H D D D F G J J J J J J ).L e e w t g >.>.,.,.g A.>.o.>.>.,.;.2.,.u 9.3.T.9.O.=.E.T.P.g 2.g s J.| u +.V e X.< t 0 u t u y d u u y e 2.o.d d d q.o.s f f :.9.9.g s s <.o.g s s d g s d g s s d u >.g s d 7.3.,.A A ' P L ].(.(.]./.J ).{.I ] { v.c.d.=.,.>.>.g f 2.j f f g g g f f g f C.f f g g g f j f f g g f d f f 3.4.g 3.b.3.d J.g j G.C.f j Y.Z.f 2.3.4.2.k.T.2.g g g g j ;.k.4.g J.G.f g 4.d J.f f g H.f g f d g g 2.g ,.1.O.5.<.>.d g s u s j g d g f f G.C.g 3.g s d g g <.>.3.O...p.8.O.6.0.1.1.O.$.=.#...*.[ / i.x.c.i.u.",
"m.v.d.0X8Xv.8Xy.{ / a.t./ y.d.{ y.t.#.-.@.=.+.:.O.O.u 0.9.j >.>.,.O.1.O.1.,.>.C.C.J.j k.U.2.O   1. .9.T.,.2.:.+.<.4.<.o.0.$.3.0.O.o.g g 9.0.,.O.X.y 4.4.g | d g X.| | X.e 1.E d C.C.:.g g g B.V.g B.B.C.g f g ;.w.#.#.O.u r 6 5 5 8 8 8 & = # = T a.m.fXKXKXKXKXKXJXJXJXJXdXsXsXsXQ.sXpXE.E.E.m.W.fX!.W.sXE.E.M.E.E.n.R.n.x.* T T T Y Y * < , 5 R +.X.>.g ;.,.O.;.d O.E N % $ % N | +.:.;.O.+.O.O.:.$.O.O.O.o.o.O.+.V 2 | R +.O.:.:.O.X.;.u h ;.y h u d d g :.+.+.X.X.;.g >.:.,.o.d ;.d ,.+.;.>.:.O.O.X.X.y t r e e r u u +.P L P D H G G J J J J I I b.r w 9 t g g >.>.o.:.2.j d >.>.2.g d ,.;.3.:.0.9...O.$.uX2.o.d a y 4.>.d ;.s s d d y t t h d u o.d o.u a f g f f s 9.9.f p f 2.j E.g p f J.Z.C.p C.f f f g g s f g d ;.+.u d ,.5.:.o.B Z K L ] {.(.oX{.J J /.G L ( / u.p.i.o.<.d s g >.;.g d ;.:.o.o.f g d s g f g >.;.d f C.f C.>...R >.d 5.9.9.U.T.b.E.b.P.f f j 2.C.2.R.U.2.b.E.0.T.2.,.s g g 2.g 3.n.d g 4.g g g 2.j A.C.f B.g t 3.g f f g 3.2.1.6.9.P.2.A.g g g d d d 5.d s s g g f f 2.g g f s >.o.;.1.1.=.a.-.=.$.0.3.1.$.O.6.6.=.a.i.i.u.t.a.v.i.",
"9Xc.m.iXv.m.v.v.v.c.*.#.*.a.{ / / 8.b.m.<.2.b.k.A.o.;.1.k.Z.j g 2.E.J.2.2.2.>.g C.H.j J.2.2.* @ ,.1.+.k.w.d 9.;.g <.E.#.R 7.n.0.o.3.2.g U.Y.,.X.X.| r >.o.o.d O.X.g f g d A.O.O.s g f B.V.B.f B.B.B.C.C.f C.C.>.g A.<.1.i 7 7 8 8 8 & & 8 & 8 8 T u.E.dXKXKXKXKXJXJXJXJXJXsXsX~.~.sXpXpXpXpXpXW.!.W.pXQ.sXm.R.E.T.E.n.n.n.-.Y T T T Y Y 5 5 Y E E .. .O.X.;.:.O.+.N V * 3 N $ V T B 2 X.O.+.O.O.O.;.:.:.O.O.O.X.X.:.o.+.N % 3 u >.;.:.| +.N 2 r +.+.o.:.O.+.:.;.O.O.+.;.g ,.:.>.;.:.;.:.g ,...;.d 2.+.:.:.u t +.| y y +.t h.P P H D H G G J J J L G U 6.9 9 t t f g g g >.o.g g g 2.,.:.d d X.O.r >.;.1.o.;.:.T.G.;.u d d u Y.,.g g :.;.>.;.s s f C.B.g f g g d C.g f C.B.g 3.2.f 2.2.f b.0.g g 9.T.H.p G.2.2.2.4.j 2.j f f a s 4.s g 3.0.,.w.P e.I P ] ).] oX/.J /./.I ' a.&.M.c.8.3.g f 2.4.>.d :.O.+.O.O.;.g g s g g O.O.O.;.f C.A.Z.g :.+.3.2.0.2.Y.9.U.9.7.U.U.A.A.C.A.B.G.n.E.4.b.U.2.P.>.u o.;.<.o.d >.U.i g s 2.g g g 2.d g G.B.g e <.g f f s d d 1.=.7.1.1.g 2.>.g f j ;.<.2.d u ;.<.s g g g g g s >.:.,.,.<.*.*.-.m.6.6.q.<.0.6.8.f.w.p.i.) p.i.a.m.v.",
"9X0X0X9Xm.9Xv.c.v.t.E ..@.&.i.c.m.E.M.T.uXU.9.C.C.;.;.d 4.C.>.O.g Y.j f f Z.g g H.J.G.H.P.4.E.0.+.,.w.r 9. .Y.;.d <.n.7...d U.m.9.U.n.P.9.2.g X.E ~ r G.B.J.G.C.O.>.g C.X.4.,.;.g >.g B.B.B.V.B.C.S.S.C.C.C.g ,.1.2.G.i 6 7 ` 8 # # # # = & ` Y ^ p.T.fXdXdXJXJXJXsXsXsXsXJXsXQ.Q.~.fXfXpXE.Q.W.!.R.Q.sXuX*.x.m.*.n.m.n.x.Y N & 5 N Y Y T Y T Y E O.+.+.:.+.+.+.X.+.| r y | , R +.+.B % +.+.+.O.E +.+.:.O.:.O.O.O.;.>.;.O.o.+.< 2 o.d O.R % $ | O.#.O.:.O...:.>.O.;.:.o.d ;.;.s f g ;.>.;.>.#.;.;.>.#.O.,.u u +.r r y X.u A D D P P P ' L I J L P H h.y b.r r X.2.g g d d ;.s g d g 2.o.;.d O.O.O.,.O.7.2.>.7.7.uX2.u 9.g a 2.J.o.:.+.,.:.;.d s f B.f C.B.C.C.f f >.g f C.B.g J.f f f B.j T.3.B.Z.U.uXf B.A.S.g 9.2.g g f g g g j 2.g ,.b.9.#.P P I L ].).).] /.J J /.I ' x.i.x.x.8.2.3.2.2.>.g d g d ;.>.g g f f f C.g O.o.,.d g C.Z.J.C.B.C.G.C.3.g g H.2.G.g g 2.2.S.B.C.A.C.g A.A.0.9.G.A.g j 2.,.>.;.,.,.3.s 2.d 2.g g >.>.;.;.g C.s s d P.C.S.g ;.<.#.8.$.+.;.d 1.d g d j >.d g ;.d d >.d g A.g g g g 2.4.g 2.4.f.i.-.l.7.8.o.o.6.8.M.b.n.*.u.u.c.i.m.9Xx.",
"0X0X9Xi.0Xv.v.{ [ [ ~ +.E @.d.c.c.-.q.1.O.O.1.$.O.O.h j j ,.O.O.X.2.6.X.g f Z.j U.n.Y.A.Y.T.m.9.:.o.O.#.1.0.3.2.<.E $.E.n.4.n.E.E.n.U.3.:.6 4.:.:.;.2.H.B.G.G.H.O.O.X.s g f H.g >.>.d C.C.B.g g f S.H.C.C.B.C.S.<.2.f e 7 5 Y 8 = 5 8 8 # = 8 E t.M.aXdXdXKXJXJXdXdXQ.Q.sXsX~.Q.!.n.W.pXpXM.E.E.E.R.pXfXM.E.x.m.m.T.m.x.Y N 8 8 Y N T T Y Y R | +.O.+.+.E +.+.R +.+.r r 1 , , 6 r X...N N +.+.O.o.:.d g ,.>.>.6.O.O.:.>.O.:.o.+.N 2 r R N +.+.:.:.,.g g g ;.X.;.X.o.g >.f f g g d C.3.:.g f g >.,.;.<.o.;.t w t e e e e t A A D H I L L L G J K B V e r 1.y t d g d g >.g g g g s s g g g f 2.O.,.;.,.;.7.6.,.,.T.T.>.g g t e 4.<.d g g d s s f f C.f f C.C.g f f G.g A.g d g g G.A.f B.f k.E.C.B.2.Y.p B.C.C.f g Z.B.C.f f g 2.2.9.2.2.3.2.O.A A L I {.(.(./././././._.] ' v.) i.;.d s >.j d >.o.h d s g g o.d d g d 3.>.s g 2.g f g Y.g B.A.f f j f C.Z.G.j f g 2.k.Y.g f g g S.C.f J.2.J.g j j j 2.d g 2.j g h P.A.2.Y.4.j 2.J.G.B.B.s 4.C.f Z.g g 3.2.f.6.2.g 4.;.u d 2.>.g f g d d g g g 2.f C.C.f g G.g j >.5.3.=.p.f.O.$.f.u 7.| u E.8.f.*.a.t.u.u.M.m.c.",
"0Xm.c.c.9Xc.m.v.9XiXp.=.@.E / / [ =.9.6.;.2.:.O.O.+.t f f ;.:.d d Z.:.d g ,.<.o.:.3.3.2.9.T.m.Y.:.O.+.,.o.;.>.4.k.#.<.M.E.T.b.0.q.b.+.d g X.>.:.:.:.;.2.,.o.g P.,.d g f C.p C.f f f C.g :.>.;.>.g H.G.V.G.J.P.P.A.C.w ; ; Y & 8 N # # # # = = ..n.pXJXPXPXPXKXJXJXJXJXdXsXsXQ.Q.Q.W.pXfXsXpXpXpXuXpXpX!.sXfXM.!.E.!.f.*.N & 8 Y T T N Y N Y | | | X.O.+.E X.:.,.X.| R $ $ > @ 1 , r R 2 2 | X.o.d g >.;.>.>.>.:.,.$.o.>.:.;.;.O.+.N 2 r | X.:.t g g f A.B.B.f f ;.;.d g s A.f g g f A.>.;.g f >.o.u g ;.X.r t t e e r r q A D D D D U H I G H ' C A e e e 7.w s f >.d f C.g f C.f s s f 2.g 2. .:.,.9.6.9.0.2.2.>.W.G.f f g e t T.;.s g a s p C.f g f s f f g g s 3.g f g d g d g Y.G.B.f b.E.4.A.A.H.g S.g 2.f g G.j P.j j 3.2.g 4.9.9.3.<.3.O.A ' L ).[.(././././././.).] } v.d.,.P.f C.C.j C.g j f f g g d ;.>.>.s g 2.r u r u ;.r 5.2.s g g f 9.3.g f 2.2.d l.b.3.b.E.f A.2.2.3.j H.2.9.g 0.>.d 3.2.g g f G.; E.S.2.2.3.H.j J.H.V.A.J.e g f Z.>.d 9.O.f.O.>.g j 2.2.d 2.j f f g d <.j 2.g 2.j g A.d s a g <.;.<.<.8.p.a.q.$.8.8.q.1.o.O.8.$.-.-.) -.x.a._ 0X",
"0Xv.m.0Xm.0Xm.0X9Xd.p.@.~ *./ / y.=.0.T.E.T.H.C.g d 2.g 2.Z.g :.X.>.:.d 2.:.:.O.;.g >.j 0.9.9.3.6.E +.O.+.E O.;.O...r 7.| 1.N u 1.1.u 2.g ,.;.O.O.g >.s >.O.o.9.2.d ;.g B.p A.f B.C.C.,.O.;.>.g A.S.f p S.2.d 2.A.j 9 6 , , = & = = # # # # & 8.W.dXKXPXPXPXJXJXJXJXPXJXJXfXpXsXfXsXsXdXdXsXdXsXpXpX!.E.E.pXE.W.!.E.u.W Y N Y Y Y T B N Y +.R R u o.,.o.:.;.d ,.o.o.o.X.e e $ @ 2 2 , 2 , r X.o.o.o.O.+.;.>.o.d g d d g d g ;.| R | X.;.| u u a g ;.;.g g g g d g s ;.g f d ;.A.:.g f C.,.d >.g ,.O.X.w.E | o.+.u | | | u A P H H x D H L P L P C A 9 9 e b.a p f Z.>.d f f g C.f f j s 5.9.3.>.,.>.<.U.u W.7.<.o.b.E.C.C.B.g t Y.A.X.g >.g C.g g >.:.g C.B.f B.g g d f f C.f f g Y.A.A.H.4.9.k.P.H.G.5.U.2.2.f g 2.g 2.2.g 2.j g b.,.3.4.q.<.<.A P I I {.(.(./././././.(./.} 0Xv.9.2.C.C.G.G.C.C.C.A.B.B.B.B.C.B.f C.s g f g ;.,.y d g g d ;.d u b.<.2.g d d d >.>.f d U.g g 2.2.3.G.A.g 2.j 3.>.j >.>.2.j g 2.t 7.g g 3.<.>.2.g s g 3.d u 2.j j 9.3.j 9.6.5.>.g d 2.2.f f f j j 9.2.3.>.3.2.g g j g f j f 2.9.2.2.<.f.m.p.$.b.n.M.O.<.<.=.6.=.=.*.) @.x.i.a.c.",
"x.uX0X0Xm.m.i.d.[ / ~ @.W ^ t.! u.#.7.E.E.E.U.9.9.9.T.k.1.Y.S.d r k.>.f C.>.:.:.g ;.O.>.U.2.1.;.q...O.O.O.w.T u O.R | O.B | ;.g >.o.3.0.g A.C.C.f Z.d g g :.+.s G.:.;.j C.f C.g :.g B.>.:.;.g p B.g g f f f g S.S.d 7 1 , , = = = = = = = = T m.pXdXdXKXJXJXJXJXJXJXJXJXJXsXsXsXfXfXsXfXsXfXsXfXfXpXpXuXE.Q.Q.E.T.n.! T T N Y 8 = Y N N R E R R r u g ,.O.+.o.:.;.g d f g X.2 e e , > 1 u d g ;.;.g :.#. .g g ,.o.s g f g R 2 2 X.X.o.s s ;.o.y u u +.d :.+.:.;.d f f f g f f C.;.C.B.C.C.C.>.f A.;.X.:.#.o.u X.| | | Y R A P P P P H L P P L K ( B u t r o.b.d g j G.A.B.p f 2.2.f g j t <.3.Y.,.d d q.u k.b.9.;.2.R.S.B.A.Y.d d J.>.g d d d d g g d f A.f f f f f g f G.s f j 4.3.C.g G.p Y.k.T.2.s U.>.9.9.C.f g 2.g G.g g j d b.2.2.2.2.2.3.e.Z r.U ] ].[.{./././././.(.r.v.9Xf.9.9.g 3.9.H.A.C.f j C.C.A.C.B.B.f A.V.F.V.C.J.B.2.H.C.A.j 4.4.b.3.Y.2.j A.A.s g B.B.4.2.f f B.C.C.C.C.g A.>.9.2.>.3.2.g 2.2.2.g g d d ;.g g >.;.u g ; 0.2.2.d ;.;.;.0.0.q.2.j g g d f g f 2.H.2.g d u 9.<.>.u d d >.3.d d o.;.;.d #.*.a.=.q.8.7.1.;.O.=...O.&.u.t.u.m.c.m.*.",
"t.a.c.t.8X8Xi.d.d.i.*.p.p.*./ T x.n.0.q.1.,.:.o.y 5.0.4.9.2.X.| e 0.d 2.g f >.G.C.g 3.9.T.n.n.0.b.3.1.| w.#.N o.:.+.+.O.:.g U.J.w...O.9.4.Z.;.f C.B.g C.>.:.O.j H.C.C.f C.p B.:. .>.>.g g f C.B.g f B.f f C.2.>.j i 7 : , 5 5 = = = & & 8 8 _ E.pXdXKXJXJXJXJXJXJXJXsXsXsXsXsX~.sXfXpXpXsXsXsXpXpXQ.fXpXuXE.E.W.n.Y N N * = 8 N 5 Y T N R E R +.| o.g :.#.E +.O.>.>.g f B.g :.d s f d g f g g >.d C.A.>.:.;.g :.+.X.o.X.R N E O.o.;.;.f g :.X.>.g r u d d g ;.;.y f f g d f f B.g ;.f C.B.C.g g C.g >.d <.o.o.u t r r +.y A D P I ] ' I ] ] I I A t t t t u b.3.f f g 2.g a s ;.9.f 2.2.3.a g 4.Y.2.>. .u r W.Y.<.A.g W.2.j 3.g a u P.>.g g d >.g f f f g f B.f f j C.C.f f s 2.f B.C.G.2.C.A.2.E.U.p uXg j k.j G.2.2.H.A.Z.2.J.d T.3.2.J.<.2.<.6.A ' L ] {.].{./././././.(.].{ 0Xf.7.4.>.2.g g Z.>.,.d >.g G.C.S.C.g g g g C.C.C.C.A.4.H.j Y.3.9.k.4.k.J.j j f f B.C.f C.4.J.j s f f j g f 2.2.2.9.j >.g >.j Z.t 9.g g g g C.C.S.B.B.f a g f 2.;.>.d ,.9.0.1.>.>.g g ;.d ;.u >.;.| ;.u <.:.u g >.;.o.o.;.o.O.r :.1.>.$.&.*.=.O.6.$.1.<.6.O.8. .f.u.m.v.a.d.i.t.",
"c.d./ / i.8Xc.0Xv.d.c.*.t.t./ T / ^ @.#.~ E +.O.< u +.+.d d u d u 2.o.O.+.O.X.>.g 0.E.b.n.T.n.5.k.n.@.T O.#.B N +.#.#.O.:.;.1.>.1.w.O.,.o.0.w.O.O.d g C.C.>.o.g f J.,.o.s f f g f C.,.d A.C.g >.C.B.>.;.g C.g A.w ; : # & , = # & 8 & = 8 8 $.Q.fXdXKXKXKXJXJXdXsXsXsX~.~.~.~.pXpXuXE.T.pXfXpX!.!.Q.dXpXE.T.E.m.8.* * N N * * Y Y Y Y R +.R  ...O.,.d :.+.O.+.O.d g f f f C.C.f g f >.d f f B.C.,.>.Z.A.g ,.:.:.O.+.R R B O.:.#.O.;.g g >.:.:.,.f d ;.X.u d ;.u ;.O.O.O.g d f f f f g 2.g C.>.>.g g ,.X.2.d ;.u y o.u u d A A D D I r.r.] ] ' P V u t t t w s T.g C.d d d f f g 2.g >.d J.g d t k.9.2.>.d ;.1.uXH.g >.n.E.>.,.b.3.u <.T.g f g d g s 2.f B.B.C.f f g Z.C.f g 4.j A.C.2.G.9.2.C.C.j pXp b.H.A.3.P.H.A.2.2.G.g 2.4.d f.<.q.0.3.2.4.9.A P L I XX[.[./././././.(.].} d.v.q.>.j j A.f f g g C.f g C.C.C.C.C.A.g f C.g g g 9.4.4.4.Y.H.j k.k.U.P.A.2.g 2.C.f 4.B.A.k.E.A.C.j P.2.A.g P.2.0.H.g A.j C.C.0 1.f f g j g g f C.C.A.e k.f 2.g g A.H.<.O.2.H.J.g g 2.g g 3.s g >.d g 2.>.>.s d g g s f 2.g 2.2.3.2.q.u.x.6.$.b.q.o.0.7.7.6.6.n.p.c.c.c.c.v.v.",
"u.c.c.m.m.m.M.m.{ 8Xy.@.E ..*.! ~ / ~ *./ #.@.+.u o.:.O.a 3.j C.C.C.C.H.2.2.2.,.:...O.+.O.O.O...+. .+.+.O.1.q.#.w.+.#.O.:.O.$.O.3.$.:.O.+.<.f ,.$.O.o.g C.p g f B.C.g 1.o.s f A.A.g g f d g g f H.C.,. .g C.H.O.9 : # 7 , = # # # 8 = & 8 6 l.Q.pXJXJXJXJXdXdXJXsXJXsXQ.!.Q.sXpX!.E.T.T.E.pXE.M.M.Q.fXsX!.E.n.p._ N T T Y Y Y T T T Y | | R | X.;.f f g s g X.+.o.:.g C.g d g f g g f o.;.;.f C.C.G.;.Z.g >.;.o.V N V X.>.g g :.#.| g g g ,.:.O.d g g >.O.2 1 y >.O.:.O.;.f f g f B.C.g >.g >.,.>.g 1...:.2.3.u u u r y +.A H x x D P I r.r.P A t t t t t w s 2.f f f C.f B.B.S.C.g f C.g g C.d d 4.2.2.<.4.2.W.uX2.G.2.Q.H.g 9.Y.g d W.>.g g f g g f C.B.B.B.f f s H.S.j 2.3.C.G.j P.C.j 2.P.B.S.U.4.Y.j G.J.A.A.C.C.f 9.H.2.2.d 9.3.<.9.3.4.Y.9.s.A P ] r..XOXOX{././.J /.OX} 8Xm.n.j A.f f g g J.2.f j j f f g g f g H.Z.f g 2.2.4.2.P.J.j G.C.g 3.2.3.f Z.2.g C.A.f C.B.S.P.P.f j k.j A.g 9.2.9.3.2.G.Z.C.C.e d g d g g f f f 2.C.J.1 Y.H.H.H.P.S.S.<.;.3.2.3.9.2.J.C.H.9.3.g 4.g 2.j 2.g g f j H.Z.f G.2.j 2.4.3.n.m.m.8.8.n.n.9.9.b.q.8.f.f.v.8Xc.c.v.i.c.",
"c.c.0Xv.m.9Xc.m.a.v.*.*.=.n.M.m.v.d.u.s.*.=.#.o.2.j 2.>.p C.,.>.f B.f 4.uXT.uXJ.2.2.6...#.+.#.#.E E @.+.+.:.q.O.0.#.1.4.H.,.<.;.H.A.>.#.O.;.f G.A.,.>.g 3.C.g j C.C.f >.d f f A.B.B.p g ,.;.j A.g d A.>.d f S.<.r 7 ; # # # = = = = # & & 8.E.pXaXdXdXJXdXdXdXJXJXsXsX~.Q.Q.pXpXpX!.pXE.pXpXQ.M.p.pXpXQ.E.M.x.T Y Y Y < 8 & & Y 5 5 E | E R 6 u o.>.d H.,.;.o.O.:.,.B.B.C.,.g >.o.f C.g >.o.g >.,.,.>.>.;.O.R e +.+.| g >.f C.,.:.;.d g C.>.:.:.>.O.;.,.o.;.| r X.X.,.;.d B.C.f B.V.B.f >.>.g g o.d ,.+.;.,.o.r r r r r h.P P M H x D P P P P A t u ;.r t a a f 2.d d g d s d s g s f f A.d f d y d ,.O.+.;.>.<.T.;.,.d U.9.g g g d 2.k 9.f f j 4.G.B.p G.f j 4.f f 2.3.P.j H.C.f 2.H.C.f 9.T.A.A.4.b.U.C.S.2.A.H.A.j 2.0.H.3.9.d 9.9.q.4.3.<.4.k.T.A P P I I [.[./.{./.J J {.} d.v.c.2.A.g f g f f g f g g >.g g g A.,.3.H.j H.3.J.A.G.j 2.2.2.2.j 2.g k.9.j f f g 2.f f C.B.g Y.k.f 4.g g j 2.2.U.<.9.2.f f 4.r >.2.g f g g g g A.B.2.u <.g A.A.H.G.C.2.2.9.2.3.P.A.G.B.Z.H.g 2.9.4.2.d H.g g g g 9.A.f 2.4.>.,.2.2.b.x.a.f.0.8.M.b.0.b.n.n.b.-.c.i.t.m.v.c.a.",
"8Xi.v.v.v.m.iX0XiX0X0XM.m.m.n.m.d.d.y.u.f.w.:.u >.;.d g p C.>.g C.V.V.4.E.J.A.g C.2.:.$.E 1.:.w.#.#.^ E O.$.0.Y.0.6.<.<.2.2.1.,.2.>.2.#.O.d C.j J.g g f H.A.;.o.g C.C.C.C.f d g f p B.B.C.C.g ;.>. .J.F.B.G.G.P.e 7 7 , # & = = 8 & # = 8 n.pXuXaXpXsXJXJXJXJXJXJXsXQ.~.sXpXpXQ.pXpXpXpXpXpX!.!.M.fXE.E.m.x.^ N Y * * & = = & & , 6 +.+.E E | ;.:.:.g C.>.f f C.>.f C.B.V.C.B.>.d >.;.g g >.O.O.O.O.;.;.o.R R +.d >.O.d :.X.f g f f d g f g g ;.g ;.;.o.d d g d u X.2 y f f f s p B.B.C.f f f f g d ;.>.;.3.o.o.| r u u A P P P P P P H P P A V t t t y t t a f Y.g C.f g g d s B.B.C.C.C.C.f g g d s g +.u :.O.0.7.,.;.:.Y.2.g ;.3.d u 4.<.f f 7.7.d 2.f f j 9.2.g d k.9.f G.g s 2.f 2.3.2.g f g g <.U.Z.f g d 2.g 4.>.g ,.;.3.<.0.q.q.7.1.3.2.q.<.0.h.A H I {.[././././././.(.{ 9Xd.q.2.g 2.Y.A.g 2.g G.A.A.j g C.A.S.G.A.G.A.G.C.A.G.j 2.4.H.3.9.g f 3.b.J.f g j j A.B.A.f A.J.U.G.C.f >.2.3.2.9.<.1.b.j g 9.d f 2.g C.f G.A.A.B.V.g d 4.g 2.P.A.g u <.d 4.2.g j 4.g f g g g 4.g 2.;.2.2.g d g k J.A.f 3.3.2.4.2.2.0.n.x.n.8.b.8.b.0.7.8.8.8.n.i.c.t.p.u.x.x.",
"m.M.0X0X0X0X0X0X9XM.uXn.0.-.-.t.y.d.{ a.c.#.+.d j g C.C.f A.2.,.,.f B.2.Y.J.A.P.A.g 3.#.+.@.#.=.=.@.@.#.1.1.3.H.1.s.#.O.3.q.=.$.3.1.4.<.:.s C.f 4.G.C.C.G.A.,.g G.Z.A.B.C.d d h O.| g B.C.V.Z.;.;.;.G.B.C.G.H.3.e : , # & & = # = # = 8 =.E.pXaX!.pXpXsXJXJXJXJXsXpXQ.Q.sXQ.pXE.E.!.pXQ.Q.~.Q.Q.sXdX!.n.n.&.* * N & N * & Y Y Y R e r | ~ R o.>.2.>.G.f g C.g ,.:.;.;.d f C.V.B.C.f B.f f g o.X.d :.o.X.r o.:.O.X.g :.o.;.X.d s s s f g g :.d >.g >.d g >.;.d o.s d r e r t d d ;.d g f j f f f A.j j 2.1.9.9.X. .| u | V M A D D D D D D A A a t t t ;.t s A.f b.Y.f d g f B.f f d f f f C.C.B.B.f C.>.T O.q.9.<.W.J.j <.E.U.G.2.>.2.>.g uX,.g g d 5.J.f g A.A.C.g d 2.A.V.B.f f f s ,.2.g s d ;.g t Y.Y.>.>.>.g f g g g ,.;.<.>.<.>.2.<.q.1.<.,.:.1.h.P P U I [.).J J ].)./.(.d.c.a.-.7.3.3.T.4.A.A.f 4.j g 2.2.G.g j g g 3.G.2.j ,.0.b.4.J.j j 2.A.j 3.Y.G.B.j G.C.C.A.H.f 9.H.2.U.G.A.9.9.k.9.J.g 4.n.2.S.H.g s 2.A.f p g f S.V.B.u d P.H.H.2.A.g d 2.f g g 2.g <.3.d 4.g A.s j s d <.2.2.4.9.g 2.2.j 3.g 2.9.b.3.3.-.x.n.8.b.q.b.7.q.0.5.f.-.a.c.c.) a.t.u.",
"0X8Xc.x.x.iX&.uX8Xd.p.| O.q.w.s.u.d.y.y.[ #.;.3.g A.S.2.d J.>.g ,.f C.f 3.R.T.uXb.T.J.=.-.@.f.#.6.@.+.@.#.:.1.4.1.6.=.#.g H.6.$.9.g 2.d g f A.A.J.9.U.U.A.C.d g G.J.C.,.f g ;.y ,.| 2.B.B.B.f B.B.A.2.,.:.O.2.2.r ; # o = & = = = # Q l.R.Q.dXdXpXW.pXJXJXJXJXJXsXsXsXpXpXQ.Q.W.E.E.T.T.E.E.E.E.pXpXn.n.n.8 * * * * N 8 & < E +.+.| | 6 r i p f >.,.g g >.;.d s g ;.:.;.;.;.s f d f B.B.B.B.f d g s d ;.:.;.g ;.>.d g :.;.;.:.+.:.:.;.g >.#.R ;.d >.d ;.;.O.:.>.g d g ;.+.| r X.o.;.;.d 2.B.B.g 2.2.j 2.:.1.q.| ..+.u u y V A M x x x x A A V a t t t 1.t a f B.g Y.C.f f f p f g g s f f s f f f g 2.0.q.0.1.,.2.k.iX3.g 3.E.3.J.1.0.J.g k.4.f C.d 3.g Z.g g f f C.g s f g g ;.f g :.g B.B.C.f f G.s g I.V.f A.C.B.A.C.C.j 2.>.3.,.C.g 2.2.4.3.2.3.9.e.A A D D {.(./.J J J J (.} y.v.a.f.4.2.d <.3.g j 2.2.j s J.g 2.g 2.G.j 9.3.1.d 7.T.U.J.k.3.P.9.0.P.Y.2.j 2.9.2.f 2.3.3.9.2.G.4.W.9.9.3.U.3.j f j 4.k.Y.4.2.f 2.g H.g 2.g g C.G.2.Y.C.S.A.2.g g g 2.A.G.g j f j g 1.9.9.d 3.C.g 4.2.3.g 2.9.g f 3.j 2.f g >.3.3.,.8.u.-.8.q.1.6.1.5.5.5.%.=.x.t.c.t.u.i.u.",
"v.8X8X) m.v.^ i.d.v.*..   ;.q.f.s.d.d.{ [ n.k.2.2.j g 4.b.k.f C.g g g C.j 3.U.b.T.E.<.J.-.*.s.t.+.0.1.6.=.w.1.4.1.G.1.O.,.Y.G.1.;.g :.X.g 2.J.Y.j Y.G.j Z.f H.A.B.C.C.>.g C.C.s f ;.;.f g d f B.B.g >.g $...<.d : # # # # = 8 * & = %.W.!.fXdXdXpXQ.sXsXsXsXsX~.~.~.Q.sXQ.Q.Q.E.!.pXT.E.n.E.!.Q.pXE.E.n...* N N * * * * * Y R  .+.| R |  .;.g g g g f G.1.O.O.d C.,.O.:.;.:.o.g g g ,.;.o.;.,.| e u d g g ;.2.d g g A.2.o.>.:.O.d C.>.g 2.2.#.X.g g g g :.O.>.>.f g C.f g ;.>.o.r u d g g f g ,.O.;.1.O.O.q.#.@.^ @.+.| +.V V b A A A A A A q q t t t d a d d d s 9.2.f f g f f f s t f p s t a s g >.;.5.<.r ;.g 3.E.J.,.,.5.T.;.b.<.2.3.;.Y.A.f C.g >.O.;.g f g s d s g ;.X.o.s f s f f g d d d s g f s I.d d g g ,.d g Z.d ;.,.O.;.;.,.;.<.2.q.:.q.#.V A H L ].{./.J ] L J /.J } d.) d.X.d g g s j 2.>.>.>.g g g g g 9.g G.g A.<.2.5.7.<.;.9.k.2.2.3.<.2.j 2.d 9.A.g g 2.2.2.G.g 2.b.uX9.H.J.G.2.j f G.P.9.g J.f 9.f A.u d <.9.g J.3.T.a g g j g g g 9.3.H.j s d s s <.n.3.9.4.j J.2.2.>.3.3.3.G.g 2.j 9.j j g d 9.7.f.p.n.b.8.0.0.7.7.6.6.6.=.u.i.c.v.^ x.c.",
"v.v.c.c.m.c.c.i.i.R   . ; 0.n.f.s.t.y.d.{ [ O.$.o.d g f 3.9.A.A.H.J.Y.S.>.2.A.<.1.3.9.q.f.f.m.t.O.6.w.#.#.#.:.2.J.j q.O.,.3.2.2.<.3.g g d 3.Z.C.C.H.Z.;.g g g C.C.p B.B.f C.f f p 2.#.| g j A.j f f C.g :.o.<.i : # # # o # # # = ..b.W.Q.fXfXJXfXE.R.Q.sXpXsXsXQ.Q.pXQ.sXfXW.E.E.pXn.T.E.pXE.E.Q.!.l.&.N T T N T T Y Y T E +.+.| R R  .+.;.>.,.>.,.;.C.,.:.$.,.;.:.O.o.,.O. .y g g :.:.#.E R R N +.O.>.>.d >.f f A.g C.g g >.2.#.;.f f C.>.O.;.g 2.s A.A.>.C.>.>.o.f B.B.C.C.g d u r y u g >.;.,.,.>.,.;.3.#.@.~ ..|  .+.o.+.V A A A A A h.t t t w t t U.u 3.g f g P.Z.;.X.f f h r - 9 t s a t a f g u ;.:.e 9 u <.1.aX6.:.o.I.q.:.<.2.q.;.>.T.>.A.:.,.o.r ,.f y u ;.2.g :.| O.y g f s g d h d r a a g r 9.9.s g ;.O.>.g f g o.d >.;.5.3.3.2.s 3.>.o.3.o.A P r.oX[.{./.J /.J } J J r.d.v.6.>.4.g g G.2.g g f g C.B.f f 2.j G.C.G.4.2.k.b.2.g 2.k.2.2.3.2.g C.f s 3.C.C.p Z.f f f B.g 3.E.uXS.B.G.j f A.H.G.C.B.C.s 9.C.f f A.9.H.B.A.k H.f g A.2.A.A.2.9.k.G.f j g ,.;.o.5.d k.j 2.9.2.2.3.4.3.2.4.2.j 2.9.2.9.3.;.n.T.b.m.f.6.n.m.n.9.b.b.8.n.f.x.i.c.c.i.9Xm.",
"m.m.n.M.m.x.m.u.M.O . . i M.b.8.f.u.{ [ { @.q.#.O.;.g ;.2.g >.g T.iXuXY.2.2.2.4.<.1.q.s.f.v.n.s.*...q.^ @.+.2.2.1.>.w.:.:.7.>.9.3.2.g 4.g j f f C.f f g g g f f C.C.B.B.g >.d C.f >.O.o.f f f f B.p A.C.H.g e r 7 %.Q 8 # & # # 5 l.R.!.fXdXKXJXdXn.U.pXsXsXsXsXsXsXQ.Q.W.T.n.T.E.E.E.E.E.m.m.n.!.n.8 * 8 T N ` T T Y Y T | +.E E R r  .o.:.g g C.>.>.f f >.:.$.+.s g :.O.O.O.O.;.f C.,.+.N N O.O.O.O.g f g >.;.d 2.,.O.2.>.>.>.#.E ;.;.g o.o.>.:.4.,.f C.Z.g >.,.O.u g f A.C.C.g g d X.y d d o.g A.g ,.o.3.*.T ~ W  . .| X.u X.h.A V V +.h.y u t t t t 5.9.g f d s d Y.f g p s a t a a e s s g f g g o.o.1.5.t t u o.W.Y.2.2.d iX=.>.>.3.2.o.7.J.g >.;.:.| $ d d t g ;.2.;.,.+.s g f f j f f s a s a u d d R.Z.f g g f C.g g g f j 4.P.g G.>.j g f 9.Y.d +.] L r.I /.(./.oXJ d.oXJ } 8X8Xm.q.2.g g 3.2.3.3.g g f C.g g d j j g P.3.3.0.4.g j 2.3.k.3.0.4.2.B.A.s g J.B.f 2.2.j 3.C.2.J.2.U.T.g J.f C.f g 2.S.C.u u g A.f j f G.C.C.S.s 2.2.2.H.A.g g 4.P.G.C.Z.9.A.H.A.f g g d d 2.2.2.2.4.>.>.g 2.g g g 2.3.0.2.2.q.q.6.x.f.q.=.n.0.5.1.8.n.8.M.m.v.c.a.c.x.i.",
"M.x.m.m.m.m.p.m.m.$ . ; b.E.n.uXn.p.d.d.d.-.8.#.$.O.:.X.d 3.H.C.U.J.S.g A.2.>.4.<.q.w.a.9Xd.t.s.-.=.:.=.+.u 0.2.:.>.2.,.1.<.2.d <.G.g g g >.g f s f f f s d f g f f C.B.>.o.f s s C.d f B.V.C.A.C.;.;.g 3.g w ; , , # & Y T Y Y &.T.E.pXJXKXKXJXdXW.E.Q.sXsX~.Q.~.sX!.E.n.p.x.n.E.E.!.M.T.E.m.R.R.&.& & & * 8 8 T T N Y E E E E E R | u :.o.g >.f 2.,.f C.;.:.+.+.;.p B.B.B.:.:.:.;.X.r o.E | ;.>.O.O.;.,.;.>.g g >.f g f J.1.o.g ;.,.;.f g :.O.:.>.>.f >.>.d f C.>.;.>.H.Z.S.C.C.B.B.B.g X.| o.X.>.,.;.o.3.$.#.^ .. .+.X.X.y ;.h.+.h.V +.+.q t t t t y t U.>.;.X.2.X.P.g f f a a t t t t a s s d ;.2.1.6 i d >.d ;.o.<.pX;.3.1.U.0.g ;.0.Y.,.X.U.;.4.,.:.+.| f 4.d >.d f f f ;.s s >.d g f f u e a s g f C.f W.2.g u g 9.;.>.4.s g A.g g g 3.3.g g 4.2.3.h.e.H U U J /.].8XoXv.oXr.v.9Xc.m.7.2.2.2.H.C.g j f g f A.g g >.d g Z.2.>.9.6.q.<.3.0.G.d 4.j j 2.J.4.P.f P.C.j 2.2.j 2.2.9.3.9.9.!.Y.3.f H.Z.3.U.j G.j 3.2.C.s 1.9.j j J.G.t d 2.2.2.j J.j j 2.S.f G.3.H.j P.C.2.C.f g 4.g 9.2.3.2.2.C.C.f 2.3.4.2.2.j 2.2.4.7.m.n.q.6.0.q.;.1.O.f.=.-.x.0Xi.v.c.a.a.",
"qX9Xc._ x.u.-.m.p.  ; E.M.uXm.uXf.a.i.d.y.-.f.s.#.#.:.O.o.d d g 2.;.Z.>.2.2.:.3.1.<.f.p.a.t.w.6.<.3.<.q.1.+.d j f g 2.,.,.>.<.;.9.4.H.A.g :.s s 3.G.S.f s d u y p p s f s j C.f u f g s f f C.f C.:.:.:.g f u 7 5 & = # Y ` ` W b.R.pXpXKXKXJXJXdX!.E.pXsXQ.Q.Q.Q.Q.Q.E.pXE.E.E.M.n.m.m.m.!.x.R.&.= & & & = * = N Y N N r ..E R E +.X.d ,.O.,.:.g 2.O.B.B.O.o.,.O.X.g p B.C.:.| r r N | d s g d ;.+.$.X.>.>.;.g C.f f f Z.H.G.g s f f C.C.>.O.@.O.d g >.+.O.X.g f f g g >.f J.C.B.f f f g >.,.d +.r ;.;.g j :.-.@... .+.u u d 2.o.X.X.o.h a w w w w w w t 9.2.d g f f f H.f f s r s r r u d X.| o.o.X.o.+.| y d d o.r e I.2.;.q.r I.g >.2.Y.3.o.9.P.g G.d >.j C.g d d f s g C.g s :.+.| d f s 1 O 9 d g f f g 9.Y.f g >.0.9.k.0.g >.>.s j d ,.0.>.;.| d j +.g.A D D /./.J J d.8XJ ] v.v.v.v.8.9.3.J.G.f f C.2.2.9.9.2.j j 2.g g 2.,.O.m.8.9.<.2.2.3.2.2.A.j P.9.Y.3.2.4.2.A.g 4.3.0.9.3.T.T.4.R.G.k P.C.g Y.9.4.j f 2.B.p 4.b.2.2.2.g a H.g g 3.2.j 3.j f g 3.A.j 2.g 2.g 4.G.S.j g j 2.<.b.9.4.j f f g 2.2.j A.g >.d 9.7.x.f.6.8.b.5.<.1.$.6.8.=.p.c.c.v.t.^ x.",
"qX8X8Xc.u.W a.&.@.@ $.T.M.M.M.0.m.g.d.d.t.b.6.1.2.:.#.+.+.e >.j Z.;.g j >.2.1.o.H.2.q.-.u.-.n.4.2.3.q.,.:.o.3.4.A.C.2.,.2.0.3.9.7.b.E.E.J.A.g 3.3.4.J.G.C.S.B.C.f s y u d h e t u e g X.o.g >.o.;.g >.O.d A.u 7 , & = # = N 8 &.R.W.sXKXJXJXJXJXdXQ.W.Q.Q.~.~.Q.!.W.!.E.W.Q.E.E.E.M.m.m.-.b.-.-.8 * & * & & * * * Y E E R | R |  .X.,.1.>.,.O.C.f J.>.g H.w.O.,.+.X.O.f f g u r y d X.X.f f g g ;.X.;.d g Z.>.;.g g g g ;.>.H.g g g Z.f J.A.1.#...d d g ;.+...O.d f g >.#.o.7.J.B.f f A.>.,.,.;.:.| R r a 3.w.+. .| X.O.X.o.;.;.;.f Z.C.f a w w t w w w w g Y.o.f B.f u U.C.B.s u s >.u y d d X.o.;.:.X.R Y | o.=... .r z I.+.X.| 7.n.r >.>.0.J.>.Y.G.g s 3.<.d f g 2.g g 2.>.>.s g O.+.3.u -   . 9 a s d d g o.Y.;.0.9.,.d ,.d f g 3.s ;.,.u Y.o.,.X.>.>.2.f.e.D D {.I G J v.r.G G ' ] { i.*.$.d 9.,.2.g d ,.>.Y.4.3.j 2.2.2.3.q.1.=.9Xx.1.3.4.<.q.>.2.2.j g >.f A.2.4.g 2.2.g 9.9.3.j G.4.j 2.T.7.4.f C.f j j f j 4.Z.f f 3.g 2.g s a 3.g f 3.g j 3.2.f f 4.g g 2.d 3.g 2.3.g J.u 2.2.9.9.3.;.1.9.3.4.3.2.g 2.2.3.3.3.5.n.x.7.8.n.8.1.<.8.b.8.8.c.i.c.a.m.c.m.",
"8XqXqXd.i.) a.&.*. .n.6.6.-.-.=.f.u.d.y.p.f.E ;.;.:.O.X.d s U.P.C.C.C.g :.>.G.:.3.q.6.-.s.-.q.4.q.6.1.g g ,.:.>.Z.Z.g 1.<.0.9.k.0.U.J.G.P.Y.Y.9.>.d 4.H.A.G.g C.>.O.;.d g o.O.| y y s h u r r u X.d >.:.,.i r 7 & & 8 = # # 6 n.W.Q.JXKXKXJXJXdXdXpXR.Q.Q.~.Q.Q.Q.!.!.E.T.!.E.E.E.T.E.n.Y 5 6 8 T Y N Y T N 8 & Y ~ W | | R R  .o.g >.$.:.#.O.g ;.P.>.>.2.w.+.>.;.+.+.r u y u o.X.o.o.y f f g g f g g g f C.,.:.g g g >.,.>.;.j >.g g >.4.C.C.,.o.d >.>.2.:.+.O.;.g C.g 1.+.>.P.C.B.B.H.C.,.O.+.,.O...| t <.+. .o.r u | u u u j g f f g ;.a t t t t w w w f 0.2.;.s ;.d P.A.p f f f f ;.s f f d d f ;.o.6 | 1.O.O.6.<.<., P.f.O.O.+.U.6.>.g U.Y.s 2.T.,.d >.<.>.g g j d g g g ;.s g X.e 2.r < O   t s o.;.>.g g 4.4.j C.f ;.u 3.f f H.g s g 2.U.>.A.S.g j f d e.P P r.[./.J 8XJ J J G G ' u.@.O.>.g >.g g A.g j 3.j 3.2.3.3.9.n.n.n.qXv.m.<.3.3.U.3.J.2.2.2.g G.B.f 4.2.G.P.C.j 9.k.n.3.3.3.b.k.T.E.k.g C.f A.g g C.2.G.g f f f f A.s s j j j g j j f j f f Z.A.B.f f 2.g d >.>.d g j 2.3.d ;.i 5.9.k.3.k.<.d d 2.3.3.2.5.f.f.8.q.6.8.<.8.n.n.8.=.p.c.c.m.v.m.c.",
"c.v.8X8X8X8X% > | $.f.0.8.7.m.8.m.s.y.{ f.-.=.6.6.:.;.;.d s 3.<.:.<.1.,.:.>.2.1.1.Y.0.f.f.f.6.9.q.6.w.,.,.w.O.;.Z.2.j 6.1.6.=.<.J.3.2.1.>.2.w.O.g j s 2.A.C.f g ,.:.o.f C.f >.:.;.;.y C.:.X.X.r r r e h u 6 6 , = # = = = 5 l.W.W.Q.JXKXJXJXJXJXJXsX~.sX~.Q.Q.Q.sXfXpXT.M.E.E.m.x.n.E.n.W 5 5 T T T N 8 & N T Y T ^ E  .E T T @.O.g >.;.g >.w.#.+.g 2.O.s G.;.f g +.R , r X.X.d :.d ;.;.:.w.:.:.;.j j g j g g O.>.g 2.$.:.:.;.g g g g g g g ;.;.d g >.O.O.>.:.:.u g ,.;.g ;.s 4.S.f g G.f ;.2.O.>.,.;.>.s 4.u X.e u y u X.r u C.g Z.f C.g y o.r t t t a p f j Y.@.| :.s k R.>.C.f f s g g f >.1.9.>.;.o.o.O.6.*.=.O.1.1.1.;.T.=.X.:.q.iX;.2.>.Y.2.g 3.T.<.2.,.;.2.,.g f f g g :.u s d d j f f g e s a g f 4.g j A.j A.B.B.g g g g s g f C.C.G.2.3.2.C.2.2.g s A M L r.XX[.].oXI J /.J ] { v.m.8.3.j J.H.g g g g 2.2.3.1.k.7.q.0.n.c.c.c.uX0.4.4.4.2.g j 2.9.2.4.2.s 4.G.A.G.2.k.n.n.3.4.G.g Y.A.2.k.E.>.p C.f 9.E.s J.C.4.j j 2.f H.g j 2.2.2.d 2.j g f 2.j C.G.C.A.f G.G.g 3.3.j J.j g 2.2.o.2.d 1.0.>.1.2.2.>.2.2.2.;.6.-.-.6.7.q.q.;.7.6.=.O.=.*.x.c.p.i.*.a.",
"uXm.i.v.T X . . . ; T.n.M.T.M.n.uXc.d.8X8.9.-.6.1.:.$.O.o.t ;.,.:.,.:.1.6.6.6.6.;.9.q.w.w.8.-.6.1.6.g G.=.O.<.1.g >.2.q.=.O.:.3.9.J.J.q.$.w.#.,.d A.g g f B.g g g C.d f B.B.C.g ;.X.;.a C.g O.o.:.o.d g t 7 , , = # = & 8 &.l.R.!.pXdXdXJXJXJXJXJXsX!.R.Q.Q.Q.!.fXpXM.m.n.E.M.p.n.M.M.x.-.8 8 T T N ` & = = ( N R W E R E R R  .:.+.;.>.f C.>.:.g g Z.g d J.g s u u 2 u X.;.o.o.O.u g ,.O.w...#.#.O.>.>.j G.B.:.:.:.A.,.6.w.,.,.g 2.;.>.g >.:.@.+.g ,.:.;.;.>.s d O.O.>.C.C.A.C.f g >.g g s g g g d ;.>.s >.O.O.R e e y u  .u u g >.g f g u y u a a a s f f g 2.w.;.:.X.s d T.f g s ;.g f f g ;.>.2.O.O.O.O.=.s.*.q.8.1.1.1.0.uX| <.;.U.3.:.g 3.uX2.;.T.4.,.j g g Z.f C.C.g g ;.u s f f 9.f f f d d 9.A.g Y.g C.s g Y.j f f B.C.C.p g H.B.C.f P.d 2.2.j A.g >.+.A L I r.XXoX} J I ].J } } 8Xx.n.7.4.2.2.g 2.4.2.3.9.3.q.7.7.7.b.x.d.c.v.n.n.3.2.9.>.j A.>.4.J.s 2.2.A.A.A.C.J.2.9.g 3.Y.Z.B.f C.j 2.T.T.f H.j 4.4.w E.p U.b.4.j 4.U.f g P.2.2.f j j S.C.H.G.G.A.f f G.H.2.j 3.4.k.k.2.C.g G.g s d 2.9.2.2.2.2.2.2.2.1.1.n.f.8.6.q.7.5.<.7.8.X.$.-.a.*.u.u.x.a.a.",
"9X0X9X{ O . O . . z 8.M.n.b.q.7.f.u.c.8X-.6.#...2.2.6.X.d s o.g A.,.6.1.6.6.w.w.#.;.6.$.3.1.3.2.4.O.j J.1.6.:.:.;.:.,.q.#.1.:.<.<.1.2.1.O.>.j G.O.O.j d a f >.d C.f f B.C.f B.B.g d d s C.u u O.X.:.g :.;.6 , & 8 * < N Y &.n.n.E.pXdXdXdXJXdXJXJXpXl.=.!.Q.Q.pXE.E.m.!.E.!.uXT.M.E.n.x.Y & = T T 8 N Y = = ^ T Q ^ E 6 R R +.| o.O.+.X.d f g d f 2.G.C.;.;.X.| 2 u o.;.g g X.O.o.;.:.j 1.,.:.:.=.+.:.;.>.f B.g ,.d B.A.,.,.o.:.o.A.>.<.g C.C.O.R ;.o.>.f >.u g g 1.+.>.;.d 2.G.f C.:.>.f f g g Z.f >.:.d :.X.;.| | 2 e r | u d g ;.g g >.d s a a s s d f f f s A.t g d f t I.B.f s s d ;.f f >.;.,.1.1.O.=.@.=.a.-.-.;.,.;. .E.,.>.2.d W.:.>.o.Y.Y.o.;.E.O.d A.d 2.2.A.f f f g d g g g P.g d g f j 3.g 9.2.d g s f f P.C.C.B.f g C.f g f f f 9.g g 3.2.g H.o.$.( P D I r.r.{./.J J /.J } a.8.n.6.3.g f 3.2.d >.4.Y.4.q.8.q.8.f.8Xi.0Xv.i.n.0.,.b.3.9.9.9.3.3.f f 3.P.f f 3.2.2.2.A.2.9.g f C.2.Y.3.U.R.k.k.k.j f f 9.s b.E.Y.j 4.4.g g 2.f 2.f f 2.f 2.j 2.k.2.f 3.4.s 4.g 3.2.9.3.9.S.f j <.3.2.C.3.3.G.d 2.2.<.<.3.<.7.8.8.7.6.<.1.k.7.8.b.8.8.x.i.a.c.c.c.u.",
"9XqXqXd.8X8Xa.R - r -.m.8.1.0.7.b.n.0Xm.q.1.1.,.:.>.,.o.2.g y f g C.2.,.1.2.,.:.O.o.7.6.g >.g C.g ,.$.o.Z.,.>.C.>.O.O.1.$.w.@.q.3.9.k.U.G.2.H.2.,.g g g t t s s f f g B.g ;.f V.f d d | t >.X.X.o.s g X.r , # * & Y N N E -.n.R.Q.pXdXdXdXpXfXJXJXsX!.Q.sXsXsXfX!.!.!.Q.pXpXE.n.T.x.n.&.T 8 8 N 8 N N N & 5 E Q W R 5 6 R | O.+.r g s d h f g d d g g g O.+.V R +.O.:.d f g :.:.X.g ,.f A.A.,.>.:.:.$.;.>.f >.d O.;.>.:.;.d ;.,.$.;.2.>.g g f g d g O.O.d ,.a A.>.g f >.O.X.o.g f g >.d C.V.B.>.,.g d :.s <.#.;.d t u r r e r u o.d d ;.>.d g u u d d y f d f ;.P.g f d g g f 3.s ;.f d d g f >.| o.1.:. .=.*.t.*.=.6.o.2.,.:.u E.>.3.>.k.uX:.:.d W.3.d 7.2.d ,.>.g j 3.g g f f f f f g f Z.d j f g 0.g j g :.g f f f 3.A.C.f j f f s g f G.j 3.j g g <.2.Y...b.5.A M D D U _.J J J J /.J ' 6.6.6.2.j g H.>.d u 2.Y.2.0.f.f.n.a.c.v.v.v.a.c.n.7.n.9.y Y.3.>.s 3.g 3.3.g j 2.<.9.9.2.,.>.u t k.n.E.j 2.g T.2.2.j j a 2.f 3.2.3.2.d d 2.t d g s s d 2.f j s f 9.9.g 9.2.f 4.2.3.j g g 2.f g 4.n.9.3.g 2.2.2.3.3.4.3.;.<.1.<.=.=.b.0.1.<.1.1.b.8.7.-.p.c.u.m.v.i.x.",
"0Xv.d.Y ! @ . . : ..-...8.8.m.n.M.m.v.m.3.1.1.2.,.>.O.X.y u o.o.>.>.:.6.:.,.>.1.<.d 4.2.g g g C.g G.O.:.g d d G.2.:.O.2.1.:.1.5.9.9.U.k.H.q.6.2.j >.Z.B.g e s d g >.O.d ;.:.:.g f g g ,.u f g g >.o.o.r 7 , # # = = = & Q l.U.Q.dXfXdXdXsX!.Q.sXQ.Q.Q.Q.Q.sXpXpXfXpXpXsXfXpXM.n.n.n.-.5 8 N * & * * * * 8 Y E W W W Q  . .O.;.;.y f g g d g g ;.:.>.;.:.+.2 g >.g >.d Z.f C.,.,.,.Z.C.g 2.A.G.C.2.2.$.,.,.Z.f g ,.o.g ,.O.>.C.,.:.>.d g f f f C.g g ,.O.,.;.g g g g g >.:.g ;.d g f f g f g g G.V.V.V.V.V.C.:.:.,.s u r y r e 1 2 u d d s f f ;.s p f X.u u f d 3.C.f f f f s U.g :.d >.>.g d >.;.<.#.#.+.R u./ &.=.q.:.,.2.3.:.Y.<.g >.o.W.2.>.;.b.uX1.d Y.1.o.g C.g 2.g C.g Z.g g Z.A.f f 2.g 2.j Y.g g 4.3.3.2.;.9.<.<.<.<.d d 2.d T.3.j k.9.Y.3.3.5.T.T.N n.-.#.Z M m P ] ].].J } .X].] =.f.8.q.5.0.1.q.3.1.5.0.q.8.t.i.m.c.c.v.c.c.m.a.f.n.b.0.q.q.q.0.9.k.3.0.k.9.U.0.b.M.T.b.n.7.0.3.2.3.U.<.2.0.b.aX9.b.Y.d k.9.2.2.9.n.n.T.0.1 7.3.<.9.3.3.2.4.2.2.b.9.2.2.3.2.<.4.4.3.3.3.<.9.<.<.7.9.T.T.7.0.5.5.n.n.0.b.7.6.n.-. .E.f.n.8.6.7.n.-.n.n.c.c.p.m.0Xi.i.",
"*.) T & . . . . z -.c.u.=.b.n.n.n.a.y.*.=.*.#.O.O.$.@.O.+.2 O...O.#.@.#.#.#.#.*.O.5.+.5.O.X.O.o.>.g :.u 5.1.O.E ..@.=.=.#...#.q.-.#.1.6.#.#...| E +. .o.;.O.6 | O...O.o.O...| E 2 X.X. .5 d 1.* 3 N N $ N E N T Y Y < < T -.n.R.W.T.pXpXW.pXQ.E.l.l.Y.%., $ , n.uXM.n.E.M.m.T T *.Q T N 8 N * * * * * < 5 T T Y R W E R R r | 2 0 1 y < 3 2 2 < N 2 2 2 % N d O.X.O.O.| d o.2 d ;.O.< | O.o.,.,.@.1.#.X.| y g X.o...| o.:.2 u o.r y r r u o.X.+.< R < N $ 2 N % 2 r 2 r 3 r * N 2 q y r 2 N % 2 t t s s f t 2 $ $ % , 6 2 e 2 > 0 2 , 2 2 a ;.R e e $ $ < e 0 e t 4.6 u u r y <.f 2 e u u e r e t o.6 R 2 $ & T ..2 6 | 2 < $ $ 1 Y.r ;.3 t G.V 2 < 6.7.d ;.7.o.u r t u t s u d d s s a d u 1.u <.g g d o. .| 5 2 $ R , O # 6 < < | $... .+.=.$ < < f.E E W < ^ @...( C / r.' C ! N ~ T B v N $ $ , E Y ^ ^ @.p.t.*.u.u.*.^ t./ t.t./ u.u.x.n.^ Y ..p.@.-.x.8.-.n.&.f.=.=.=.-.n.&.=.p.-.m.M.-.-.-.-.-.p.Q n.M.@.@. . .W 5  .-.*.-.&.5 ..-.T W Y &.Q T E W +...% < , , Y Y R T Y 5 @.Y &.-.....-.-.R ..+.E < +.Y E ^ E W W R &...@.=.x.-.-.&...&.W / E *.^ u.*.W ",
"@.W E Y . . . . : &.t.) T T Y E ^ ^ ^ E ^ ~ T ! T T ^ ^ ^ W T ^ W ^ T E ~ E / / B T T Y / T % 3 Y R ....=.#.W T T T T T N N N @.&.T T E 3 $ 3 % 3 Y Y , N T * , R N N $ $ $ o $ $ $ O O % 5 W @ X $ @ % % * * % $ % @ @ 2  .=.%. . .=.-.-.f.f.=...Q 6 5 @   @ , 5 @ O X @ $ X @ O @ % $ $ % * $ % $ $ % $ $ % $ % N @ # @ $ O o @ O @ $   @ X X     O @ * 2 r N | | +.N r 2 0 t t e 6 | | 1 2 2 2 +.N 3 % 2 N 3 N $ @ $ $ X X > $ O $ 3 V R T 3 $ 1 @ @ O $ O % % $ $ $ , u R N < < 2 3 $ < $ O X O O @ t 1 1 2 < $ < 2 N , < - w 1 - 1 2 t 2 N 3 2 $ @ $ 1 1 < , d  .$ O % $ X ;.2 1 1 $ , 1 2 , R < < < < 3 5 X.| R 2 2 < O o # 9.:.r O.$ <.#., $ u q.y r 1.>.2 > 0 2 @ o : t w e t d 3.t t e t a d u e 2 @ o . . : O . O o , r R 6 5 <  . .$ & 5 =.Y ~  .-.< f.@.( Z d.d.' ! ~ ^ * ~ e.b @.N < , < Y N Y &.&.*.Y N @.u.*.a.c.x.c.m.a.^ &.p.@.Y &.@.&.@.W W R R E Y R R Y < , , & & O @ 3 N Y =.=.&.Y +.R 8.*.T 5 6 R & $ R N R *.o m.*.=.E R R W Y N < 3 < 5 R 3 , < R , R ....=.+. .f.=...-.W % Y @.E E R @.E @.E ..@.-.p.@.&.R W < Y , ..5 E Q x.u./ T ^ ^ ",
"_ R < o o   . . . , Y Y ) &.*.) a.i.x.m.p.c.c.p.x.a.p.a.^ Y ^ T T *.p.p.u.p.u.*.t.^ ^ ^ a.^ -.T T E @.@.E ..W R ..*.W W W ^ R W &.*.u.p.&.^ &.p.-.p.f.&.-.@.^ 3 ,  .T @.^ ^ @.*.@.~ T , $ @ ..-.^ E , T T N * $ & T ) ^ -.x.-.-.l.7.n.E.E.E.M.n.n.8.Q W ^ ^ ^ @ # $ O # @ > @ @   o @ @ # @ * # O @ % % N % & % $ , # @ @ O O @ % $ $ $ < $ @ $ O , , % , y r u o.X.2 | | | r u d g >.>.1.d d j o.R R V N $ 3 % N 3 N * N N N % % B N 2 u X.O.X.u d r r s ;.d :.+.| | | r u r | X.6 d o.X.u o.+.E T | | ,.;.| r o.| y 0 R , r , e 1 < , , 0 e r r y y r 2 e u V | y G.+.N r y e <.>.r d R r o.| +.E R N $ @ N Y 2 , 1 e ;.u u r r y U.+.s O.1 T.X.u d 2.2.r t 9.| r 2 e t t t d y e u t s t t r 1 e s s d y 0 $ .   : , $ , t d d r t >.r 1.2.d g 2.r O.+.q.1 2 +.O.O.A P P e.g.d.d.] r.r.' 8.7.6.q.<.q.7.0.o.o.X.X.r  .R Y N W p.W @.u.u.x.=.=.7.n.$.O.1.o.1.o.y 5.u <.X.r u r o.u u 2 $ r o.<.<.<.<.;.d 0.o.U.n.n.<.<.8.8.5.;.<.o.t o.o.q.;.o.u ;.o.<.<.;.1.<.7.d o.u u 1.7.1.;.u e r 6.<.o.u u o.r $.8.5.o.5.5.f.O.6 =...R @ 6 6 R 2 .. . . .+.Q ^ < < < 5 Y ",
"T W < # 6 @ . . . : *.-.x.n.M.x.x.*.u.*.+.=.O. .O.O.$.=. .| O.R Y X.$.=.$.O.O.<.6.7.6.1.7.9.1.<.;.,.o.| 2 < & 2 6 O.+.| O. .+.R @.+.R  .$.5.<.1.O.O.| 6 | r o.| < @ r o.o.;.d o.o.;.O.R < 6 r ;.O.< @ % , < 8 8 * 5 Y % W n.T.!.pXE.n.E.W.7.7.Y.l.k.l.k.n.T.n.&.l.n.n.E , O   & @ X         @       O $ $ X O X X X X @ @ @ X X       X X X O - 0 , q 2 2 +.2 u X.y ;.;.:.X.o.,.;.| X. .| | o.o.2 | s y 1 1 2 N N < R V N r V N N O.% @ e u u u r u r y d y +.r +.u u | +.r 2 1 t t s r +.1 t r < V 2 1 d r 2 < | r t t t r r r | X.+.V , 1 t t t r y | | 2 t r r 2 3.s s a t u 1 y r 2 @ 2 $ , < $ N Y Y Y T R | R r u d >.u | < 2 <.b.e d , 1.<.e 1 u j >.r t 3.s s f j f g d g a t e s u t d u d u e q e e ; , - 9 e 1 ; : 1 e s d d d g d f f g t u y >.: o.u u u +.B A M P e.' P m M 6.o.k.k.5.5.>.1.1.>.<.5.<.<.=.&.< E E ^ 3 E ^ ^ W 6 | u $.u <.;.i 5.5.<.<.<.4.d u 9.3.2.4.2.0.4.k.4.T.s P.<.k g s d t 1.e t w t o.u d ;.d w e t e u <.<.d w t t t t t s t y e t d 0 0 t @ o ; - : 9 e e e e @ e 1 1 1 0 e o.u 1 2 | @ 1 1 e r $.i  .1 6 < , < > , R < ",
"*.*.x.u.^ 2 . . 1 =.^  .7.6.o.O.$.&.u.*.8.o.u d d d f d ,.s s d >.d o.u 2.g g u e e 0 u w g 0 1 t s a s g d j f f g 3.1.q.=.6.O.O.X.r r u o.y >.>.d ;.X.u d r 0 1 > a t s s s t u t e r 2 1 r 1 d r $ , & = # # & N * * R 8.l.R.Q.Q.W.fXpX!.W.b.l.5.> - @ $ $.b.n.-.%.%...Y & & $   .     @ X   @ @ $ @ $ $ $ @ , $ N $ > - @ $ O O o X         o o @ , 1 < 3 , 2 2 2 r ;.;.;.,.O.| @.+.Y Y N 2 r t a t 9 w w ;.2 N | r 2 r o.| y +.V R r y s r s y X.X.r y | 1 X.V r , a t t a a y | 6 N 2 r r t y 2 0 u r t r , , 1 2 e e 1 1 2 2 6 < t r > 1 e $ , 0 0 1 t r 1 $ O t - 1 r 2 , 0 | 2 2 2 2 | 3 N B T ^ ^ E +.o.o.;.| d s u 1 2 1 t Y.u a y < q.| 2 1 u P.g t 9.s t t t 0 e t s a t a s a t y u a h e 2 > > - @ - w a s 1 ; a t d <.e e s s f s >.t d 2.f d 4.f d d 2.O.A A A M A Z n N O.e e r r u u r e r o.6.<.o. .-._ &.^ *.*.u.*.^ Y Y < 1 | | u $.O.t d t u d s t t k.<.3.s 4.<.k.s s s s 1.<.2.f a d e t <.h e u o.r 1 u 2.: <.s a r e e 9 9 9 : ; ; ; t d d y d s e e s 0 e e e 9 1 u r r e 1 - @ # 0 $ - q.<.u <.<.7.X.o.e e i 6  .r ..Y Y ) W ^ W ^ ",
"x.*.p.u.*...# - 8.x.a.-.6.9.q.6.8.p.t.x.8.:.,.;.d e e t r 1 e u <.o.o.u 1 1 e t u t t d t g d y d d d d d u s f h r o.6.6.E +.+.X.O.O. .o.+.| 2 1 r o.X.u y X.o.y g s a a h h h u y y a e 1 0 > ; 2 , 6 < $ $ = % $ & $ Q =.8.n.E.pXsXpXQ.pX!.b.Y.8. .%.< R R =.n.Q Q 5  .5 & * & $ = & & $ $ $ @ , 3 @ @ $ O o $ o O     o X X O   O       - # X 1 @ $ $ o @ O 3 3 < , 2 2 1 r | 6 +.+. .X.u s s 2 N 3 , $ o t X.+.2 | N | y X.r 3 | V r | X.N e 2 $ 1 1 ;.r 0 o.R Y 2 2 , 2 q d X.| r r | e 2 e e r | | 2 r r , , 2 N < 6 , 2 6 1 2 $ 1 r - 0 e 0 2 e e 1 r | q r 2 d R < u r d s o.R | +.O.+.Y R * < % E 2 | r r 2 @ e e e t t w t u 0.u 3.+.u 2.| 1 u d t ; t t : w w ; ; ; a t s p f f h d s f g s s a a t s t a t e s s s u 1.t t 1 y ; t t >.e y d s s s a s u d a V V V S b ! ^ *. .| e 2 6 u y t 2 e e  .o.6 1 5 2 R ..R R 6 5 Y W W Y p.t. .X.$.O.s s d ;.h w t e e 1 o.d ;.t u t t t s t d w w t 1 t t 5.9.u u r e e y ; t ;.t t t y 0 e e u t a t , e d t t t ; - o u e 1 1 d t r 0 r <.u o.<.1.u ;.r o.8.u u e r , # - e r e 2 - 1 R Y W 5 5 @.Y Y ",
"-.^ Q &.-.+.@ 1  .+._ &.7.7.0.6.8.x.c.c.-.1.o.;.;.o.e o.;.<.u ;.o.e e t r e t d g g f j g k A.f d y d d t t >.>.;.X.X.=.=.W W R o.6. .| o.r o.+.r ;.2.o.o.X.y u u t u y q 3 1 e r y u t 1 > 9 a w t R < % & & & & $ = * 5 =.-.$.l.U.!.W.E.E.W.7.l., %.Y.l.=.@ 5 =.-.^ Y Y , & & & = = & & & > & < * N % $ , & % @ X       o     O           X o - @ @ 1 2 < q q e r 2 R R | 6 6 1 1 , 2 r r r e u R N 2 < $ 1 r y X.+.O.X.+.X.X.X.:.| t u 3 2 2 1 $ @ 3 1 e N N < u r r R +.+.| | | 1 s d | r 1 * $ 2 $ @ + @ % < 2 e r 2 r r r t d d u e ; 9 w a y q 1 0 0 2 +.2 y d t >.r u | e s s O.N < e R 3 3 @ 3 $ 2 1 e e r e 1 e ; - 9 t t -   P.| e d e <.t <.a s t e t <.2.a w w w 9 0 @ - ; t r 1 0 ; t t q e a s s t , 0 1 @ 9 0 1 e 1.t s d d 0 : y e t t e t t t 9 1 , w ; 1 3 4 @ 4 N 3 R +.o.o.e 5.<.d d t e 1 e 1 1 7 , Y , , ..W E Y , R < R ..&.R @.=.r t 0 e o.9 t u y y y 1.3.;.e u a a s s e u d t t u 5.d t ;.t ;.; ;.r e ; w 2 : 1 1 9 e e d 0 e u t 1 e w w ; : ; ; ; ; o o - 9 e , - 0 9 0 1 0 e t e e r 1 ; 1 - e @ X   o @ e r O : , 6 $ @ Y 2 W 2 ",
"..&.W -.&.@.$ 1 | R @.=.o.u u 6.=.*.t./ E O.o.;.X.r ;.<.1.o.o.| | r u d g g g d d s g o.r y d 2.o.u d >.;.u o.u ;.=.@.+.@.u.p.8.5.1. .o.;.+.o.o.d d d o.d a s a p d u u r q q 2 $ O O > 1 1 0 0 ; - T 3 < & % & = = = & 5 ..&.b.8.T.n.R.Y.R.k.7.7., =.k.%.< 5 b.l.*.R 5 < & @ $ & * $ & $ & & $ # $ O , , Y ^ ^ T Y Y 6 e ; ; ; ; 1 O @ < $ O O - > # @ $ O O # ; 1 X @ 1 2 , 2 2 1 e o.y ;.O.R | | r u t 1 y y r y +.N < R N 3 q V < 1 , O < < 0 | N N N e r V % 1 0 y r r X.y q $ @ 1 1 2 2 a d X.2 2 0 1 q < < | 0 e 2 , , e r 0 1 0 e ; t t y r 2 y y 1 $ q < > 0 e 3.y a r t a h d R > 1 2 2 2 < ..Y e r 1 u t d u e t 1 1 e e e 2 t 3.1 t 1 ; ;.y 0 0 1.U.t t d y e 0 , : ; O : 9 t @ - ; , w y 2 2 1 t t e a 2.d u y t s s t 4.s f 9.e <.g a d s s s s 9 h ; u a w 0 > > - > 2 R < | r y 1 6 - : u d d o.r o.o.+., E , 2 R W < ..W Y Y < , E Y > < < 1 1 1 o 1 0 e i ;.h d d d t d t ; ; t O 9 t ; : 9 e t 0 ,   : o u 0 ; 9 w t r 1 ; ; ; ; w e   : o : : t : d 1 ; : 9 0 o o ; ; e 0 1 , e 1 - - 1 e 1 y $ ; o 0 : ; e 1 , - - - o ; @ o , $ @ 2 Y W Q ",
"p.x.a.*.*.R #  .=.p.0X-.5.O.o.$.O.^ Y E E | X.:.o.o.o.X.6 > 1 e r 1 r u y u y ;.u e r 1 e e e 9.,.d d o.X.| | o.O...@.R &.x.f.=.O.;.<.:.1.,.:.o.,.o.| u ;.u h y e < 1 2 > t t e 2 $ 1 0 e 2 < $ - @ Y T % , % & & & & & * Q &.l.l.R.U.Y.b.l.=.$.%.=.l.=.@ @ %.%...R 5 , & & & & * % $ $ $ $ % < 3 * % & 2 < 5 < < Y Y R 0 t 0 1 1 - ; w w w e 2 O         X     : O X @ < 3 < 3 > : 1 r ;.;.:.X.y y | R r 0 e y | N % $ 2 N N N % $ N 3 e R r u w d V R * > e % , $ e e w 0 ; ; 1 < $ 1 2 V 2 y q 1 , e t d s r 1 - 1 @ $ O o : 1 $ 0 e ; 1 e t r y e t a u 0 0 0 2 1 9 d g y e t e r 1 e r u | 1 r 6 6 2 o 1 : r o - , 1 r - 1 u e t t 9 5.e d y O e y # : u u 9.1 u u e 2 $ 1 9 s t a s t t w w t t e 1 1 0 1 0 s s y q 0 t t 0 w t 1 t ;.o o.t 9 e 1 ; t ; 9 e @ t s w w w e t h r < < 2 2 0 1 $ # @ 1 - : e e e e r 6 < 2 R T < < W &.&.N , < 3 R O @ , - 2 , e O.r e r r ; e e o ; O 9 - ; > o     : o ; e 0 ; 1 $ : 2 , 3 - : 0 1 X ; - ; , : 0 : - , O - 9 1 - e 0 @ - - t 1 ; 0 - ; - > - - 1 ; 1 0 e e u r o.u <.| 1 r r e e r r 2 2 2 N < , $ O 3 $ , ",
"n.&.&.W &.5 2  ...-.p.p.6.q.=.R ..t.t.p.-.-.=.6.=.O. .O. .r y d d d o.o.o.o.u s u o.u d d d u d r u 2 2 1 6 r O. ...=.u.*.@.R 6 o.5.O.+.r r 2 R r o.d ;.u d s s y e e t e e 1 e a s p a e u 0 2 , 2 @ N $ < * $ @ @ % $ $ < Y %.l.R.E.8.n.8., $.5 ..-.7.b.-...5 6 Y & & * N * % % % * * * N , 2 , < T Y % $ O $ o o @ < t t t s a t e ; o : - O   o : - o @ # @ O   < $ $ @ # @ : 0 > 2 o.| X.r t 6 < 2 1 0 2 0 r r X.| u | +.+.| V < q t 1 y t 1 0 % $ % O r < , 1 1 0 w ; @ @ @ $ % 1 , @ 1 @ @ 1 , 1 1 - ; ; 0 $ $ O @ 2 $ O > O 9 0 9 1 O @ , > 1 1 9 a p p d h y u t Y.| e 1 1 e < , 2 e 2 @ , > r e 0 y e 2 , , 1 e e 9 d 1 : t w t t 0.y d <.1 9.| u a u 9. .1 d t r < e t a t t w a t a a e ; e : w w - # : 9 1 > 0 e , - 9 9 1 0 e : - 1 . r 0 ; t ; : X @ : t 0 9 1 0 e 1 1 2 , , 1 2 @ 6 < < $ $ # 1 , 2 @ - $ < N N , $ @ @ $ ..N 3 < N Y E T R +.2 e r , ; 1 - - o o e e 0 1 t 0 u ; t 1 ; 1 , 1 1 t r o o.e 1.@   , ; - # o   : ; ; ; 9 ; t e e 1 d t t 9 s u w t 9 : 9 ; : : O 1 6 1 e u r e o.<.h t r u o.<.o.<.u i o.o.X.r 2 R W E Y < < Y $ , ",
"m.u.-.p.a.8.-.n.p.x.*.*.@...R ..@.Y Y R +.Y 2 R < | 2 2 o.o.u r e u 0 1 0 e r 0 1 e d d r 0 y t o.| R 6 r r O.=.$.=.&.^ *.-.@.+. .X.o.o.| +.| | t s g >.y f f s s t a p s d u s h h s t u a X.2 2 | R < Y % $ $ % * * N % * < Y R W =.-...2 $.=.R ..&.$.=.R Q 5 5 N & < * % $ & & * < T * 3 $ , , < N T T ! * 3 @ $ $ 9 e o # ; : 1 @ @ 1 r @ o   : 9 a t ; ; - - - $ # > $ @ o - r 1 2 | | | r t +.| o.r r r 0 y h d X.r h y | u E N r t 2 < e t | N 3 2 2 2 $ $ 1 ; 0 q 3 < 2 r r 3 0 ; ; $ X - 1 ; ; @ O   @ e 2 2 R 2 1 $ @ $ $ X   0 > O O O < , 1 e 1 1 a 1 1 t e e h ;.e e y u R 2 2 2 < , 2 , 2 ; e e 1 1 t t t t e w t t d u 1 ; - u >.@ <.R 1 <.2 e u e Y.r u t @ o - 9 0 ; e 2 @ O : ; t t 9 0 w t @ - : w - # @ - < 2 t a r y t 9 t 0 t y 1 1 9 u @ - 1 0 t 3 $ $ q < $ 2 | 3 $ 5 < % $ % @ # < $ @ o 1 # O @ o X   , @ $ N o R $ 3 $ < Y , < W =.o.o.1 - ; 1 - ; e 1 : 1 : u a 9 t 9 9 s t 1 t t u >.u 9 t i 1.d 1 d a o.t t t t e 9 u - t s g s t t w ; 9 9 t e d s t t t d s t u 6 1 e o.o.u 1.d d u $.6.o.7 - - r - ; ; e r o.| W R R E Y R R & ",
"0X9Xm.x.*...=.8.p.m.c.c.*.&.@.p./ Y Y R =...@.E R O.r  .X.| 2 2 e r 1 - ; , 1 e e y t s o.r u u <.O.O.<.O.X. . .| @.@.T W =.O.O.:.O.>.g j s g d ;.u u 6 r q 2 0 t r r u u t y y e e $ , q 1 < , | O.E $ < < & = & & & & & * * * W &.=.n.-.n.n.&.-.&., o $ , , & * * * * % * $ $ & $ @ % $ % 3 < Y 3 T N N N < Y T E 2 r , 1 1 O o ; $ 1 1 9 t u r 0 t w e - X   ; 9 1 - # O O     @ > > , N < e t X.| y e e r | 6 N $ 2 1 < 1 2 r N % $ e e ;.t s X.r r < 3 < @ $ O @ , $ O $ $ 3 , $ - - , @ 1 - : @ $ < 3 $ $ @ O @ O O @ $ - # @     e $ , , 1 O > 1 1 1 : 1 > 1 e 1 , - y 1 , ; 1 - e e e 0 0 1 2 > , ; : ; - - ; 0 ; - - : ; ; O X - $ o I.| 1 +., e e , 0 1 u X.+ ; | < , @ O O : 0 1 @ O 9 : ; ; - @ @ @ O 9 a ; 9 0 9 0 X w t o 9 s ; a a a d r t a a a ;.1 t 2 X , t 1 1 > > 1 < < =. .| 2 2 , , e y e 1 e X.| 6 ..^ W u._ a.m.t.*.^ ^ &.u.*.T &.&. .o.6 o.o.5.u <.d s s w 9 w s a w d w d s t t s t t 3.t <.d 1.5.9.3.2.s 1.t : u t h s <.y 1 e 1.<.d ;.w s t t s d s s >.t s d d u u R 7 y e - y 7 1 ; e u o.1.e 7 1 e r - ; e i 6 , , R R @ , & R ^ ",
"c.u.u.*.<   1 ..p.^ ^ x.u.m.9Xv.c.c.x.f...$.*.=.O.:.O.O.o.$ X O $ 1 o.r ;.o.o.;.X.u s d o.X.o.r u 6.R  .+. . .#.../ T T < r | o.,.O.;.s g g g d o.X.r $ 1 1 < 3 e y y t e r q u r u r r t y 2 , R 2 R ^ T R & & & = & % $ $ * & R -.n.=.Y W W Y W E N , , $ @ @ % 5 Y N * * % % & & , < N 3 N % < , % $ N % , @ 3 3 2 1 1 e - - : w ; @ - - 1 2 - ; 9 0 0 e 1 @ - :   o : o     @ - 1 , $ < 2 < 0 , 1 ; 9 0 < 1 r N 3 2 2 3 O $ t e $ $ 1 1 :.1 0 2 $ , < $ $ $ % $ $ + @ O   # O   X     O X O @ @ @ O $ X O O O O X X X     o     o o   O X > 1 , 1 @ # 1 1 0 > $ - - , , h o.@ - : ; : ; - ; 1 # ; o : ; 1 , O   : @ - 9 0 - $ - 1 0 u t u 3.g u 3.| u <.d s 2.u 9.| e 4.:.t a u s s u t s f g 0 1 e e e ; 1 - a < X 1 O O @ o h e t f j w f w d e t w f s 0 w f p a t t t : : 1 @ 1 r W W r u 7.<.;.>.d <.;.u o.o.o.o.u.*.p.u.x.p.u.u.*.*.u.u.*.@.^ -.T 6 , 1 e i O.i d t s a 2.f s d p a s w <.e 9 t t t ; o.e e 0 e u u u t ; r t e u t s s t t ; 9 t d d 1 9 w s t t t d e 0 0 1 - e e u $.O.<.o.u u e 2 - e e u d 4.d o.1 o.e u r 1 - $ o 5 W & Q , < 5 ",
"u.p.M.a.t.Y r $.x.*.^ p.a.t.t.^ ) ^ *.#.@.O.o.O.O.| R e t u e u d g f s f f f g ;.| y 2 < 2 o.| 2 $.*.+.E Y #.&.&./ [ y.-.=.O.>.o.;.d d u u u 2 r 2 u d d s f d d s d u X.y u y y d d X.u | 3 O 2 2 | R Y 5 5 % & & = = * * * < < Y &.@...-.-.@.R < 3 $ @ @ % % @ & * * N & * * & < < < N Y < $ $ $     @ $ $ O > O @ X # @ - , < 1 $ - ; ; : : @ 9 ; @ O : t r 1 ; # : o : # # : o : > $ < r 2 < $ 2 % 0 r < r t X.X.u X.| u s f s d s a 2 % 9 w 1 $ $ $ $ $ $ O $ , $ @ - : ; , ; : ; 1 0 1 % $ $ $ @ $     $ O O @ , 1 $ # @ . . o ; o ; @ O X   o o O     ; @ O # O O   : 1 @ ; e 1 1 - o # ; t t t t t t w s g f s d s g u d s f 2.r 0 5.e q.1 o.0.X.d ;.u 9.9.k.E.j 3.j s f f f s s s f f f f f a a s a p f g t t t e 0 t 4.f f s 2.a s a t t 1 : d f f t a g f w f t a s s s ;.o. .p.< < e 1 2 1 e 1 0 <.u r r o.o.O.W E W T < Y $ W Y R R &.&.a.W W =.o.u r o.r e ; 9 >.w d t w u t t a t t w s a s t u P.9.o.r <.u e 0 0 9 o.d d r d s s a s s d u 1 u u : ; d t u s s s a d d t h u 2 6 2 r 7 e r e d d 1.u o.u ;.d ;.r o.o.7.:.1.$.p._ W *.*.) W R T ",
"x.x.M.m.i.+.....-.u.^ Y E ^ T E t.&.=.=.=.;.<.O. .r 2 , e s s s f f f f f f f d u d s u r +.| r X.| E $ $ E E $ $ , $ E E N | 2 2 e u y ;.u u u 2 1 y u d u t r e 0 e q 2 X.y u u u u h u u r r +.X.| 6 Y @ 5 N & % $ = = & & 8 Y E &.&.&.@.W Y , , < % @ % < * & & , $ $ $ $ $ , $ % < % @ $ 3 < N & $ < N , , , > , 1 1 ; 0 2 , % $ @ $ O o o ; e ; , @ - ; o.| u u y : 1 @ X o           @ $ @ $ $ $ > 1 < 2 0 2 2 2 N > r 1 y 2 1 1 a 2 2 1 a 2 $ % $ O - < @ O : 1 0 a p t 9 t t e > - o o       O O e 1 ; , O X o O # ; e ; e 1 0 t 1 1 O     o w s e ; ; ; 1 @ ; - o # u 1 e t 0 ; u t d u t s s a a t t a s s f s s s g f s a g r r d d 9.q.;.5.5.<.9.<.7.b.7.R.j g s s d u r d g s s s s f a f s t s w s a f p p t a s <.j a r >.y t f s f j d s p t r r y , 1 s t t a a t u | R f.x. .u , e r u r e y u r r o.o.| 5 < E , R R < $.^ W 5 R R ..n.p.=.o.;.r o.o.d d s u w 3.f f a s <.a 2.d 4.<.d t t u I.P.k.7.o.u h d ;.;.<.t t t u e e e u y 0 y 2 e 1.d 2.k ;.1 t a g s d 2.9.9.0. .R 6 r : i y t t u r 1 1 O : t u o.o.<.r r e O.=.c.p.) ^ ^ ^ ^ ^ ",
"p.p.a.^ *.-.-.8.m.n.c.c.x.v.v.c.c.-.$.=.o.X.O.O.;.d d o.r d e - , t u 1 e 1 u r q u s s d ;.o.o.| 2 r ^ E u.^ ^ / ^ T E < $ < r O.+.| 1 X.r y d d X.o.u d d t r > @ 1 $ 0 s p s s u r u r r q r , , 2 6 Y < & Q 5 * * * & % & < % Y Y < , , < 5 N % & & > & & & & * * , & $ @ $ 3 $ N N * $ $ * 3 $ < N , 2 2 2 6 r r d s d d d X.| X.| r r r e 1 , 0 e 1 $ O o < $ > , 0 t 1 @ 1 e 9 e 1 - o #       # @ O $ @ < $ @ $ @ $ @ O $ @ % $ - 1 1 1 1 3 $ @ # : : ; -   : > @ O - - @ @ 9 1 - 9 ; ; ; : : 1 : e , - , , @ > $ o   9 w e 0 @ d t 0 a t a p t w a s s t 0 : : e a d o.1.t w t e t t t t t t t w t t 1 1 , 1 t w s a s f f s f t s d g 5.E.9.1.8.q.7.;.r e q.i T.| 1 r 2 6 , o.| | r ;.e X.2 s s t a t a w w ; - @ 1 0 d f y u s f a d w f u , a a u 2 t p u y a f a a s a u o.r  .^ O.r <.k.4.;.5.3.d ;.;.o.<.<.O.=.x.m.m.x.u.x.uXc.m.i.) *.p.M.M.n.$.1 u u r 1 e e t t w w w w k f a a s ;.t d t t 7.9.7.e e e <.y t b.0.h d t s ;.t h d d d d u d s e <.g a d 1 s a a t e e y 1  .r | O.o.;.u r d y t e e r - 9 u r 6.7.X.2 2 , r &.&.&.^ W E E ^ ^ ",
"T W ^ ) ) &.O.$.n.x.p.m.9Xc.v.i.E | | ;.o.| o.X.r y d X.u d y r y d u r u s g >.d d u s d | 6 O. .6 =.c.v.t.t./ i.i.y.&.5.>.>.;.>.g >.d d ;.;.X.u X.| 2 @ @ 2 $ 2 r t t 0 9 0 0 t u 1 2 $ > 1 r | +.+.r R Y 3 < & & * & * * 8 5 5 < 5 < < Y < 2 < < & & # & & & & & & & < < < N N W T 3 N N 3 % * % , 2 < 2 2 r R | e t t r , 1 , e 2 r e a r q > , 1 1 > O O @ - 1 , > , e r e 1 ; 1 - > 1 - : : - O       X X X   X O O 3 < 2 3 % @ O           X     : 9 w 9 0 9 t -     o ; e 1 - ; 9 0 - 1 e t e 1 ; - ; 1 $ , 0 2 1 9 9 : : - : : u e e w a 9 w w t - t ;.t t y e e ; e 1 o.e e e ; w w w t t t X.2 0 a s r X.r d f j 2.f f f s s g s d d e y b.2 o.=...f.E 2 6.| 8.7.r u d >.o.u e y t >.d y t u e a a e a f w a ; 1 0 r g w d s j t a f g 2 e < d p s r <.p g h e d s s <.e y r o.O.W *.X.u u o.;.1.;.;.7.;.o.| r O.$.^ W Y *.p.x._ *.&.*.u.a.^ *.u.W 8.1 r o.t 1 9 w t t 9 ; w t a d p a s t a t t t 8.b.O.r e e 5.u ; o.o.t d t a d d d d d d <.>.<.s d t d d d 1.<.s t a d h r r  . .R R o.O.e r 1 e u y <.o.d d u <.i o.$.8. .6.O.=.E < W R Y 5 R < ",
"W W Y 5 ^ -.=.=.8.*.p.u.u.*.&.@.-.7.u 1.d ;.y d a s t s g s f f f s d a a a u e y r , ; r , 3 < ..R  .W c.t.t./ ^ u.@.#.o.>.s d s g d d g g >.o.o.d g ;.r r X.| y ;.X.y r 2 1 u q y r y o.2 q e e 6 r +.R Y W % , , & & < * * * 8 5 8 * < Y 5 , < 5 * * & & * < < < < 3 , 2 Y Y N < 3 X N W E N * , > , N R | 6 R R +.+.u o.2 2 1 y q r 2 y 2 2 e 2 - - r | 2 @ # 9 s t 1 > > 9 9 0 ; ; e ; ; # 9 0 ; ; : ; ; 1 0 e e e 2 @ @ # o o o - o o   : 9 9 9 : ; ; w w : 9 w 0 e t t e , 1 , - @ O @ @ - 1 , 1 > @ > $ 2 $ $ , $ : 9 , @ : : 9 s ; e 0 a y e t e e t e e ;.u r 1 1 1 - w w 9 : - , t u u t t u t e s s u s f f s s t a a t e e t d d u u y k.$.o.n.-.-.x.p.O.n...W.7. .u r , <.;.u s g u t h r , y , - a t @ 0 ; ; a u s s 1 t s t a f g 1 9 s f s t t 3.p 2.3.w w w w t - e X.$.| +.-.o.u e u u , @ 1 e e u | 6 u  .Y  .b.Q.T.W Y &.W @.&.-.-.-.W R $.e e u u 7.1.a s a g s d ;.t t t a t d ;.t - e $.P.r o.e e e e o.u o.d 1 u o.r y 1 e : 0 e o.e e d d d <.d u d d r y t d u X.r  .+.i r <.<.o.6 1 o.u  .2 t t u o.6 e o.O.8.8.=.&.&.^ @.^ &.W T < ",
"_ Y & o 5 R  .$.R &.t.t.W / ^ =.8.<.d <.d d d j s f t a t s t t s s t a s a s s d u o.y d O.....R  .6 R &.@.< < N R R r X.d g g ;.o.r | o.| R r u o.y d ;.f C.f f u u u f g g o.r 2 2 | % O @ $ $ $ 3 2 | ^ ^ N 2 Y < < < 5 * * * * N * % & 5 < % % < < > , Y 5 N N Y N N < < N Y E T T ^ * < +.W O. .| O...V $ O O < N < | +.r r 2 r R R V e 2 | r u r , , < 2 , - ; t O     X 1 ; - - 0 w t 1 ; ; ; e ; ; 0 0 1 9 9 : 9 : o X : : 9 ; 9 t 9 w w 9 e 1 : o : 9 # w q < 3 1 0 2 $ > e 1 , , u e u r r e R +.| < 2 @ $ O - : w @ t a t t a r 2 1 t w u 0 e t t ;.d u t t t 1.e d d t d s d r u $ - 1 ; u e t s j g g g f y y t e s d g d g s >.s <.>.<.b.O...f.W &.*.=.8.=.7.m.Y 2 e , o.u y 9.s s <.d t t s a s f e t y 2 0 9 t s a 0 e 2.; s f s e t s s w a t t a w w a s w w p w e 1 o., 6 , | 6 7 , 1 1 1 r 1 r ; @ - r  .-...fXm.%.E Y Q 5 R Y R &.Y .., r e u r o.1 e u d t t d 9 5.<.e t 1 ; o.<.1 1 r  .b.6 r $ > @ - e o.;.u +., , 1 u u u u o.d 2.u r 6 1 2 @ e 1 1 1 r 1 u 0 e , 2 @ 6.=.o.r , e r r e o.1  .e y u u r u O.|  .=...< Y T ^ ^ @.@.) ^ ",
"u.^ ^ < W 5 |  .R @.^ t.t.) p.f.q.;.d d d 0 d s d u u r e y 1 e e 1 1 y f f f f f g f g d >.;.1.,.o.r | 6 O.| R 6 2 6 e e e e y o.o.>.o.o.o.| ;.o.o.r r s f f f f s a f f f f s p f >.o.$ # 1 r | | R N 2 N Y 3 , < Y % $ $ & * * % 5 N & & * * * * < * & & < < < Y Y T N N * T T ! ^ / Y , < 2 E R N | ;.O.R | r r r , $ 3 6 u 2 o X @ $ $ O o O % < 2 $ $ % $ @ q 2 t d 0 1 ; ; 9 ; - o - : : ; w 0 ; : : ; o : 9 9 w w w w e 9 e 1 @ : 9 ; 0 e t e , - 0 ; 0 1 t 2 , , - 3 1 y y t 1 0 2 , , 3 $ 3 , 2 $ $ - 1 0 1 1 - ; t e e a a w t 0 $ : e : e > , 0 0 e t 9 t t ,.d d o.| | q 1 e e t r < e g s s t t e 1 1 1 1 t j f s s d s >.a d d y | | | $.6.R %.a.^ *.*._ m.^ m.0X^ ..O.+.t e q.e s t y 1 t a a p f p s t s p 9 9 s w s t e t 0 s t a s a s w 2.1 a t e e a t a s t : 0 r | r 6 2 6 , 0 e e u d r , 0 2 , e e @  .E E Y W &.^ &.*.Y u./ ^ ^ E E 6 o.o.O., 1 1 e r e ; t t e t t y : ; 0 o @ o | ..n.6  . .6 2 e r o.;.r d u h ;.t d j 3.3.d d d 1.d h u , 1 e 1 0 t r 0 - O # O 1 5 - 6 2 6 - e 2 - 1 - e e y u e 1 r $.X.|  .=.^ W Y R W Y & N Y ",
"x.p.x.*.*.p.-.$...=.&.&.u.) &.O.u d d >.u u | , r r | 2 R V 2 y | +.| X.;.:.d u u u d d o.;.d d d o.o.<.6.7.6.O.$.O.o.o.y e r r +.| R 2 d g ;.d o.X.X.o.u s f d d f s d t s g t d y t d t s f g d X.X.O...^ ~ N 3 # 2 % < % % * * & & * & & 8 * * Y % , @ $ , , , 3 $ N T ! / T T / *.@.E  .+.+.+.R | X.O. .| X.d ;.o.>.;.o.o., 1 | 2 2 r r r 6 2 +.2 | | R N % $ 3 2 2 1 | 2 2 1 ; 9 t 0 - : o : w 9 0 : ; ; : t e t 0 1 , - 0 w p y 1 1 0 0 1 ; t t 2 1 2 @ t r 2 2 2 1 < 2 2 1 0 1 1 1 2 3 N > < , 2 R 2 < , , 2 1 0 ; ; < , $ @ > t g s a a s y e t 0 9 1 9 1 1 1 r 0 t s d d o.| 3 , e s f d s 2.s d e t r 2 1 y 2 2 t t s u r r | 2 | 6 r Y Y $ 1 6.3 1 U.*.^ ~ T &.x.t.uXt.2 r u o.u 5.| 1 ; r , e t e t d a t a s s s t s s a t t a t d a s t t r t e a f t d t s e t r e y r o.r $.o.@.R r u o.u o.r r 6 7 u O.<.o.,  .&.Y Y R W E &.) W x.t.) t.^ ^ E 2 1 O.6 o.O.+.e u y t >.d t 1.t s s t h 5.b.7.n.m.*.-.u y i u ;.k.3.s s k.2.3.g d 2.d 4.e d d 4.s j f 3.g f G.C.s y t u u :.o.b.@.Q | u <.;.y e r e e e d t 1 1 0 r r 1 e 5 Q Q p.^ < Y W Y R Q ",
"n.u.&.*.u.u.+...=.-.u.c.p.-.8.1.k d d o.d >.u y u t e e y y y d u | u X.u o.u u u | r u o.u u o.X.R 6 e o.r o.X.o.:.;.d s g g d d d u X.d d u d X.+.X.O...O.;.d 2 , 2 r q u u y d r t u e a f f f f g >.O...^ T N % > < < < , , , 5 Y * & & < < < < < < $ , < < N Y Y / ! Y ~ < 3 < 2  .O.1.O.o.;.X.r R 2 e o.O.+.X.| 2 u y a r e s u u | +.R 2 2 1 e t r $ 1 t d y u r 0 | 2 , q 2 1 1 $ 1 9 1 : 9 9 1 ; 1 , - 1 2 u , $ % $ 1 e 9 w - @ , - O @ 9 - @ @ @ @ ; y R , @ O 1 - : ; 1 r e | < 2 2 | 2 2 1 1 3 < V 2 < $ > 1 1 2 , 2 $ $ t t r 0 a s t y t s u u u r | $ @ O o - 1 e d s X.2 u t u e t y q ;.;.s g ;.u r R N 2 y u >.;.o.o.X. .+.X.| R N 2 $.f.+.6 -.% $ $ < M./ &.uX| 6 | +.u o.e t e 0 e e e 2 1 y r r y R * e y t s d t s g g a f u e e d 2.a t t 1 1 : w ; 9 e 1 y u e o.e 1 | 6  .1 e r r e ;.e ;.i 7.u o.1.=.*.W W R R Y &._ -.x.u.*.) u.u.-.$.7.$.1.u u 9.o.8.<.d d d d <.d a ;.4.3.1.T.n.T.n.u.8.1.:.5.1.1.5.d <.s >.<.9.k.j d d d 2.2.3.<.d <.d 3.2.2.f f d e t u 1.o.7.f...a.=.u u <.o.5.<.>.5.y >.d t t u u i i $.=...Q &.&.N R E 2 ..^ ",
"W &.&.&.-.&...$.n.x.x.c.8.b.8.;.d d ;.d s 3.k.2.j f f H.B.p s 4.g d f s 1 e u 2 r u X.r | R , $ $ > 6 | 6 | | O.+.u d y d f d r t s g g C.g g >.| 2 r o.O.O.r u u r r h u t u u u d d y 1 u r q r u u ;.X.| ^ Q W T T @ 3 < , < , % , < % < * & < % * < , , < N N ^ ! N < < E N < < 2 | 2 2 2 r e r R R 2 R < < | r r < 2 , u | r 0 y o.o.| | 1 2 @ 1 1 u @ @ 0 t t r q t t e 0 1 O O > 2 , @ $ X   O ; e | r u r 2 1 | +.R | < 2 2 1 ; ; 1 1 < , 1 > # 3 , , : 1 # o 1 $ , e | 2 6 < > @ @ 3 < 2 < N 2 r 2 < 2 < , @ O O > 2 $ $ N % u 1 t 0 e , ; - 3 < 1 2 r 2 N 2 < 3 > 2 , < 2 e t r 1 1 $ 1 r , , e y t f g X.r X.o.u g d o.u o.e u <.;.u d o.y u r Y.o. .8.a._ ^ ^  .f.6 R.f.3 < 1 u 2 1 d s d 2 t d 2 ; s u y u u 1 t f f t t 2.f g g g p p f s f f t t a u 0 t a p a s - 9 r r > , 2 | Q 7.o.u e e d u u i t :.e r o. .Y *.&.&.5 Y W ) N < R Y &.p.u.*. .r o.O.y u 1.1 $.O.u d <.d h t h 5.d u 5.6.6.7.#...o.6.1.1.<.;.<.1.<.3.<.d d d t d d s 2.<.d 1.3.3.>.s k g a f U.b.2.<.1.$.8.=.&.T 6 u e e 1 u 6 ; <.<.d u <.<.o.u r o.6.f.^ W &.*.&.x.a.^ W *.",
"Y E W ^ T &.&...n.=.n.-.=.=.1.o.d <.o.d j j g s f s f f u u e <.;.o.;.o.r e y 6 u u s g d d d ;.y d o.;.:.o.o.r 2 2 X.2 $ , e r r y X.| 1 2 e e y d ;.;.o.i :.O.g j ;.u y t f d u X.2 $ O , 2 r r u u o.X.+.V | R Y < $ , R N , , & & < N < % & < % $ $ O O @ $ $ , Y < N $ < 3 < +.+.+.2 r r | e d >.;.>.o.e t u t s ;.o.u r r u r 2 < , r u d s o.X.u >.d X.N , 2 2 2 , - 1 r t 1 $ $ e e r 0 1 q e @ @ O $ $ > 1 1 e r | N 3 > - e t 0 $ 3 @ $ 1 2 % $ , @ o ; X ; , 2 2 , 2 N * < 2 , 2 3 $ $ 2 % 2 d X.2 2 e 2 2 , 3 1 2 @ @ , @ : - 2 1 e < - ; 2 2 t r | 6 < 2 < , 1 2 2 2 V e u s u d N e s y u X.u s s f f f g d j f s s d u y <.u u o.u u d d >.o.q.1.7.n.&.@.+.r 7.f.6 E.0., u >.u y s s s u a f f s s t w s s s f s 4.s g G.g e 9.2.t e a a a f a s a a a p p p f 2.d s ;.o.u o.8.8.O.o.o.u ;.;.o.i u <.u o.u 5.o.R 3 < ^ *.^ *.^ *.^ ^ Y ^ ) _ / ^ f.r O. .o.o.o.o.%.$.u o.7.5.3.<.:.0.u y u b. .r X.&.$.8.8.7.d <.;.k.j 4.g f s d 1.9.<.<.d <.<.9.<.<.u u ;.>.s s 1.b.>.1.o.8.| o.-.^ |  .o.$.o.r ;.o.<.u r e u r o.O.O.O.O.R W 5 W &.p.uXM.m.*.&.",
"u.^ ^ [ ! *...O.=.=.=.f.f.f.O.;.o.o.<.3.d u +.r | | +.R 6 r e d O.+.| O.g s g g g g g f f f g g f A.g f A.f C.g d u d o.r y o.o.u X.u +.2 2 X.r r o.| o.2 1 e 6 e s g o.| e y y e 2 2 $ 0 u d y u u r q | X.X.| | N Y T % < $ $ , , , & & & , < < N N * $ $ $ % $ $ 3 ^ T T /  .O.O.+.X.;.>.;.d >.d g d d s f g f g d u 2 , 1 2 u s u R 2 | r d ,.;.o.X.d u r 2 1 1 h d d u u s f f d | r y t s s u 2 , $ O @ O , e y 1 , O # 1 - @ $ o O X # O < e u 2 , < O @ t r r N 2 < $ < $ @ 1 u | 2 N , 1 u r e t u y r 2 1 t d t a t t t t t d t y e a y y r 1 r e u 2 q r 2 < < 0 < < 2 R N N r d 2.f s g u a t a s s h 1 9 d d d d u d 2.>.<.:.| 2 < 1 r 2 r | , o.| 1 <.1.y o.X.O.8.| 7.pX| ;.2.f d t t - t d 0 t s d a t t 0 a a f 4.2.f 2.f g g w d s 2.d <.d w s a f j f f f 2.d s a 9.1.<.u <.6.7.o.r <.o.o.r 2 u 1.u o.O.o.$.=.a.u.a.t.i.i.u.t.x.v.i.x.c.u./ N -.O.$.o.8.<.5.7.6.=.8.8.b.b.b.7.q.1.1.o.u 8.6.o.8.O.$.| r 5.u ;.u d h 0 d d d <.0.o.0.o.t o.<.7.o.<.u 7.5.b.2.;.u ;.2.1.<.6. .=.&.c.=.=.k.0.<.;.q.5.o.X.y d d o.7.8.8.6. .-.t.u.&.*.^ E Y W E < ",
"_ Y T ^ W &.@.R ..O.=.n.M.M.1.<.$.;.;.X.r | R | | r r | o.;.o.d :.O.X.d f ;.u d d f s s d d d d s d d s d d d j j 2.f C.B.f t s f f f ;.d d d V < 2 X.X.+.+.o.r q y s g X.2 1 e e t s 0 u u u d d d r e r X.O.+.| | T T Y N , N N * $ o $ $ , & , $ $ & < ^ ! N T / ! / ~ N | | | r X.y d d X.y u y d r t s f s s d u o.u u o.X.X.d g g :.+.| < 1 u d d ;.o.| u d u d u u d u e e e r 2 % < q r r 0 r X.6 | r o.e r 1 e e , 1 e 0 0 < @ 1 1 e r 1 e - - O @ 2 1 t 3 $ $ 2 Y R ! < R 2 y u 2 | +.d u o.y r d u e 2 ; 0 0 e e 0 e t s s 2.o.t a s r r X.R R 1 2 $ 1 r 2 2 2 r 2 r , $ @ 1 1 e a a s d d f s s u e r r y ;.d u >.>. .u | ;.;.>.o.O.O.X.O.| y u u <.u u Y.1.X.X.:.;.b.o.R.E.d d s t s d s a 7.9.s d f f p p f t t s 3.f f 4.C.f 2.w U.j 4.s g s a w s s g u 0 t y e e e u o.u o.| X.$.;.<.<.o.r <.;.d d >.<.q.O.| O.=.a.Q &.&.W T ^ Q *.a.u.x.x.u.*.&. .6.$.$.<.o.o.$...r O.e o.r q.o.<.<.9.o.=.8.6.$.5.o.r e u r e <.d t 0 u s d t d <.5.o.u o.<.o.<.<.1.O.o.:.y 0 u u u 1.u r O.O.-.u.=. .u $.o.5.5.u ;.<.;.;.t 7.o.$.=.O.=.n.m.c./ *.Y 2 &.E W R ",
"u./ T &.^ &.@.T |  .:.n.=.$.7.M.n.2.,.u >.>.u d d j d >.u u o.u ;.>.d s s d d s s g g d o.2 e s s u y u d d d g g 2.d f f s >.g f t e t f f f u d s g g ;.o.X.| | | 2 u d | | d d X.2 1 r e 2 - e y y d d o.o.+.r o.E T T T < < Y N N 3 < N N % < $ @ < T W 6 e e r | | | 2 6 2 2 2 e y | +.| | < > q 1 s y e 1 e u g d o.o.y u u u r u o.| r | , 1 2 , , d y X.r u e r u X.R $ 1 $ 2 3 % 2 o.X.+.2 u d 2 r 6 | 2 2 0 1 t 1 e 1 r e r e q , 1 3 O , @ , > , 2 1 1 @ @ < < R N N , 6 e 2 e d d u 2 2 2 e y d u t s s r , 1 $ 1 2 1 , ; o.o.u u e $ - e r r t d t t t e t e s a s s s g f f s u 2 e ;.<.d y s s s d f g 2.s >.| o. . .R r d g g ;.O.o.;.d d s d 9.;.d e o.1 e ;.u 0.;.<.I.g e e ;.d 3.<.a k.s a 2.s s a s t a a s 0.g e 9.d d g p 3.f 2.f 2.2.f w w s s s s f a u d s ;.u u u O.5 | ;.<.r u o.X.d ;.>.u e e 1. .X...^ *.p.*.m.a.m.t.&.-.a.W &.p.-.p. .X.o. .| r |  . . .O., r e r o.2 e r e :.O.o.e r O.o.r e o.u 1.e d 1.t d 3.d d 5.o.o.o.<.o.o.6.;.7. .| ;.1.9.4.1.1.b.b.8.=.b.x.p.p...@ r 1 $.u e $.$.<.5.<.u o.=. .| ..W f.@.*.*.p.-.m.x.c.u.",
"&.) W Y < Y W N 5 r O.=.+.R Y =.o.7.<.o.o.d d o.u ;.o.r r r 6 1 e y u 1 0 t 2.g f g s f g s g f C.g 2.A.g f d t s 2.s g s d g s g s s a g f B.B.B.g s >.r , 1 u r r u N e | $ 2 2 R % , 2 2 2 % , e r u y u d ;.;.u r e | 5 R , 2 Y Y < < Y R W Y R W T & $ O O 1 1 - 1 0 ; d u o.| R < N < $ 2 X.o.u o.u r < < 2 2 1 0 r 2 r u y 0 1 t r u d d o.u u 2 , y r , 2 2 r e , 1 e y y e r y X.| 2 r | :.| y u u r 1 r t d 6 > 1 t t e 1 e 1 1 0 2 $ $ , e e | N 2 e r R Y N $ E ! R R 2 1 y r | o.d u d e e t 1 ; 0 1 e r X.r | r r N @ : r 2 @ e s u d y u e 0 w t ; > @ , - e 1 $ e u u y r t d o.s f g 2.s s s d y u r o.| | +...*.=.<.,.>.;.d d d d <.t d s a u ;.d u 9.5.<.<.y i b.u P.uX1 e t e t t d 3.s d 2.d t s a s g f j T.k s 2.t 2.s s f 2.s f 2.d f s s f f p g f s u d 2.>.>.;.d ;.$.1.;.;.7.;.o.u o.y <.o.o.X.1.<.<.=.&.&.u.&.x.a.x.^ *.u.) &.W &.Y &.&.=. . .| r X. .O.=.-.=.o.o.r u i e - e o.$.o.r | 8. .e r u d d d a 1.d u <.Y.r u o.O.| r | 6 O. .o.1.q.| ;.9.;.<.7.7.8.n.n.O.=.E R ..6.o.o. .X.$.1.;.o.;.;.<.6.=.R  .=.< , 5 -.^ -.x.i.*.*.^ ",
"_ T W W *./ @.E 2 , =.%.&.E N N 3 2 2 o.o.X.O.+.R R X.| < , 2 e R , e 6 t y u e s g f f f f A.C.2.2.f f g g s s s d s t t u r t s f f p C.f f o.y o.o.d d u s g d s s y y t t u q 2 1 y f X.X.o.| 2 r r +.< 0 e e 1 - t r r 6 $ 3 , 2 , 2 @ 6 2 1 6 e < o o @ @ O # @ 1 1 a d 1 @ @ 1 2 y s a f s s u d u u e | r | , < R N T 2 e d >.u d r 1 r y u s f s a d 2 1 q e e y a s a d t s f d r 2 2 , 2 e $ - 0 u r 2 - 1 1 r 2 1 0 e e t e 1 1 2 2 2 1 0 2 , 3 6 r 6 R N N * < $ , 2 r r y r 2 < > s s s 0 e 1 1 r 2 6 r r e y r u y u u d y 2 t t t e e r r 1 0 r r y u r q u | | 6 | R y X.t g | d ;.u s g 2.d u y e o.o.+.o.O.+. .O.6.5.;.d d d t d d <.d d d h t d d <.W.X.u u u 7.9.d I.2.d s t s t d d d d s a f f 2.j f f f Y.w 9.2.2.2.f k d 9.t s 9.d s t t a g s g s s f 1.d t ;.7.;.d u $.:.;.u o.e 1.o.y y ;.o.X.r o.i i &.W ..^ 5 -.&...*.&.R ....W T 5 &. .,  .O. .o.o.=. .=...r r o.u 7.o.u u <.7.R 2 o.;.<.o.u <.<.<.d d d d y e o.6.O.$.=. .R =.| | 2 $.O. .6 e r 1 ; o.2 e o.f.2 +.W < , %.o.| X.X.8.y d u y r o.r 7 O.2 =.&.^ ^ R Q -.^ W ^ W N ",
"Y Y W ^ R Y N , , +.+.E ^ / t.&...O.1.q.3.1.1. .O.R R  ...R | r y u y d s u u u d r e t d d e 0 0 d d s g j Z.C.f f d y j g g s s d d d u 2 u r t d d u s d d o.o.r d s d d f s d r 0 t a y u 2 r X.r r u 1 ; 1 t u 2 2 q 2 1 r 6 2 2 - r , , - 1 r r r 3 X @ @ O $ < 2 , 0 , 1 , , - ; ; e 0 1 t t 0 r 2 1 1 $ , > y d s >.u X.y u | r X.| N 2 o.| r s s s s d e y q 1 t t e t y y y 1 e u X.o.r $ 1 1 2 1 2 1 1 < 1 1 1 2 $ O @ > O - , @ , 0 t y e r , 1 6 Y < Y N N N N 3 N R R 6 e e ; ; 9 0 , e y y r e t u r r e e r 2 2 1 X.< r r r | | N < 1 r r e | | | r y y u u +.R | +.R r e t o.| e R R r u u d d d u r 6 | 6 e 1 e r %.$.u e e ; e e e e 1 0 y t e ;.1 ; i O.: e : ; 9.>.w D.g u r d s d d k s t - ; w 9 d t s a d w d 2.9.s t t t ;.# e <.s t t t <.d s g s s t u 5.o.r > e X.- 1 @ 1 1 y e X.u r r R 1 r 2 6 , 2 ^ *./ W W -.$.^ @.W R N 5 W R < @.@.< | | 1 2 < r +.R R 2 | u o.o.o.<.r X.o.6 2 6 0 r O.o.u 0 1 @ - r u u r u o.f.R 5 *.E ^ R | | R =.+.o.o.| r o.O.6 o...O.8.-.a.t... .r o.| 2 1 e 1 1 r 6 2 ,  .6 6 Y Y E Y , , O o o , N E ",
"T W W ^ Q ^ ^ N * ^ / / / y.y.t.t.u.t.@...=.=.<.q...+. .$.O.X.;.s s k f f f f f s r 1 t d e t u h d u y ;.o.r y d g f f u s f f s t a d r 2 2 t s s s f g o.;.:.:.:.O...+.u ;.s d r r r r e u q r y u y t r 2 +.V < 3 % 2 2 1 e 2 2 2 2 e r r u u d +.2 q @ $ 2 e 2 r 0 0 e r | r r 1 > 1 @ - # # ; ; q 1 0 d e y e u u f f d e y u o.| R | +.+., e 2 - 2 $ 1 e u X.r u , O O @ $ 3 % $ 1 u u 2 u | 6 r | N N 2 1 +.6 R 2 < , q e e 0 0 a t t a t 0 # e 1 - - , , 6 2 < N T ^ ..R r t a s a s a e r 1 0 t y 2 < 2 2 R R | | N N 3 R 2 2 < 2 r R V +.| 2 2 , N N | R 2 , , @ @ 3 $ O $ N % < < $ O O $ @ X - t d s e > 1 , # e r  .| 2 > 1 o.u r u 2 2 0 e q q y u u y u 2 b.| u t d d q.u 3.b.$ @ > 1 u e , # $ 0 e r 2 2 3 , 2 t 3.r <.4.s , , h s h d u d y u y ;.o.1 , e ;.@ o r 6 2 - 0 ;.| O.R 6 r y | , X.r r 1 r | 2 r O. .E *.^ ^ ^ ^ a.) T W T Y @.^ -.u.^ -.@.R N 5 6 , o 2 R &. .7.$.7.o.$.8.o.0.u 1.r X.X.6 7.U.=.:.o.6.7.5.<.<.<.<.X.6.....*.&.a.^ &.-. .=...7 6.o.b.n.<.k.5.$. .6.f.u.a.-.8.$.o.o.2 @ u u O e ;.;.6.8.7.x.^ t.^ ^ ^ -.T < R ^ ^ ^ ",
"&.^ ) ^ ^ _ _ ^ T T / [ / / / ^ T / ! N R T R O.f.7.f.*.+.E R y s f s a s u 0 t t s f j f s g g g g g u r 2 1 ; u u s s d s s a g a f f d t a s u u s f C.:.y >.,.,.;.o.u y r q y a p C.d d s f d t y r y | e d | , 2 r 2 > # O 3 O O 1 1 e r r 1 r 1 e e 0 1 0 1 1 - e y d u r r t 2 , r 1 e 1 0 1 1 1 ; e a t e e t t u u | 2 r X.r o.X. .u :.2 e r 2 e 2 y r u r 2 e y u | r 2 N N < , - 1 > < % , R 2 | 2 Y 2 e r E 2 1 r e 1 e a t t t r r , @ @ ; 2 2 - - # 1 Y 3 $ # , e r e t y 1 q 2 1 0 q q 1 , e r < $ o O @ , 3 @ $ O # r 2 N < e 2 $ @ 2 R 3 $ % N $ 2 2 2 , 1 , 2 % 3 N | r e t e t r 1 w : t 1 @ 0 t s 2.d t d o.o.X.| 2 r >.d y d o.y d u t t s e 7 d >.>.d k.t d e t 5.u , 4.1.s d d 2.2.y t t <.g 2.s u t t ;.k.e 1 u 1.j g g 2.f f f 2.4.f f f j d t <.;.4.s t <.q.<.7.2.<.9.l.7.;.<.k d e r e e y u r e r r X.2 5 Q -.&.&.x.p.) *.i.u.n.u.*.x.-.x.m.-.=.-.-.-.&.p.p.&.-.%.o.$.o.r r b.u y $.$.o.l.6.$.k.n.5.5.Y.6.o.y u o.,  .=.8.W W -.@.&.W ..=.-.=. .| :.8.$.u 8.o.o.O.6 =.c.u.-.x.8.8.7.T.0.d ;.;.u d u  .6...-.&.-.p.M.M.a.x._ p.*.Q Q ",
"W Y ^ Q E W W T N 3 E / ^ W ^ T T T ! [ [ / [ [ / ^ a.u.O.R r y 0 u y u d u d d o.X.u d f f s j f f G.f j 2.C.g f f f f y e r r 0 y e 0 d d a y t d | e u 1 0 u q e s t s d u y u e t a t f s f g g s f f d y y d d ;.d o.u e e a t e 2 @ $ > q , , $ 2 X X 1 1 1 1 @ 1 1 u 1 1 1 t u y 2 1 u ; u R 2 - 1 0 O # ; : ; - ; e e | r | r | 3 , | r o.+.R 2 1 2 @ 0 , 1 e 2 e r r r 2 , < 2 r 2 1 2 1 > 1 1 1 1 , , 3 , , $ 2 2 $ O @ $ O   - @     $ 2 R , < $ 3 < $ , $ @ 3 $ < r < 1 , o O $ R 2 r 2 | y u r r r u | $ , $ # @ $ @ 2 ..E N 3 9 y , $ 2 | 2 1 2 2 2 r r | e r 6 6 r | r e t a a a p t y e u t e e t a s s d d u o.| o.d g u | 0 e y 1 2 0 1 e r t 0 t s 3.s s P.d t 1 t >.d 2 u R.2.y y t t a f s s a t t 3.j p f P.w a 4.2.j a f l.U.f s t t t <.e ; ; d <.3.s f 2.5.7.>.o.u d ;.7.<.5.<.2.s <.u u d ;.d <.<.5.1.<.f.t.u.*._ *.m.u.*.u.u.&.*.u.u.W x.u.^ R ..n.=.-.x.x.*.*.W  .i O.u u o.q.o.e e  ., , r 6 6 X.O.| r | > r 2 , 6 2 Q ^ x.t.&.^ Y p.*.u.*.*.=... .6 r $.| o.$.$.-.*.a.i.*.x...6.O.$.5.;.>.;.;.;.$. .O.R @.u.Y R f.^ Y &.^ W p.m.m.",
"E W W Y ^ T Y E N N ^ ! ^ ^ / ! [ [ [ [ { ! ( [ ~ / ^ ^ =.5.;.d d u ;.o.:.;.;.d f 2.d s f f 3.j j f C.C.j A.f g f g p g d t a g a s h d f f a s d o.| e | e h y r 0 s ;.;.s f f y e 0 t g d u e 2 , e u e y d s d d ;.u a f t t t g d u 1 1 y r s f o.r > @ , r 1 1 , @ O 1 @ $ @ , 0 u y r u X.y r 1 0 e y 2 e 1 e 0 - 1 ; ; - - - @ 1 6 6 2 2 2 2 < > > 1 1 1 $ @ , < 2 , 1 r 2 e 2 e a a d u r r e @ # O < @.T * $ $ 6  . .X.2 , @ @ ; e 1 1 | Y 3 @ < O & R 6 r 6 1 $.i.) +.e r r 1 , 2 r r | X.| r V * < < @ 1 d r , 1 2 $ @ $ @ @ > 2 0 e q 2 1 2 $ # , 1 1 ; e , , e > 2 6 , @ $ 2 1 t u d | V 3 r e a f s s u d t u r 2 u u d u r u d g d u X.r r r e t a d 1 ; 1 0 e 9.d j 2.2.d d o.<.0., - : e 0 e e 1 , 1 e t u h s s C.V.C.2.y w e q.d u 2.t a s d s t t s t <.d y e u i u u u i u u ;.o.o.<.d d 1.O.+.| | | | O.O.<.-.) t.Y @.W &.T %.&.Q R &.&.Y =.x.&.&.*.u.&.&.R Y Y W ^ ^ 2 1 e 1 e | 2 0.X.r 0 o. .e O.O.6 O.|  .o.=.f.+.#.O.&.*.&.a.c.t.^ E a.^ @.c.u.&.U.O.$. .7.O.O.O. .=...W *.*.@.+.8.-.$.7.b.<.,.d o.6  . .&.x.i.u.) &.E R x.t.W &.*.u.",
"Y < Y @ & $ % < * N N N N T T T ! N 3 ! [ ! ! T N T * N < t d f f h d a t s u u t d j g g g t 9 t t t s d 2.3.3.j f p f j f s j g C.C.C.B.B.f d r < - d d y u u d d d ;.r u y u e r o.2 0 r X.r r y r e r e | e y u r 1 e 0 , 1 e u 0 u d y t u t ; s f s r 1 1 , 1 > @ @ , 2 2 2 @ @ # O X O @ 1 1 > @ > ; , O # ; - - , o X O @ O O o 1 2 , , 2 2 $ > 2 1 r r 2 1 2 2 1 0 1 e 0 e u e r r X.2 2 | 6 Y 2 R < , $ @ Y 3 Y 2 6 | t d s d t y r 2 2 R < 2 ^ ^ R 2 e e <.R 2 < N , r R 2 y r 2 | % $ $ $ < N 3 0 | < , 1 1 1 1 2 $ $ 3 O O X o e r 2 y e r 2 2 $ 2 $ > , $ 1 , 2 R N Y Y T < , 0 ; ; - 1 - : 1 ; 0 1 @ X O @ - 1 1 1 1 > O 0 e e e t r 1 1 , 1 ; y q 2 , ; u r , o.d 0 <.7.e 1.y t U.j f d j u d a t u s f f a s 4.2.f p f 3.s s p <.s j 9.j g s f g g p g d ;.d d d u u 1.<.;.o.<.u d o.e 5.<.;.:.$.O.r o.u u X.:.$...p.a.W &.^ ..^ Y E &.^ ^ R -.u.*.@.p.@.u._ *.&.W W R R @.R R , 1 e i 6.o.7.q.u <.$.o.6.$.n.O.$.=.$.7.=...8...&.*.-.t.*.u.&.m.p.x.u.&.-.n.=.$.6.<.1.o.6.=.$.-.m.*.*.x.u.&...6 $.i $.o.5.u O.|  .+.W Y *.p.&.W *.x.m.&.x.p.u.x.",
"T Y E Y W ^ ! ^ ) [ T ^ T T T $ $ o @ N % , T N N T N N R 2 6 e s g s r 0 e e y e d d <.t d d d d >.d <.3.2.2.<.s s s f t d e t t g f f f f f d d u u s f g s s d y - ; 2 , < 1 R , u , $ 2 r o.o.u s o.o.o.r r y y 1 9 u t h u t 1 1 u s d u u u 2 0 s a 0 0 0 t a s s t u 1 0 e @ O O   : 1 - @ - @ $ @ : o   o # o o # O # - @ - , : - o   o : ; 2 , 2 1 1 r r > O o e 1 1 1 - - , , # @ 2 , 2 2 < Y N 2 % O @ $ 3 N $ , N N V N 2 r 1 # o , $ 6 Y N E W > 1 1 1 r N 3 @ $ < R R V , q | | | | | 2 R V , , $ , 2 $ # @ 1 6 N < T N 3 @ X : - 3 % @ , $ 2 R | | R N 3 , O 3 N $ N T % 2 2 2 1 0 e t t t r - ; - O O O 1 1 1 @ X - ; ; 1 1 , - 1 $ $ 1 $ > ; ; : 0 e u r 1 e ;.d 6 o.y t d w s t Y.d t a t e w w w s a w t t 0.o.w t w 1.g s s <.2.g J.4.u s s d r t d 1 u u t o.u y u r y 6. .;.u o.;.<.u t 1 o.<.5.<.<.<.o.6. .| W W ^ Q W -.u.^ ^ R &.W W x.*.*.u.u.^ ^ ^ x.x.*.p.a.*.*.x.*.-.6.6.7.1.o.o.f.e 2 1 $.O.| +. .O.=.=.=.5 | R R R 5 E , -.&.&.x.W u./ E &...7 r  . .r O.2 2 6 O.E p.^ p.-.m.p.-...X.6 i k.q.o.8. .$.Y , W , 6 @.5 n.*.8.&.@.*.Y ",
") ^ ) ^ ) t./ ^ ^ T N ^ / / / / / ^ [ ! T ^ [ / ^ T ^ O.o.X.| 1 t g f t 2.d >.2.g s >.1.d 1.7.9.3.3.d <.<.3.2.2.g f 3.2.s j g j f f s e 0 1 a t s f f p f s s u u y r t s d ;.o.<.,.g g g s d u X.X.d u r r q t e y 1 u t d h a t s u u r e t u f B.g u f a u 0 > X o ; a t e w a 9 w a a w e w e : w s s s t e 0 ; e r e 7 0 y 1 y e e t r e 1 : 1 1 1 t s t t t y q 2 < @ @ 1 < 2 , 2 $ 1 0 r e 6 5 < < , N N T T N N N E ^ +.+.| N , 1 1 2 2 W Y E 2 , > r o.o.o.r +.E T 3 < , < R 2 q | 2 | | N 2 r < 2 $ O > r 2 N 3 | Y W ^ T T 2 2 r @ $ 3 $ $ % $ 1 | 2 2 | R R < @ * * * N B 3 N | | e u q 2 < , < 1 , 1 R 2 t 2 e , O $ 2 e e 1 2 $ ; y o.X.t e y t 1 - 9 0 e 1 0 e u t 1.d y t e u d e 7.3.r u t t s t t e w t t t 4.i t ;.y 0 : ; ;.e e e <.d > 0 e ; @ o.u i O.2 1 1 o.2 0 - e @ - 0 o.r e r u r u r 2 , @ @ , 6 6 > 2 ^ W *.E ^ @.W ..*.@.W &.Y $ R *.^ E Y R W a.@.p.n.@.E W Q +.=.X.O.6 1 e r 4.X.; 1 o.2 $...*.a.u.=...@.@.E ^ E ^ E +.a.-.a.R R ^ W W p.E =.i $.6  .| 6 e 6 | R W O.T.f.b.M.@.@. .X.$. .=.o...6 R @.^ W ^ Q *.E &.R &.W R ..R ",
"*./ T ^ / T ^ ^ / ^ T / [ { { [ [ { [ { d.[ i.{ [ t.i.=.o.u r s a s u e 2.f f s t a r d 1.| e o.u d t y u d d g j f d 4.9.3.3.3.j f s s f p p d s f s s t e , 2 1 t g g g d d >.;.o.=.o.s f f f f f u u u 0 0 e e e r u y y t f s f s s y a y t t t e u e w s a 1     : w p p p p s e 9 w w e w t t e : o o : 0 e u u u e y e e 1 # O @ @ @ o X , , , e , @ o @ , 3 < $ 3 2 2 e 2 2 e | o.R 2 $ # O , 3 N < & Y N N N T N T N , 3 $ 2 6 r r R < < $ O @ @ # 2 2 r 2 0 3 @ O @ 3 $ @ 2 2 2 3 < $ 3 N R r 2 R < N < 3 % % @ #     o $ & $ $ - < N N < V N < , 3 @ $ 3 % 3 | ^ T N N N N % , > 2 e | * , , 2 $ 0 < % O @ 1 < 1 e | N $ @ 1 | r r r > > $ - 2 @ O 3 $ 1 1 e 1 1 y r , <.d r - 1 $ u X.r Y.:.1 q , $ , 0 t t 2 $ t I.<.u ;.>.d ; d ,.1 - u e a - ; e ; 1 r 1 e 6 $ , , e , r o.r | e y r 1 r o.5.r u u u r e e r $.=.O.O.*.^ R *.^ *.*.^ ^ W W &.^ E W W p.u.u.x.&.p.W =.p.^ ..&.&.&.=.%.6.X.o.r 7.o.l.7.8.8.8.8.-.&.*.^ @.) *.*.i.i.t.a.u.a.*.c.i.p.m.u.x.x.c.-.b.b.7.7.8.1.6.6.q.=.&.p.E.x.-.p.*.&.*.E R  .R 6 | ..@.^ ^ ^ ^ ^ E Y N < ^ , , 5 Y +.",
"^ T Y E / ^ [ [ { { ! [ d.d.d.d.d.[ [ y.d.[ [ ) _ ^ ^ +.d s s a t f s s u u r y a s d >.5.o. .i ,.d >.d ;.X.<.u u t e t t t t d s f s g p f f d u u u s f f s g u s d y r o.o.+.< > 3 5 X.y 1 1 e y : t a s s a d e e y y e t 0 1 e e t t a t a ; d w p 0 ; 9 w w -   o ; w w w t t e t a a e e ; e 1 1 1 1 e e 0 ; : e 1 1 @ @ @ $ % % % @ , # , # > O X O X O $ $ $ $ $ $ , 1 6 2 , O O $ N 3 % , N * * % , < 3 < $ N Y T Y $ $ $ $ O ; @ $ , $ % , N Y N r 2 3 O o @ @ @ $ N R R 3 % $ $ N $ $ N % @ X O $ , % , < 3 % $ O O $ 3 $ Y N , | R R +.| | | 6 | R E V R N Y ^ % 3 N T B $ O @ 6 1 , $ 1 y , 9 t 0 e < e 1 y y h y u r r u u X.r 2 > , < 1 u 2 t u u u d o.r t g d u 0.k u , e 6 t 1.% t U.r 0 > - 0 t t r 3 @ 5.U.k.>.3.j j g f d 2.g Y.d g g 3.d d q.1 o...6 -.u. .o.=.6.1.<.k.1.<.o.<.3.<.<.1.d 2.2.<.;.5.6.$.5.O. .W T R *._ &.m.*.&.T -.p.a.-.x.-.x._ &.n.W ..W &.&.-.W W n.x.-.-.%.7.7.7. .$.7.b.o.$.=.O.5 &.W W -.-.u.u.&.^ *.u.u.u.m.x.c.a.u.^ *.m.&.m.-.8.7.b.E.8.n.8.$...u.@.x.m.n.m.&.m.M.t.&.=.=.+.E W &.*.T &.) W T R W W u.Y & Y ^ T ",
"i.y.d.d.d.i.c.[ d.i.{ ! T [ ^ / ^ / / / ^ u.) u.) ) @.r s s s f f a s a u e u u s f 4.7.8.b.k.3.9.3.k.2.<.>.9.d y t t s d t s u d u a s s u u u X.y 2 2 0 t a s t t t u o.X. ...E @.) ! ^ | 2 3 , 2 1 1 e y e 1 0 2 6 , 2 y r , r < 3 2 1 , 1 1 y u 1 0 - o ; e t O . . o 1 , ; ; e e t t e r r r r 7 u e 0 r 1 1 1 , 6 2 % < < , ^ Y Y T W ^ ) Y W T , 6 r r e 1 - e r 2 > 2 , @ > 2 $ o @ 2 E T N N * * @ O # O , $ % 3 % Y E R 2 1 - e 2 3 N T 3 < R 2 2 2 % < R | E / / / ..O. .6 2 2 , | |  .+.| | r | | R N R 2 T N T ! [ T T N N < $ 5 , 6 R R 6 r u | r r X.E T Y ~ ^ / ! ! ! T N R Y e y e t t e t w 9 w a t y u u h u y u y u u u r 2 u s s s d e ; t d d d d d g d t e q.h b.1 u 1.t 3.r t I.T.B.p B.V.C.p f f C.2.4.9.j C.3.9.2.<.<.g j 7.5.<.1.<.2.7.8.5.n.x.m.*.u.$.$.b.b.5.;.6.b.1.<.5.u e e ;.y u u u ;.;.5.<. .6 ..^ ^ -.x.u.^ p.p.M.p.M.*.W &.*.W a.&.R %.5 Q R R f.u.^ *.*.&.*.R 6 o.o.1.O.o.$.7.q.o.O.| $.l.n.x.t.a.^ u.a.) &.u.-.m.*.-.Y W u.p.m.m.x.uXM.8.R.W.R.R.W.6. .%.m.W -.p.M.c.-.M.M.m.x.x.x.x.n.a.x.-.x.-.-.*.@.-.u.u.^ p.*.u.^ &.",
") / t.i.{ ^ ) { ! Y T T ! / / ^ [ / T &.*.x.u.x.i.i.u.5.d t s g f p p s d g f 3.3.3.1.l.n.n.b.<.9.n.b.4.k.k.b.j B.f 2.j 2.3.j s y a s d e d r r r r r X.o.X.u y r 2 r u ;.O. .=.@.&.) / ) ..o.y r 1 R 2 1 e e 2 2 2 | % 2 2 e | r X.u r 2 2 2 2 e 2 1 1 e 0 @ , r 3 X   : 1 e 2 e u q r r | r r r | +.| 2 $ $ # , +...+.^ / [ [ ! ! ^ T T T T ! T T E R o.r e 2 1 1 2 < < 2 2 < $ , 2  . .| | E &.! T T ! ^ ! T N N N Y T E W E 6  .| | | E T W ^ ^ R  .| o.r 2 , < > Y T T B < | R | | r | 2 < R +.| O.O.+. .E R E Y ~ T T ! T T ^ N $ $ @ ^ R < 3 @ # > : | | +.#./ ! E ^ ^ / ! N T T N < 3 e u r e e a s s s a s w w 0 - 1 u e 2 e u d d ;.u u r r y u X.; u r 1 - 1 - o.1.y o.d <.9.y t s u s Z.s f U.g t r w s u 1 0 d d 9.t k.f 2.Y.<.0.<.y <.1.5.3.u 9.<. . .o.&.x.t._ u.i.-.$.O.o.1.6.5.4.<.<.r u u e 0 e ; : o.o.X.X.$...-.u.*._ &.^ E , @ @ 6 &.W W E < Q p.*.^ Q &.p.Q &.&.Q &.&.&.^ *...=.7.X.o.6.o.6.$.7.8.r | =.R *.*.*.p.x.a.c.t.^ p.*.m.^ R Y @.-.M.0Xi.m.x.uX=.b.T.E.E.m.f.T.uXc.m.m.c.p.a.n.a.u.n.x.W x.*.W @.W &.8.m.p.u.&.&.*.p.*.^ &.&.&.R ",
") ! Y < Y & < Y E T ^ W { ^ u.u.u.u.t.a.c.i.*.W ^ W *.O.t t e t t s s a d s d <.d u  .=...-.8.5.;.5.1.7.k.n.5.4.j 3.9.k.k.0.9.3.d d 3.1.u s e e 1 t s d u | | r r | Y +.| | | < Y ~ T ^ Y N , > - $ # 1 u y u u d d d u r 1 e r r r e q y t s u t y , - e 1 @ @ 1 , O X O @ , < 1 q e R 2  .| 6 < - $ $ < N N 3 N | @.T N / y./ N N N T ! T % T T T T & , 5 2 < , R V % < | R 5 R R 2 R | | 2 2 , % O $ % ! ! T N & , Y ^ / Y Y 5 R < , , , % , @ @ 6 | 2 r r | , $ - 2 N 3 3 3 +.R R R r +.N R R +.+.....E R ~ N ! ~ / / / ! N Y ~ T Y N & < R > 2 R 2 < $ < N $ $ % $ @ N N T ^ T ! / ! < * 3 2 E 3 0 t t e t w t -   # o : 9 ; - 1 e e > - ; , 6 r u | o.| R , 1 , - - <.o.5.0.3.g s 3.r u g s f C.d <.U.u u s w s t e t w 7.a <.u u e e $.7.;.9.t y <.<.9.1.O.#.-.W u.N < < W *.8.o. .5.o.u <.i o.u ;.d y d ;.t t r r  .6 O...&...p.5 , ..Y R Y R R &.-.-.n.u.-.x.p.&.R %.W W &.*.Y *.*.-.&.p.*.&.O.r - r e 1 6.r 0.r  .O.R < &.@.Q ..&.&.u.&.p.u.&.x.p.u.^ Y *.p.^ R &.x.8.=.m.n.n.8.=.8.f.*.*.p.c.i.*.x.i.^ p.^ 5 -.^ R R R *.W &.*.T Q W Y 6 -.^ W W W u.",
"d.[ ) W _ u.^ W *./ N Y o   2 Y Y 5 W Y R Y W < $ , Y & 1 e t d s u s a s d 2.s d o.o.&.&.m.x.l.5.u t o.<.6.5.9.d 4.<.<.7.2.4.l.U.b.9.U.j f d ;.>.d d X.| | 6 <.;.O.+.N 2 R < @ $ T Y N X O O < < , , 2 r 1 q 1 0 r 0 u u d u t r , @ 1 e u r 1 e u | 6 1 9 y 1 e 1 $     o < @ @ - @ # # , @ 3 , $ $ $ ! ! ^ ^ T T T T % T N N N * 3 $ $ T N Y , T Y N $ N V E R R ..E < 2 2 e 1 , R Y 5 R R N , $ # $ N ^ ^ ^ N # @ # @ , T Y R < 2 , , @ % $ O o O # O - X 1 5 , 2 5 * N ! / / E E N - | +.| +.| ..R E T N T T T T T N Y N $ $ $ 3 $ & R % % , E E N 3 % % $ , $ * 3 < T T ! T N ! ! B , N N N | | | 2 > , 1 e e @   1 q t t t t t q 1 , @ - , 2 1 r 2 , 1 1 e y u >.d 1.e u ;.y e e 1 o O ; r t s a s Y.9.f 2.2.f f f f g f s d y u 6 r o.<.;.o.9 o.o.:.O. . .^ n.^ ^ T T Y &.^ R 1 e i 1 e u e u 5.o.u <.d <.d d e y <.5 Y ..Y 2 R E &.^ ^ -.u.Q -.&.*.-.p.p.Q R R ^ W ..Q &.*.&.W 5 6 2 W , R 2 | 6 r r  . .r r $.l.=. .n.^ *.Y , - R ..W E Y , 2 R W &.W &.@.p.Q ..Y =.-.1 O.7 r r O...*.p.u.*.E 5 5 < < 5 &.a.&.M.i.p.u.x.x.i.E *.n.c.a.^ Y R &.&.Y Q -.",
"^ ^ i.u.i.i.[ / ^ / E u.X   < ^ u.t.a.u.i.*.x.i.u.u.i.i.$.o.y u d r 1 e 7 1 e ;.5.6.=.&.W W W ..$.o.u o.u $.5.d 2.2.0.2.3.g s d 3.f j d f g j >.g d ;.o.;.O.R 2 2 | R E @.u.y.^ ^ T , N N Y T N T R +.r o.r r 1 1 r 1 r e r u u X.o.r | 6 | 2 N R 6 2 N @ @ , @ 1 r 2 $ # 1 1 2 ^ Y W T T * 3 Y ! T E T N @ @ N 3 $ @ N Y N 3 Y N % T T * < N * % O * Y N T ~ E N Y N N % $ > Y 3 * $ 3 $ $ , T N < Y E & , 5 $ 5 Y 3 & $ @ W R 5 5 2 1 2 $ o @.) R , 1 1 e 1 1 < > , , @ < Y T T Y N 3 $ < 3 < 2 < 3 O N N $ $ N * N N % O o @ $ @ < 3 & 2 N $ $ 3 N 3 N & % T ^ ! T N @ O $ @ N 3 * O @ O $ , N N 2 2 2 | 2 1 1 0 1 e r 2 0 e t e e 1 t d u r u , @ : 1 : e e r r u r r o.| t s u e e 1 1 # 9 2 2 1 t 1 t Y.2.s 3.t a s s y s d e  .6 f.p.r =.6.r $.1.1.=.R 2 > , R , 5 t./ u.u.^ < 6 | X.X.o.o.u u  .u X.| u u | e o.;.o.$...^ $ $ @ % $ , Q W E 2 ..R < , $ < o E $ R < ..^ ^ W Y -.< $ & R $ 2 R E | R  .%.7. .| 6 r $.| < , @.T Y Y *.u.^ E < , , 5 Q W m.x.*.u.p.*.Q ^ =.1 2 1 1 6 2 R Y ^ *.i.Y 5 @.< R R 2 2 R W R ^ R &.W ^ W E +.&.^ ^ R T W p.x.p.u.",
"W ^ W ^ ) ) / ) W _ ) ^ T _ Q u.x.c.c.^ c.i.c.i.c.x.v.i.-.2.g g d o., , 1 , r +.N 2 &./ ^ ^ ^ =...1.6.7.5.=.7.<.u u <.u ;.;.o.| t t >.d d d d j g 2.j <.O.O.R , 2 R ^ ^ Y T Y T W < < T E Y ..T ^ N < < $ 2 | r | | X.r e r 2 , r | 2 $ 1 y +.+.R N < | 2 , 1 , 2 < @ o & $ $ * < < ^ T ^ T ^ ^ ^ i.[ [ N 3 $ % N E T N Y E N @ $ < O $ $ & N # , N Y 3 N N N N N N * $ T B N N $ $ O $ Y 3 , Y Y Y $ O O o @ O @ & % Y * % O X O O @ @ @ @ # $ < N 2 2 , : e ; O 1 > 6 , , < Y N @ > , 2 $ O X , < , $ % < T N Y * N < N Y 3 < < < 3 $ $ @ Y < $ $ $ % , # Y N < E E < 3 % % & ~ N N $ N < Y % % O $ 2 R r , ; ; 0 1 1 1 e ; 9 9 ; # o y e t y t o. .r | < 6 1 2 r | , r - 1 <.d u u y e 4.r 1 q < 2 u | 3 e E.y @ 1 r t t 2 d u 6 < Y ^ ^ Y @.O.> -.$.@.R T E T E t.Y W W Y ^ W / W p. .X.<.;.:.o.5.O.o.| o.,.r ;.u 5.<.o.1.+.&.*.u.u.^ W &.*.&.^ W W Y Y Y R @.@.x.x.&.Q W Y @ R , @.*.^ ) ^ *.u.u.u.&.+.R 6  . .r r  .o.r 6 W ^ &.W *.-.a.*.u.u.p.u.*.&.W *.t.^ ^ W *._ ^ -.=.$.o.1.%.6 > < R ..Y < R &.&.^ E Y Y &.Y E &.Y Y Y N < E 5 @ < Y , < W W ^ ^ W ",
"u.i.^ ^ _ W Q 5 Y 5 W _ ^ ^ T T *.u.*.t.u.t.u.i.u.&.^ W W <.u y h r u o.;.<.<.O.@.Y u.a.i.t.*.=.=.$.O.o.8.$.7.q.<.<.e r r 1 @ ; t w 1.9.9.<.o.u 1 y e r | O.< R #.! ) / N Y & ) t.^ / ^ W 2 ..Y T Y < T % W ~ T O.| | 2 r r e 1 , 2 , @ , e X.X.r | o.X.r | r r e Y T Y < $ 3 N % Y Y ^ ) t.T W T & & T T ^ T 3 < Y Y T N N 3 % * T $ N * T ! N N N Y N N $ $ N % * * $ 3 N N T T T ^ ^ &.W R , $ X o # < 3 N Y * & * $ $ $ @ O $ 3 < , @ $ R * % , O @ > - ; e 2 , , , , o 3 $ $ N Y T , < < E N N T T T N < $ @ O O 5 N N 3 < 3 T N Y T W ^ T N $ $ 3 $ $ Y Y % N W ^ ^ ^ ! ! ! T N N N # # $ $ $ > 2 N 2 1 : ; 9 e 9 w a t 9 t t 9 : t w u o.i o.o. .E < | r | e s u 7.y t 9.d s u t t t 1.r d +.r e s y e Y.d e y 0 t t 1 e e  .E W ) T W &./ 5 x.c.R ^ p.p.^ &.p.^ Y W ^ @.Q *.&.-.=.r 6.u 9.Y.n.k.5.5.1.u u 5.o.1.$.$.r =.*.&.&.x.&.x.p.x.^ &.&.E W &.*.p.^ T 2 Q W @.R W W W &...x.x.n.x.u.W &.&...8.=...f.7.6.7.8.%.8.8.x.^ %.-.W.W.uXx.-.n.u.p.p.u.p.*.^ &.u.u.n.c.x.p.p.n.b.8.-.x.-.x.&.p.Q R &.&.*.T ^ _ p.) *.i./ t.u.^ Q W Y & W 5 Q < 2 &.5 R @.# ",
"T T Y Y T T Q &.W Y E @.T T Y & Y ) E x.^ / Q &.^ W Y Y E r y r e t u :.O.$. .$.-.c._ u.u.x.c.f.8... .&.-.p...| +.6.8.5.o.e e e u u y , 1 3 2 R , r 6 R +.-.^ ^ T 3 N % Y E T N Y ! ! / / ^ T N T a.[ [ t.i.) *.[ [ #.+.< 2 R R R N N R E | r > , 5 * $ Y 2 R E Y T Y Y < 3 Y N E ^ W / 3 Y T T N @ @ Y Y Y N & @ , Y T 3 $ 3 T / / [ ! ! ! T ! ! T N N N < 3 E < Y ! [ N N T N * N N Y Y N N 3 3 @ @ < < Y 3 < $ $ N N N N 3 $ $ @ @ o , & < O   O X O # 1 1 2 R 3 < $ 3 % % 3 3 N * $ o & 3 3 N T T ! / ! N N N % % * T % R N N Y N < , , @ $ N < N $ $ $ % T * , 3 , # 3 ! ! T N N B 3 $ > 3 3 T < , 3 @ , : : 9 s w t t t e 1 0 e 6 0 ; r e r 1 > , < < Y R  .r r e e e w 5.d 1 1 1 0 0 u 2.u , 3 e 3.f f 3.4.t y a s s s d e ..T _ u.E *.-.*.i.) t.5 W Q *._ *.Y ^ ^ W E , < R W u.Y , , e 7 o.1 : r u e e u <.o.e e 7 r $.W Y Y @.^ Q W ^ *.*.u.*.u.*.^ u.u.T R ..&.x.&.x.a.u.x.-.*.-.u.-.*.*.&.*.W p.m.n.E.n.n.=.O.$. . .W &.*.b.m.W.fXf.E -.u.p.a.u.M.c.u.x.m.uXc.u.-.u.W 6 %.-.-.n.m.m.x.uX0Xm.uXm.x.m.*.W &.x.^ W *.x.a.^ @.n.a.W n.i.&.-.-./ < %.R < ",
"W Y T Y N T W *.^ Y Y W W T Y * & T Y W T R ^ *._ ) u.) / R o.<.d d X.o.+.E < 5 ..t.u.t.^ _ ^ =.8.=.6.&...-.=.=.=.p.v.u.-.n.8.1.u ;.O.r 6 R E @.#.@.^ T ! E T N 3 N % $ < T ! * Y / [ [ @.@.t.[ i.d.[ / T ^ ^ / T T T ^ T ! T / / N 3 N < T W ^ T T $ @ N % N $ @ $ $ # O O # 3 Y Y N ^ $ < Y E *.[ / T T T Y ^ W ^ W T T N N Y % T / ^ ! T T ! ! / ! ! ! / ! ~ / N Y T N $ Y T N N N N T N N < < * % % $ % 3 $ @ 3 $ $ * N B T N 3 @ o @ @ @     o o   X O # # @ X @ # < T * 3 N N * $ $ & T < Y W T T N T T ! N T N % @ O 2 $ N , $ @ # @ # o o # $ X   X , T ! W Y < $ % 3 % 3 ^ ! T T $ < % 3 Y , - O # e 0 o 9 9 e 1 @ @ $ 2 2 6 < , 1 , - 1 5 5 @ @ 5 5 | o.t u d d r t 9 d u y t u r - r 2 $ @ @ 9 d f s 3.g e a t t d ;. .E % 5 T , W Y ..* Y ^ < @ , T Y &.Q ^ *.) T Q &.*._ &.-.-.8.8.o.r o.i 5.u ;.<.u 7.q.5.5.o.O.5 W ^ ) ^ T ^ R @.&.u.^ @.&.&.&.u.t.p.p.x.p.&.*.^ ^ W &.^ *.&.t./ ^ u.&._ ^ R W Q &. .....O.-...8.p.-.p.x.a.^ u.*.p.a.*.&.R u.Y R -.*.p.m.) ..u.x.u...@.-.-.*.x.i.t.n.x.-.a.i.*.m.t.&.u.x.x.u.x.u.p.x.*.8.m.n.*.u.u.u.*.t._ -.&.x.",
"E < < < Y W ^ 5 , T Y Q Y < & $ o o R ^ u.^ ) ) _ u.^ T W +.o.8.1.<.@...+.=.p.t.*.*.) ^ u.u.i.@...|  .$.x.-.=.=.-.*.u.c.x.c./ W R O.#.-.t.c.u.@.=.^ @.^ ! 3 @ O 3 3 , N @ # % ) [ ^ / T *.@.^ N N T [ / ! N N / / ~ Y E ^ ! T T Y E T T Y T N T ! T T N T T Y $ $ 3 < 3 3 $ $ < $ % Y ^ T N Y < < Y ^ ^ ^ ^ $ Y < T @ $ N N N T N N T % $ N % % T T N B * % N @ , N E N T N 3 * Y T N $ % $ # $ o $ $ $ $ @ $ @ , # O @ N % 3 @ @ O $ 2 , < Y , > > o   1 , , # #   X X # @ $ N 3 Y < N < , $ & E ^ ! T % , # O.@ & < < & , , < 3 < < * @ N $ , % % , * % * T 3 N N B < N N * N N Y N * $ , 5 < , 2 R 5 6 R 2 @   o o O # , 1 2 6 2 5 R | | | R R ^ ^ W , 5 ; e o o e t t 1 1.; d <.s s d e , - r o.r , > y s s s <.2.e y u d $.=.T W ^ < ^ ^ W W T T ..*.^ ^ ^ W 5 R Y W *.Y @.Y < W W ^ *.@.6.$.$.<.X.X.o.o.o.o.6 r o.| | R , Y W E ^ < @.T Y @ Q $ # @ R Y $ O # R N W Y , @ R T @.^ Q T 5 5 ^ E Y 5 W R < < $ Q E R  .+.=.@.uX) =.Q n.W N @.&.^ W ^ W &.< W &.&.^ W R R W R *.-.-.@., 5 W &.^ i.Q &.&.^ ^ ^ &.m.t.p.*.*.p.) u.M.E.u.*.&.p.t.*.a.t.u.u.) *.*.",
"5 Y < < W < 5 @ @ Y % @ $ O # , @ @ Y W a.*./ ^ Y W ^ Q ^ =.....6 W Y ..&.^ E ^ Q *.) E _ ^ Q =.@.| ..=./ E  .@...*.a.^ ^ ^ ^ +.@.#.@.@.T Y W N | @.E ^ ^ W Y N T ! / [ / N T / / T T % E N ^ ^ Y N ^ ! * T [ / t./ t.) T Y ^ T T / T N N Y N N T ! / / N < T _ y.^ T T ^ Y T * & 3 T Q T $ < T Y W ^ Y , < W ^ ^ E $ % T N % T T T N N * / T ! B B N N N T N % < T Y N E / N 3 3 $ 3 T N % 3 3 % % , % < N N 3 < $ < N N $ $ $ O @ @ @ O X   @ @ $   o 1 - - , 2 , $ @ @ X O 3 % % o @ # & $ * $ $ $ O X $ X o o 2 N $ N * < 3 O O @ % $ & % $ * N 3 3 % $ * $ $ 3 3 $ , , T * $ # X # @ , @ $ O X , 3 < < $ 3 , : r < , r e r 2 O > @ @ 2 , R T N % Y % # < , , , : e 9 1 u e 2 e u e 3 1 r t s s u t y u 9 1 1   0.@ 1 e  .- Y , $ , 5 E Y E Y T T Q T ^ T Y ..u.^ T N W ^ Y Y N Y Y E T N .. .=. .| +. .X.r , @ O | Y | Y T < 3 $ $ < $ $ N N Y N Y N | N $ $ & Y < R Y < Y &.T W W Y $ @ # O - X o 2 W Y Y Y Y Y < , Y < < Y *.Y < Y *.Y Y Y T ^ W &.*.Q W R W Y R *.W @.R 5 &.E E Y ^ Y R < Y W W R ^ Y , &.W Q ^ Y W W W 3 R p.-.Q R R R & Y 5 R & ..5 T ",
"W W -.u.u.T Y T ^ ! T ^ Y < T T Y E Y R &.E < 5 E ^ &.E Y R Y R 2 Y & & & < , < $ W Y Y T Y <  .O...R 5 R ..| R $ Y W ~ T _ *.=. .E R , < 3 < R R +.N N N N 3 N T ^ { { y.[ / ! T T ) t.^ ^ *.y.{ { ! ^ < W ^ 3 Y 3 Y T Y N N T T % Y N Y / ) { ) / ~ T T % < / * $ % T T N N N ^ [ ! Y t./ ^ ) t.) ! T T T ) ^ T [ / ! T < Y N Y t.[ T ) [ [ [ T ! T R T T ~ / / T * N % ^ / T T N < W ^ ^ / / T $ # & @ $ Y T ^ N N $ $ @ $ ! N N % @ X     o @ #   @ @ $   , - < < < 5 N < % % @ @ @ X $ * N * $ , % % ^ Y N T ! T N N T T T % @ $ < Y T N % * @ $ N * * T N E T Q < Q Q Y < < , $ % N 5 @.3 N 3 & N * N N R < 2 2 R | o.o. .R N 3 < 2 +.N < O o   O @ , 2 e u u d 1.s t s s d d d d d s d s s d y u t <.y 1 e , i b.2 o.f.@ , $ # R R @ , R T Y W E N < % Y R < $ $ 3 # , $ R ^ N < E N W u.-. .|  ., @ | < , 6  .$.Y | R N $ O $ O , $ $ Y Y Y E Q Y ..*.*.^ / T Y R R T ^ W Y @ >  .@.W Y & , Y Y < R $ $ X , E O o , $ X , W ^ R T Y W $ 3 $ 2 R 5 5 @.^ W Q Q W W R W T W Y Y N W Y E W E Q ) ^ ^ ^ , o < # , @ 5 W $ 8.W , , R -.W E R W &.W 5 R *.Q Q ",
"&.W Q W 5 W &.W ) ) ^ *.T Q ^ R E < < < 6 W Y < &.u.*.&.< < R / / W ^ < Y W t.) ^ u.[ ^ @.^ ^ Y 2  .6 6 ..=. .| 5 W Q *.u.t.Q 6 2 5 R < ^ ) E Y $ O @ < @ $ N N ~ T / ! / / ! / N Y u.t.&.@.W ^ ^ N % < / / ^ T ^ E , $ O % # $ N N < < T Y & Y N T 3 < ) / / ! Y < N * & Y Y N Y $ $ , W T Y Y N , T ^ / / ! T Q / ^ y.^ a.c./ ^ T < Y N $ & T T N N T N % T T E * T T Y B T N N T % $ < , , $ $ N % < N & < $ & N N B B ! ! N N 3 N Y N Y Y @ o o $ * Y < , 6 2 W Y Y , Y < $ @ , % % $ Y T N T ^ ^ ^ ! T ! ! T T N 3 3 $ $ N T Y N $ @ $ O $ $ & @ , o , o # , < , < , * $ Y % < % N $ , &.^ T ! T ^ T T N E 2 Y % 2 6 6 3 , R Y % T W *.^ E 3 < $ < % ,  .y 1 e o.;.s d t 9 w t d t s u e r >.o.r 1 e 1.u o.X.| o.5.7.$.f...p.-.u.a.5 &.u...-.&.x.u./ W Q ^ *.% 2 < E T ^ ) ^ W Y E N < R Y @.+.=.=.R r  .| ....8.| , 5 6 *./ *.) *.i.x.c.) c.) u._ / T -.) &.x.t.*.-.W W ^ &.W N Y &.p.^ @.^ ^ p.i.^ ^ Y < , Y *.Q W %.W 5 &.*.-.M.c.&.x.p.p.W ..&.Q R *.^ W E T W &.^ W u.^ Y Y 5 ..u.a.t.) R R *.E ^ ) ^ &.&.@.W W 3 Y *.M.p.&.W *.^ ^ E W @.*.W W N Y $ ",
"-.W 5 6 ,  .&.&.-.-.u.*.u.-.W W W % O .   R Q Q Q W R &.u.x.u.) &.*.t.u.*.u.x.c.) Q @.*.*.*.^ Y  . .=.=.| R 2  ..._ ^ W Y < , , 5 R R E ^ ^ Y 6 | < < % , < < , T * N N N < $ T T t.*.R R N ^ ! ^ / ! T ! [ u.i.[ ! ) a./ / ^ T T ^ ^ T ^ T % % * Y N Y T T T Y ^ Y N & , , Y E Y < < % R T Y Y N Y T T T N N $ R ) T R R ^ ^ u.u.) Q *.^ Y Y N * $ N [ { ( T ! ! N T B T N % , N N 3 N * N N 3 3 ! ! N T N N @ < N N * 3 B ! T T T Y E E ^ ^ Y Y T 3 @ % Y Y < , Y T N * N $ @ $ , @ # # $ Y T T T T T N T T T T T N N 3 3 < N N Y T Y < < & < Y T T R $ $ O * % N * N $ $ N N , N N Y , 5 , N O * @ @ $ % N N , $ , , < 1 2 Y N 3 @ < < N % < T ^ T T N , 6 , 3 - u e 0 >.t 1 ; ; t - w r 2 2 e y r 0 y u o.o.o.o.o.r T.p.$ @ < @.^ t.Q *.c.Y , W Q 5 Y ^ p.&.&.*.a.u.^ ) t.*.*.i.^ &.u.t.) &.*.) &.-.-.8.=.=.&.-.-.-.&.p.^ u.i.t.*.t.< Y N , < Y +.E *.t.*.^ W ..&.W &.x.p.c.m.M.m.x.*.&.*.x.*.M.aXx.x.p.x.x.n.M.uXm.c.m.c.m.x.p.T.M.x.n.m.c.u.-.p.u.x.m.*.R x.&.-.x.a.a.W p.u.u.^ W n.m.p.x.*.&.E T E W -.p.u.p.-.W *.) -.*.a.p.^ W W _ &.&.W 5 R E R R W W ",
"W .._ W W T W &.&.) Q Q *.-._ Q Q < O . . o R 5 Y T T &.x.) &.*.*.u.[ *.x.c.) ^ Y Y Q ) T ^ ^ .... .O.@.R +.R | ..^ ^ T T Y ....Y Y E 3 $ # # , 5 Y Y N < < $ , Y $ $ , N Y R ^ E ^ E E R W T T ! ( ^ T / / ^ i.y.[ [ u.d.t.[ ) ! < T ^ N W { ) [ T < Y ^ / T T N T N 3 N 3 N < $ N Y N < Y N 3 N T T < $ * $ $ R T T Y Y Y W Y , Y ! T ! ^ [ ! ! ! T 3 $ % T , ) / T * * N T T ! / ! ! T ! ! / ! * 3 T * N % T T T T N Y Y $ & < N N , , < < T T T * $ * $ $ $ $ $ $ $ $ % O $ % Y N N O @ X X   o , N $ @ N $ % * N T N N Y N $ $ $ @ 5 T T T N N * & N < T * O $ N N N T T ~ Y N N Y W W N $ $ $ $ $ $ $ N $ $ # ~ Y ^ ^ ) / T T N N Y ^ / N T T N $ @ - > @ | 1.y R 2 u s s h u t d w s d y 1 o.<.<.7.O.+.2 1  ...*.M.qX& Q T N ^ E ^ T *.*.$ *.< < < E / ^ W T W W ^ ^ ^ W &.t.T < ^ ^ *.m.i.) W ^ ) ^ E +...W W &./ Y W ^ ^ Y E Y T N 3 N & W Y W N < W *.*.^ &./ *.) T E Y &.x.u.^ 5 *.*.&.%.p.R R < 5 ^ *.^ W x.^ &.x.a.*.p.x.-.uXx.x.u.u.*.&.u.p.a.x.a.a.c.i.*.p.t.*.m.) ^ ^ / *.*.u.*.p.v.u.i.x.c.*.*.) W p.W p.*.u.*.x.a.*.*.^ N ..x.u.^ &.&.^ x.x.-.",
"..W &.W T Q Q E Q W &.Q T W W 5 5 < O   . . @ < Q T ^ E T &.x.u.) u.i.m.m.p.u.@.^ &.&.^ T W ^ &.#.O.8.&.O.=...W ..*.) W *...R Y E N Y R E 2 > $ $ @ @ @ 3 3 3 Y Y E T N N % , , 3 N R @.+.W T E T T T N T N N T N ! ^ ^ ^ Y E T N N Y E T T T T ~ T ^ ! 3 $ 3 N $ T ! N N 3 * Y % N N N % , @ Y N N T N N N N N ^ T T T ^ B N % % * N % * N N N B B 3 $ @ < N % N T N % @ O % < $ @ @ & N 3 3 % Y @ $ * $ % @ Y E E T T T 3 $ & 3 , < & @ O @ Y T B B N N N 3 % N @ @ $ N < T B N N 3 $ $ 3 $ O O o , 3 $ O $ $ @ N N N % $ < 3 $ $ $ O @ $ N T * N $ o % % , @ @ @ @ X @ o @ # @ < < $ $ , Y < N N N B B N * T N N $ @ * T T T N % N * T ^ ^ T T $ , , & 2 N < 1 t e E e u s y t r 1 1.u r e e ; @ @ 2 6 $ @ o $ 2 E $ Q x.& W Y N *.o @ @ 5 &./ -.i.T T W T *.T W T T W W E W @.*./ Y E T R R Y W Y Y W W ^ &.^ u.n.u.t.^ ) T Y R N $ R ^ ) *.*.&.*.^ ^ T -.t.*.*.t.a.t.&.&.Y 5 &.u.p.x.t.&.W &.5 N ^ W < < Q E Y @.W *.& x.) ^ &.&.-.x.x.*.m.m.) R &.Y E & < @ , @ W Y o 6 < Y E $ E Y E ^ ^ _ *.^ ^ &._ u.) ^ W &.W ^ W &.^ ^ &._ ^ ^ ^ E -.a.) Y &.^ / u.*.",
"&.*.*.Q W ^ _ p.-.-.a.) W &.5 < R > , X . . . o R Y 5 T T &.&.^ Y 5 R &.m.m.iXM.c._ a._ *.) u.-.8.6.=.&.+.+.5 R W ^ T W W Y $ 2 R R Y ^ ^ .... .+.N $ $ Y Y E ^ ! T N T T T N 3 N N < , 2 E N Y N & Y N Y N Y N & T T &.! T T / ) ^ / ^ ^ T 3 N T ^ / ~ * N Y N Y T T Y < @ , Q [ ~ ! ^ T ^ ^ ^ < < N * ^ ! T ^ / ! E ! ! T T / [ / B T B N N T 3 N ^ / / / / [ ! B N T ~ ! % % $ O @ < T % $ $ Y / T N * B N 3 @ O O @ $ % B B N * % E N 3 N $ % @ O % N N N $ N N ! ! T $ N N % * % @ $ N N B B N N N * N N N % & $ @ < 3 Y T N N N N % $ $ N $ * ! T % N N / B 3 $   , % $ # # @ < % @ - @ $ @ * N * * N * N * $ @ X % % @ < N & Y N * N N Y Y * $ $ % Y < 2 1 : O.* 1 0 R $ @ @ $ # < % % , @ X @ , 2 % , $ $ 5 $ X +.Y < B * Y ^ 5 N < &.[ ^ *.y.< Y E W u.N < , T N N < Y < N N T Y N ..Y < @ @ # < ^ ^ @.Y +.Y < @ , Y T ^ @.T T 3 T T T E Y &.T ^ E &.~ < E Y f.*.t.^ u.a./ *.T *.u.*.W ^ &.^ Y ^ E T , Y E ^ @ $.^ Q ^ Y 5 < @ , Q T 5 , W ^ T E Y , Y < , , ..W & , @ ..*.W R ^ ^ Y *.^ ^ ^ W ^ _ ^ Q ^ ^ W ^ ^ ^ N , W -.&.*.^ W &.Q &.R , @.^ Y Q Y ",
"& & $ # o o @ 5 W W *.Q R Q , 6  ...&.Y & # X o 6 W W @.-.&.R W Y 5 & W *.*.^ ^ _ T Y < E ^ W N 2  .R 5 R +.....E N < ^ E ..+. .| +.^ ^ @.R 2 R 6 E t.&.=.=.@.) T N / [ ! ^ [ [ ^ ^ T , N N % , $ , , Y Y T ^ / / [ ^ _ / ! ^ ) ! Y N T T N T N T T T N T T T / ^ T T Y ^ Y W Y Y N Y N % R / T N Y T Y T T T < E ! B N N N N N ! T ^ T ^ ( ! T T T / / / / / / / ! N N ! / T N T T ^ T ! T * % N T ! B N N $ * O $ $ * N N * $ $ $ $ N T Y ! N * $ N T $ % $ $ Y N ^ ! ! N ! T N N T N 3 T ! ! T 3 * N < ! N N N < $ X @ @ $ Y 5 T N ! Y N T T T ! / / T ! ! ! T T / T ^ ^ Y Y T N Y ! & E N * @ O $ % ! N N N Y N ! T T T W ^ N N N T N / ^ ! W T T T $ , Y 6 1 ; 2 $ e # O X O O @ # 2 < R Y < R T *.Q u.) ) T u./ ) x.Q c.W ^ i.u.t.^ &.&.^ *.v.t.W ^ Y &.^ { ^ T / ^ ^ ^ Y Y < N , Y W x.c.^ T ^ T E , @ 2 ^ @.< $ @ @ Y T W ^ T ^ ! / / / ) W ^ E ^ W / ) ^ ^ @.^ < $ & ^ *.t./ < 5 ^ 3 , < W ^ Y @.N Y E R E R R < E 5 W & 6 Y o > , W $ o 5 &.W ^ Y Y ^ E ^ / Y ^ ) ^ E ^ T @.*.*./ ^ ^ u.^ &.c.*.T &.W Y < & - , ..E 5 $ 5 N @ @ - , , Y R N 5 E 3 , , ",
"< 5 R Y < 5 R 6 ..5 R 5 , R &.W W W ^ W W Q @ @ < R *.W W &.p.t.*.p.t.) ! N * N T N @ $ * $ Y 6 6 6 ..+.+.+.R ..W ^ ^ ^ Y |  .O.@.Y E T +.O...| < < ^ E ..E % $ ! T B N N T [ ! T T N E @.! $ @ Y / T 3 O X $ $ 3 $ X o N $ $ # @ < $ Y T E Y T N $ @ $ @ @ % & $ @ @ , < 3 N T N < Y N , < 3 , T N 3 N @ @ % $ E T T T ! T N T N T N Y T * N ~ / T N B 3 $ $ % T ! / T N B N T B B * % % % N ! ! N * $ $ O @ N ! T N $ $ $ $ % $ $ $ N T ! ( ! ^ [ / ! T ! ! ! E T ^ / ! N T N * N % @ $ Y T * B N N Y / N N $ B N % $ # @ , 5 2 5 < & @ , N * T Y T N $ % T T N * 3 $ T B N N & $ $ @ @ < $ % * N $ T T N * * T B N T Y T ~ T % 3 $ < 3 < $ $ % 3 T T $ & Y 6 o.o.+.| u r 3 , r +.R r o...< 5 Y Y ^ x.) Y &.W &.u.^ a.T 5 ^ =.^ R Q Y & *.E Y *.R E , & , ..Y < * @ 5 ^ E W W T ^ ^ N < R R *./ ) u./ T % , Y W ^ ^ T ) T T R _ &.^ T ^ ^ T Y < W a.*.p.u.&.m.*./ ^ E Y Q E T Q Y < R < < # , 5 *.W -.&.-.u.*.^ *.-.c.^ ^ u.-.u.*.u.*.*.t.-.m.u.m.x.m.^ _ E W &.*.) ) W u.W *.*.*.T , $ < N < E $ R ) p.*.p.i.^ < E < 5 Y Y E $ 5 E < $ , , Y W T & Y < @ W W ",
"_ *.u.*.x.x.x.^ ^ ^ W W &.Q W &.T W W Y R Q T T , , 5 &.^ &.^ ^ W Q E N Y T T T T ! ! T N @ N Y R 2 5 | R R | Y T Y $ , 6 6 1 6 R < E Y |  .#.R N N $ > $ 3 N Y ! ! ! ! ! [ / / y.*.t.@.^ [ / / ^ * # @ N $ $ O $ # O O * @ $ O # < N $ o @ & @ @ $ $ 3 @ @ @ O @ o o # & % * $ @ $ O $ , # , $ < N < N % Y * % ! % N % % % N N N N % T N N * T N N N B * % N % T N T T N $ * $ @ @ $ 3 $ @ * 3 N T N * * * 3 N * $ $ O X $ 3 T T % < N N T T 3 N T * Y T N N * * * < / N * T T ! B N N , T N 3 % $ % $ N * * 3 N $ N ! N % @ # $ $ O # O - @ # o @ # o , @ Y N N % $ @ < N * % @ O @ O @ Y $ @ & $ $ O @ N 3 T B T * 3 < N Y N E ^ T T T % $ 3 N 3 $ , 5 Q T Y ....| r e | 2 R 7 | R 5 | E Y T N $ Y ^ ! T T 5 .._ _ -.c.[ T ..a.5 R & & @.5 Q &.T R Y < T W ^ Y Y Y < T 3 @ , $ Y ^ / ^ Y < % < < ^ ^ ) ) *.^ &.^ T Y ^ T ^ W ^ < Y T ) ^ ^ T < Q Y < & $ , W W T W Y Y Q E Y E < < &.*.%.x.*.E < & Y N *.* @ , & @ $ < E N W ^ W ) *.a.u.^ x.c.&.*._ Q R ^ Q -.*.a.Q W *.^ *.*.*.u.W Y *.W ^ *._ u.^ *.-.*.^ &.-.x.u.c.) t.) x.x.c.c.x.x.x.x.x.*.&.u.x.p.m.x.",
"W Y < Q ^ T 5 W R Q W T 5 Q W Y Y &.Q Q 5 Y Q @       - $ , T ^ T Y T ^ Y % $ * Y T Y T * N * , , O # @ @ @ # # , 3 & < 5 6 2 , , & < W ..8.@.E R T 3 Y E T ! ! ! / / { [ v.d.[ / @.t.E / / ! / ^ / N T ^ t._ i.) ) t./ ) / ^ ^ E 3 Y $ O @ 3 $ 3 < N 3 % N N < $ N $ @ $ @ $ @ @ # # @ $ @ R N * < T Y N N N $ T $ N % $ N ! N N * N N N N * N N T N T N N * N N O O * @ O @ $ # O O # $ $ $ , Y < N N 3 Y Y Y * N * N * N % $ % $ $ O O $ $ $ % $ @ $ * % % $ @ @ X N $ O % $ 3 * % % , < % $ N N N * N * $ $ 3 N N N * $ O X $ $ O % & $ % * @ @ @ $ , , @ o o o $ o $ % $ % % N % Y , R $ @ O X O + O % $ % $ N * * $ $ @ + @ $ N $ T T * N Y % @ O o $ $ , Y N < e r R 5 6 2 , , $ < Y N * $ $ < Y % 3 X   @ O , > W Y -.^ uXc.) ^ ^ *.Y Q E T < N N < @ Y T T ^ ^ Y T T W Q ^ ^ ^ W a.*._ Y $ Q W W W T T &.Y $ < *.Y Y Y T R ^ E < & ^ *.&.^ Y < Y & , ^ T & & @ # Y Y T R Q 5 5 Q ..*.W @.& , , @ 2 Q Y E Q &.R Y ..Y Q R > $.W +.W *.W n.&.@.^ &.u.T Q W T ^ W ^ u.*.T -._ p.m.c.m.c.t.&.a.a.u.p._ *.u.&.^ *.^ &.*._ x.u.*.-.-.^ W &.Y , > , R @.W 5 Y ",
"* $ < Y T T 5 R =.u.Y ^ W -.*.Y 5 < $ # @ # $ & 3 % $ $ $ $ % # $ # # $ N N * N * 3 $ 3 $ $ $ # @ $ @ O X # o @ # < @ @ O o > 3 @ , , , R , 3 @ @ $ % @ T N N N N T % % T N * T N N N N N T T N 3 N N N * Y < T N N $ % % $ % N $ # $ < % % $ * % @ $ $ X     O @ $ O o   .   X     # X     o $ @ o   .   O # O % $ @ @ $ @ O $ $ o O @ O   X X X o @ $ O O X X   .   X X @ X O O o o       # X @ O X # $ , $ $ o X     X + O O X   X     X X o O @ @ @ O O X @ X   . X @ X O       X X X O X X + + + O X O X o + O X   + o X X X O X       O O   X X X     . .       o O o O X @ $ @ @ O , # O $ O @ @ @ @ O X   & N @ X o   .     @ X   X   @ @ $ $ @ O       O   X o $ O @ o X O     .       .   # O X         .   X   o R @ R &.N @ $ < $ # < $ O $ $ $ @ # # # # $ $ @ # @ $ @ 6 R & ,  .Y ..< o , , R < , R < Y < O @ @ < & < 5 Y # @ & & @ , < , $ < < $ , @ , Y Y Y $ & , $ @ < $ , , $ 5 @ 6 $ @ , & @ @ & R N < , @ , , , , < o o @ @ > W 3 $ Q u., o & < % , N $ # o o     $ @ # X     @     - W & , $ @ O @ # & o o     o & < $ $ @ @ $ , $ $ O O O ",
"T Y W Y ^ ^ Y Y T Y % Y < Q Y Y Y & $ # X O @ @ @ @ $ * * $ $ o X   O X X @ + X X     X O o   . .         .         . . .       o #   . + .         .   @ X . o o @ @ X o X   O o +         $ O X X O X     X @   X O X X   O O X X   o X o X o X X X o         X X   X X X   X     X         $ X o   .         X             X   X   X + o X                       X           .   . .   .   .         X             X +     X o       X     O O O X X   X   X   X         o O X + X   .   X     X   o X X   X X   .   X             . O               .     X   X   X O O O X #     X     X X   + X O O $ O @   X $ X   O O O @ @ X $ @ O $ O @ * O o @ o   o X X O $ O     X X @ O @   # O O X O     @ O @ @ + X & o $ $ # o < # , o , @ @ , , $ # @ o , @ @ @ O @ $ O O X O - # - & , R & o o o o # # @ , , , $ & # o o @ & & & @ @ @ , @ # o @ O o # # @ X   , # o , $ @   X     , @   @ @ # X X X O O   .     X X O # @ o   , # , < @ X $ O   ,   o O # .   .   . . . .     .       . .       . . . # . .   . . X   . . . .       & $ @ X X   o O # X o # ",
"o X o , & @ O @ o     # X   X X @ o O o X o @ o   O   X X X $ @ X   @ O X o X   O X o O O o o O o X # X .     .       X O O X @ & % +   O O O @ $ $ o $ O +   o @ @ @ @ O $ $ X $ X X o X # $ $ @ @ @ o     o @ O $ $ O @ O     o # @     X X   o X # @ O O o   .     X   o O X O X o X O X X > o O O % @ X o X O     X   O $ O O $ O O X @ o O $ O O O X X X   X     X     X o X   . .         .           X O # O @ @ @ @ O X O X $ @ @ O X X O X X O O O O X X @ $ X   X @ X O X X X + O o o O   X O X X O O O O O O X   X   O O # o #   o @ X         @ o O   X   X O O O X o O @ X   @ @ O X # @ @ O X O $ $ @ $ % $       O O X X $ $ $ $ N * @ # 5 , @ W & < > Q & < , Y @ , $ < N $ $ 3 @ $ O o $ $ @ @ O $ % & O # @   , X 7 5 % o $ @ X   X O   o @ O o # # O   X       #     o , @ X   o < # Y % & < & & < @ 5 , @ o O @ , O o @ # @ @ o X X X o @ @ X X X     X   X             @ X o $ O $ @ o , @ X O # @ @ $ # o   @ & # @ $ o @     @ @     o O     X       .             @ @ $ @ o # #   @     X o X # O o # O o $ @ O o @ # o o   o @ @ o O   ",
"# o X     @ o o   o X o     X   X O O o @ @ O O $ $ @ @ $ O @ o @ O $ O O O O O O o @ O O O X $ X O O   X O   o + + @ * $ @ @ , $ @ % @ % 3 * % @ $ $ 3 $ $ $ @ O X   # $ $ $ @ $ @ @ O $ O $ @ @ @ + o $ $ O X $ @ O X O @ X   O O @ X   o X   O #   X X X O O       O X O X X X O O O O O   o $ X O @ O o $ O $ O $ @ $ $ $ @ @ O O O X + @ O O # @ @ O O O O O   X   X   X O   X         # X   .       X O o X O O   X O O O X X $ X @ O @ @ $ o O $ $ O X O + O O # $ @ $ X X O O O # O X O $ O O O O @ O @ O X O O     # O $ X X X o   O o X O O o O # X X X O o o o @ O O $ N @ O o     O @ , & < @ X o @ O X O $ $   X   @ X $ $ 3 O o , & Q T & Q Y 5 Q N & , < & < N $ X @ X O O O O @ @ @ O o X o O @   O # $   # @ O X @ O < X   @ O         X @ O           X O o   o - X   # , < , , < , @ > , < < , @ < Y , , , 5 @ # , @ O O @ O O     O X   X # X X   # o @ O # $ @ , & & , 5 < @ < & , , , & $ @ $ & < & $ # , 5 @ @ O # @ X # O @   @ X o # # @ o #   o # o X o ,   O # @ @ , @ , $ $ 5 T o > @ , $ @ o @ , & o X     o # O @ Y & < % @ @ O X ",
"o       X @ o o # o X o o O # @ X O X # X O $ @ $ O * v N N & O     @ O O $ $ % X   O O @ O X X   O   .   X X O X O @ O @ # # $ @ $ $ % $ @ , O $ $ @ % % $ % O $ @ $ $ $ $ $ $ $ @ X O @ $ $ @ % $ O O * % O @ O O O X X O $ $ O O X # @ $ $ $ $ $ O # @ @ O   @ X X @ O # @ @ # @ O O $ @ + X $   O   # $ $ # @ $ O o o O O     + O O @ O O X o O O @ O O X X O X X   o X X       X o O     X O         o O X   X X O @ @ O @ o O X O X X O $ 3 $ @ @ O @ O # @ O O X @ O # @ O O X O o O O @ O X X + X o O O X X O O O   +   X X o   # @ @ + O O o o X $ O @ O X @ - o o O o $ @ o   @ o o o @ @   O @ $ @ O O X   O @ # Q Y E $ # < R % @ @ $ 5 < < 5 @ , $ O   , @ o X X @ $ O X   O O O o , X @ @ o       X , @ O O @ O o @ O     X   @ # O       @ @ O X O X o O # @ @ Y &  .R R 2 2 < $ @ , $ o o   , $ < < o < 5 < , , , < $ $ @ @     O o $ , , @ & > & , $ $ , & , & , & , , < 5 , , 5 & O # O X O @ X   o   , @ $ , # , # @ # # < $ , < , R R , & @ 5 < $ , , $ < & O > o O o @ @ , , Y $ @ R t.  5 $ $ $ & @ , R < , & $ , # , < < , o @ , , Y < , ",
"o X X @ $ # o X   O X         @ O X   o O X $ @ @ @ o O o $ $ +     X @ $ @ $ @ O @ @ O @ o       X .   O O + X O O O o $ % % $ $ $ % $ $ @ $ $ * $ $ $ 3 * N N * % * * $ @ @ % 3 O X @ @ % $ $ $ O $ O @ @ o $ @ O @ o o @ @ $ O # @   X $ O X X @ @ @ # $ O   O @   $   X @ X o X   o # # # $ $ o X   @   . | % o X     X   X X O @ O O @ o o $ O X O   X   X O o O @ X X X   X o X o + X @ o   +       o X   O O + X O # # X o O X o O o   X @ $ $ O O o O + O @ $ O % O # @ $ O X   X > @ X   X X       O X # @ @ O @ o +     X X   @ O @ O   o @ X   # O   O   o # X @ O @ $ o O o 6 & , , Y Y O O @ $ $ @ @ @ $ @ # & < @ < & X $ @ $ $ $ o o o o $ o < #     @ O + O o O o X X O @ X   @ &   , O X X     # @ @ o   X o X o   . o @   , @ O X o $ < $ # # @ @ # $ $ @ o O # @ # @ @ $ X .   # @ & 5 < < $ , , O , , 5 , - 5 , @ & @ R @ $ X # < @ < o o # % $ , & # O O #   # o @ @ $ $ X o @ X O O   X       O X @   O O   o @ @ O $ $ Y @ & , % 5 & o < @ 3 # $ & @ @ @ o X $ O # X O o @ @ O X R ^ $ & @ @ X @ $ @ , $ & $ O o   o , @ o # & O o , & @ ",
"O     # # @ O O   $ X   X O           X X X X X O @ O @ O X X X       X X $ o O O @       X     O + O $ O @ O O @ $ @ $ O @ @ $ O O $ @ @ % * $ O X O $ $ * O $ N % o $ $ O @ % 3 % N % @ O X $ % O $ $ @ @ $ $ $ o O O   o @ o , $ @ O O @ o @ + O O O o @ @ * $ O   @ @ @   o @ @ X   # X X   < X o O O X   R O       X                 X O O X X       X   $ o X O O X o O X   X + O X X       X X X     X       # X O X     X O O o @ O X o O $ $ @ O o O O X o X   < @ O O o O X     X . .     X X +     @ o + X o o O X   X o o # #   o X X # o X o       # @ O , # , $ $ Y O # , R $ $ o X o & $ # O @ $ $ O $ $ O   @ & @ * X o & @ & # o O O # $ @ $ X   @ $ X @ @ O O X O O # X   o Q & # 2 O X X o X o # X o       o X   X , @ & & @ O o     ,   o X o , @ @ @ O O       o @ O o     o O # @ , $ 2 , , 5 , 6 Q &.&._ &.W ^ N $ R 5 5 < < & T < $ 5 & X # , < , @ @ @ $ $ $ @ , & , # @ & & , < < $ $ , @ , @ < @ , 5 W , 5 , , 2 > Q < , < , , R R W & ..< +.Y < 2 , Q 5 Y < 5 < Y & & & O $ W T < o , @ , 5 & Y @ , 5 T 5 5 Y , > 5 < 6 5 @ , R W Y ",
"@   X o   @ $ @ $ X O X O X       o     X O   X @ O O $ O   X # O X X X   X   O     .         O + O O O X O @ $ $ $ O $ X X @ @ o $ @ $ $ @ N $ $ % $ @ O $ $ $ % % $ $ % $ 3 $ 3 3 $ $ # O $ $ $ $ $ % $ @ $ $ @ @ o o X O     % @ @ O O $ $ $ N $ @ O @ @ X O @ O O @ $ O X O @ X o o # @ X o , $ O O   O O O     .       X           .   .     X     X X o O X X O X X O X O     X X X     X X X   X   X X X         o O X X   o     X O @ O X + O @ O X O O +   +   O O X @ X o O O   O     O X O O X     X X X         X       o , O o O O X O X # @ @ O O X $ O < $ O @ # @ O O X 6 * $ $ O X @ X @ @ $ O $ $ Y $ @ O , @ O @ # , & O O O @ @ & $ O @ O # $ @ @         , $ X X o   O , Q O # # # O       @ @   - # o   2 @ O O < X 5 @ X X #   o #     $   , O o   @ # @ , $ , & $ o # $ , ..< 6 W Y ..-.^ -.-.^ R -.u._ &.-.&.&.W Q W Y R Q Y ^ < < W < # @ @ < < < % @ $ & < & < 5 Y < Y 2 Y R , # @ , 5 $ o o 5 < < , > & O O O @ , R Q T Y , R R ^ W < Y < 5 < , Y 5 Q R < Y N < < $ , < < , & $ @ O # # , 5 , $ #   , < $ , 3 @ @ , & < Y @ @ 5 @ O ",
", @ o o # > , # # X o X O X X # @ # O O X $ $ $ o @ $ $ @ @ @ @ O     O # X     .   X X O o $ O   o @ # $ $ # $ $ @ $ @ @ $ O $ $ $ $ $ % % % $ % * $ @ , $ , % $ * $ $ O $ > > < 3 $ @ $ $ % % % @ @ O @ $ $ O X O o O @ $ O $ % % $ $ $ $ @ @ @ % $ % < < 3 @ # $ $ $ @ $ % % $ $ O # @ $ , $ > ^ % $ @ @ O @ $ o X $ o o @ @ @ $ @ X   O X O O O O o # $ @ o O $ O @ o X   # o X   o O   @ @ + o O O O @ X X o X         o # X O     X   X o X X o X o @ $ @ @ # @ # O O   O     O O X $ $ $ @ O O @ O @ @ X @ O X   o X O X     o < X @ $ X O @ O X o X @ O # o - @ o O @ @ $ $ @ @  .< @ @ 3 $ $ @ $ % @ $ $ $ 3 $ & < < $ @ # @ $ $ @ @ @ @ o X X > 2 @ o > Y $ O   o # @ $ $ $ O X   7 5 @ R & $ X o O X < $ X , , < , Y $ $ , Y @ R < , , $ @ 6 < @ , , o , O @ # & 5 5 R 5 R R 5 W T < 5 R < 7 5 T Y , 5 %.Q 5 , W W Q W @.W ..Q W Q Y 5 5 R < < , < < 5 < @ , < < & $ @ , $ , < < 5 Y @ , , < @ X o O # $ # @ o o       o   X X # @   o #   X o @ X @ O O # o 2 O # $ @ @ # @ o @ $ @ & < , & , , & @ , Y < $ , # @ , , & , , 5 5 , , $ # @ o @ , @ @ "
};
