/* XPM */
static char *ac06904ea8374228c5c58851d1db249by0BS8W4Uw7qye6B5[] = {
/* columns rows colors chars-per-pixel */
"512 512 253 2 ",
"   c #000000",
".  c #00000A",
"X  c #000013",
"o  c #00001C",
"O  c #000024",
"+  c #010927",
"@  c #00002B",
"#  c #000032",
"$  c #030937",
"%  c #00003C",
"&  c #031639",
"*  c #151637",
"=  c #0E2A3A",
"-  c #2C2C39",
";  c #000045",
":  c #00004C",
">  c #030A4A",
",  c #04164F",
"<  c #000053",
"1  c #00005C",
"2  c #020A59",
"3  c #211F42",
"4  c #0D2851",
"5  c #2B2F52",
"6  c #000065",
"7  c #00006B",
"8  c #040A69",
"9  c #000073",
"0  c #020976",
"q  c #00007B",
"w  c #091573",
"e  c #0F2C70",
"r  c #2D3171",
"t  c #000084",
"y  c #00008C",
"u  c #020A89",
"i  c #06148E",
"p  c #000094",
"a  c #010A95",
"s  c #00009C",
"d  c #0E2C8F",
"f  c #30358F",
"g  c #0000A4",
"h  c #0000AD",
"j  c #020AA8",
"k  c #0715A9",
"l  c #0000B3",
"z  c #010AB6",
"x  c #0000BA",
"c  c #0317B7",
"v  c #2A08AD",
"b  c #0A2DB1",
"n  c #2F38AB",
"m  c #2146A8",
"M  c #3447B1",
"N  c #4547B4",
"B  c #0000C3",
"V  c #0000CC",
"C  c #010AC8",
"Z  c #180AC9",
"A  c #0217C7",
"S  c #0000D5",
"D  c #0001DC",
"F  c #010AD9",
"G  c #0216D7",
"H  c #072DD0",
"J  c #2B39D0",
"K  c #0001E3",
"L  c #000AE3",
"P  c #0001EB",
"I  c #000AEC",
"U  c #0017E6",
"Y  c #0013ED",
"T  c #0001F5",
"R  c #000BF5",
"E  c #0001FE",
"W  c #000BFE",
"Q  c #0A08F9",
"!  c #0012F5",
"~  c #021BF7",
"^  c #0013FE",
"/  c #001CFF",
"(  c #1715FA",
")  c #2715E5",
"_  c #0225E9",
"`  c #0D33ED",
"'  c #0627FA",
"]  c #0024FF",
"[  c #002BFF",
"{  c #0032FF",
"}  c #0837FC",
"|  c #003CFF",
" . c #1438FD",
".. c #2B32F5",
"X. c #4D2CEF",
"o. c #104ACF",
"O. c #2F4DD2",
"+. c #1F63DB",
"@. c #094CE6",
"#. c #0045FF",
"$. c #0A47FE",
"%. c #004CFF",
"&. c #1649FE",
"*. c #0053FF",
"=. c #005BFF",
"-. c #0A58FE",
";. c #1658FE",
":. c #374AFD",
">. c #2759FE",
",. c #3152F5",
"<. c #0065FF",
"1. c #006BFF",
"2. c #0A68FF",
"3. c #1868FF",
"4. c #0073FF",
"5. c #0A77FF",
"6. c #017AFF",
"7. c #1578FF",
"8. c #356CEA",
"9. c #2769FF",
"0. c #3868FE",
"q. c #2779FF",
"w. c #3877FF",
"e. c #5B57E4",
"r. c #4F58FA",
"t. c #526EFB",
"y. c #4777FF",
"u. c #6E71FE",
"i. c #8E75FF",
"p. c #0184FF",
"a. c #0984FF",
"s. c #018CFF",
"d. c #0A8CFF",
"f. c #1788FF",
"g. c #0194FF",
"h. c #019CFF",
"j. c #0A98FF",
"k. c #1394FF",
"l. c #139CFF",
"z. c #1C98FF",
"x. c #2687FF",
"c. c #3988FF",
"v. c #2698FF",
"b. c #3897FF",
"n. c #01A4FF",
"m. c #0AA7FF",
"M. c #01ADFF",
"N. c #13A4FF",
"B. c #1BA4FF",
"V. c #17ADFF",
"C. c #04B7FF",
"Z. c #18B7FF",
"A. c #27A8FF",
"S. c #38A8FF",
"D. c #26B7FF",
"F. c #37B7FF",
"G. c #5585ED",
"H. c #4888FF",
"J. c #5887FE",
"K. c #4798FF",
"L. c #5898FF",
"P. c #6889FE",
"I. c #6F94FF",
"U. c #47A6FF",
"Y. c #56A7FF",
"T. c #47B7FF",
"R. c #59B7FF",
"E. c #68A7FF",
"W. c #77AAFF",
"Q. c #72B7FF",
"!. c #04C7FF",
"~. c #18C8FF",
"^. c #03D7FF",
"/. c #18D6FF",
"(. c #27C7FF",
"). c #37C8FF",
"_. c #27D8FF",
"`. c #36D8FF",
"'. c #03E8FF",
"]. c #17E7FF",
"[. c #04FDFF",
"{. c #17FCFF",
"}. c #27E7FF",
"|. c #38E8FF",
" X c #29FCFF",
".X c #34FAFF",
"XX c #3CFEFF",
"oX c #48C9FF",
"OX c #58C8FF",
"+X c #48D8FF",
"@X c #58D7FF",
"#X c #68C8FF",
"$X c #77C9FF",
"%X c #67D9FF",
"&X c #76D7FF",
"*X c #49E7FF",
"=X c #58E9FF",
"-X c #49F4FF",
";X c #45FEFF",
":X c #4CFEFF",
">X c #57F4FF",
",X c #53FEFF",
"<X c #5BFFFF",
"1X c #69E9FF",
"2X c #77E8FF",
"3X c #66F5FF",
"4X c #65FFFF",
"5X c #6CFFFF",
"6X c #77F4FF",
"7X c #73FFFF",
"8X c #7BFFFF",
"9X c #8B93FF",
"0X c #AA92FF",
"qX c #8EABFF",
"wX c #87B7FF",
"eX c #AAB2FF",
"rX c #C9B4FF",
"tX c #90CAFF",
"yX c #87D8FF",
"uX c #98D9FF",
"iX c #AFD1FF",
"pX c #87E8FF",
"aX c #97E8FF",
"sX c #88F5FF",
"dX c #84FFFF",
"fX c #8CFFFF",
"gX c #99F5FF",
"hX c #94FFFF",
"jX c #9BFFFF",
"kX c #A8E8FF",
"lX c #B9E8FF",
"zX c #A8F4FF",
"xX c #A4FFFF",
"cX c #ADFFFF",
"vX c #B8F5FF",
"bX c #B3FFFF",
"nX c #BAFFFF",
"mX c #CED1FF",
"MX c #E2D3FF",
"NX c #CDEBFF",
"BX c #C8F5FF",
"VX c #C3FFFF",
"CX c #CCFFFF",
"ZX c #D5F6FF",
"AX c #D4FFFF",
"SX c #DBFFFF",
"DX c #F0E9FF",
"FX c #E9F5FF",
"GX c #E3FFFF",
"HX c #ECFFFF",
"JX c #FDF6FF",
"KX c #F5FFFF",
"LX c #FFFFFF",
/* pixels */
"                                                                                                                  2X%                                                                                                                                                                                                                                                                                                                                                                                                                                                             T                                                                                                                                                                           3.v                                                                                                                                                                                                                                                                                               ",
"                                                                                                                  e.a.                                                                                                                                                                                                                                                                                                                                                                                                                                                            y 9                                                                                                                                                                         LX                                                                                                                                                                                                                                                                                                ",
"                                                                                                                  @ SX=                                                                                                                                                                                                                                                                                                                                                                                                                                                             ^.                                                                                                                                                                      dX9X                                                                                                                                                                                                                                                                                                ",
"                                                                                                                    w.dX#                                                                                                                                                                                                                                                                                                                                                                                                                                                           .X                                                                                                                                                                    4.LX                                                                                                                                                                                                                                                                                                  ",
"                                                                                                                    $ LXL.#                                                                                                                                                                                                                                                                                                                                                                                                                                                       a.y                                                                                                                                                                   F.LX                                                                                                                                                                                                                                                                                                    ",
"                                                                                                                      r LX:..                                                                                                                                                                                                                                                                                                                                                                                                                                                   ] 1                                                                                                                                                 P g.s.#         7.LXHX                                                                                                                                                                                                                                                                                                      ",
"                                                                                                                        r LXf                                                                                                                                                                                                                                                                                                                                                                                                                                                 % ]                                                                                                                                               +XLXLX9XW.HXLXfXLXLXbX9                                                                                                                                                                                                                                                                                                         ",
"                                                                                                                          e.LX=                                                                                                                                                                                                                                                                                                                                                                                                                                               f.                                                                                                                                            A LXGX:         1 R 1                                                                                                                                                                                                                                                                                                               ",
"                                                                                                                          O mXAX&                                                                                                                                                                                                                                                                                                                                                                                                                                             c.                                                                                                                        g [ C             p LXr.                                                                                                                                                                                                                                                                                                                                ",
"                                                                                                                            $ ZX&XX                                                                                                                                                                                                                                                                                                                                                                                                                                           ).                                                                                                                    c LXLXLXLXLXK.X ; O.HXLX..                                                                                                                                                                                                                                                                                                                                  ",
"2                                                                                                                             - LXn                                                                                                                                                                                                                                                                                                                                                                                                                                           !.                                                                                                                  H LXt.      o CXLXLXHX>.                                                                                                                                                                                                                                                                                                                                  O   ",
"}.$                                                                                                                             n LX                                                                                                                                                                                                                                                                                                                                                                                                                                            M.                                                                                                              . LXB                                                                                                                                                                                                                                                                                                                                                     1     ",
"z.Q.                                                                                                                            X LX>                                                                                                                                                                                                                                                                                                                                                                                                                                             1.                                                                                                      t ..qXLXDX                                                                                                                                                                                                                                                                                                                                                    p       ",
"b LX                                                                                                                              GX3.                                                                                                                                                                                                                                                                                                                                                                                                                                              p.                                                                                                pXLXLXLXcX<                                                                                                                                                                                                                                                                                                                                                     t         ",
"o LX.                                                                                                                             >.CX.                                                                                                                                                                                                                                                                                                                                                                                                                                             *.P                                                                                             LXLX:.                                                                                                                                                                                                                                                                                                                                                                      ",
"  NXO                                                                                                                             # LXr                                                                                                                                                                                                                                                                                                                                                                                                                                             b..                                                                                           LXDX                                                                                                                                                                                                                                                                    . X                                                                                       o           ",
"  Q q                                                                                                                               u.LX&                                                                                                                                                                                                                                                                                                                                                                                                                                         ] q                                                                                           @.LX                                                                                                                                                                                                                                                                        uX@                                                                                   6             ",
"  9 4.                                                                                                                              + LXyX#                                                                                                                                                                                                                                                                                                                                                                                                                                     #.9                                                                                             LXq                                                                                                                                                                                                                                                                         # ;.                                                                                g               ",
"  X dX                                                                                                                                5 LXK.O                                                                                                                                                                                                                                                                                                                                                                                                                                 Y.1                                                                                             CXLX                                                                                                                                                                                                                                                                            % 1                                                                             q                 ",
"    AX                                                                                                                                  5 LX8.                                                                                                                                                                                                                                                                                                                                                                                                                            s $XO                                                                                             q LX@                                                                                                                                                                                                                                                                               B %                                                                         .                   ",
"    GXo                                                                                                                                   r LXO.o                                                                                                                                                                                                                                                                                                                                                                                                                       w. .                                                                                                LXLX                                                                                                                                                                                                                                                                                o ;.;                                                                       <                   ",
"    3Xd                                                                                                                                     J LXLXVX;.$                                                                                                                                                                                                                                                                                                                                                                                                             c.;.                                                                                                  9 LXt                                                                                                                                                                                                                                                                                   O ` <                                                                   s                     ",
"    ] g.                                                                                                                                      t ( ..9XLXhX4                                                                                                                                                                                                                                                                                                                                                                                                     -.$X                                                                                                      LXMX                                                                                                                                                                                                                                                                                      . j p .                                                             B                       ",
"    9 xX.                                                                                                                                             $ u.LX#X&                                                                                                                                                                                                                                                                                                                                                                                               L.7                                                                                                       LXLX                                                                                                                                                                                                                                                                                            q [ @                                                         6                         ",
"    . HX>                                                                                                                                               . f LXCX=                                                                                                                                                                                                                                                                                                                                                                                           s 9                                                                                                       9 LXo                                                                                                                                                                                                                                                                                               ; w.%                                                     1 .                         ",
"      bXv.                                                                                                                                                  5 LXVX&                                                                                                                                                                                                                                                                                                                                                                                         iX                                                                                                        I LX                                                                                                                                                                                                                                                                                                  @ K.<                                                 B                             ",
"      w.nX                                                                                                                                                    5 LXOXX                                                                                                                                                                                                                                                                                                                                                                                     t B                                                                                                         d.LX                                                                                                                                                                                                                                                                                                    @ q.%                                           : V                               ",
"      u LX                                                                                                                                                      - LXf                                                                                                                                                                                                                                                                                                                                                                                     uX                                                                                                        X HXeX                                                                                                                                                                                                                                                                                                      @ x.O                                     q I                                   ",
"      o LX                                                                                                                                                        n LX=                                                                                                                                                                                                                                                                                                                                                                                 % Q.                                                                                                        x LX;                                                                                                                                                                                                                                                                                                         % U                                 q t.                                      ",
"      . LX                                                                                                                                                        X 9XjXX                                                                                                                                                                                                                                                                                                                                                                               I.%                                                                                                       y LXqX                                                                                                                                                                                                                                                                                                            ` %                             y 6                                         ",
"      . LX                                                                                                                                                          $ LXn                                                                                                                                                                                                                                                                                                                                                                               AX                                                                                                      3.LXNX                                                                                                                                                                                                                                                                                                              O 3.                            u.                                          ",
"        LX+                                                                                                                                                           u.SX                                                                                                                                                                                                                                                                                                                                                                            kX                                                                                                y q.VXLXLXH                                                                                                                                                                                                                                                                                                                   ' o                         . X                                           ",
"        CXo.                                                                                                                                                          8 LX$                                                                                                                                                                                                                                                                                                                                                                       o tX                                                                                              1 LXLXLXnX%.                                                                                                                                                                                                                                                                                                                      % H                         W                                             ",
"        *.1X                                                                                                                                                          . LX3.                                                                                                                                                                                                                                                                                                                                                                    ^ (                                                                                               : LXLXz                                                                                                                                                                                                                                                                                                                             . E.                        (                                             ",
"        @ SX=                                                                                                                                                           iXjXX                                                                                                                                                                       X                                                                                                                                                                                       S tX                                                                                                  LXLX                                                                                                                                                                                                                                                                                                                                  qX                      @                                               ",
"          3.fX&                                                                                                                                                         w LXn                                                                                                                                                                       1                                                                                                                                                                                     2Xp                                                                                                   AXLX#                                                                                                                                                                                                                                                                                                                                   E..                     t.                                              ",
"          @ vX2X&                                                                                                                                                         u.LXr .                                                                                                                                                                   @                                                                                                                                                                                 2XtX                                                                                                    t LXX.                                                                                                                                                                                                                                                                                                                                    P.O                     y                                               ",
"            & CXxX&                                                                                                                                                       X X.LXJ.$                                                                                                                                                                                                                                                                                                                                               p AXO                                                                                                       LXLX                                                                                                                                                                                                                                                                                                                                      I.X                   I.                                                ",
"              $ R.@X                                                                                                                                                          r LXAX=                                                                                                                                                                                                                                                                                                                                           z wX                                                                                                        T LXs                                                                                                                                                                                                                                                                                                                                     . NX                  t.                                                  ",
"                # OX>                                                                                                                                                           5 LXLX5                                                                                                                                                                                                                                                                                                                                         kX                                                                                                          LXLX                                                                                                                                                                                                                                                                                                                                      1 t.                t.#                                                   ",
"                  w sX                                                                                                                                                            r LXLXr.0 # .                                                                                                                                                                                                                                                                                                                               xX                                                                                                          q LXu.                                                                                                                                                                                                                                                                                                                                      0X@             ~ u.                                                      ",
"                  . KX.                                                                                                                                                             @ r.LXLXLXLXLXw.@                                                                                                                                                                                                                                                                                                                         H.                                                                                                          E LXO                                                                                                                                                                                                                                                                                                                                     # t.          g 0X                                                          ",
"                    GX2                                                                                                                                                                   . @ w i.LXOX@                                                                                                                                                                                                                                                                                                                     1 G                                                                                                         % cXLX                                                                                                                                                                                                                                                                                                                                      X.;         qXX                                                             ",
"                    bX|                                                                                                                                                                         X n LXb.X                                                                                                                                         :                                                                                                                                                                         6 F                                                                                                       O g LXy                                                                                                                                                                                                                                                                                                                                     X r.        eX                                                                ",
"                    I.S.                                                                                                                                                                            r LX8.                                                                                                                                        O                                                                                                                                                                         ^ F                                                                                                       q LXLX                                                                                                                                                                                                                                                                                                                                      v 1       qX                                                                  ",
"                    ` bX                                                                                                                                                                              n LXe                                                                                                                                         #                                                                                                                                                                       L.q                                                                                                     6 LXLX#                                                                                                                                                                                                                                                                                                                                     @ i.      s Z                                                                   ",
"                    O LX&                                                                                                                                                                             o ZXfX                                                                                                                                          O                                                                                                                                                                     SX                                                                                                    ; LXLXp                                                                                                                                                                                                                                                                                                                                       u.;       JX                                                                    ",
"                      H f.#                                                                                                                                                                             r LXO                                                                                                                                           #                                                                                                                                                                 O HX                                                                                                  O LXLXg                                                                                                                                                                                                                                                                                                                                       ; J       DX                                                                      ",
"                      o Q.S.&                                                                                                                                                                           X LXc                                                                                                                                             <                                                                                                                                                               #.1                                                                                                 O CXLXF                                                                                                                                                                                                                                                                                                                                         0XO   ( eX                                                                        ",
"                        # qXLX0.#                                                                                                                                                                         LXK.                                                                                                                                              @                                                                                                                                                             CX                                                                                                X f.LX:.                                                                                                                                                                                                                                                                                                                                        # Z ,.JX                                                                            ",
"                          . f LXc.                                                                                                                                                                        H.KXO                                                                                                                                             B                                                                                                                                                           sX                                                                                                  s LXNXX                                                                                                                                                                                                                                                                                                                                         u.LXt                                                                               ",
"                              5 LX4                                                                                                                                                                       2 LXJ                                                                                                                                             X X                                                                                                                                                       =.y.                                                                                                . LXLXO                                                                                                                                                                                                                                                                                                                                           LX;                                                                                 ",
"                                m ,X                                                                                                                                                                        LXLX@                                                                                                                                             t                                                                                                                                                     l GX                                                                                                  | LXs                                                                                                                                                     p #.{ g %                                                                                                                                                                             J.r.                                                                                  ",
"                                o VXO                                                                                                                                                                       5 LXO.                                                                                                                                            x                                                                                                                                                     LX                                                                                                    LXLXO                                                                                                                                               O K.LXLXLXLXLXLXHXE.] h                                                                                                                                                                   % JX#                                                                                   ",
"                                  R.H                                                                                                                                                                         P.LX=                                                                                                                                           h                                                                                                                                                   h CX                                                                                                  P LXT .                                                                                                                                           % ;.HXLXLXq.s 1 s y.LXLXLXLX;.X                                                                                                                                                               LXw.X                                                                                   ",
"                                  H C.                                                                                                                                                                        # SXxXo                                                                                                                                         K                                                                                                                                                   v.*.                                                                                                  =.LXl                                                                                                                                         . t / LXLXkX@             % Q lXLXw..                                                                                                                                                           r.r.E.o                                                                                   ",
"                                  q 4X                                                                                                                                                                          4 LX8.                                                                                                                                        B                                                                                                                                                   Z.l                                                                                                   ^ LXV                                                                                                                                     O 1 $XLXLXLXS                     X B LXH..         . X                                                                                                                                           9XeX  P.O                                                                                   ",
"                                  0 dX                                                                                                                                                                            n LX&                                                                                                                                       g                                                                                                                                                   ` B                                                                                                   D LX-.                                                                                                                              % t g ] LXLXGX>..                           7 LXAX^ t.KXLXLXLXGX9                                                                                                                                   O LX:     P..                                                                                   ",
"                                  A @X                                                                                                                                                                            O LXF.                                                                                                                                      %                                                                                                                                                   | =.                                                                                                  P LXH.                                                                                                                        O y.SXLXCXLXLXLXt                                   V LXLXLXVXq.' ..GXLXp                                                                                                                               lXrX        r.                                                                                    ",
"                                  S.@.                                                                                                                                                                            . mXKX                                                                                                                                    %                                                                                                                                                     h R.                                                                                                  h LXP.                                                                                                                      pXLXLXLXLXLXLX9.                                        o X             b.LX<                                                                                                                           LX6         % q                                                                                     ",
"                                  AX>                                                                                                                                                                               i.LX                                                                                                                                    V                                                                                                                                                     1 CX                                                                                                ; E LX{                                                                                                                     GXLXLXD t # o                                                               LXLXo                                                                                                                     1 LXo         # eX.                                                                                     ",
"                                  AX<                                                                                                                                                                               u.LX                                                                                                                                    V                                                                                                                                                       LX                                                                                              X g aXLXy                                                                                                                   v.LXeXp #                                                                     O LXBXX         < G | l                                                                                                 o LX          X eX:                                                                                       ",
"                                  bX2                                                                                                                                                                               :.LX                                                                                                                                    g                                                                                                                                                       |._.                                                                                            6 E LXLXO                                                                                                               X g LXLXt X                                                                         6 LXLXLXLXLXLXLXLXLXLXLX3.                                                                                            LX.           v d                                                                                         ",
"                                  T.=.                                                                                                                                                                              ..LX.                                                                                                                                   P                                                                                                                                                         VX;                                                                                         < V V.LXCX.                                                                                                             X y J.LXW .                                                                               j 3.7.' 1       o ~ LX>.                                                                                        GXy           . 0XX                                                                                         ",
"                                  b dX                                                                                                                                                                              ( LX.                                                                                                                                   /                                                                                                                                                         _ h.                                                                                      % s <.LXLXT .                                                                                                         . ; y $.LXLX;                                                                                                     9 LXS           p #XLXLXGXU                                                               9 mX            u 1                                                                                           ",
"                                  o VXO                                                                                                                                                                             U LXO                                                                                                                                   I                                                                                                                                                           jX                                                                                    o t <.LXLXE 1                                                                                               O B E E l l E I.LXLXLXh                                                                                                         ~ LXLXiXiXHXLXLXHXJ.:.Q.LXSXX                                                           LX              9X.                                                                                           ",
"                                    3Xb                                                                                                                                                                             7 LXu                                                                                                                                   s                                                                                                                                                           cX.                                                                                   7 E LXLXE t #                                                                                           O b.LXLXLXLXLXLXLXLXLXtXO                                                                                                             s #XxXpXb.U             %.LXg                                                     : LXB               :.                                                                                            ",
"                                    =.7X.                                                                                                                                                                           X LXb.X                                                                                                                                 X .                                                                                                                                                         xXg                                                                                 o x LXLXE g 1 .                                                                                   . O % 1 nXLXLXuXW.R.fXR./ 9                                                                                                                                             q LX9               9 GXLXLXAX;           _ zXCXtXH.uXLXLX..              . t                                                                                             ",
"                                    u LXw                                                                                                                                                                             9XLXf                                                                                                                                   y                                                                                                                                                         cXh                                                                                 ; *.LXHXV 7 O .                                                                               X t K ^ ( AXLXAXS t < o                                                                                                                                                       p LXy           cXLX>.X @ | LX0.    ; LXLXl % 6 y ;                     < @                                                                                             ",
"                                    X KX&X                                                                                                                                                            B               $ LXKXJ                                                                                                                                 W                                                                                                                                                         GX%                                                                                 7 <XLX] s ; X .                                                                         . B 0XLXLXLXLXLXLXW.7 @ .                                                                                                                                                             g LXLXLXLXLXLXwXo           VXLXLXnXS                                 7 #                                                                                             ",
"                                      O.LX                                                                                                                                                            g                 5 KXLX,.X                                                                                                                             ^                                                                                                                                                         GX                                                                              . O S KXLXE y : # X . .                                                               X ; w.LXLXLXLXLXLXLXpXg .                                                                                                                                                                       % 9 1                                                             6 1                                                                                             ",
"                                      + LX.                                                                                                                                                           9                   @ r.LX0.                                                                                                                            K                                                                                                                                                         GX                                                                          . X o ; E LXLXP y 1 # o X X . .                                                         o 9 LXLXLXLX6X^ h 1 .                                                                                                                                                                                                                                               % +.                                                                                            ",
"                                        LX.                                                                                                                                                                                 O 9XLXd                                                                                                                           s                                                                                                                                                         7XI                                                                       . o # % 1 E LXLXV p 6 : @ X X X o .                                                   . # p LXLXLX<.S 6 O o                                                                                                                                                                                                                                                     fX+                                                                                           ",
"                                        LXX                                                                                                                                                             O                     $ KXCXX                                                                                                                         1                                                                                                                                                         U jX                                                                    . O # : < q E LXLXS g q < ; @ o o o O X .                                           . O ; y LXLXLXE s : .                                                                                                                                                                                                                                                         i w.                                                                                          ",
"                                        LX.                                                                                                                                                             t                       5 LXi                                                                                                                         # o                                                                                                                                                         xX=.                                                                o # : 1 6 9 s E LXLXE V h p q 6 : ; # # @ @ O o X . . . X . .     X X . . X o O O # % < 6 p 1XLXLXD 9 O                                                                                                                                                                                                                                                             X uXX                                                                                         ",
"                                        LX&                                                                                                                                                           O <                       . LX).                                                                                                                        t                                                                                                                                                           W.<.                                                            X @ ; 1 7 q t s B W LXLXE E S x s t 9 6 1 1 : : ; < : t x s 6 % @ o O @ % ; q l 9 6 1 6 7 q h T LXLXT 1 .                                                                                                                                                                                                                                                                 H q                                                                                         ",
"                                        LXL..                                                                                                                                                         =.                          iXjX                                                                                                                        ..                                                                                                                                                          &Xq                                                         . O % 1 9 y s h h x P / LXLX^ E E P P K S V s y q q y x @XLXLXLX^ s 6 1 1 9 t T.LXLXLX5.x p g B R gXLX&X1                                                                                                                                                                                                                                                                     % t.                                                                                        ",
"                                        r LXf                                                                                                                                                         H.                          r.KX.                                                                                                                     1 D                                                                                                                                                           KX                                                        X # < 7 y g x V D I / | =.LXLX#.%.=.d.hXLXLXU.E P V K E LXLXLXLXLXLXS.K x B P KXLXLXLXLXLXLXHXGXLXLXLXLX1                                                                                                                                                                                                                                                                       . AX                                                                                        ",
"                                          5 LXr                                                                                                                                                       2.                          A LXX                                                                                                                   # ] o                                                                                                                                                         o LX                                                    X @ ; 6 t g B D T / { *.4.6.VXLXLXLXLXLXLXLXLXLXLXLX6.[ ;.LXLXLXc.T F.LXLXLXLXLXLXLXLXW g V f.LXLXLXLXLX*.:                                                                                                                                                                                                                                                                           KXX                                                                                       ",
"                                            r LXo                                                                                                                                                       B                         0.KXO                                                                                                                 # / @                                                                                                                                                           1 LX                                                . O ; 1 q p x K T / { %.p.C.'.;X8X[.LXLXLXLXLXLX<X%.LXLXLXLXLXLXLX| h y p I nXLXLXLXLX|.h < % % ; : q h 6 #                                                                                                                                                                                                                                                                               zXe                                                                                       ",
"                                            . wXJ                                                                                                                                                       j.                        bXSX1                                                                                           1 #.| R p .       o l K O                                                                                                                                                             x HX                                              X # : 9 p x K W ] | <.{.LXLXLXLXLXLXLXLXLXLXLXLXs.{ E W LXLXLXLX4XP 7 < : < : : q P E p % o . .                                                                                                                                                                                                                                                                                             d KXf .                                                                                   ",
"                                              k LX                                                                                                                                                        v.                      2XLXa                                                                                       l g             D ' ..' q                                                                                                                                                                 | jX                                          . O % 1 q g K W / { =.'.LXLXLXLXLXLXLXLXLXLXLXLXLXp.] K x B T / =.S 1 ; # # @ O o X . .                                                                                                                                                                                                                                                                                                           4 bXOX$                                                                                 ",
"                                              o LX&                                                                                                                                                       s V                     d LXj                                                                             x y O                                                                                                                                                                                               v.kX                                        o % : 6 p x E / [ g.<XLXLXLXLXLXLXLXLXLXLXLXLXLXVX%.W S h s t 9 q 1 : # O o X . .                                                                                                                                                                                                                                                                                                                     . 8 kX@.@                                                                             ",
"                                                LXY.                                                                                                                                                        dX                    X LX'                                                                           l o                                                                                                                                                                                                   7XmX                                    . O ; 1 q s V / | ^.LXLXLXLXLXLXLXLXLXLXLXLXLXLXdX%.W W V s t 7 < % # o X . .                                                                                                                                                                                                                                                                                                                                 o O.LXy.@                                                                         ",
"                                                n LX4                                                                                                                                                       =.l                   . LXb.                                                                          t                                                                                                                                                                                                     *XVX                                  X # < 9 y x K { 4.'.LXLXLXLXLXLXLXLXLXLXLXLXLX;X<.| / P B s q 1 ; # o . .                                                                                                                                                                                                                                                                                                                                           & 9XtXX                                                                       ",
"                                                X HXhX=                                                                                                                                                     # T.                    LXjX                                                                        x                                                                                                                                                                                                       y LX                              . O ; 6 t g V T | g.'.LXLXLXLXLXLXLXLXLXLXLXLXLXs.[ [ W S l t 6 ; @ X .                                                                                                                                                                                                                                                                                                                                                   # eXn                                                                       ",
"                                                  = SXnX4                                                                                                                                                     4X                    eXLX.                                                                       @                                                                                                                                                                                                         LXg                         . o # 1 q p x P W [ 6.[.LXLXLXLXLXLXLXLXxXj.=./ W E E E K B s 9 : # o .                                                                                                                                                                                                                                                                                                                                                         & GX&                                                                     ",
"                                                    o e.LXn                                                                                                                                                   5X                    r.LX                                                                      T                                                                                                                                                                                                           T.pX                      X O % 1 t g V T E / g.CXLXLXLXLXLXLXHX/.C.Z.s.%.] ^ E K x s q 1 % o .                                                                                                                                                                                                                                                                                                                                                               w Y.;                                                                   ",
"                                                        5 LXf                                                                                                                                                 -X                    9XLX                                                                    X Q                                                                                                                                                                                                           P LX                  . X # ; 6 t h S E W !.LXLXLXLXLXLXLXLXLXp.s.6.1.=.{ Y V h s q 1 ; O .                                                                                                                                                                                                                                                                                                                                                                     :.P.w o                                                               ",
"                                                          f LX$                                                                                                                                             O 4.                    kXKX.                                                                   y :                                                                                                                                                                                                           1 LX9               . O # : 6 y h D E [ HXLXLXLXLXLXLXLXLXLX!.#.%.#.{ / V g y q 1 ; O X                                                                                                                                                                                                                                                                                                                                                                         . O.LXKXt.1                                                           ",
"                                                          . LXc.o                                                                                                                                           #.y                     $XGX.                                                                 . K                                                                                                                                                                                                               CXj..           O O % : 7 y h K W %.hXLXLXLXLXLXLXLXLXLXLXE W / ^ K x p 9 6 : # o .                                                                                                                                                                                                                                                                                                                                                                               . 8 :.CXbXb X                                                     ",
"                                                            r LXJ                                                                                                                                           R..                     0.LX@                                                                 g .                                                                                                                                                                                                             . 5.LX1 .       X % % 1 6 y l P ^ =.^.LXLXLXLXLXLXLXAX*XM.^ E T K B s t 6 : % O X                                                                                                                                                                                                                                                                                                                                                                                           , wX6X@                                                   ",
"                                                              t.LXr                                                                                                                                         *XX                     i LXu                                                                 E                                                                                                                                                                                                                 p LX ..   . O # ; 1 9 p B T W #.C.LXLXLXLXLXLXdXs.M.4.{ ^ T S x y 7 1 % O X .                                                                                                                                                                                                                                                                                                                                                                                               # I.c.                                                  ",
"                                                              o P.LXn                                                                                                                                       6 =.                    O LX7.                                                                E                                                                                                                                                                                                                 1 2.LXo @ o # ; 1 q s S E W %. XLXLXLXLXLXLXnXg.g.4.#./ K B g t 1 ; # o .                                                                                                                                                                                                                                                                                                                                                                                                     > LX,                                                 ",
"                                                                . n LXd                                                                                                                                       4X                    . LX7X                                                                s                                                                                                                                                                                                                 < W LX; < : 1 9 t s S E / s.SXLXLXLXLXLXLX7Xs.=.#.{ / I x p 9 : # o .                                                                                                                                                                                                                                                                                                                                                                                                           O.Q.@                                               ",
"    @                                                               e.cX                                                                                                                                      1 C.                  O LX1X                                                                  7                                                                                                                                                                                                               % / LX7 t 7 q y l T W *.|.fXLXLXLXLXLXLX^.g.*.{ / R S h t 6 ; # X                                                                                                                                                                                                                                                                                                                                                                                                               X uX>.@                                             ",
"                                                                    > LXX                                                                                                                                       XX                  N LX4                                                                   t 7                                                                                                                                                                                                             # %.LXg s y h P E h.SXLXLXLXLXLXLXLXLX(.M.<.| / I B g q 1 ; @ X                                                                                                                                                                                                                                                                                                                                                                                                                   # wXwXd o                                         ",
"                                                                    . LXu                                                                                                                                       { =.              5 LXK.                                                                      6 y                                                                                                                                                                                                           # W LXT E / | *XLXLXLXLXY..XLXLXLXLXF.).6.#./ P x s q 1 % O X                                                                                                                                                                                                                                                                                                                                                                                                                       X o.LXLXLXKXaXc.2 .                             ",
"                                                                      wX>.                                                                                                                                      s ~.            * LXLX$                                                                         q ;                                                                                                                                                                                                       X < E LXE ( 8XLXLXLXAXE E [ C.LXLXLXdXT.j.=.] K x p 9 1 % O .                                                                                                                                                                                                                                                                                                                                                                                                                               X O X @ v LXKXf                           ",
"                                                                      w LXo                                                                                                                                     ,.]           > GXLXf                                                                             U                                                                                                                                                                                                     X % p E LXLXLXLXLX1XE E W ] %.!.LXLXLX|.v.<.{ P x s q 1 ; O .                                                                                                                                                                                                                                                                                                                                                                                                                                           o e.LXf                         ",
"                                                                      X LXJ                                                                                                                                     R.s         . MXLXP..                                                                             o o                                                                                                                                                                                                 . : s K 6.LXLXLX).E S K P / ] | M.LXLXLX^.<.%./ V g q 1 ; O X                                                                                                                                                                                                                                                                                                                                                                                                                                                 f LXr                       ",
"                                                                        LXuX                                                                                                                                    cXX         r LXGX>                                                                                 V                                                                                                                                                                                                 # p E LXLXLXQ.E g h h B K / [ %.s.LXLXLXn.%.{ I h y 6 ; @ X                                                                                                                                                                                                                                                                                                                                                                                                                                                     f LX4                     ",
"                                                                      O LXuX                                                                                                                                    xX        X LXLXn                                                                                   ^                                                                                                                                                                                               O 7 P nXLXLXE x g p h x V P / { <.M.LXLXLXp.| ] V p 9 : # X                                                                                                                                                                                                                                                                                                                                                                                                                                                       . J.dX.                   ",
"                                                                      n LX4                                                                                                                                     CX        d LXf                                                                                     {                                                                                                                                                                                             . ; s #.LXLXE B g p p h x V D / { 4.).LXLXLX<.[ R h q 1 % o .                                                                                                                                                                                                                                                                                                                                                                                                                                                         $ LX0                   ",
"                                                                    * LXr                                                                                                                                       xX.       NXnXX                                                                                     D                                                                                                                                                                                             o : S LXLX^ S p y s g l x V L ] #.4.cXLXLXLX=./ F p 6 : O .                                                                                                                                                                                                                                                                                                                                                                                                                                                             W.t.                  ",
"                                                                    mXaX.                                                                                                                                       `.F       LXO.                                                                                      V                                                                                                                                                                                           . O 7 =.LXHXE l y y s x S S S R [ =.=.LXLXLXdX#.R x q < % X                                                                                                                                                                                                                                                                                                                                                                                                                                                               @.bX.                 ",
"                                                                  o LX=                                                                                                                                         @ 8X    . LXk                                                                                       y                                                                                                                                                                                           X # g 8XLX} P x h l x B D I I ^ { 4.s.LXLXLXs.[ S g 7 ; O                                                                                                                                                                                                                                                                                                                                                                                                                                                                 0 LX#                 ",
"                                                                  n CX                                                                                                                                            fX;   . LXw.                                                                                      S                                                                                                                                                                                         X @ : x hXLXE D l l B D K K I ^ ] =.p.dXLXLXLX| W x t 1 @ .                                                                                                                                                                                                                                                                                                                                                                                                                                                                 X LXO.                ",
"                                                                * LXr.                                                                                                                                            B Y.    LXKX#                                                                                     I                                                                                                                                                                                       . o ; 9 K fXLX{ D x h h V I W / / %.p.^.LXLXLX(.[ K g 9 ; o                                                                                                                                                                                                                                                                                                                                                                                                                                                                     8.cXe               ",
"                                                              o MXLX+                                                                                                                                               HX    f LXo.                                                                                    [                                                                                                                                                                                     . o % 1 9 { xXLXj.K x x x D W ^ [ %.6.s.LXLXLXLX| W B y < O                                                                                                                                                                                                                                                                                               1 -.                                                                                                                                                                    o uX4Xe             ",
"                                                              e.LXO.                                                                                                                                              @ HX    X LXbX                                                                                    E                                                                                                                                                                                 . o @ ; 1 q h 1.LXLX^.T B V K T ^ [ *.6.n.nXLXLXLX!./ S h 9 % .                                                                                                                                                                                                                                                                                     . < >.L.` ;                                                                                                                                                                         @ J.SX>.#         ",
"                                                            - LXwXo                                                                                                                                               s aX      qXLX                                                                                  X E                                                                                                                                                                               X @ ; 1 1 9 g E 3.LXLX%.P B K T W { <.s.^.KXLXLXLXLX/ P l y 1 o                                                                                                                                                                                                                                                                         q ' 9.w.w.0.J.:.6 .                                                                                                                                                                                   r LXjXc       ",
"                                                          3 LXBX#                                                                                                                                                 3.'       9XLX                                                                                  l #                                                                                                                                                                         . . o # : 6 9 t g E b.LXLX).E S D E ^ / =.d.5XLXLXLXLXLX#.W x s 9 % .                                                                                                                                                                                                                                                                   @ r.H o                                                                                                                                                                                                       f LX$       ",
"                                                        . LXiX$                                                                                                                                                   LX        9XLX                                                                                O |                                                                                                                                                                     . o # % % : 1 7 t g ] aXLXLXLXN.E D S E / { =.d.nXLXLXLXLXLX=.E S g t : o                                                                                                                                                                                                                                                                   % DX%                                                                                                                                                                                                           @ ZXb       ",
"                                                        r LX*                                                                                                                                                   2XI.        0XLX                                                                                P @                                                                                                                                                             . O O % 1 t y q 9 9 t s V 2XLXLXLXLX{ P S K E / ] =.d.GXLXLXLXLXLX| E T l p 1 @ .                                                                                                                                                                                                                                                                   0X>                                                                                                                                                                                                               o.VXX     ",
"                                                      o LXiX                                                                                                                                                  O LX#         rXLX                                                                                W                                                                                                                                                     X o @ % 1 9 y x [ F.8X{ E V S K W { LXLXcX2.E K K P E / [ 4.,XLXLXLXLXLXpXE W E V g 9 % .                                                                                                                                                                                                                                                                     DX.                                                                                                                                                                                                               % SXw     ",
"                                                      e.LX*                                                                                                                                                   ~.e.        o LXLX                                                                              % 9                                                                                                                                                 X O 1 l ] s.S.lXLXLXLXLXLXLXdXA.#XcXLXLXLXnX| E D V K T W { p.SXLXLXLXLXLX6.[ / W K h q ; o                                                                                                                                                                                                                                                                       iX>                                                                                                                                                                                                                 +.@XX   ",
"                                                    5 LXy.                                                                                                                                                    |.Z         w LX#X                                                                              T .                                                                                                                                             X # 6 R Q.b.LXLXLXLXLXLXLXVXbXLXLXLXLXLXLXLXKX] V V B V K E ^ =.{.LXLXLXLXLX=.| [ ^ K l t < O                                                                                                                                                                                                                                                                         : Q.@                                                                                                                                                                                                               % LXe   ",
"                                                  * LXLX+                                                                                                                                                     p.r.      X mXLX,                                                                               ]                                                                                                                                           . o 1 S { U.GXnXLXLXjX>X] T P P T E @XaXb.=.E K h h x B V S P E [ <.LXLXLXLXLX=.#.{ / I x t < @ .                                                                                                                                                                                                                                                                           7 W.1                                                                                                                                                                                                               G.AX& ",
"                                                @ 0XLX-                                                                                                                                                       l qX      w LX8.                                                                              . W                                                                                                                                     . O 7 B 7.LXLXLXLXLXLXLX#.E p y t t t t y t t t t y p s g g x S D P / *.h.LXLXLXLX<.#.[ ] I B y 1 # X                                                                                                                                                                                                                                                                               # Q.zXq X                                                                                                                                                                                                         > LXOX",
"                                              * eXLX-                                                                                                                                                         7 aX      qXLX$                                                                               X B                                                                                                                                   X 6 4.GXLXLXLXLXLXGXhX).^ 1 < < : : ; ; : : : : < 1 6 9 t y s l B S ^ { *.VXLXLXLX4.*.{ ] Y B p 7 % o                                                                                                                                                                                                                                                                                     O H jXVXI.1                                                                                                                                                                                                   o eXLX",
"                                          * eXLXLX-                                                                                                                                                           . cX    O LXCXo                                                                                 7                                                                                                                                 o q nXLXLXLXLXaXE g 7 : # @ # # # @ # O @ @ # O # % < 1 7 9 t p g x S ^ #.6.LXLXLXv.=.#.{ ! V g q < O .                                                                                                                                                                                                                                                                                           . q I.VXi                                                                                                                                                                                                 w LX",
"                                        r LXLXO.o                                                                                                                                                             q dX    i LXJ                                                                                   y                                                                                                                           . O # 7 h.LXLXLX7.E l t 1 : % @ O o o X . .   . . . o O @ % : < 1 7 t p x K / %.xXLXLXLX=.%.| / S h t 1 # X                                                                                                                                                                                                                                                                                                   & E.i                                                                                                                                                                                               o E.",
"                                      f LXt.+                                                                                                                                                                 ;.H.    9XLX:                                                                                   D                                                                                                                         X # < p E LXLXLXE S g 6 ; O O X X .                     . X o O # ; 1 9 p l P [ #.LXLXLX*X=.#.] K l p 6 ; O .                                                                                                                                                                                                                                                                                                     & zX#                                                                                                                                                                                               @ ",
"                                    N LXr                                                                                                                                                                     5X(   o LXkXX                                                                                 X y                                                                                                                     . o % 6 h #.LXLXLXE g q < ; O o . .                           . X o # ; 1 q s B T #.h.LXLXLX4.%.| / B s 9 : # X                                                                                                                                                                                                                                                                                                         H 0.#                                                                                                                                                                                               ",
"                                  e.LXr                                                                                                                                                                       KXt   7 LXo.                                                                                  P                                                                                                                     . O ; 9 x _.LXLXLX^ y 6 : ; @ X .                               . X o % : 1 t s B E | [.LXLXLX%.#.{ L h t < % O .                                                                                                                                                                                                                                                                                                           c Q.A # .                 . # # X                                                                                                                                                                 ",
"                                5 LXJ.                                                                                                                                                                      S KXX   ( LX2                 % / <.{                                                         @ q                                                                                                                   X @ < t B 4.LXLXLX^ p 1 : ; O .                                     X o % : 6 t s V W / 4XLXLXLX%.| ] B p 6 : # o                                                                                                                                                                                                                                                                                                               O @.gXnXcXbXaXyX;.s @.hXcXpXaXHX&X$                                                                                                                                                             ",
"                              * DXLX+                                                                                                                                                                       fX/ o   9XLXu 1             =.;       h Y                                                   o -..                                                                                                                 X % 6 g K =.LXLXLXW g 1 ; % O .                                       X O # : 6 t g D W ^ cXLXLXsX=.| ^ g q 1 ; O .                                                                                                                                                                                                                                                                                                                     . X . X ; z G y O . . . + +.+Xo                                                                                                                                                           ",
"                            - LXLX-                                                                                                                                                                         1..XC.:XLXLX@.V =.        6..             s / W %.2.-.{ %.%.K V U B C _ Y L / *.w.g         D %                                                                                                               . O ; q x E ~.LXLXLX[ h 9 ; % O X                                         X o # : 6 y h K ^ E bXLXLXp.2.{ L p 9 < % o                                                                                                                                                                                                                                                                                                                                                 . ` H                                                                                                                                                           ",
"                        o e.LXLX-                                                                                                                                                                           ; LXc . LXwX      A 1.=.D                                                         1         q.                                                                                                          . X O # : q B E CXLXLXLX] V 9 ; % O X                                           . o # : 6 y h I ^ E SXLXLXs.<.] S t 6 : @ X                                                                                                                                                                                                                                                                                                                                                   # fXX                                                                                                                                                         ",
"                      - KXLXN X                                                                                                                                                                             s LX  X LXK.                                                                                b.                                                                                                      . o # ; 1 9 p D E dXLXLXLX#.P y : % O X                                             X O % : 6 y x T ^ W LXLXLXC.#.^ V t 1 ; O .                                                                                                                                                                                                                                                                                                                                                     L.i                                                                                                                                                         ",
"                    f LXCX=                                                                                                                                                                                 A HX  o LXyX.                                                                             . v.                                                                                                    o % : 6 q s h P W #.LXLXLX=.E p 1 ; @ X                                               X O % : 9 y x T ] | <XLXLXAX/ W B q 1 % o                                                                                                                                                                                                                                                                                                                                                       8 dXO                                                                                                                                                       ",
"                O u.LXr.O                                                                                                                                                                                   #.AX  . LXKX.                                                                               f.                                                                                                . # : 7 t s l S E ] =.LXLXLXC.E h 1 : # o                                               . o # ; 1 9 p x P ] =.M.LXLXLXE E x q < # X                                                                                                                                                                                                                                                                                                                                                       . jX+.O                                                                                                                                                     ",
"              o qXLXO..                                                                                                                                                                                     %.AX    ZXLXX                                                                               N.                                                                                              . @ < q x P E E / =.Z.LXLXLX*XE g 6 : # o                                                 X O % : 6 q p B R ] <.6.LXLXLX/ E g 6 ; O .                                                                                                                                                                                                                                                                                                                                                         4 bXW., .                                                                                                                                                 ",
"              e.LXM                                                                                                                                                                                         | nX    t.LXO                                                                               #.O                                                                                           . o 1 l E 6.LXLXLXLXLXLXLXLX7XE h 6 < # o .                                               . X @ ; < 7 y g S ^ [ =.p.LXLXLX^ P p 1 % o                                                                                                                                                                                                                                                                                                                                                             + 7.xXjXK.` G ' 9.K.>.$                                                                                                                                 ",
"            f LXO.                                                                                                                                                                                          y.zX     .LX@                                                                               ; H                                                                                         . o 1 E *XLXLXLXLXLXLXLXLXLXg.E g 1 : # o                                                   . O % : 6 q s x K ^ | <.g.LXLXLXE S t : # X                                                                                                                                                                                                                                                                                                                                                                   X 1 g V K D _ qXLX,.o                                                                                                                             ",
"          r LXwXX                                                                                                                                                                                           GXQ.    A LX6                                                                               . 4.                                                                                      . @ : E 7XLXLXLXLXLXGXLXCXg.E E h 1 : # o .                                                 . o @ ; 1 9 y h S R / #.*.4XLXLXdX^ B q ; O .                                                                                                                                                                                                                                                                                                                                                                                   > I.Q.$                                                                                                                           ",
"      X M LXtX#                                                                                                                                                                                           ; LXx     q LXH                                                                                 >.                                                                                    . # < E | LXLXLXLXk.#.] E E K B s 6 : # o .                                                 . o @ % < 6 y g V P W { #.#.LXLXLXs./ h 6 % o                                                                                                                                                                                                                                                                                                                                                                                       X d &X$                                                                                                                         ",
"    3 ZXLXt.o                                                                                                                                                                                             V LX      @ LX>.                                                                                &.                                                                                  . O : B E LXLXLXxX[ ] / P V h p t 6 : @ o .                                                   X O % < 6 t g B P W / #.%. XLXLXLX{ E s 1 @ X                                                                                                                                                                                                                                                                                                                                                                                           d OXX                                                                                                                       ",
". f LXLX5                                                                                                                                                                                               . LXg       . LXhXO                                                                             @ g                                                                                   o ; 9 E 7XLXLXfX/ / ! D l s 9 6 < ; @ o                                                   . X O % : 6 t g B K T ^ { #.!.LXLXLXnXW V y : O .                                                                                                                                                                                                                                                                                                                                                                                           X W.k                                                                                                                       ",
"jXLXtX*                                                                                                                                                                                                 cXLX          I.LXe                                                                             W X                                                                                 . # 1 K [ LXLXLXE ^ I V h p q 1 ; % O X .                                                   X O % : 6 q s x K P W ^ | 7XLXLXLXLXM.E g 9 ; o                                                                                                                                                                                                                                                                                                                                                                                               w nX.                                                                                                                     ",
"H @                                                                                                                                                                                                   q LXX           w LXVX>                                                                           2.                                                                                  o : t E cXLXLX#.^ W D h y q 6 1 % O X .                                                   X O % : 6 q s x D P W E 6.LXLXLXLXLXLXE V y 1 # .                                                                                                                                                                                                                                                                                                                                                                                               . CX,                                                                                                                     ",
"                                                                                                                                                                                                    X LXr.            X t.LXH..                                                                         f.                                                                                . # 6 K cXLXLXjX] W W V p q 7 1 : # o .                                                 . X @ ; : 6 t p l S I W E jXLXLXLXLXLXh.E T h q : O                                                                                                                                                                                                                                                                                                                                                                                                   o.c.                                                                                                                    ",
"                                                                                                                                                                                                    VXLX                9 NXLXw                                                                         V..                                                                               X : t E LXLXLXhXW W P x y 9 1 : % o .                                                 . o # ; 1 6 t s l S R / E fXLXLXLXGXa.#./ P x p 6 # .                                                                                                                                                                                                                                                                                                                                                                                                   o nX,                                                                                                                 . ",
"                                                                                                                                                                                                  l LX;                   d LXR.X                                                                       _ 6                                                                               o 1 s E 4XLXLXLX^ E S g t 6 : ; O X                                                 . O # : 1 9 q p x S R ] #.s.LXLXLX1XS.<.{ L l p 9 : O                                                                                                                                                                                                                                                                                                                                                                                                       4 &X&                                                                                                             X o ",
"                                                                                                                                                                                                % LXLX                    # t.LXw                                                                       @ 6.                                                                            . @ 6 h E <.LXLXLX[ T B s 9 1 ; # o .                                               X @ ; 1 9 t s h V L ^ ] #.<.LXLXLXLXA.5.#.~ B s q < # .                                                                                                                                                                                                                                                                                                                                                                                                         i pX4                                                                                                           o @ ",
"                                                                                                                                                                                                bXLXo                       8 LXR.X                                                                       *..                                                                           X % q x E | LXLXbXE K x p 7 : % O .                                               X # : 9 y h B S I ^ ] { %.<.C.LXLXLX1X3.#.~ V g q 1 % o                                                                                                                                                                                                                                                                                                                                                                                                             e HXJ.@                                                                                                       @ % ",
"                                                                                                                                                                                              x LX6                         o 9XLX,                                                                       % t                                                                           o : y B E =.LXLXE E B h y 1 ; # o .                                           . o # 1 q s B K / / { | =.<.6.6.7XLXLXLX<.| ~ V g t 6 % O .                                                                                                                                                                                                                                                                                                                                                                                                               & tX$Xo                                                                                                   X % : ",
"                                                                                                                                                                                              LXC                             i LXOX                                                                        |                                                                         . # < p h E <XLXLXE T B g 9 : % O X                                           . o % < q s B P W E [ 1.1.4.s.M.|.LXLXLXm.| ~ D l y 9 : # X                                                                                                                                                                                                                                                                                                                                                                                                                   # t.+.                                                                                                  o : < ",
"                                                                                                                                                                                            pXKX                              % lXLXo                                                                       7.                                                                        X % 1 p g E SXLXLXE P B p 1 ; # o .                                         . o % < 6 p x K W <.LXLXLXLXLXLXLXLXLXLXjX] ^ L B g q 1 ; o .                                                                                                                                                                                                                                                                                                                                                                                                                     @ nX@                                                                                               . # 1 6 ",
"                                                                                                                                                                                            LXt                               X ,.LX0                                                                       %.                                                                      . O : 6 s h E LXLXCXE T V p 6 ; # o .                                       . O % 1 7 t h V ^ #.LXLXLXLXLXLXLXLXLXLXLX] W I S l p 6 : # o .                                                                                                                                                                                                                                                                                                                                                                                                                       o.@.                                                                                              o % 7 q ",
"                                                                                                                                                                                          U LXo                                 j LX_                                                                       3.                                                                      o % 1 q g B E LXLXLXE E B p 6 ; O X                                       . O % 1 9 t g V / E LXLXLXLXLXLXLXLXLXLX8X{ W P D B s q 1 % @ X .                                                                                                                                                                                                                                                                                                                                                                                                                       : cX                                                                                            . @ < t t ",
"                                                                                                                                                                                          bXNX.                                 j LX_                                                                     . >.                                                                      O : 6 y h P ^ GXLXLXxXE E p 7 ; O .                                     . O % 1 9 y g V Y { ].LXLXLX1.<.=.<.=.#.{ / / W K V h y 7 : % O X                                                                                                                                                                                                                                                                                                                                                                                                                         o HX                                                                                            o % 6 p s ",
"                                                                                                                                                                                          LXQ.                                X r.LX8                                                                     6 H                                                                     . @ : 9 s S E n.LXLXLXLXLXE g 7 % o .                                   . o # : 6 t s B Y ] #.LXLXLX8Xg.s.6.<.=.#.| ] ] I V l s q 1 : # O .                                                                                                                                                                                                                                                                                                                                                                                                                         . LXX                                                                                         . @ : q h h ",
"                                                                                                                                                                                          LXVX.                               # LXLXX                                                                     | <                                                                   . o # 1 t D E =.LXLXLXLXLXLXE s 1 # o .                                 X o % : 7 t s x U ] | '.LXLXLX(.a.p.4.=.%.| [ ] Y F x g y 9 1 ; % O X                                                                                                                                                                                                                                                                                                                                                                                                                           bX4                                                                                         o % 6 y B V ",
"                                                                                                                                                                                          =XLX.                               k LXf                                                                       G X                                                                   X # : t P / =.LXLXLXLXLX<X4.K t : @ X                               . o O % : 6 t s B L ] | =.hXLXLXLXs.5.4.=.%.| { ~ L S B h p t 7 1 : # O X .                                                                                                                                                                                                                                                                                                                                                                                                                         e xX&                                                                                     X @ < 9 g D P ",
"                                                                                                                                                                                          x LXO                             . $.LX9                                                                       p                                                                   X @ < y ^ F.HXLXLXLXLXHX[ | E g 9 : # X                 y y         . o @ ; < 6 t g B U [ #.<.n.LXLXLXLX6.<.*.#.| { [ U F C l g y q 6 1 : % @ o .                                                                                                                                                                                                                                                                                                                                                                                                                         . tX$X&                                                                                 . O ; 6 y x T ^ ",
"                                                                                                                                                                                          1 LX1                             X &.LXC                                                                       t                                                                 . % 9 S d.aXCXKXLXLXLXLXC.%.| V y 1 ; @ .             # 9 .         X O @ ; < 6 t g V Y [ #.2.v.'.LXLXLXcX5.=.*.{ [ ] ] U G C h s p q 9 1 1 ; # O X .                                                                                                                                                                                                                                                                                                                                                                                                                         O t.HX5                                                                               o % < 9 g V ^ [ ",
"                                                                            ;                                                                                                             : LXy                               ~ LXw.@                                                                     x                                                               @ t $.VXLXHX;XE E { LXLXLX6.{ ^ l 9 < % O .         @ v X         . X O # ; 1 9 y h S ! { #.=.z.Z.nXLXLXLXF.3.<.=.#.{ [ ] U F C x g s y q 9 1 1 ; % O o .                                                                                                                                                                                                                                                                                                                                                                                                                           5 GXd                                                                           X # : 7 y x P ] =.",
"                                                                              :                                                                                                           ; LX9                               p LXGX1                                                                     3.                                                        % a 9.2XLXLXm.s < y P W { LXLXLX%.^ K y 1 : # o .     o : X.@         . o # % : 6 q p h S ~ | #.=.f.).:XLXLXLXLX6.-.=.*.| { ] [ _ G C B l g p y q 9 6 1 : % @ o .                                                                                                                                                                                                                                                                                                                                                                                                                           = VX4                                                                       . @ : 6 t g S W #.~.",
"X X                                                                           6.@                                                                                                         l LXt X                             1 W.LX0.@                                                                 . T.                                                  y sXKXnX:X/.=.s % : y l K E E %.LXLXLX^ E B q 1 ; % O .   : J g @       . X o # ; 1 7 t g B Y [ %.*.<.f.}.:XLXLXLXLXxX3.<.=.%.%.#.| { { ' U F C x l g p t q 7 1 : ; # o .                                                                                                                                                                                                                                                                                                                                                                                                                           4 GX=                                                                     o ; 1 q s B W ] 1.5X",
": % O .                                                                       ; { #         ; ~ { =.q.q.A X                                                                               _ LXh #                             X A LXLXf                                                                 9 G                                             g q.jXLX$.;         O : 9 s B P ^ ^ v.LXLXLXE P h 9 1 ; # O X 1 eX6 X       . o O % ; 1 9 y l F / { #.=.<.z.|.,XLXLXLXLXLXg.3.<.4.<.=.%.%.{ { [ / ! Y F S B h g p y 9 6 1 ; # o .                                                                                                                                                                                                                                                                                                                                                                                                                           d nX+                                                                 X # 1 t g B I { %.6.C.",
"q 6 ; @ O .                                                                     q N.B q B U.A O X X o 6 W.OX                                                                              < LX=.;                               : :.LXHXr X                                                             U.O                                     . ; ` LXxX$.s           . O ; 6 y B P ^ [ | hXLXLXVXE K s 7 1 ; # O 7 i.6 . .   . X O @ ; < 6 q s x U ] { #.=.4.N.}.7XLXLXLXLXLXjX6.1.1.4.<.=.*.%.#.| { [ ] ] / R I K V B h s y 9 6 < % @ X .                                                                                                                                                                                                                                                                                                                                                                                                                       X P.L.                                                              . O : 9 g V L [ *.=.6.j.",
"h t 6 : % % @ o                                                                   . 9 s 1 .             # &X,                                                                             # 6XLX#                                 y :.LXLXw.<                                                         X T.              o q t .         @.AXnXAXKXCX<.                  O % 1 q l P ^ | <.6.LXLXLXn.E B y 6 1 : % 9 9X7 X . X X o O # ; 1 7 t g V Y ] | %.<.6.N.|.AXLXLXLXLXLXLXh.d.s.6.<.=.=.=.=.=.*.#.| { { [ ] ^ W W T K V h s t 9 1 : % O X                                                                                                                                                                                                                                                                                                                                                                                                                       , LX                                                              o % 7 s V I ] #.=.6.Y.LX",
"^ F g t 6 1 1 : @ X                                                                                       , xX&                                 . o .                                     o x LXS                                 % g &.iXLXpXo                                               .       j l           c GXcXb.OXGXLXI.H.HXf.                            o % : 6 y V W #.s.h.HXLXLXLX| P h y 7 1 : t 0Xy O o X o O # % : 1 9 y h V ! ] #.=.<.p./.jXLXLXLXLXLXLXLX!.Z.M.n.g.p.<.%.$.$.-.2.4.1.<.<.=.%.#.{ [ / ^ W P S l s t 9 1 ; @ o                                                                                                                                                                                                                                                                                                                                                                                                                     . LXX                                                           o # 1 y B T ] *.6.x.nXLXLX",
"LXVXS.] V s t q 7 : # O X .                                                                                 d yX, .       . @ .           X b SXSXHXLXwX&                                 @ y LXLX                                . : D $.AXnXO                               y K.VXGXcX8XoX-._ AX&Xh (.@   . : g #XKX7         # *.g                                 o ; 1 9 p S | 6.oXLXLXLXLXVXE B s y 9 1 q u.J % @ O O @ % ; : 1 9 y g S ! ] #.=.6.}.LXLXLXLXLXLXLXLXbX3X>X`.~.Z.h.d.3.A.dXhX,X!.M.l.f.a.4.*.#.| | [ { { [ ] I S l s t 7 : # X                                                                                                                                                                                                                                                                                                                                                                                                                     VX#                                                         X @ < q l K ^ *.S.CXLXLXLXLX",
"LXLXLXLX7X$.P B h s q 6 : % @ @ @ @ O @ O o .                                                                 > pXCXuXkXKXCXW.LXQ.g y G q.bXcX4 .   O J LX,.@                             @ s bXLXX                                 o l H.LXSX#                         o 9 2Xb.#.U               b.GXLXbXcXhX2X#X_                                                 . @ : 6 q h I %.x.LXLXLXLXv.E E l s y 9 9 J eX9 % # # % ; : 1 6 q p h S ! [ %.1.s.dXLXLXLXLXLXLXLXLXLXdX>X=X+X(.(.:XfXLXLXLXLXLXLXLXCXhX8XjXGXnX7X X[.!.p.=.%.| [ Y V l p q 1 % o                                                                                                                                                                                                                                                                                                                                                                                                                   $X9                                                       . O ; 9 g S W #.U.LXLXLXLXLXLX",
"LXLXLXLXLXLXb./ E K V h p t 9 9 9 6 6 7 9 6 ; # @ @ O X                                                           O t s ; . . @ A &.%.~ g #             = &XK.y.H.-.0 .                   O l LXLX@                                 : J AXLXGX0 .               9 #XCXAXVXg                         X =.A                                                           X % 1 9 y x ^ #.LXLXLXSXa.%.^ S x s t q n LXd : ; ; ; : < 1 7 q p h S R ] %.6.g.7XLXLXLXLXLXLXLXLXLXLXLXLXhX<X<X5XLXLXLXLXLXLXLXLXLXLXLXLXLXLXLXLXLXLXLXLXGX!.4.=.#.] I B g t 1 % O .                                                                                                                                                                                                                                                                                                                                                                                                               k R.o                                                     o % 1 y B E | S.LXLXLXLXLXLXLX",
"*.B.8XLXLXLXLX5X1.] E E T P D V B B V T W E S g t 9 6 : @ X                                                                                               # Y.2X#X$XVXLXy.O               # B LX0.%                             % u L.LXbXqXLXH.9 % o         A LX=.;                                 9 +X                                                        . O : 6 y g B / n.LXLXHXz.a.#.^ S x g y k DXn 1 < < : 1 1 6 9 t p h S R ] #.6.s.5XLXLXLXLXLXLXLXLXLXLXLXLXLXLXLXLXLXLXLXLXLXLXLXLXLXLXLXLXLXLXLXLXLXLXLXLXLXLXLXLX[.h.*.| W V g y 6 ; # X                                                                                                                                                                                                                                                                                                                                                                                                             X CXM                                                   X @ < q h K ] l.LXLXLXLXLXLXCXVX",
"B P ] 7.hXLXLXLXLX5X5.{ / W E E E =.<XLXLXLXLX@X{ S h t 7 ; @ o .                                                                                                     = nXH.X         X # 0 [ LXE ;             . . . O 1 j H >.LXLXVXO.6 y :.LXgXH p :     x H.6                                     X jX.                                                     . X # < 7 y l V W jXLXLX4XA.6.#.^ D x g g u.` q 6 1 1 1 6 7 q y s h V I [ %.<.p..XLXLXLXLXLXLXLXLXLXLXLXLXLXLXLXLXLXLXLXLXLXLXLXLXLXLXLXLXLXLXLXLXLXLXLXLXLXLXLXLXLXLXLXcX4.| W S g t 6 : # .                                                                                                                                                                                                                                                                                                                                                                                                             3 KXM                                               . O % 6 p S W =.5XLXLXLXLX8XA.a.*.",
"7 p V W *.R.LXLXLXLXLXfX.X/.A.q.2XLXLXLXLXLXLXLXLXoX{ S x g 9 : % o                                                                                                     = HX8.+ X > o.%XSXLXLXLX:.p % o X X @ 8 U.hXLXLXLXLXLXSXVXr o     o t :.LXLXwXi : =.7.O .                                       fXX                                                     . O ; 1 q s V P ^ LXLXLX*Xj.<.#.^ K B x ,.ZXj q 9 7 7 9 q t p g l V I ] #.<.p.!.LXLXLXLXLXLXLXLXLXLXLXLXLXLXLXLXLXLXLXLXLXLXF.k.f.j.D.cXLXLXKXfX@X+X1XdXnXLXLXLXLXLXLXLXLXLX6.{ ^ V s t 6 : # X                                                                                                                                                                                                                                                                                                                                                                                                             5 LX4                                             o # : q l I ^ =.KXLXLXLX8Xm.g.4.#.",
"% < q l T ^ #.U.LXLXLXLXLXLXLXLXLXLXLXLXLXLXLXLXLXLX*Xk.2.{ W V p 1 % .                                                                                                   r LXLXLXLXbXy.G z E.LXLXCX,.j j ` yXLXnXd k J ..c < X .           @ t :.LXLXLXLXVXhXdX@.@                                     jXX                                                   . o # < 9 y l K ^ | LXLXLX`.4.%.| ! P S ,.LXJ y t q q t t p p g x S I ] | =.a.B.5XLXLXLXLXLXLXLXLXLXLXLXLXLXLXLXLXLXLXLXKXXXs.1.4.4.<.=.#.] / [ | #.*.=.=.*.*.=.s.,XLXLXLXLXLX<X%.] R B s q 6 : # X .                                                                                                                                                                                                                                                                                                                                                                                                           f VX.                                         . @ ; 7 p S / [ 2.LXLXLXLX).m.p.<.#.",
"X X @ ; 7 g P E ;.bXLXLXLXLXLXLXLXLXLXT.A.A.D.dXLXLXLXLXLXLXLX=X{ V t : X                                                                                                   O @ O X o O @ 9 :XLX^ L.LXLXLXLXtX,.q X   . .                     O ^ z 0.KXLXLXLXLXLXO.X                                 . nX                                                    X @ ; 6 y g B P [ =.LXLXLXN.<.%.| ] | >.KXO.g s y y y p s g h B S I ] #.=.4.z.).GXLXLXLXLXLXLXHXVXdX:X.X XD.Z.Z.~.v.a.6.4.=.=.=.<.=.=.%.%.#.#.%.%.%.%.%.=.=.<.1.<.=.6.;XLXLXLXLXh.%.[ Y x s t 6 : % o .                                                                                                                                                                                                                                                                                                                                                                                                         X NX,                                         o % < q h L [ %.z.LXLXLXfXoXd.<.%.[ ",
"      . O ; 7 h E / -.8XLXLXLXLXCXdX5./ ] [ #.4.OXLXLXLXLXLXLXLXLX+X' y : o                                                                                                             o t `.LXD l u u 0 6 < # X                               s.o ; 5X^ B Q ..GXLX9                                 O yX                                                  . o % : 9 p h S ^ | h.LXLXLX4.=.1.=.w.HXE.$.x h g s s s h h x B F ! { %.<.p.z.+X>XKXLXLXLXLXLXfXcXxXhX<X<X|.(.A.S.k.6.1.=.=.*.=.%.%.%.%.%.%.#.#.#.#.#.%.%.=.=.<.<.4.4.6.n.jXLXLXLX{.2.#.] U x s q 7 1 % O o .                                                                                                                                                                                                                                                                                                                                                                                                       d zX                                      X @ : 9 p B / | 4.*XLXLXLX<XF.6.*.#.G ",
"            X @ < y B T W W W W W W P P P T E E [ S.HXVXdXhXLXLXLXLX5XG t : X                                                                                                           # t C.LXP h t 7 1 1 : % # O X .                         m.% 7 :X< o % 9 J LX$.;                               7 J.                                                  X @ ; 1 t g x F / %.'.LXLXLXp.b.SXVX9.$._ S V x x l x x B V L Y / | %.<.6.l.).7X,XLXLXLXLXLXVX7X<X4XXX`.Z.m.h.p.6.4.=.=.*.%.#.| { { { { { { { { | | | | #.*.*.=.4.p.p.6.g._.LXLXLXVXg.-.#.{ F B g y q 6 : # O o .                                                                                                                                                                                                                                                                                                                                                                                                   o LX.                                   . O ; 6 t g D [ *.l.nXLXLXLXXXz.<.%.{ G ",
"                  X # : 6 q y s p s g g g h x S K E ^ ^ ^ ] #.H.LXLXLXS.S t ; .                                                                                                       X % y 1.LXE B g s t t 9 6 1 : % O X .                     t : 4X/         7 LXpXy # .                           ' U                                                 X O % 1 9 s l V Y ] =.[.LXLXLXSX$X7.*.[ / Y F F V S V D L I ! ^ ] | %.<.a.B.).,X5X4XLXLXLXLXLX<X4X-X`.D.j.6.4.<.=.*.%.#.| [ [ / / ^ Y Y Y I U Y U I Y ! ] / [ { #.=.<.6.p.p.V.CXLXLXLX!.7.=.%.[ Y V l s t 7 1 ; # O o X .                                                                                                                                                                                                                                                                                                                                                                                             . LX@                                   o % 1 q s B ^ #.1.F.LXLXLXLX(.a.*.{ [ F ",
"                        . o @ # % ; ; : : 1 7 t p g l B S P E ^ w.LXLXLXc.V q #                                                                                                     . O < s =.LXP.P S B x h s y q 6 1 ; # O o . .             . 1 D KX6         @ Q.LXJ s 9 < ; # O .               . 1X%                                               X O % : 7 t h V L / | 1.,XLXLXLXR.6.=.#.[ ] / Y Y I Y Y / / ] { | %.=.1.6.l.).*X<XdXLXLXLXLXLXLX_.`.(.N.p.6.=.*.%.| [ ] ] / / I I L F F F S V V V V V F F L I Y ] { | =.1.p.p.n.:XLXLXLX Xz.a.4.=.| Y F x s y q 6 : ; % # O o X X X . . . .                                                                                                                                                                                                                                                                                                                                                                               lX1                                 X # : 7 y h D ] =.d.=XLXLXLXLXv.1.#.[ ] B ",
"                                  . X o o o @ % : 6 q t p h V T E y.LXLXLXb.V 6 o                                                                                                   X # 6 g [ LXZXE / ^ ^ I S x g y q 6 1 : # @ O X . . .     o 1 D.fX@           w LXLXLXSXgX%XS.f.[ %             X =XX                                             X O % : 6 t s x L ! ] %.=.LXLXLXxXS.6.=.#.{ ] ] ] ] ] ] { | #.%.=.<.4.6.s.h.C.'.<XLXLXLXLXLXLXLX7XF.N.g.6.=.*.#.| [ / ^ ! I L D V V B B x x B x l x x x B B V V F I Y ] #.=.4.6.g.Z.LXLXLXCXD.z.s.4.=.#.[ U B g p t 9 6 1 : ; % # # @ O O O O o o o o X X . .                                                                                                                                                                                                                                                                                                                                                               0.O.                              X # : 6 t g V W | 1.D.GXLXLXLXxXj.=.| / ] C ",
"                                              X X @ % : 1 7 y l K E H.LXLXLX$.p % .                                                                                               . @ ; q x / LXSX| | #.| | ] ^ I V g p t 9 1 < ; # # @ # @ O # 6 7X|.;           X k Q.LXLXLXLXLXLXLXn : O .       < pXo                                           o O % < 6 t s x D ! / { #.p.LXLXLX+XD.g.4.=.#.#.| { | | %.*.=.1.6.p.d.j.n.n.cXLXLXLXLXLXLXLXLXLXLXC.f.p.4.=.#.| { [ ~ I L S V B x h h h g g s s s s s s g h l x B B S F ' { #.=.5.s.k.CXLXLXLX`.F.M.g.6.=.%.{ ~ F B l s y t q 9 6 1 1 < : : : : : ; ; % % # # @ O o o X .                                                                                                                                                                                                                                                                                                                                                     1 ZX.                           X @ : 6 q s B P ] =.a.).LXLXLXLXD.s.*.{ / ! x ",
"                                                    X @ # ; 1 q g P W w.LXLX7XI 7 O       @                                                                                       X ; 1 p V / LXsX=.=.4.4.<.<.%.{ / R V h p y q 9 1 1 : : : ; : q CXk.1 X           o < < 1 t z _ E.LXLX,.p < X   . c ).O                                       . o # ; < 7 t g B D R / [ | %.dXLXLXLX*X).N.a.<.%.#.#.#.%.*.<.4.p.g.j.m.Z.~._.].nXLXLXLXLXLXLXLXLXLXhXd.1.1.<.#.[ ] ] ~ L S V B l h g s p p p p y y y y y p p p g g l x B V Y / [ %.1.6.z.<XLXLXLX5XF.A.m.g.p.1.*.#.[ ~ L V x h h s p y t t t q q q 9 9 9 9 7 7 6 1 < : ; % O o X .                                                                                                                                                                                                                                                                                                                                               . LX$                         X @ ; 1 q p x K ^ | 4.A.dXLXLXLXbXn.4.#.] W K l ",
"                                                        X O % : 9 g T ] yXLXLX{ p % .   # 6                                                                                     . O : 9 g D W LXLXC.<.4.g.h.p.4.<.=.#.[ ^ S x g s y q 7 6 1 1 t K LXE 6 O .         . . X o @ : 9 x :.LXLXVX .y 1 e fXG X                                     . O # : 1 9 t g B K ! ] { | %.<.LXLXLXdX:XoXV.g.p.4.1.<.4.4.6.p.d.B.D.).+X*X-X.X[.LXLXLXLXLXLXLXLXLXLXs.4.=.=.%.| ] / Y L S B x l g s p y y t t t t t t t y y p p s s g h x V F ~ ] | =.4.d.(.LXLXLXLXdX(.V.g.d.d.6.<.=.%.{ / Y L D B B x x h h h h g h g g g g s p y t 9 9 1 : % # o .                                                                                                                                                                                                                                                                                                                                               e.8.                      X O ; 1 q p l S W [ =.s.).LXLXLXLX_.h.=.{ / P V y ",
"                                                          . O # < t B E ;.LXLXm.l : O   % <                                                                                     X % 1 q l P #.{.LXLXLXLXLXLXKX'.s.6.6.1.*.| { _ G l h p p t 9 y =.LXh 9 # o X o o X o o o O O @ % : t F t.LXLXLXsXAXD.t O X .                           . . o # ; < 6 q y g B L / { #.*.=.d.(.LXLXLXHX.X=X).M.n.h.k.j.j.d.k.N.N.m.M.Z._.-X,X5XLXLXLXLXLXLXLXLXLXLXs.<.<.=.%.| [ ^ L S V B l h g p y y t t t y y y y y y p y p s s s h g l x F Y / { %.4.5.A.{.LXLXLXLXLXLXfX!.h.g.s.6.<.=.%.#.| ] ~ ~ ~ Y Y Y U U U U U U U L L F V x h s y 9 6 < % O o .                                                                                                                                                                                                                                                                                                                                           @ LX5                   X @ ; 1 9 p l V T / #.6.m.`.LXLXLXLXZ.6.%.[ ^ K x 9 ",
"                                                              X # 1 p T [ LXLX XP 1 %     H                                                                                   . O : 9 p V ^ %.p.LXLXLXLXLXLXLXLXLX<X!.h.p.6.=.#.{ ] W P S x s p g.g.y q 1 : ; % % # % # % # % ; : < 1 9 h ( tXLXLXLX[ t : % @ o o X X . .         . . X O @ % : 1 7 t s l S ! [ | =.4.6.k.+XbXLXLXLXLX<X+X@X`./.C.Z.Z.Z.D.~.C. XHXLXLXLXLXLXLXLXLXLXLXLXLXLXAX`.4.=.=.%.{ ] / ^ K V B B l g s y y t t t y p s s s s p s p p s g g h x x x B F Y ~ { %.<.4.k.(.dXLXLXLXLXLXLXLX8XM.n.n.h.p.6.1.<.*.*.%.%.%.%.#.#.| | | { { { { [ ] / ^ I D x g p q 6 < ; # o .                                                                                                                                                                                                                                                                                                                                         n HXn %           X @ % < 7 q p l S I / | <.j.(.5XLXLXLX5X`.<.| ] W S g 7 ",
"                                                              . O ; 9 V ^ LXLX5X^ 9 ; o   {                                                                                   X % 1 y h I ] =.l.xXLXLXLXLXLXLXLXLXLXLXXXm.j.g.4.=.#.{ / ^ W D h p g s y q 9 1 1 < 1 1 < < 1 1 6 9 q t y s l P } I.LXx.h 9 6 : : % % # @ O o o o o O @ # % : 1 7 q y g B I / { #.=.6.z.A.+XnXLXcXLXLXLXLXfX X}.|.|.|.|.|. X;XLXLXLXLXLXLXLXLXLXLXLXLXLXLXbXx.q.6.<.=.%.{ W E T K D V x x x h g s p t p g h B S S K Y | #.| { / E T P I F L F U Y / [ | =.=.6.A.F.LXLXLXLXLXLXLXLXLX[.C.V.Z.m.h.s.p.6.4.4.4.4.4.<.<.<.=.<.=.%.%.%.#.| | { ] ! D B h p q 6 < % O .                                                                                                                                                                                                                                                                                                                                         M LXyXu @ O % 1 q t t y p g x S R / { =.g.(.-XCXLXLXLX XD.*.[ ^ P V p 6 ",
"                                                                  O < g W LXLXbX] y 1 #     t                                                                               . @ < 9 g S / #.l.n.LXLXLXLXLXLXLXLXLXLXLXLXxX).A.h.4.%.| | #.| / P B B h h p t t 9 q 7 9 9 q q y p g h x B V D K E  .LXCXG h y q 9 6 1 < : ; % ; % ; ; : : 1 6 q y s h V Y ] | #.<.d.F.OXpXHXLXxX7X;XLXLXLXLXLXLX;XXXXX;X:XxXLXLXLXLXLXLXLXLXLXLXLXLXLXLXLXLXLXLXLXLXLXLXLXLXLXLXLXuX{ P S S V V ] xXLXLXLXLXGXy.&.LXLXLXLXLXLXLXLXLXLX@X=.[ ^ ^ W W W ^ { %.6.N.2XLXLXLXLXLXLXLXLXLXLXVX'.|.+X`.~.Z.D.N.j.j.k.l.B.A.v.k.7.<.s.s.g.s.g.6.*.| | [ ~ F x g y 9 1 % O X                                                                                                                                                                                                                                                                                                                                         ; @.Q.T.x.{ / { K g g l V K W ] | *.6.Z.-X7XLXLXLXLX].f.| / K V l y 1 ",
"                                                                  X % t W LXLXHX{ g 9 ; X   1.                                                                              X % 6 y x R | 7.~.C.LXLXLXLXLXLXLXLXLXLXLXLXLXLXLXLXLXLX<Xg.4.<.=.| / K V B h s p p s y y p g h B V K P E W W ^ ^ / { iXLX$.D B l s p t 9 6 6 1 1 1 1 6 7 9 q t p g x S ~ { | *.1.d.).+XfXLXbXCXLXLXLXLXLXLXLXLXLXLXLXLXLXLXLXLXLXLXLXLXLXLXLXLXLXLXLXLXHXLXLXLXLXLXLXLXLXLXLXLXLXLXLXLXLXoX^ E gXLXLXLXLXLXLXLXLXLXLXLXLXLXKXHXKXLXLXLXLXLX$XyXHXLXLXLXLXLXLXLXLXLXLXLXLXLXLXLXLXLXLXLXLXLXfX:X,X*X|._.(.C.M.!.!./.`.).D.XXLXLXLXLXLXLXLXfXC.=.%.#.{ Y V h s q 1 ; O .                                                                                                                                                                                                                                                                                                                                         . O O @ ; : 6 q s x D I / [ | *.1.N.*X7XSXLXLXLXLX'.4.[ W D x s q ; ",
"                                                                    o 1 I LXLXLX#.B p 6 @   U O                                                                           . O : q g K ] =.h.C.LXLXLXLXLXLXLXLXLXLXLXLXLXLXLXLXLXLXLXLXLXcXp.6.6.#.] / U L S V x x x B V S I ^ ^ / { | | { ] [ #.*.I.LXf.] ^ I D V l h s y t t t y y p s g h B S I ] | %.=.a.F.5XLXLXLXLXLXLXLXLXLXLXLXLXLXLXLXLXLXLXLXLXLXLXLXLXLXLXLXLXLXLXLXLXLXnXR.h.s.n.M.m.=.*.{ =.<.1.<.s.oXGXLXLXLXLXLXLX_ q q p g D S.%X~ h p p p s g g B { GXLXLXLXLXLXLXLXLXLXLXLXLXLXLXLXLXLXLXLXLXLXLXLXLXLXLXLXVX8X7X7XKXLXLXLXLXLXdX4XbXLXLXLXLXLXLXLXLXLXLXLXC.1.=.| / L B s t 6 ; @ X                                                                                                                                                                                                                                                                                                                                             X @ ; 6 p x D R ^ [ | =.p.N.oXhXLXLXLXLXLXLX!.=.] T S l p 6 % ",
"                                                                    X % l xXLXLX5.T x t : X   #.                                                                          X % 6 p B E #.p.^.AXLXLXLXLXLX<X-X-X}..XLXLXLXLXLXLXLXLXLXLXLXLXLX!.p.6.%.| { ] / ^ T P I ! / ] ] { | *.<.6.p.6.'.AXLX!.b.LX7X1.#.{ ] ^ R L S B l l h h l x B V S I / [ #.=.2.v.1XLXLXLXLXLXLXLXLXLXLXLXLXLXLXLXLXLXLXLXLXLXLXLXLXLXLXHX5X;XjXLXLXLXLX.XV.<.#.{ ^ W W T D B x h s s y y y g x.LXLXS.9 : : < < : : % ; : : 1 1 1 1 1 6 7 t y { R.H.Y.+X`.m.s.<.=.%.<.p.p.p.6.s.M.{.LXLXLXLXLXLXLXLXLXLXLXLXLXLXLXLXLXLXLXLXLXLXLXLXLXLXLXLXLXLXLXLXLXdXs.<.%.[ R V g t 6 ; O .                                                                                                                                                                                                                                                                                                                                         . o % 1 t l K ^ ] [ | <.h.D.dXLXLXLXLXLXLXLXLX5.| ^ K V h y 1 @ ",
"                                                                      O q f.LXLX5X=.T l q # . oX                                                                        . O : q h K ^ =.,XLXLXLXLXLXLXVX'.~.(.(.~.!.LXLXLXLXLXLXLXLXLXLXLXLXLX{.V.s.=.%.%.#.| { { { | | #.%.#.| =.h. XGXLXLXLXLXLXjXLXKXb.3.=.%.#.| [ ] ^ R I L K K K I R ^ ] | %.=.4.S.hXGXLXLXLXLXLXLXLXLXLXLXLXLXLXLXLXLXLXLXLXLXLXLXLXLXLXfX/.`.`.`.~.cX].<.<.#.{ ] / W P S x g p y q 7 6 1 : ; # % p F # O o @ O O o o o o o o O O O @ # % ; ; < : ; 1 7 t y s h B D T ^ ] { #.=.4.5.k.'.LXLXLXLXLXLXLXLXLXLXLXLXLXLXLXLXLXLXLXLXLXLXLXLXLXLXLXLXLXLXLXLXLX:XN.4.=.| / V g q 6 ; O .                                                                                                                                                                                                                                                                                                                                       X # < q g D ^ ] { #.4.(.AXLXLXLXLXLXLXLXLXCXv.=.] P B h p q : o ",
"                                                                      X : L LXLXLXdX1.P g 1 O K.                                                                        . # 1 y B E ] s.LXLXLXLXLXLXLX^.C.M.M.n.h.h.n.CXLXLXLXLXLXLXLXLXLXLXLXLX-X(.h.6.4.4.<.<.1.<.<.<.4.<.M.bXLXLXLXLXLXLXLXLXLXLXLXLX7X^.p.=.=.<.<.=.#.| { { { ] ] ] { | %.=.1.6.S.bXGXLXLXLXLXLXLXLXLXLXLXLXLXLX<X].|.[. XLXLXLXLXLXbXXX'.n.j.N.l.d.4.=.| { ] / ^ Y K B l s p q 9 1 1 ; ; # @ X .   . . .   .   X . . . .   . . . . X X o o # @ # # # % ; < 6 7 t y h x K R ^ ] | %.=.4.p.[.LXLXLXLXLXLXLXLXLXLXLXLXLXLXLXLXLXLXLXLXLXLXLXLXCXLXLXLXLXLXLXLXLXLXcXC.<.#./ B s q 1 ; o                                                                                                                                                                                                                                                                                                                                     . @ ; 7 p B W ] [ %.h.4XLXLXLXLXLXLXLXLXLX>Xd.=.{ W V g y q 1 % . ",
"                                                                      . @ p ..LXLXLXLXF.P p : [                                                                         O : 9 g K ^ { C.LXLXLXLXLXLX].^.M.g.s.s.6.6.4.1.=.4.s.h.V._.{.LXLXLXLXLXhX|.~.g.s.4.p.h.h.V.Z.m.n. XLXLXLXLXLXLXLXLXLXLXLXLXLXLXLXLXLXGX[.6.p.p.6.<.=.=.=.*.%.%.%.=.4.a.d.A.hXLXLXLXLXLXLXLXLXLXLXLXLXLXxX}.oXF.S.A.B.h.p.p.s.s.p.4.<.<.<.<.=.%.| [ / ^ I S B l g y q 9 1 < ; # # O o X .                                               . X o o o o O % : : 1 9 t y s x S Y ] { | #.*.1.'.LXLXLXLXLXLXLXLXLXLXLXLXLXLXLXLXLXLXLXLX8X].].~./.'.,XLXLXLXLXLXLXLXLXVX=.{ ^ B s 9 1 % o                                                                                                                                                                                                                                                                                                                                   o # < 9 g D / { #.g.5XLXLXLXLXLXLXLXLXVXD.4.=.{ W S g t 9 6 ; o   ",
"                                                                        X : V ..LXLXLXLXS.K y K @                                                                     . % 1 y x W [ =.!.LXLXLXLXLX3X^.C.s.1.<.=.=.=.*.*.=.<.6.a.z.D.~. XLXLXLXLXLX5X}.~.].LXLXLX^.].|.|.XXLXLXLXLXLXLXLXLXLXLXLXLXLXLXLXLXLXLXLXLXLX Xh.l.h.s.p.p.p.p.6.p.s.j.V.(.8XLXLXLXLXLXLXLXLXLXLXLXVX.X^.~.A.z.f.f.7.4.4.1.<.<.<.*.%.| { [ ] / ^ ! F S x h s p t 9 1 : ; # O X . .                                                               . . X o @ # ; ; 1 1 9 t s h V F ^ / ] { { =.p.^.jXLXLXLXKXfX[.[.'.^.[.'.^..X^.g.s.s.p.s.g.j.V.~.~.:XLXLXLXLXLXLXLXLX*.] T l p 7 : # .                                                                                                                                                                                                                                                                                                                                 O % 1 t x W { %.p.<XLXLXLXLXLXLXLXKX|.6.=.#.{ ^ K l y 7 1 : @ .   ",
"                                                                          @ 7 P  .AXLXLXLX;.B t P                                                                     O : 9 s D / %.j.'.LXLXLXLXLX!.~.h.4.=.#.#.| #.#.%.%.=.=.4.6.d.g.M.CXLXLXLXLXLXLXLXLXLXLXLXLXxX7XfXLXLXLXLXLXLXLXLXLXfXXX{.VXLXLXLXLXLXLXLXLXLXLX,X(.~.Z.V.V.V.D.(.Z.!.^._.5XLXLXLXLXLXLXLXLXLX<X.XXX|.Z.N.k.d.5.4.<.=.*.*.%.%.#.| { ] / ! L S V x h g p y q 9 6 1 : % @ O X .                                                                             . o O # % : 1 6 q y s l V D I ^ / ] | =.<.4.p.s.s.s.4.1.<.4.4.1.=.=.=.<.<.4.4.6.a.d.k.l.B.m.C..XLXLXLXLXLXLXjX| / D g t 6 ; o                                                                                                                                                                                                                                                                                                                               X # < 7 s S ] { <.`.LXLXLXLXLXLXfXF.5.=.| { ] ^ K x p 9 : % @ X     ",
"                                                                          X % t K / qXLXLXCX] t N.                                                                  X % 6 y l ! { <./. XLXLXLXLX:X!.M.6.=.| { ] ] / / ] [ { | #.%.<.<.6.h.LXLXLXLXLXLXLXLXLXLXLXLXLXLXLXLXLXLXLXLXLXLX7X:X=X(./.C.|.LXLXLXLXLXLXLXLXLXLX5XXX X].].[.[. X>X|. X<XSXLXLXLXLXLXLXLXLX4X4X-X~.n.s.6.1.=.*.#.| { { ] / ~ ! I L V B h g s p t q 9 6 1 < ; % @ O o X .                                                                                     . X O @ % ; 1 1 q t s s x S T W ^ / [ | %.*.%.%.%.%.#.%.%.%.#.%.%.*.*.=.=.=.<.1.6.p.d.j.M.C.^..XLXLXLXLXLXn.] W B p 9 < O .                                                                                                                                                                                                                                                                                                                             O ; 6 t l I [ #.a.LXLXLXLXLXjXoXl.1.*.| ] / W K x p 9 : @ o .       ",
"                                                                            o : t P ^ 9XLXLX`.g ~.X                                                               . # : 9 g S ] #.a.^.LXLXLXLXLX!.C.s.=.| [ / ^ R I I I W W ^ / ] { #.%.=.p.XXLXLXLXLXLXLXLXLXLXLXLXLXLXLXLXLXLXLX4X^.Z.A.k.d.l.j.p.6.'.hXLXLXLXLXLXLXLXLXLXLXLXLXLXLX;X,X7X<XjXLXLXLXLXLXLXLXAX<X<X).V.g.6.=.*.#.{ ] / ! I F S V V B x h s y t q 7 6 1 : : ; # @ o X .                                                                                                 . . o O # # : 1 9 9 t s h B S I R / / ] ] ] ] ] ] ] ] [ ] [ [ [ [ [ [ { | %.%.<.4.p.j.M.!./.}.LXLXLXLX[.#./ K h t 1 % o                                                                                                                                                                                                                                                                                                                           X # < 9 p B ^ { =.-XLXLXLXLXhX_.Z.a.=.#.{ / W E S g t 1 # X           ",
"                                                                            . @ 1 s E { CXLXLX^ <.@                                                               O : q p B R { <.A.^.LXLXLXLX7XC.h.4.#.[ / R K S V V B S V D K T W / ] | | =.g.LXLXLXLXLXSXhXLXLXLXLXLXLXLXHX,X~.N.k.a.1.1.1.4.4.6.6.a.D.>XxXLXLXLXLXLXLXLXLXLXLXLXLXLX;X5XjXLXLXLXLXLXLXLXnX:X<X).l.6.=.%.{ ] ! I S B x h g s s p p t q 9 6 1 < ; % # @ O o X .                                                                                                           . . o o # % : : 6 9 t y s s h h x x B B B B V B V V V V S S D L I I / ] { | *.<.p.j.V.!._.bXLXLXLXxX<.] ^ B y 6 ; @ .                                                                                                                                                                                                                                                                                                                         O ; 7 y l D ] | <.VXLXLXLXKX:X|.A.4.*.#.{ ] W D l p 7 < % # @ o       ",
"                                                                              X % 9 V E 3.LXLXj.=.# .                                                           . # 1 p x P ^ #.p./.<XLXLXLXLX^.n.p.=.{ ] R D B x h g g g g h h x B S T ^ ] [ { { C.[.6.=.=.<.6.`.LXLXLXLXh.g.s.4.1.=.=.%.#.#.#.%.=.=.<.4.z.D.>XCXLXLXLXLXLXLXLXLXLXLXLXLXhXLXLXLXLXLXLXLXcX;X|.F.k.1.*.| ] Y F B l g p y t q 9 6 6 1 1 : ; % # @ O o X .                                                                                                                           X o O @ ; < 1 7 9 9 q t t t y y s s s s s s s s g g h x B V F I ~ ] | *.1.p.j.m.~.}.LXLXLXLXp.| ] F g q 1 % o                                                                                                                                                                                                                                                                                                                       X # < 9 s B ! [ #.4.bXLXLXLXdX<X).k.=.#.{ ] ! K D { 6.Z.}.XX!.4.] p # . ",
"                                                                              . @ 1 s E { LXLX;Xv.; o                                                           o ; 9 g K W ] =.B.{.LXLXLXLXVXC.s.<.#.] W D B h s y t t t q q q y y s h S R W W ^ ^ [ { { | %.#.| ^ ^ =.| *.#.#.#.| [ ] / / / / ] { | #.%.=.4.s.n.LXLXLXLXLXLXLXLXLXLXLXLXLXLXLXLXLXLXLXhX:X_.N.5.=.| ] Y S x g s y q 9 6 1 : ; % % # @ O o X . .                                                                                                                                       . . o O % % : : 1 1 1 1 6 6 7 7 9 9 q 9 q q q t y p s g x B S L / { %.<.6.g.M.C.LXLXLXLXC.*.{ Y B y 1 ; O .                                                                                                                                                                                                                                                                                                                     o % 1 t h D ] #.*.a.5XLXLXLXdX=Xz.1.%.[ ^ K V l _ x.| x t 7 q B %.oX8X%.",
"                                                                                X % 9 K / LXLXdXS 1 #                                                         . @ % 1 g E ] | 6.~.:XLXLXLXLX'.h.4.*.[ ^ P B g p t 9 7 1 1 1 1 < 1 6 9 t p h V K P P T W ^ / ] ] ] / ^ ] ] ] / / ^ R P K S S D K I R / ] [ | #.*.=.*.h.jXLXfXjXxXLXLXLXLXLXLXLXLXLXLXLXdX,X_.k.1.%.{ / F B g p t 9 1 1 : % # O o X . . .                                                                                                                                                       . X o O O @ # % % % ; ; ; : : : : < < 1 1 6 9 q y p g l V Y / | %.<.6.g.!.xXLXLXLX'.4.| ] D l q 1 # X                                                                                                                                                                                                                                                                                                                   X @ : 9 s B R { =.<.k.+XLXLXLXhXF.a.*.{ W K V h y 7 < # o           . o < ",
"                                                                                  O 1 V [ LXLX<XT q ; .                                       #     t pXgXfXfXhX8XdXjX{ ^ { =.!.{.LXLXLXLXCXM.p.<.| / I V h p q 6 1 < ; ; % % % % % < 1 9 9 y s h l x x S V K P T I P I T I K V B l h g h h h l B B S L R ^ ] [ { { *.F.LXGX4X:X XLXLXLXLXLXLXLXLXLX8X<X`.d.=.| ] Y S l s t 9 1 < ; # O o X .                                                                                                                                                                         . . X o o O o O O @ @ # # % % ; ; : 1 6 9 q y s h V L ] | %.<.6.C. XLXLXLX;Xg.#.] I x t 1 % o                                                                                                                                                                                                                                                                                                                 . O % 1 t l D / | <.p.D.5XLXLXLX,Xz.<.%.] T V l s t < @ .                   ",
"                                                                                  X 1 V T.LXLX5.T p 1 o                               =.>Xh.%.=.-X;X1.# X O . . X % 6 V ^ { f.^.LXLXLXLXLXC.g.6.*.{ ^ S x p q 6 < ; % @ O o o o O O # % : 1 6 6 9 q t y p p s g g h l x h h s p y t t t t t y y s s h x V S K ^ / [ | <.zXLX3X_.'.AXLXLXLXLXLXLXLX7X<X_.k.=.{ / L B g p q 6 1 ; # O X .                                                                                                                                                                                             . . . . X X o o O @ # % : 1 6 9 y s h V Y ] | *.<.j.'.LXLXLXLX'.=.{ / V s 9 : O .                                                                                                                                                                                                                                                                                                               o # : 9 s B I [ *.6.N.).HXLXLXLXf.5.=.| W D l p 9 1 ; O                     ",
"                                                                                  . < x 8XLXLX*.T g 9 #                         1 =.z.#                       o ; 9 h D ^ ] d.AXLXLXLXLX].Z.s.1.#.] I B s t 6 < % @ o X . . . . . . . o O @ % % : : 1 1 6 1 6 6 9 7 9 9 q 7 7 6 1 1 1 1 6 1 6 6 9 q t y s g x B K ^ / { q.LXxXZ.h.^.LXLXLXLXLXLX5X:X(.p.=.[ ! S l s t 9 1 : % O X .                                                                                                                                                                                                                 . . o O # % : 1 9 t s l S Y [ #.=.6.C.LXLXLXLXLXs.#.] L h t 1 # .                                                                                                                                                                                                                                                                                                             X @ : 6 t h D / | <.h.(.=XLXLXLXLX3.<.%.[ I B g q 1 ; @ X                     ",
"                                                                                  . ; g `.LXLX2.E B t < o                 1 #.>XG                             X ; 9 s S W ] g.LXLXLXLXGX/.V.p.=.{ / S h y 7 1 % @ X .                   . . X X O O @ # # # % % ; ; ; : ; ; % % # # # % % % ; : < < 1 6 9 q p g x V P W ;.LXLXpXz.F.LXLXLXLXLX<X-XZ.4.%./ L B g y 9 1 : % @ o .                                                                                                                                                                                                                         . . o O # ; 1 9 y s x L / { %.6.p.LXLXLXLXLXxX=.] R x p 7 ; X                                                                                                                                                                                                                                                                                                           X @ ; 1 9 p B ! { *.p.C.>XHXLXLXLX<Xa.=.#./ S h t 1 ; @ X                       ",
"                                                                                    @ y -.LXLXxX^ S s 7 % o t h       7 v.h                                   o : 9 g S E / g.LXLXLXLX:X*Xj.4.%.] I B s q 1 ; @ X                                   . . X X o X o o O O o o o X X X X X o o O @ # # % ; < 1 9 q p g B T  .LXVXHXLXSXS.[.7X<XZ.S.a.=.{ ! S l p q 6 < ; @ o .                                                                                                                                                                                                                                   . o @ ; 1 9 y g B I ] #.1.v.C.LXLXLXLXLX6.{ W V s 9 : O .                                                                                                                                                                                                                                                                                                       . O % < 9 y l I [ %.1.g.`.VXLXLXLXLXk.3.#.{ I x s 9 : # o                         ",
"                                                                                    o 7 ^ LXLXLXSX@X*.#.+X9 . h F.8Xn.6                                       o ; 9 s K W / *.LXLXLXLXXX*Xg.4.#./ K x p 9 : # o .                                                                           . . X X o O # % < 1 9 t s B ' LXSXA.f.B.| | =.<.*.#.{ / L x s y 9 1 ; # o .                                                                                                                                                                                                                                         . o # : 6 q p l F ^ { -.k.(.^.LXLXLXLX!.#./ K h t 1 # X                                                                                                                                                                                                                                                                                                     . O % < 7 y h D / | =.p.).LXLXLXLXLXLX<.#.[ ^ S g t 1 % o                           ",
"                                                                                    X : D jXLXLX@X/ ] E 7 ; O                                                 o ; 7 s S W ] ] LXLXLXLXdX`.d.<.| ^ S h y 6 ; O .                                                                                       . X O @ % < 6 t s K E.LXjXp.=./ ^ / ] ^ R D x g t 9 6 : % O X .                                                                                                                                                                                                                                             . O % < 6 t s V L ] #.7.V.`.[.LXLXLX:X#./ L h y 6 # o                                                                                                                                                                                                                                                                                                   . O % : 7 t g V ^ { *.4.S.LXLXLXLXLXLXVX=.] ^ D l y 7 ; @ .                           ",
"                                                                                    . # g $.LXLXLXw.E B y 1 % o                                               o : 9 s D W | | fXLXLXLXLX^.d.=.| ^ V g q 1 # o                                                                                               X O # % 1 9 h / KXLXhX=.^ E K S B h p q 6 1 : % @ o .                                                                                                                                                                                                                                                   X O ; 1 9 p l F / #.2.z._.!.LXLXLXHX#.] Y x s 9 ; O .                                                                                                                                                                                                                                                                                               . O % : 7 t g B R [ %.1.z.LXLXLXLXLXLXLXXX*.^ P x s 9 < # X                             ",
"                                                                                    . O 7 T c.LXLXLXw.T x q < # X                                             o : 9 s S W #.7.[.LXLXLXLXC.p.%.{ R V s 9 : @ .                                                                                                 . X O % < t V ..LXLXS.^ D h y q 7 1 ; % # O X .                                                                                                                                                                                                                                                         X # ; 6 t g x I [ =.f.(.V.LXLXLXLX%.[ / B s q : @ .                                                                                                                                                                                                                                                                                             . O % < 7 t g B P ] #.=.g.hXLXLXLXLXLXVXXXp.{ E V g t 1 ; o                               ",
"                                                                                      o ; g E H.LXLXLX%.K s 7 : O .                                           o : 9 s D W | a.!.LXLXLXLX!.4.%.{ I B p 7 : O .                                                                                                     . o # 1 s E kXLXLX] x t 6 < ; % @ o . .                                                                                                                                                                                                                                                             . O # 1 9 p x L ] %.5.(.m.LXLXLXLX| | ] F h t 1 # X                                                                                                                                                                                                                                                                                           X O % < 7 t g x K / | =.6.(.LXLXLXLXfX(.d.4.| ^ K l y 7 : @ .                               ",
"                                                                                      X # 7 S { b.LXLX<XW B y 6 ; O .                                         o : 9 s S W #.d.M.LXLXLXLX;X%.| ] L x y 6 ; o                                                                                                           X # 6 V  .LXLX[ s 6 : # O X .                                                                                                                                                                                                                                                                     X O ; 6 t g V ! | 4.B.^.LXLXLXKX*.#.[ L l y 1 ; o                                                                                                                                                                                                                                                                                       X O # ; 1 9 y g B L / { =.4.N.xXLXLXLXnX/.N.5.#.] T B p 9 < % o                                 ",
"                                                                                      . O < p W 4.GXLXLX{ K l t 1 ; @ X                                       O : 9 s S ^ #.d.).AXLXLXLXGX| ] ] K l y 1 % X                                                                                                             X % y E bXLXk.y ; # X .                                                                                                                                                                                                                                                                         . o % < q s x Y { <.4.HXLXLXLXZ.5.*.{ ! x p 7 : O .                                                                                                                                                                                                                                                                                 X O # ; < 6 q p l S I / { *.4.j.F.LXLXLXLXXX).f.%.] R V s q 1 % O .                                 ",
"                                                                                      . O ; q B %.jXLXLXF.^ K g t 7 : % o                                   . O : 7 s S ^ #.k.).jXLXLXLXLX{ / / D h t 1 # .                                                                                                               o 6 V ;.LXfXy # o                                                                                                                                                                                                                                                                               X # : 9 y l D ] #.#.LXLXLXLXn.5.=.| ! B g q 1 # X                                                                                                                                                                                                                                                                           . X O # % < 7 q p g V P / { #.=.6.j.D.=XLXLXLXLXD.v.=.[ ^ S g q 6 ; O .                                   ",
"                                                                                        X # 6 s W :XLXLXLX4.E D h y 9 1 % O                                 . @ 1 q g K / %.z.C.AXLXLXLXLX| / / S g q : O .                                                                                                               X : g / LXLXx @ .                                                                                                                                                                                                                                                                               . O ; 6 y g S / [ | LXLXLXLXC.5.=.| ] V g t 1 % o                                                                                                                                                                                                                                                                       . X O # % < 6 q p h V K W ] | %.<.p.m._.*XbXLXLXLXLXa.<.| / K l y 6 : # X                                     ",
"                                                                                      . o # < t S j.LXLXLX*X#.E S l s t 6 ; o .                             . @ 1 t h K ^ %.B.n.LXLXLXLXLX%./ ^ V s 9 ; o                                                                                                                   @ t ! LXLX/ ; .                                                                                                                                                                                                                                                                                 X # 1 9 s B / ] / LXLXLXLX/.k.=.#.] F h t 7 ; O .                                                                                                                                                                                                                                                                 X o @ % ; < 1 9 y g B D R / ] | =.1.p.j.Z.*X8XLXLXLXLX7X4.%.] R B s 9 < % o                                       ",
"                                                                                        o # : 9 h ] bXLXLXLXD.| E D x g t 7 : # X                           X # 1 y x P / %.N.!.LXLXLXLXC.*.] ^ B p 6 % o                                                                                                                   X 7 I LXLX/ 1 o                                                                                                                                                                                                                                                                                 . O ; 7 y l R [ ^ ;XLXLXLX^.N.5.%.] Y V s q < # X                                                                                                                                                                                                                                                             X O @ % : 1 7 9 y g x S R / ] [ | <.f.x.S.T.+X6XLXLXLXLXLX~.=.| ^ D h t 1 % O .                                       ",
"                                                                                        X @ ; 7 y T | T.LXLXfXg.[ E K V h y 9 1 # o                         X % 6 y B T / %.6.cXLXLXLXHXg.=.{ I B y 1 % X                                                                                                                   . 6 ^ LXLX^ q %                                                                                                                                                                                                                                                                                   o % 1 t g I ] ] 4.LXLXLXGXg.s.=.{ ^ S g t 1 ; o                                                                                                                                                                                                                                                         X o @ % : 1 9 t p g l V I / ] | #.*.a.4XLXLXLXLXLXLXLXLXLXLXLX<.| ] P x p 9 : @ X                                         ",
"                                                                                      . X @ % 1 9 g E [ U.LXLX8Xk.-.{ / P x g y 7 % X                       o % 9 s V W ] %.%.LXLXLXLX].v.<.[ K l t 1 # .                                                                                                                     1  .LXLX' p ; X                                                                                                                                                                                                                                                                                 . # : q s S / { | LXLXLXLXnX6.6.*.] I x p 7 ; O .                                                                                                                                                                             % G ` C O                                                             X O @ % < 6 9 y s l B S L / [ | | =.s.oXLXLXLXLXLXLXLXLXLXLXLXLX).*.] W V s 9 < # X                                           ",
"                                                                                      X X O % < 7 t h E | &XLXLXLXLXLXxX~./ D V g 9 % o                     o ; 9 g D ^ | *.!.LXLXLXLX|.B.<.] D l t : O .                                                                                                                     ; / LXLX' l 1 o                                                                                                                                                                                                                                                                                   O ; 6 y B ^ { #.[.LXLXLXLXLX4.1.| ^ V s q < @ X                                                                                                                                                                         A KXuXG q g J.HXH .   9 p  .vXGXLXL.                                  . o @ % < 6 q y g B S Y / [ | #.*.=.<.n.4XLXLXLXLXLXLXLXLXLXLXLXLX:X<.[ W V s q 1 % X                                             ",
"                                                                                      o O # % < 7 q y B W #.R.LXLXLXLXLXLX7X| E K l 9 ; o                   o : q h K ] %.$.[.LXLXLXLX/.z.=./ D h q : O                                                                                                                       # B LXLX} B 9 @                                                                                                                                                                                                                                                                                   X # 1 t h K / %.p.LXLXLXLXLXVX6.=.[ I l y 6 % o                                                                                                                                                                     X HX9X              eXCXE.H t .       C cX                            . o @ % < 6 t p h B L ^ / { #.*.=.<.6.d.m.dXLXLXLXLXLXLXLXLXLXLXLXLX@X<.{ T V s q 1 % o                                               ",
"                                                                                . o # < 7 q 7 1 7 q t g V ^ { -.R.CXLXLXLXLXT.#.^ T l q : O                 O : y l P [ 2.H.g.LXLXLXLXM.a.%./ S g 9 ; o                                                                                                                       @ s GXLXx.K y % .                                                                                                                                                                                                                                                                                 . O : 7 p B R #.=.h.<XLXLXLXLX^.1.| ^ V s q : @ .                                                                                                                                                                   LX#                                       HX                        . O % < 7 t g x F U [ [ | =.p.z.A.S.A.D.).8XLXLXLXLXLXAX:X].~.l.a.2.-.%.[ W V g q 1 % O .                                               ",
"                                                                            o # 1 t x P W W D y q q t y g V T E [ =.7.Y.LXLXLXOX1.] E V p 1 @             . @ 1 y B R { =.Y.6.LXLXLXLX.X=.#./ V s 6 % X                                                                                                                       o t b.LXVX| l 1 o                                                                                                                                                                                                                                                                                   X % 1 t h D ] #.4.M.'.LXLXLXLXh.%.] T x y 6 % o                                                                                                                                                                 y.u.                                        9 9X                    X @ ; 1 t g x D W ] | *.=.2._.5X<XXXXX:X5XVXLXLXLXLXLX<X/.M.g.p.4.=.#.{ ] E V s q 1 % o .                                                 ",
"                                                                    X o @ ; q _ @XKXLXLXLXLX2XV s y t t p g B D T W ] { w.LXLXLXAX).-.^ E h 1 @           X # 1 p B W { =.pXM.GXLXLXLXHX#.{ ^ B p 6 # X                                                                                                                       X 1 ! LXLXT.P t #                                                                                                                                                                                                                                                                                   . # : q p x ! { =.g.!.:XLXLXLXHX4.{ ^ D g 9 : O .                                                                                                                                                             O LX                                            NXt               . o # : 7 y h S T E [ *.q.U.pXLXLXLXLXLXLXLXLXLXLXLXLXLX<Xn.p.<.=.*.#.| ] W K x s 9 1 % o                                                     ",
"                                                              . # 9 C g g B :.LXLXLXLXLXLXLXLXU.S l s p y p p h x S P W / >.SXLXLXLXLXLXKX| t ; o .     . o % 7 s S W | x.fXM.LXLXLXLXLX[ ] W B y 1 # .                                                                                                                       . ; x t.LXLX0.l : .                                                                                                                                                                                                                                                                                 . O ; 1 t g F [ #.4.C./.LXLXLXLXxX%.] W x y 1 % X                                                                                                                                                             LX1                                               LXX           X O % < 9 p x D E W =.c.L.uXLXLXLXLXLXLXLXLXLXLXLXLXLXLXxXg.=.#.| { ] / R K B g t 7 : # o                                                       ",
"                                                          X < c R.LXLXLXCXE.LXLXAX0.&.&.&.H.LXLXw.T D h g s s g l x V K T E / 9.SXLXLXLXLX=.g < ; @ X X o @ : 9 g S W %.oX'.8XLXLXLXLXdX{ / I x t < @ .                                                                                                                         O q E GXLXLX[ 6 X                                                                                                                                                                                                                                                                                   o # 1 9 s x ! { *.p.v.jXLXLXLXLX^.| ^ S s 7 ; O                                                                                                                                                           ` ..                                                o NX        o @ : 1 q p x K W / b.LXLXLXLXLXLXLXLXLXLXLXLXLXLXLXLXLXVXp.| { ] / ! K V l g y q 1 : @ X                                                         ",
"                                                      . ; c W.LXLXLXLXLXLXLXLXhXH l g h S W H.LXLX9.E P S S P P K D S V S K T E %.f.R.LXLXA.B 7 < % @ o @ # 1 y l P ^ 4.!.;XLXLXLXLXLX=.] ] K h q : O                                                                                                                           X : l &.LXLX@Xy @ .                                                                                                                                                                                                                                                                                 . O ; 6 y h S / | =.-.6.LXLXLXLXfX4.] P h t 1 # .                                                                                                                                                       O LX                                                    9 P.  . o # : 6 t g B I ] { 2.LXLXLXLXLXLXLXLXLXLXLXLXLXLXLXSXdX(.=.{ ] ^ I S B h s t 9 6 : % O .                                                           ",
"                                    X ; 7 1 # . . X : s Q.LXLXLXVX0.' ' } -.c 9 1 ; : 6 t V { cXLXGX>./ ( ' 9.b.x.| ^ D S S P W ^ ] v.LXLXCX/ y 7 1 % # % ; 6 y x T ^ 6.[.LXLXLXLXLXg.=.| / S g 9 ; o                                                                                                                           X % q T >.LXLXF # .                                                                                                                                                                                                                                                                                   X # : 9 p x I { %.#.h.LXLXLXLXLXM.| ^ V p 6 % X                                                                                                                                                     t LX6                                                       ` :.o % < 7 t g V R [ *.4.1XLXLXLXLXLXLXLXLXdX+XS.v.7.3.-.=.=.#.[ ^ W K V l s t q 1 : % @ X                                                               ",
"                                  0 E.LXLXLXy.q % 6 U tXLXLXE. .x y 7 1 : : @ o o O o @ : 7 B [ cXLXLXHXLXLXLXLXLXLXLX>.E T P E / ^ <.nXLXLX$.V p q 1 : : < 9 s B E / =.KXLXLXLXLX~.f.=.| ^ V g 9 ; o                                                                                                                           X # 6 x { CXLX| < .                                                                                                                                                                                                                                                                                   . O ; 6 t g S / %.-.n.LXLXLXLXLX:X=./ K h q : O .                                                                                                                                               c LXLX%                                                         X kX .6 9 y h S ^ { =.p.F.LXLXLXLXLXnX,X`.A.m.s.6.<.=.%.#.| [ / W P S x g y 9 1 : % O X                                                                   ",
"                o O o         @ b LXLXLXLXLXLXCXn H vXLXLX:.y ; O X . .               . o # : t C T.LXLXLXLXlXtXvXLXLXLX>.[ W E W W / b.LXLXx.E S g t 7 6 6 t g S W ] *.cXLXLXLXfXoXk.=.] P B s 7 ; X                                                                                                                           X # 1 h ] OXLX|.7 .                                                                                                                                                                                                                                                                                     o # 1 9 p l R { 2.z.n.[.LXLXLXLX<./ W x t 1 # X                                                                                                                                           &.LXLXB                                                           X @ : GXI.s x K ] | <.s.~.cXLXLXLXLX+XC.n.p.6.4.<.*.%.| { ] / W K V x g y q 6 : % @ o .                                                             g P.y.  ",
"          @ a y.uXzXH.k 7 ; 7 J CXLXAXJ A ` uXLXLXLXLXLXO.1 o                               X @ : s Y %./ F S W #.v.xXLXKXv.1.{ W E E 9.LXLX6X[ E D x h s y s B P W | 4.XXLXLXLX:XoXa.%./ K x p 9 ; X                                                                                                                           . # 6 s W Y.LXxXy X .                                                                                                                                                                                                                                                                                   X @ : 6 t g F ] | x.V.M.;XLXLXLX X] W S s 6 ; o                                                                                                                                       1 LXSX@                                                             X # : 7 t OXxX! ] #.1.n._.bXLXLXLXLX>Xh.g.6.<.=.*.%.| [ ] ! L V B h s y q 6 < % @ o .                                                              .r.        ",
"      ; >.HXLXLXLXLXLXLXkXO.t.LXLXHXb 1 % 1 x H.LXLXVXb #                                       . X # < : : 1 y K { 7.KXLXbXT.5.] E #.bXLXLXLX+X{ W ^ ^ ^ ~ U _ ^ / %.v.[.LXLXLX;XA.4.#.^ K l p 6 % .                                                                                                                           X % 7 s ^ uXLXxXp O X                                                                                                                                                                                                                                                                                   . O % 1 q p B ! [ =.z.(.!.LXLXLXKX#.W S g q : @ .                                                                                                                                   Y.LXg                                                               X # < 9 p x K 7.Q.%.1.m.*XGXLXLXLXLXCXh.4.<.*.%.| { ] / I S B h s y q 9 1 : % @ o .                                                             A r.            ",
"  ; O.HXLXLXGXL. .' t.LXLXLXLXLXfXd @       @ q p y < .                                                 . X @ : t V ^ >.LXLXnXK.;.>.CXLXLXLXLXLXbX[.hXHXVXcXCXxX(.3.<.F.[.LXLXLXdXs.=.#.^ D l y 7 ; .                                                                                                                           . # 1 g / KXLXoXy @ o                                                                                                                                                                                                                                                                                     X # : 9 y h L [ %.6.).C.LXLXLXKX#.^ F h t 1 % o                                                                                                                                 AXLX                                                                o # 1 t g V T ] #.*XB.(.=XLXLXLXLXLXLXV.<.*.#.| [ ] ! D V x h p t 9 1 < ; % @ o .                                                               tXX               ",
"J nXLXLXLX,.u 1 # @ 9 A &XfXK.u O                                                                           . @ < t h P ..LXLXLXLXLXLXzX).fXLXLXLXdX{ F F U / | OXHX+X`.;XLXLXLXbX1.#.[ T B g 9 : # X                                                                                                                           . # 1 s ^ LXLX| y ; O .                                                                                                                                                                                                                                                                                   . O ; 6 t g V / #.<.T.^.LXLXLX.X#./ F x y 6 : O .                                                                                                                             LXHX                                                                o # 1 t g S W / #.5.k.LXGXLXLXLXLXLXLX`.<.*.| [ ] Y S V l g p t 7 1 : % @ O X .                                                                 CX                  ",
"LXLXLXLXn #           o % O .                                                                                   o ; 6 t h L L.LXLXLXQ.=.4.1XLXLXLX .E D S S P E [ 7.<X8XHXLXLXLXLX=.[ / W !.XX.X.X].W                                                                                                                           . @ : g } LXLX/ y 1 # X                                                                                                                                                                                                                                                                                     o % 1 q s V ! | =.d.;XLXLXLX=.#.| U B p 9 1 # X                                                                                                                           -.LXo                                                               X # < t g S ^ { =.oXLXLXLXLXLXLXLXLXLX|.4.#.{ ] ! D B h s y q 7 1 ; % @ o .                                                                   # qX                    ",
"*.} k ;                                                                                                           o # < 1 y S W ] [ ^ E | +XLXLXLX#.E E P D K E ^ =.+X^.LXLXLXLXLX4.] / W 6.W p 6 t / m.X                                                                                                                       . @ : g K.LXcX] s 7 % X                                                                                                                                                                                                                                                                                     . @ : 7 p l I { #.*.LXLXLXbXp.<.#.U B h q 6 % O .                                                                                                                       G LXt.                                                              . @ < q h V ^ #.b.LXLXLXLXLXLXLXLXLXLXF.1.#.[ / I S x s y 9 6 < ; # O X .                                                                   q iX`                       ",
"                                                                                                                    . O % : 6 q p l K E ^ N.HXLXLXq./ ] / E E W [ 7.!.<XLXLXLXLXhXs.%.#.E l y 6 ; O X % 1                                                                                                                       . O < g zXLX|.^ l q % o .                                                                                                                                                                                                                                                                                   . O ; 6 y h L ] { <.LXLXLX/.F.a.*.] V x p 9 < % o .                                                                                                                     LXnX                            1 E ^ V                           . O ; 7 s V W | T.LXLXLXLXLXLXLXLXLXLXb.=.#.[ ^ K B h p t 7 < ; % O X .                                                       o I.KXLXLXKXLX$X1                           ",
"                                                                                                                      . o # ; : 7 p x P E =.8XLXLXA.{ | | ] ^ ] %.h.^.LXLXLXLXLXp.7.7.f./ h 9 ; @ .                                                                                                                             . @ 1 l HXLX<X| V y : O .                                                                                                                                                                                                                                                                                     o % 1 q s S / / !.LXLXLX X).x.=.] K B s t 1 : @ X                                                                                                                   kXLX                        # ^ ] p     # / 9                       o % 1 t x I [ b.LXLXLXLXLXLXLXLXLXLXv.*.| [ ^ P B g y q 7 < % @ O .                                                       1 HXCX:                                         ",
"                                                                                                                          o # % : 9 p x P W l.LXLXfXp.%.=.%.{ { <.g.LXLXLXLXLXh.<.=.| ^ P s 6 % O                                                                                                                               X # 6 l GXLXLX<.K s 1 # X .                                                                                                                                                                                                                                                                                   X # < 9 p S / ^ C.LXLXLXLX!.z.<.#.Y V h p 9 1 ; O o                                                                                                               ;.LX@                   # 7 D q               h q                   . @ : 9 s S ] <.LXLXLXLXLXAX:X~.k.5.4.LX#.[ ^ P B g y 9 1 : % @ X                                                       H LXGX                                              ",
"                                                                                                                            o @ # < 9 p x P | bXLXLX8X4.| *.*.=.6. XLXLXLXLX4Xd.6.=./ E V p 1 % o                                                                                                                               X # 7 x w.LXLXN.T l 7 % O X                                                                                                                                                                                                                                                                                   . O ; 7 t B / [ [ LXLXLXLX|.j.<.%.] S x g t 7 : % O X                                                                                                           q LXK                 s | t .                     s <                 o % 1 t x ~ =.+XLXLXLXLX5X}.C.d.4.<.*.<.GX^ K B g t 9 1 ; # o .                                       1 <       % P.LXLXAX                                                  ",
"                                                                                                                                o @ : 7 p x E f.LXLXLX{.{ ^ { 1.6.LXLXLXLXLXn.k.p.%.W P x y 1 % O                                                                                                                               X # 6 x { LXLX,X^ B t < # o .                                                                                                                                                                                                                                                                                 . O ; 6 y h / { #.C.LXLXLXLXg.4.*.{ Y V x s t 6 < ; O o .                                                                                                     O LXiX                G q.                            X q             . @ : 9 s S { v.LXLXLXLX4X}.(.f.5.<.*.| ] AX{ x s t 7 < ; @ o                                   ,.HXLXLXcXVXLXLXHX&X_ #                                                       ",
"                                                                                                                                  X # : 9 g S ] 3XLXLXhX6.[ [ <.h.LXLXLXLXdXB.s.1.{ E K l t 1 ; O                                                                                                                               X # 1 l { HXLXxX[ V y 1 % @ X .                                                                                                                                                                                                                                                                                 o # 6 t h I | <.6.VXLXLXLX6.4.=.{ / D V h s t 9 1 ; # @ o .                                                                                               X ) LXq               x c.                                S X           o % 1 t l | b.j.LXLXLXfX].).v.7.2.*.| [ ! P LXl t 6 < % @ X                                 AXLXt.                                                                            ",
"                                                                                                                                    X @ < q h E <.LXLXLXjXp.=.1.C.LXLXLXLX].A.g.<.{ E D l y 7 : # X                                                                                                                           . o % 1 s ] cXLXLX} D s 9 : % O X                                                                                                                                                                                                                                                                                 X @ 1 t g I | 2.f.[.LXLXLXp.5.=.#.] R K V x g y t 6 1 : ; O o .                                                                                         . : LXGX.             g pX                                    V.        . @ : 9 s -.%.1.>XLXLXLX}.~.A.7.<.*.{ / I S x #.lX7 < % @ X                               # LX9X                                                                                ",
"                                                                                                                                      X # 1 y B E S.LXLXLXdXj.d.!.LXLXLXLX!.l.p.=.{ W T B s q 1 ; @ X                                                                                                                         X @ ; 6 y F =XLXLX&.P l y 6 : % O .                                                                                                                                                                                                                                                                               . O : q g S | 2.b.M.LXLXLXg.5.<.*.#./ ^ P D B h g p t 9 1 : # # O O o X .                                                                         . . o 6 AXr.U               sX                                        >X/ #   X % 9 E W ^ #.6.LXLXLXLXV.n.a.<.*.| / I V l p t AX:.% @ X           p tXGXI.a O . O q P.LXLX1                                                                                   ",
"                                                                                                                                        X % 7 s K ^ K.LXLXLX7X(.'.LXLXLXLX^.N.6.=.{ ^ E D g y 9 1 ; # o .                                                                                                                     o # ; 6 y B z.LXLXq./ S g q 1 ; % O .                                                                                                                                                                                                                                                                             . O ; q g S { 2.U.h.LXLXLX(.a.4.=.%.{ ] ^ ^ R K V B l s y q 6 1 1 < : : ; O X X .                                                             . o # 1 l CXE       @ X       h x.                                          1 P W ] W l p x / %.7.LXLXLXLXA.p.1.%.{ / I S l p t 7 7 LXLX..F r.NXKXLXLXHXA t >.aXLXLXLXVX&.                                                                                        ",
"                                                                                                                                          O : t h E / b.LXLXLXfX{.LXLXLXLX5X=XA.6.%.[ E T B g t 9 1 : % # O .                                                                                                               X @ % < 9 y x $.LXLX).#.E B s q 1 : % O .                                                                                                                                                                                                                                                                             o ; 6 s V { 3.T.h.LXLXLX|.k.6.1.=.*.#.#.{ { ] / ^ I S x g p y t 7 9 1 : : # O o o O @ ; 1 9 7 < < 6 g h : X           . . . . . . X X o # : 6 q s S LXaX. X <.HX#Xs .     dX9                                               X # < 9 g F [ =.f.LXLXLXLXN.1.=.| / W D x g t 9 1 ; ; J.AXzXJ.F q O                                                                                                               ",
"                                                                                                                                          . % 1 y x E ] b.LXLXLXLXLXLXLXLXLXLXLX5Xm.<.| / E D B s t 7 1 < % @ o                                                                                                           . O # : 1 q y l / LXLXCXS.[ P x p 7 1 ; # X                                                                                                                                                                                                                                                                             X ; 6 p S [ 7.a.7XLXLXLX^.B.g.d.p.6.4.<.=.*.*.%.#.#.{ ] L V x h g y 9 q q y S.>XdXnXcX2X<.^ S T pXLXLXLXdX7 O X X o O % 7 # # @ % 6 p B S W g.<X@Xx.LXT #.xXg.Y ).GXxX4.1X7..                                               O % 1 t l I | 4.V.xXLXLXLXl.=.%.[ ^ P V l p q 1 : % O .                                                                                                                           ",
"                                                                                                                                            O : 9 s V E ] H.LXLXLXLXLXLXLXLXLXLXLXKX=XF.v.;.] ^ E V p t 9 1 : % O X                                                                                                     . X @ % < 6 q s x W gXLXLXLXT.^ D l y 9 1 ; @ X                                                                                                                                                                                                                                                                           X % 1 p V / =.g.LXLXLXLX/.~.C.m.l.j.j.d.a.a.4.4.<.4.4.<.%.{ / ^ R E W 2.f.fXS.%.{ / %.).jXGX7XLXjXW V P =XHXs 7 7 6 1 y E ] <.fXGXKXCXGXLXLXLXLXLXLXLXLXCXx % ; % ; x <.=.% X                                             . @ : 9 s V / *.d.`.<XLXLXLXl.%.| ] W K x g t 7 1 % @ X                                                                                                                             ",
"                                                                                                                                            X % 1 t l P W | v.4XbXLXLXLXLXjXxXLXLXLXLXLXLXLXLXAXV.| P h p t 9 1 ; # O o .                                                                                             . X o # : 1 7 t s x E #.jXLXLXLXc.E V g y 9 1 ; # o .                                                                                                                                                                                                                                                                       . # 1 t x ^ =.LXLXLXLX,X;X.X_._._.).).D.A.+XLXLXLX~.j.v.f.5.<.%.#.<.xX1Xf.| #.=.=.=.#.] E E W E E W E E E =XLXhXyXGXLXLXvXLXLXLXhX4XVXLXhX<.E E E ;XLX=.s 1 ; @ O o # 1 q ; X .                                           o % 1 t h K [ <.D.:XdXLXLXLXk.%.{ / T S l s q 1 : % o .                                                                                                                             ",
"                                                                                                                                            X # < q h D E ] %.f.oX{.LXLXLXLX}.*XVXLXLXLXLXLXLXLXLXLXq.E V h s t 9 1 : % @ O X .                                                           . . . .               . . . o O % ; 1 7 q y s x P / *.b.LXLXLX[ P B g y 9 1 : % O .                                                                                                                                                                                                                                                                       # : t l / {.LXLXLXcX;X,X4X:X;X<X7X4XCXLXLXLXLXLXLXLXjX=X).z.c.$XLXLXA.p.6.6.4.<.=.%.#.| ] ^ ^ / / ^ E W E q.HXCXxXfXVXHX+X/ E E E E P K P T P T S s y 7 1 % O X . . O # # X .                                         . O : 7 p B ^ #.6.).4XAXLXLXLXf.%.[ ^ P V h y 9 1 ; @ X                                                                                                                               ",
"                                                                                                                                            X # 1 9 g S E ] #.2.B.~.xXLXLXLX!.s.p.F.LXLXLXSXLXLXLXLXLXT.| P B l s t 7 1 : ; % @ O o X X . .                   . . . . . X X X o o O @ @ @ # @ @ @ @ O O o O o O O O @ # % : 1 7 q t y g x P ^ { =.K.LXLX&.T S x g y 9 6 : % O X .                                                                                                                                                                                                                                                                   O ; q h I =.bXLXLXLXhXXX;X;X5XVXLXLXLXLXLXLXLXLXLXLXLXLXLXLXLXLXLX1XS.B.l.d.6.=.<.4.<.=.#.[ ] ] ] / ^ E E P h q q t t s g x V K K K S V V x h l h s t 9 6 < ; O .     . @ X .   .                                     X % 1 q h K [ =.k.+XsXLXLXLXLXv.%.] W K B g t 7 : % O .                                                                                                                               ",
"                                                                                                                                            X # < q s V E ] | 1.B.!.,XLXLXLX X1.%.{ | { #.<.x.@XLXLXLXLXVXf.E K S l p t 9 7 1 < : ; % % # @ O o o X o O O O O @ @ # # # % ; ; : < 1 6 7 7 7 6 1 < < : : ; % % % % ; ; : 1 6 7 q y s h x D W ] | *.f.LXLX7.^ T D x g y t 7 1 % # O X .                                                                                                                                                                                                                                                               X # 6 g D ] p.LXLXLXLXLXLXLXLXLXLXLXLXLXLXLXLXLXLXLXLXLXLXLXLXLXLX@XoXF.F.F.+XLXLXLXLXxXv.<.#.| | #.{ ] W E V h s s g h g x S P P K K S V l h s p y y q q 9 q 7 ; X       .     .                                     O ; 7 p B ^ | <.A.fXLXLXLXLXxXC.%.] E D l s t 6 ; @ o                                                                                                                                 ",
"                                                                                                                                            o % 6 t h S T ] #.f.~.n.8XLXLXLXbX=.{ / E E E W [ *.B.gXLXLXLXLXf.W E K B l g s p y t 9 7 7 1 1 < : ; % ; : < < < 1 < 1 1 1 7 9 q t y s s g g g s s y t 9 9 7 6 1 1 1 6 7 9 q q y p g l B S I ^ [ | %.v.LXLXc.[ ^ T S B l g y 9 1 < ; # O o .                                                                                                                                                                                                                                                           . O 1 y B ~ { .XLXLXLXLXLXLXLXLXLXLXLXLXLXLXLXLXLXLXLXLXLXLXLXLXLXLXjXjXAXLXLXLXLXLXLXLXLXLXKXAXbXsX#X/.*.[ E K V x g s B P E E E E E E P S B x h s p y y g K V p 1 % O o o O # # O O X .                           . @ < q g D ] #.4.CXLXLXLXLXLX=Xs.#./ E D h y q 1 % O X                                                                                                                                 ",
"                                                                                                                                          . @ : 7 y l K W { =.h.M.[.LXLXLXLXKX%.] E E P P T E ] | 4.%XLXLXLXVX=./ W E T P D V B l g p y t y t q 9 7 7 9 q t t q q t y y s s g h x V D K P K S S V l g g p p y y t t y p p s g l x V D P W / [ | #.+XLXLXc.#.{ / ! P D V l s t 9 6 < ; % O X                                                                                                                                                                                                                                                           o ; 9 s S / 6.LXLXLXLXLXLXLXLXLXLXLXAX7XLXLXLXM.j.g.6.d.V.<XLXLXLXLXLXLXLXLXLXLXLXLXLXLXLXLXLXLXLXLXLX'.=.%.[ W E E P T E E E / <.4.{ ] ^ W P K K E { =.g.s.| T l y 9 6 1 : 1 6 1 : % # o . .                     o % 6 y x R | <.%XLXLXLXLXLXfX(.4.#./ E P x y 9 1 % o .                                                                                                                                 ",
"                                                                                                                                        . o % 6 y h V P W | 6.n.<XLXLXLXLXLXhX| ^ T D V x l B D W [ =.T.LXLXLXR.4.| ^ E E E E W W W P S B B x h s p y p s g s g g h x B B V V D T W {  .} { W E E T K S V B x l h h l l x B V V S K E E ^ ] { | =.cXLXLXU.<.%.{ ] ^ R T D B h g y q 6 1 % @ o .                                                                                                                                                                                                                                                       . # 1 q h P ] 5XLXLXLXLXLXLXLXLXLXLX;X`.VXLXLXLXn.5.6.d.A.v.,XLXLXLXLXLXLXLXLXSXHXLXLXLXLXLXLXLXLXLXLXLX!.c.k.<.| [ ] / ] s.7XLXLXLXLXg.<.=.2.7./.<XcXLXLXLXs.[ / L g p y p p t 9 7 6 1 ; # o X .               . O : 7 p V ] *.k.LXLXLXLXLXfX-Xh.<.| ^ E P x p q 1 % O X                               . O < c ,.0.t.M w @                                                                               ",
"                                                                                                                                      . O % 1 t g V T ] <.%XKXLXLXLXLXLXLXLXp.[ W S l g p y y g B K / | b.LXLXLXdXz.<.=.#.&.b.CXLXAXdXA.[ E E P D V x x V S D K K K P T E T W ^ %.*XLXLXLXKXb.%.[ ] / ^ W T P K D S D D K P T T W W / / ] { #.#.2.LXLXLXOXs.<.%.| [ ] / ^ W P K V l s t 7 < % @ X                                                                                                                                                                                                                                                       o % 1 q B W 4.LXLXLXLXLXLXLXLXXX'./.C._.LXLXLXSXk.5.<.<.1.=.p.hXLXLXLXhXoXT.Y.U.b.+XcXLXLXLXLXLXLXLXLXLX2X@XA.4.=.%.=.bXLXLXLXLXLXLXLX8X#X1XLXLXLXLXLXLXLXLXOX*.| ] B x B V S S x p t 9 1 ; @ o .             o # < t h I | 1.D.LXLXLXLXjX|.n.1.%.[ E E T V h p q 1 % O X                         o M LXLXLXAXkXuXkXVXHXLXiX,                                                                           ",
"                                                                                                                          X # O X o % : 1 1 q g S W 4.hXLXLXLXLXLXLXLXLXLXGX=.[ I l s t 9 7 7 9 t s B T { c.LXLXLXLXAXdXcXLXLXLXLXLXLXLXLXK.{ ^ W T K K E / ]  .| #.[ ] / ] %.U.LXLXLXLXLXLXLXhXN.<.%.| | [ ] ] / ^ ^ ^ ^ ^ / / ] / [ { | | %.%.<.dXLXLXfXN.6.<.%.{ { { { [ ] / ^ T D B s t 1 ; @ X                                                                                                                                                                                                                                                     . O ; 1 p P W | %.4.p.p.1.=.<.1.5.f.B.F.:XLXLXLX8Xh.4.=.%.=.| <.-.=.=.<.=.*.%.%.%.#.| | #.v.sXGXLXLXLXLXLXhXOXv.f.z.hXLXLXLXLXLXLXLXLXLXLXLXLXLXLXLXLXLXLXLXLXf.-.=.#.^ W | <.[.C.^ E E B t 1 ; # o X . . . X @ : 7 p B / %.d.3XLXLXLXLXOXC.p.%.#.} ] ^ ! G C C C j q 1 % # O . . X o X X o o $ N LXkX9Xw O X . . . . X , Q.LX8.a k  .c.w.c ; X .   X 9 S.2Xo.O         . ; q.b.q.@.j H | -.;.:.o       ",
"                                                                                                        : O.H.w.t ; t.LXLXLXLXLXLXY.*./ ^ #.f.R.bXLXLXLXVX^.C.{.LXLXLXLXLXg.=.] S s q 6 < : : < 1 7 q g P / 3.CXLXLXLXLXLXLXLXLXLXLXLXLXLXLXY.=.{ / W ] f.nXLXLXLXAXT.1.=.7.$XLXLXLXLXLXLXLXLXLXLX=Xd.<.=.%.#.| { [ [ [ [ [ { | | | | | | %.=.<.*.B.LXLXLX%Xz.p.<.=.=.*.=.*.*.%.#.{ [ ^ K B y 6 ; @ .                                                                                                                                                                                                                                                     . # % 7 g P E / | #.*.*.=.=.=.=.=.4.6.5.C.LXLXLX!.4.*.*.| { ] { { { { { { { [ ] / ] { | #.*.2.x.).LXLXLXLXCXfXxXVXLXLXLXLXqXc.V.LXLXLXLXLXLXLXx.:.%.=.6.LXLXLXT.l.B.F.F.zXLXLXLXLXLX] E W s 9 < % # O O O # ; 1 q g D [ =.D.KXLXLXLXLXF.g.4.E.LXLXLXLXLXLXLXLXLXLXLXP.b k k b q.nXLXLXVXyXaXLXLXu.: X                   X 2 K.6X&X>.Y  .yXGXLXHXHXxX0.q # u pX1X9.$.c.2X;.#                           ",
"                            $.sXc._ ;.1XsX1   ; >.xXHXGXKXHX&XU V &.$X2Xc.                          ` LXLXyXQ.bXLXLXcXH q q t y &.LXLXLXLXLXLXLXLXLXLXLX9.| 4.4.LXLXLXLXSXp.#./ x y 7 < % # @ # % ; < 7 p V ^ { y.LXLXLXLXLXCX2X%XOXOXaXLXLXLXR.c.w.t.Q.LXLXLXLXLXLXLX&XQ.lXLXLXLXLXHXCXnXKXLXLXLXLXsXR.b.7.<.%.#.| { | #.#.%.%.%.%.%.#.#.%.*.<.1.g.>XLXLXLX1XA.l.k.7.4.4.4.1.<.1.=.*.{ ^ E V y 1 ; o                                                                                                                                                                                                                                                       X @ : 9 s B L / / { { | | #.| #.#.*.<.5.j.LXLXKX<.{ %.#.| [ ] ] ] ] ] / / / ^ ^ ^ ] ] { | %.%.<.C.LXLXLXLXLXLXLXLXLXLXv.*.#.%.6.cXLXLXLXhX#.E E W / | 1.LXLXLXLXLXLXLXLXLXLXLXLXLXLXzX^ W x t 1 < ; ; % : < 9 y l T | 4.OXLXLXLXLXLX7X}..XGXLXLXLXSXyXY.w.>.>.c.tXLXLXLXLXLXLXqXi n H.L.0.w X                                               .               . O o .                                 ",
"        0.;.*.| H p @.3.K.q.              H pXS.#           q w.c._ q 1 H LXL.                O u.uXLXt                   . X o @ ; q g p p g V P E E E [ <.h.d.LXLXLXLX/.1.{ F g q 1 % O X X X X O # ; 1 q h P E ] -./..Xv.2.{ | =.4.f.$XLXLXLXLXLXLXLXLXLXLXLXLXLXLXLXLXLXLXLXLXVXoXF.oX6XCXLXLXLXLXLXLXbX#Xc.q.7.2.<.1.<.4.a.z.c.H.H.f.=.1.<.4.s.(.bXLXLXLXhX+X(.A.z.j.v.b.b.T.F.v.f.1.[ E x q 1 % o                                                                                                                                                                                                                                                       o # ; 6 q g x S K R ^ ^ / / / / { %.=.6.*XLXLX*X{ { | ] ] / ^ W R R I I L K K K L I ! ^ ] ] { #.<.<XLXLXLXLXLXLXLX<.] W W W W W E E E E D x x S P E ^ <.LXLXLXLXLXLXLXLX7X:XxXLXLXLXLX#./ V s 9 7 6 1 6 9 y g V ^ #.k.LXLXLXLXLXLXLXLXLXLXnXS.;.[ S h p t q 7 1 < 1 6 : % @ O                                                                                                                     ",
"                                                                            wXLXGXnXuXtXuXVXLXLXLXp                             X O ; 1 9 y h S E E / | %.p.V.<XLXLXLXLXp.*.] V y 6 ; @ X         . X O # ; 1 q s l B K T T T P K I { %.5.aXLXLXLXLXLXLXLXLXjXfXbXLXLXLXLXLXLXLXAXv.<.4.k.oX6XbXLXLXLXLXLXLXLXLXLXAX8X#X#X$X&XsXVXLXLXLXVXT.d.d.p.p.z.oXKXLXLXLX5X}. XXXdXLXLXLXLXLXLXLXLXN.] P g q < # X                                                                                                                                                                                                                                                       X O % : 6 q p h x V D P R W ^ ] { %.4.l.LXLXHX{ [ { / ^ R R K D V V B B x x l x B B S K T W ^ ^ W =.GXLXLXLX^.E E S V D S B x x x h h g p s h x B K P E 4.>XbXHXcX=.E ^ ] { <.XXLXLXLX=./ I x g y q q y g x P / %.F.LXLXLXLXLXLXLXLXhXb.=.^ T V g 9 < % O X                                                                                                                                     ",
"                                                                                % i O.,.H y X                                     . O % 1 9 s B P E ] %.6.).;XLXLXLXLXKX<.| I h q 1 # X               . X O # : 1 9 t y p g l l g l V ^ { =.R.LXLXLXCXfX>XU.x.f.z.OXLXLXLXLXxXF.<.{ | #.=.p.A.T.3XLXLXLXLXLXLXLXLXLXLXLXLXLXLXLXLXLXLXLXLXLXhXoXF.V.k.z.@XLXLXLXHX<XdXLXLXLXLXLXLXLXLXLXLXxX<.^ S s 9 ; O                                                                                                                                                                                                                                                         . o O ; : 6 9 t y g l V S K I / { *.2.LXLXdX^ ] / W P D S B l h g s p p p y y p s s g l x S K P P E E E E P V l g g s g p y t t q t q q 9 9 q y p s p g V P E E T T E E E / #.s.LXLXLX6.{ ^ D x g s h B D E ] 1.nXLXLXLXLXLXhX`.A.<.[ W T V g t < # o                                                                                                                                         ",
"                                                                                                                                  . O ; 1 7 s V P W [ =.N.;XLXLXLXLXLXV.#.] V s 9 : @ .                   . X O # ; < 6 9 q 9 7 9 t y h D ^ =.V.Z.s.<.| / ^ ^ ] [ #.3.l.f.>.| ^ E E E E ^ ] #.<.p.,XLXLXLXLXLXLXLXLXLXLXLXLXLXLXLXLXLXLXLXLXLXjX@XT.F.T.oXsXLXLXLXnXKXLXLXLXLXLXLXLXLXLXLXLXD.| ^ B y 1 # .                                                                                                                                                                                                                                                         . X O # % : 1 6 q p g x B S I / [ =.LXLXM./ ] / I S V x g s p t q q q 9 7 7 9 9 9 q t y p g l l x B x l h s y y t q 9 9 6 6 6 6 6 6 1 1 : 1 6 7 7 6 7 9 q y s g l B V S P W ^ jXLXLXLXM.%./ W K D D P E W { 7.LXLXLXLXLX:X'.C.6.#./ E S h t 6 % o .                                                                                                                                         ",
"                                                                                                                                  . O ; 6 9 y l K W [ 4.Z.LXLXLXLXLXxX{ { I x t 1 % o                           . o @ % % ; ; % # % ; < q x P W S x x x B S D P E E W W W E E E E P V S K T E ^ #.p.=XaXbXAXKXLXLXLXLXLXLXLXLXLXLXKXCXAXLXLXLXLXLXLXLXLXLXLXLXLXLXLXLXLXLXLXLXLXLXLXLXLXLXLXdX2.[ P g 9 % o                                                                                                                                                                                                                                                             . X o @ % ; 1 7 t y g h V I W =.LXLX<.{ [ ^ L V l g p t q 9 6 1 1 : : ; : ; : : 1 1 6 7 t t t t y q q 9 6 1 1 : : ; ; % ; % % % % # @ @ # % ; : < < 1 6 9 9 t t p s B S P | LXLXLXLX@X6.{ ^ E E E E ] #.a.AXLXLXLXbX'._.A.=.| ^ P V s q < # X                                                                                                                                           ",
"                                                                                                                                . o # : 6 q p x D W { g.4XLXLXLXLX+X1.*.] K g 9 < @ X                                 X X o X X O o X X @ 1 y s p p s g h x B V D P E E E E E E K V V B B B S T E ] %.=.1.7.7.q.b.#XCXLXLXLXLXfX1X=X=X3XxXLXLXLXLXLXLXLXLXLXLXLXLXLXLXLXLXLXLXLXLXLXLXLXLXLXLXF.#.W B t : @                                                                                                                                                                                                                                                                   . o O ; < 7 9 t s x V P %.LXLX=.| [ R S x s y q 9 1 < : ; % # # O O O O @ # # % % ; : : < < : ; % # # @ O o o o X X X X X . .   . . . X o O @ # % % : : 1 6 9 p h B S | jXLXLXLXHXn.*.] E E E { *.d.4XLXLXLXfX}.(.a.*.{ W K l p 7 ; O                                                                                                                                             ",
"                                                                                                                                X O % < 7 y s x P W { 4.LXLXLXLXF.F.6.#.! B y 1 ; O                                       X X X @ % O     O % 1 7 t y g x S D S K P T E E E E T K S C z z z z U E W ^ ] { | | | #.<.x.b.U.K.b.z.V.D.).+XxXLXLXLXLXLXLXLXLXLXLXLXLXLXLXLXLXLXHXjXdX8X8XVXLXLXLXAXl.] S p 1 % .                                                                                                                                                                                                                                                                   . X O # : 1 9 t s l V E LXLX%.#./ I B p t 9 6 1 : ; % O o X X . . . . . X X X X o X o X X X X . .                                           . . X O @ # ; : 6 q p s x E s.LXLXLXLXHXcXKXLXLXp.<.j.|.LXLXLXAX.XD.f.=.{ W K l t 6 % o                                                                                                                                             ",
"                                                                                                                                o @ ; 1 9 y h V T ^ | %.LXLXLXxX+XA.=.[ D g 9 < % X                                         . X O ; : % o o @ % 1 9 y x C ^ E E E E ^ ] | #.#. .9.sXHXSXbXnXSXKXE.| ^ ^ ] { [ ] [ | %.=.<.4.p.s.g.j.B.@XLXLXzXQ.OX1XdXCXLXLXLXLXLXLXLXKXxXjX8X<X<X7X5X7XHXLXLXLX:X%.D s 6 ; X                                                                                                                                                                                                                                                                       . O % ; 1 9 t g B E LXLXLX=./ W B s t 9 1 < ; # O X .                                                                                         . X o @ % ; 1 7 q y s D / KXLXLXLXLXLXLXLXLXjX!.-XLXLXLXLX;X).x.=.{ W P l t 1 % o                                                                                                                                             ",
"                                                                                                                              . O # : 1 q y h S W / { =.LXLXLX;X`.d.%.! x y 6 ; O .                                           X @ 1 g t 1 % % ; 1 t A b.LXdX;./ ' b.bXLXSXhXnXLXLXLXGXLXLXKXcXnXLXsX#.W W / | &.%.| %.*.=.1.4.4.1.5.A.8XbXU.1.<.a.z.F.T.oX6XLXLXLXfX%X=X-X-X-XXXXX:X<XjXLXLXLXLXv.[ K g 9 : O                                                                                                                                                                                                                                                                         . o @ ; 1 7 t h K %.LXLXLX4XE S p t 6 < ; # o . .                                                                                                 . . o @ : 1 6 9 t B E p.bXLXLXLXLXLXLXLXLX7XcXLXLXLXLXcX X1.| W P x y 6 % o                                                                                                                                             ",
"                                                                                                                              X @ ; < 7 t s x K ^ ] { 1.LXLXLX'.D.4.| L g q 1 % o                                               @ t 4.4._ t 9 9 q @.CXLXLXLXLXLXLXLXLXLXGXLXKXbXK.>.} z a p s s O.GX6X&.' 9.cXLXhXSXxX=Xf.2.2.f.oXdXA.f.%./ / [ { %.<.p.d.k.b.K.S.B.B.V.D.(.(.(._.|.,XLXLXLXLX#X5.{ P l q < @ .                                                                                                                                                                                                                                                                         . X # ; 1 9 p x T 6.LXLXLX%XD s q 6 : % @ X                                                                                                           X O % : 1 6 9 s K E E ] 1.g.C.GXLXLXLXLXLXLXLXLXLXLXLX*./ E B s 7 ; o                                                                                                                                             ",
"                                                                                                                    o O # # X O # : 1 q p h V P ^ { #.4.LXLXLX5Xp.=./ B p 6 : @ .                                               : b.1Xv.xXAX+X2.V.jXx.r.LXtXpXdXT.&.' _ c a 9 6 7 7 y 1 % # @ @ : b hXLXLXLXzX../ -.v.6XbXnXfX4XF.o.h h g l V S K R / | %.=.=.<.<.1.6.p.s.g.N.V.Z.(.,XLXLXLXcXD.x.#.T x t < @ X                                                                                                                                                                                                                                                                             o # : < q p B E <.xXLXLXT y 9 1 ; # o .                                                                                                             . X O % : 1 7 t s x P W [ *.p.].LXLXLXLXLXLXLXLXLXLXLX=.W T h t 1 # .                                                                                                                                           ",
"                                                                                                  .       . @ 1 k &.I.cXAXqXi % ; 1 7 t s x D R ] #.*.6.LXLXLXLX=.#.^ l t 6 1 < % X                                             k 8X, @ < H &XSXf.0 t cXLX .B g p q 1 ; # @ O o o o O O X .     . # q A A a t q y p t q 6 1 1 1 1 < 6 6 q y y s g x V D ! / [ { | #.%.=.=.1.6.d.l.D.5XLXLXLX+XOXx.%.! x t 1 # X                                                                                                                                                                                                                                                                             . O % ; 1 q g S ] g.LXLXW p 9 1 % O X                                                                                                                   . o @ % : 6 q p l P E [ *.6.g._.8XLXLXLXLX{.;XLXLXLX*.E K s 9 % X                                                                                                                                           ",
"                                                                                      2 w.CXLXLXLXkXy.b ,.HXLXLXLXBXu.:.u.LXLXf 1 6 q p h B I / { =.1.4.LXLXLXLX#.| F h y h R ] W P t X                                       o b.H X     # 1 ; % ; >.VX+.t < % @ X . . . .                         . o o .   . o X X X X . X o O @ % < 1 6 7 9 9 t s g x S K R ^ / [ [ | %.<.6.d.B.=XLXLXLXoXoXf.%.^ B p 1 % X                                                                                                                                                                                                                                                                               . O # ; 1 t h I #.LXLX<.p 7 : # o .                                                                                                                       . O % < 7 t g D E / | <.g.D.-XLXLXLXLX{.D.}.LXLXLX<.E x t 1 @ .                                                                                                                                         ",
"                                                                                  f LXLX9Xn 8 > 2 b W.SXtXm # o O @ @ O % w I.CXk q p h B F ] | %.<.p.6.LXLXLXHX%.{ W E P 9 : ; % 6 { +X>                                     , 2X:           @ %.I.CXb ; @ o .                                                                 . . X o @ # % % ; : 6 q y g l B S P W ^ ] { =.<.a.z.oXLXLXLX*XF.f.%.! B s 7 % o                                                                                                                                                                                                                                                                                 X O # : 9 p B ^ LXLX~.l 7 : @ X                                                                                                                           . O % 1 q s V E / #.1.h.D.-XLXLXLXLX/.j.p.*XLXLXLX1.E g 9 : O                                                                                                                                         ",
"                                                                              * eXLXr X               . .             X O % p lXy.h l B F ~ | %.=.f.m.C.LXLXLX^.*.#.#.g 7 % X         > j.o                                 : &XH             : KXLXd @ X .                                                                               . . X o @ % 1 6 9 t s h B D T W ] | =.6.f.F.LXLXLX<XA.f.*./ V g 9 ; O .                                                                                                                                                                                                                                                                               . . O # 1 q h E LXLXdXS 9 ; O .                                                                                                                             X # < 7 p B T ^ #.6.M.).<XLXLXLXLX/.4.=.=.4XLXLXLX/ S y 6 % X .                                                                                                                                     ",
"                                                                  .     X , P.LXGX-                                 X O % : 7 J LX,.F Y ] | %.=.7.A.C.;XLXLXLX<.x.| l 7 : O .           < V                               % c.H               b LXu.;                                                                                           . X O # ; : 1 9 y g x S P ^ { %.4.f.F.LXLXLXGXA.5.*.] S g q : @ X                                                                                                                                                                                                                                                                                 . o O ; 9 g E 8XLXCXT y ; o .                                                                                                                             . @ : 7 p V E ^ %.p.V.`.bXLXLXLXLX(.1.[ / { ,XLXLX'.E g t 1 # o .                                                                                                                                   ",
"                                                    X 8 ;.yXKXLXLXCXVXLXLXHXy.>                                 . o @ % < 6 q h y.CX%.[ | %.=.5.N.!.'.LXLXLXLX<.[ x q 1 % o               t @                           % 3.` .             : NXLX7                                                                                                   X O # % 1 7 t s x D R [ #.<.d.).LXLXLXLX*X<.%.[ S g t 1 % X                                                                                                                                                                                                                                                                                   . o % 6 s K {.LXLXE p ; o                                                                                                                                 @ : 7 s S E ] <.g.D.+XLXLXLXLXLXN.4.| E E ^.LXLXLX| T p q < # X .                                                                                                                                 ",
"                                                5 AXLXLXI.w o . # w u # .                                     . o # ; 1 7 t s B #.SXK.%.%.=.4.s.M.{.LXLXLXLXM.| V p 6 ; @ .                 1 s                     O s { x .             . r.LXM                                                                                                       . X @ % < 7 t g B D ^ | <.a.(.8XLXLXLXLX4.| [ I g t 1 % O                                                                                                                                                                                                                                                                                     . O < p V 4.LXLX] y : o                                                                                                                                 @ < 9 h K E { 4.j.D.xXLXLXLXLX8Xh.=.*.%.[ { .XLXLXfXE x s q 1 % o o .                                                                                                                             ",
"                                            4 SXLXt.$                                                       X O # ; 1 9 t g B I / w.LXc.| =.g.[.bXLXLXLXLXLX[ ! h q 1 # X                     t h X           X t S q : .                 r LXI.O                                                                                                           X @ % 1 9 y l S I [ =.p.D.>XLXLXLXLX/.| [ R x y 7 : O .                                                                                                                                                                                                                                                                                     o ; q x [ HXLXNXt : o                                                                                                                               . # < q l E ^ #.4.s.@XLXLXLXLXLX/.6.#.{ | %.| { :XLXLX<.E x p 9 1 # O o .                                                                                                                           ",
"                                . . . o i CXSXd X                                                       . o @ % < 1 9 y g B P ^ [ | b.HXLXLXLXLXLXLXLXLXLX=.^ B p 7 ; O .                       y ^ 7 o @ g ] ^ 1                       4 LXBX%                                                                                                             . X @ ; 1 q s B K ^ | 4.S.-X8XLXLXLX}.#.{ ^ x s 9 < # X                                                                                                                                                                                                                                                                                     . # 7 g E [.LXSXt ; X                                                                                                                               o % 1 y B / x.7.k.D.LXLXLXLXLX:XC.<.{ ^ ^ { [ W 4.LXLX:X/ T B s 9 : # @ O .                                                                                                                         ",
"                        . q tXLXLXLXLXKXW.8 .                                                         X O # % < 6 q y g B I ^ { | *.LXLXLXLXLXLXLXLXLXLX6./ V g t < # X                           # S ^ E q O                         > SXLX4                                                                                                                   X # : 7 y l D R | <.B.+X4XLXLXLXl.%.| / V g q 1 % o                                                                                                                                                                                                                                                                                     . O 1 p V M.LX$Xq % X                                                                                                                         1 7 < ; 1 t l K W #.=.n.nXLXLXLXLXhX].z.#./ E E W ^ W %.LXLXCX6.E K x y 6 : ; # O .                                                                                                                       ",
"                    O J eXa o                                                                   . . o # % : 1 7 t p h B I ^ { #.p.LXLXLXLXLXLXLXLXLXLX%.[ T g y 1 % X                                                               o qXLXe.                                                                                                                    . o % 1 q s V P [ =.p.D.SXLXLXLXf.=.#./ D l y 6 ; O .                                                                                                                                                                                                                                                                                   . O < 9 E 8XLX4.q # X                                                                                                                         : g.{ x s A %.p.[ [ #.h.LXLXLXLXLX}.+X5.[ W T D D P P E HXLXLXZ./ E E P E K l 6 % % o .                                                                                                             y P { ",
"                  > I.7 .                                                                   . X O # ; < 1 9 t y g x S Y / [ #.!.LXLXLXLXLXLXLXLXLXg./ / P g t 6 % o .                                                               r LXL.@                                                                                                                       X @ : 9 y x K ] %.<.A.LXLXLXfXD.4.%.[ I B s 9 : @ X                                                                                                                                                                                                                                                                                     o ; 1 E LXLXE q # o                                                                                                                           : { ]..X.XXX^.| { %.g.LXLXLXLXLXcX<X=.] E T D V B S E LXLXLX(.#.{ c.LXLXLX=.x y 1 : @ .                                                                                                       q LXLXLXLX",
"                & vX$                                                                   . o O # ; < 6 9 y p g l V L ~ ] | #.M.LXLXLXLXLXLXAXGXs.#.] W D h y 6 ; o .                                                               5 KXLX$                                                                                                                           o % 1 t h D / { 1.7XLXLXLX;X+Xa.=.{ ! V g q 1 % o                                                                                                                                                                                                                                                                                     X @ 1 E LXLXD q ; o                                                                                                                           . ; 7 t k G ! / | =.l.SXLXLXLXdX|.`.LXoXE T S l h E 6XLXLXLX*Xh.$XLXLXLXLXLXLXE V t 6 % X                                                                               : 1.5XT.y ;     o 1 S LXLXLXsXh ",
"              < wX$                                                               . X O @ % : 1 6 q y s h x V U ~ ] [ | %.4.LXLXLXLXLXLXM.h.S.+X%.! V g t 6 ; o .                                                               5 LXGX4                                                                                                                             X @ < 9 g S ^ [ 7.LXLXLXLX|.+Xz.<.| / S h y 7 : O .                                                                                                                                                                                                                                                                                   . X 1 m.LXAXK t ; o                                                                                                                             O 1 t h S E [ =.6.D.cXLXLXLX<X`.6.| !.xXCXxXnXHXhX^.dXLXLXLXKXLXxXE W =.fXLXLXE E s 1 # X                                                       X 6 9 < .       . % =XLXLXLXLXLX{ K E ;.VXLXLXAXB     ",
"          O r.A o                                                             . X O % ; 1 1 9 q y s l V F Y ] [ { | %.=.<.xXLXLXLXLXVXC.s.%.#.R.x._ s q < % o .                                                             @ e.LXtX&                                                                                                                                 o % 6 p B W ] 5.LXLXLXLX X|.D.7.#.[ L l p 9 < % o                                                                                                                                                                                                                                                                                     . 6 fXLXR.K q < O                                                                                                                             o < t l S W [ =.k.`.dXLXLXLX<X).<.{ W P D K E K K E E M.LXLXLXfXE E W =.f.dXLXGX| / l 6 % O O o .                                             y jXLXLX#.y # o # q AXLXLXL g #XLXLXLXLXLXLXCXP         ",
"      % :. .O                                                             . o @ % : 1 9 q y s h x V L ~ ] { | #.%.=.6.4.^.LXLXLXLXdXn.p.%.[ ! | gX#Xb < % o                                                             X r SXLXf .                                                                                                                                   X # 1 t x R ] =.5XLXLXLXdX].(.v.=.| / V g q 1 ; O .                                                                                                                                                                                                                                                                                     1 dXLX7.D q : o                                                                                                                             O 1 y l D W { <.B.>XfXLXLXLX8XN.*.] E D h y y p s l D E /.LXLXE E E E ^ =.*.GXLX1X=./ K g h D / V 7 O .                                   @ x LXLXLXLXLXR.x p l cXLXxXs ; o # 6 -.pX#X| 7             ",
"O y.J.j X                                                             . o O % : 1 9 t s h B D I ^ / [ { | %.=.=.<.4.s.M.LXLXLXLX8Xg.1.%.] L x s c qXSXi O .                                                         O O.LXLXJ.$                                                                                                                                       . O ; 9 g K ^ | B.LXLXLXLX<X/.D.7.%.] D l y 9 : @ X                                                                                                                                                                                                                                                                                     # !.LXz.P t ; o                                                                                                                             @ 1 y x K ^ | 4.A.=XVXLXLXLXAXp.| ^ E B s 9 6 1 7 t l P *.LXLX=.E E E P E ^ E LXLXKXyXE.tXLXLXLXLXs.s 1 @ o .                         X < K LXLXpXp 9 xXLXLXLXLXLXLXq                                 ",
"                                                                    . O # ; 1 7 t s l V P W / ] { | #.*.=.4.4.6.M.[.fXLXLXLXLXLXp.<.| / D l y 9 1 t t.uX<                                                         r LXLXe.$                                                                                                                                             o % 6 p V W { p.fXLXLXLXLXLX^.7.=.{ ^ V g q 1 % o                                                                                                                                                                                                                                                                                     X E LXjXT p ; o                                                                                                                           . @ 1 y B T ] %.4.D.6XLXLXLXLXLXk.{ ^ P l y 6 : ; : 6 q s E LXLXfX{ E ^ S B V P E HXLXLXLXLXLXLXbXLXLXpXE p : # X . . . . . X o # ; 1 p D 2.LXLXU.x % o # | LXLXLX7.o                                   ",
"                                                                X O # : 1 7 q p g B D T / ] ] ^ ^ [ #.=.4.M.XXLXLXLXLXLXLXLXLX~.%.| Y S h y 6 : % @ < 0.&.o                                                     f LXN O                                                                                                                                                 . @ < t l P ] =.`.LXLXLXLXLX~.<.<.#.] K x y 7 : @ .                                                                                                                                                                                                                                                                                   . g LXLXE V 1 O                                                                                                                           . # 1 p B W { %.5.OXLXLXLXLXLX;Xh.{ W K h q < % @ # ; < 6 D xXLXLX4.E P R B h h g S E =.6.| E E E E VXLXsXE s 6 : # O % # t ] T S D W jXLXLXLXc.1 O         o ;                                         ",
"                                                            X O % : 1 7 q y s h V I R / ^ h.:XnXLXLXLXLXLXLXLXLXLXLXLXLXLXLXLX^ / L B s t 6 : # o .   : J.j                                                   % LXr                                                                                                                                                       O ; 9 s S ^ #.l.bXLXLXLXLXF.f.4.*.{ ^ S g q 1 % o                                                                                                                                                                                                                                                                                   X 1 M.LXKXE t @                                                                                                                           X % 6 s S ^ | #.b.LXLXLXLXLXfX{.g.{ E S g 7 ; # o O @ ; : p 4.LXLX6.*.W T V B l g h h x B B g g V P W LXLX%.T g q 9 y p >XLXLXLXLXLXLXLXLXw.t                                                           ",
"                                                        . X # ; 1 9 t p g x S I W / / | jXLXLXLXLXLXLXLXLXLXLXLXLXLXLXLXLXLX=.E S B s q 1 ; # X .       ; iXe                                                 r.r.                                                                                                                                                        X % 1 y x T ] <. XLXLXLXLXVXoXm.1.%.[ L x p 9 : @ .                                                                                                                                                                                                                                                                                   % K LXLXBXD < .                                                                                                                         X ; 7 g D / { <.bXLXLXLXLXbXXX=X5.] E V p 6 % O X X o @ % q / LXLXLXLXnXW E K V B h p p t 9 q t y x V ] LXLX#.W W E E bXLXLX=.xXLXLXLXp.q .                                                             ",
"                                                      . o # < 6 y s x S I ^ / ] [ | =.8XLXLXLXLXLXLXLXLXLXLXLXLXLXLXY.3.=.] E K x p q 1 % O X             e LX*                                             f LX#                                                                                                                                                           @ : q g K / | p.CXLXLXLXLX<X^.s.<.#./ V g q 1 % X                                                                                                                                                                                                                                                                                   # t ^ LXLX] y O                                                                                                                         o ; 9 h K ] | 2.LXLXLXLXLX|.fXT.*./ T x t < @ X       . # 1 E GXLXLXLXLXLXlXE E D B h s y 9 q 9 9 q p p 6.LXLXLXLXLXLXLXHXE p 9 9 l %                                                                   ",
"                                                    . O ; 1 q s B P W ] { | #.%.<.6.[.LXLXLXLXLXLXLXLXLXLXLXLXLXF.5.;.| ^ P V l y 9 : # o .                 n NXX                                         $ LXr                                                                                                                                                             o % 6 p B W [ %.V.LXLXLXLXhX XC.4.%.[ L l p 7 ; O .                                                                                                                                                                                                                                                                                 o 1 B 6.LXLXV %                                                                                                                         O : q l P [ #.5.LXLXLXLXLX`.fXx.%./ P l q ; O           X % q K E W g.cXLXLXLX[ ^ R S V x g t q 6 7 9 t p (.LXLXLXLXAXC.x ; O X                                                                         ",
"                                                  . @ ; 1 q g S ^ ] { #.=.1.6.s.n.'.LXLXLXLXLXfX_.'.'.[.{.XXM./ | | ] ! K x s t 6 ; # X .                   X qXb                                         9XI.                                                                                                                                                              . @ < q h D / | <.).LXLXLXLX<X^.g.=.| ^ V g q < @ .                                                                                                                                                                                                                                                                                   % y E jXLX=.:                                                                                                                       . @ < t x R { =.d.8XLXLXLXLXZ.OX7.#./ K h 9 ; o             X ; 9 g S E { s.LXLXLX=.| { W P V g t 9 6 6 1 6 x P P V p < X .                                                                               ",
"                                                X @ ; 6 t g S / ] ^ { *.1.g.C.[.cXLXLXLXLXLX_.N.z.f.x.q.5.=.{ [ ~ U B l s t 6 : % O .                         $ CX4                                   . r LX$                                                                                                                                                                 o ; 7 p x T [ *.g.,XLXLXLXLXjX(.6.=.] P x y 6 % o                                                                                                                                                                                                                                                                                   O 7 l { LXVX9 .                                                                                                                     . # 1 y B W { <.z.*XLXLXLXLX/.K.7.#.^ D g 7 % X               . # 1 y V E / s.LXLXLXHXcXf.^ ^ T g t 6 1 < % ; 1 ; @ X .                                                                                   ",
"                                              . O ; 1 q g V ] [ C.LXLXLXLXLXLXLXLXLXLXLXLXXX6.4.=.%.#.| ] / I F x s y 9 6 : % O o .                             & aXO.# . X ; p @.Q.BXeX,           & qXSXr                                                                                                                                                                   X # < q g S / #.4.M.GXLXLXLXLXLXD.<.{ ^ V s 9 : @ .                                                                                                                                                                                                                                                                                 X 1 s E LXLXp .                                                                                                                     X % 6 p V W { 4.D.<XLXLXLXLX{.7.=.| W S s 6 # .                 . # 1 p B K E  XLXLXLXLXLXLX6.^ T p 6 1 < % o o . .                                                                                       ",
"                                            . O ; 6 q g S ^ | ^.LXLXLXLXLXLXLXLXLXLXLXLX[.4.#.#.| { ] ~ F C h s t 9 1 : % O X .                                   # E.KXHXvX:.h y ; 1 8.AXI.C g ` uXHX,.O                                                                                                                                                                     . O ; 7 p B R [ *.p.D.LXLXLXLXLX4X6.#.] K h t 1 % X                                                                                                                                                                                                                                                                                 . ; p E LXLXK X                                                                                                                     o % 7 s S W | p.(.4XLXLXLXLX].5.%.[ E B p 1 # .                   . O 1 y g h P h.8XLXLXLXLXLXD.W P t 6 < % O . . .                                                                                       ",
"                                            o % 1 q g S ^ | h.LXLXLXLXLXLXLXLXLXLXLXLXh.=.| ] ] ^ F x h g y q 7 1 : % O o .                                                             . 6 G  .G 9 .                                                                                                                                                                           o % 1 t l D / | <.g.F.SXLXLXLXLX7.#.{ R x p 7 ; O .                                                                                                                                                                                                                                                                                 # 6 E LXLXW O                                                                                                                     O ; 9 g S ^ #.p.).5XLXLXLXLXk.=.| / T x y < @ .                       O : 9 t p B E E ^ =..XLXLX1.E D q 1 ; @ X                                                                                           ",
"                                          X # 1 q s V ^ ] ] LXLXLXLXLXLXLXLXLXLXLX'.| { ] ] ! L V h p t 9 6 1 : % O o .                                                                                                                                                                                                                                                         X # 1 q g V ^ [ %.6.m.).LXLXLXLXV.#.| ^ V g 9 : @ X                                                                                                                                                                                                                                                                                 O < T LXLXK ;                                                                                                                     O : q g K / #.6.(.LXLXLXLXAXm.<.{ ^ P l t < @                         . o ; 1 9 y s l S W <.:XLXLXp.E V 6 < @ X .                                                                                         ",
"                                        . O % 6 y x I ] | s.LXLXLXLXLXZ.m.s.4.*.%.| / ^ ^ I V h s t 9 1 < ; # O o .                                                                                                                                                                                                                                                             . O ; 7 p x Y ] | <.k.(.4XLXLXLXdX=.| ] D h t 1 % O                                                                                                                                                                                                                                                                                 . @ E LXLXV ;                                                                                                                   . @ < t l P ] | 6.*XLXLXLXLXXXZ.<.{ W D g q : O                             o % 1 7 t s x S ^ p.LXLXLXfXE t 1 % o .                                                                                         ",
"                                      . O % 1 q g S ^ | | .XLXLXLXLX(.).j.p.<.=.#.] W R S x s y 9 1 ; % @ O X .                                                                                                                                                                                                                                                                   o % 1 t g S / | =.6.D.<XLXLXLXLX-.| [ P x p 9 ; @ .                                                                                                                                                                                                                                                                                 X E LXLXS 7 X                                                                                                                 X # 1 y x T ] { 5.LXLXLXLXLX_.D.<.[ W S g 9 ; o                               . @ : 6 t p l P ^ !.LXLXLX1.g 6 % o .                                                                                         ",
"                                    . o # : 7 y x I ] *.%.HXLXLXLX8X(.Z.p.<.%.{ ] W K x g y q 1 : % @ o X .                                                                                                                                                                                                                                                                       X # < q s B ! { *.6.z.*XLXLXLXLX7.#.{ R V g t 1 % o                                                                                                                                                                                                                                                                               . X p LXLXT t #                                                                                                                 o % 7 s V W [ { 5.LXLXLXLXKX|.D.<.[ W V p 9 ; o                                 . O ; 1 9 y l P { LXLXLX'.S 9 : o                                                                                           ",
"                                    X # : 1 y h D ^ | f.s.LXLXLXLXM.k.p.=.#.[ / L B g y 9 6 : % @ o .                                                                                                                                                                                                                                                                             . @ : 9 p B I [ %.4.z.+XLXLXLXLXf.=.| ^ S h y 6 ; O .                                                                                                                                                                                                                                                                           . o O 1 :XLXE h : X                                                                                                               O ; 9 s V W [ { 2.LXLXLXLXCX>XA.=.[ E B y 6 % X                                   . O % : 6 t x T p.LXLX7XW p 1 @ .                                                                                         ",
"                                  . O ; 1 q g V ^ { 2.A.^.LXLXLXLXs.6.=.| / F B h y 9 1 : % @ o .                                                                                                                                                                                                                                                                                   o % 6 y l K ] %.<.z.1XLXLXLXLXA.6.%.] L x p 7 < # o                                                                                                                                                                                                                                                                       . X o # ; 6 =.LXpXK 9 @ X                                                                                                             O : q g S ^ { | 4.KXLXLXLXKX=XV.=.[ E x y 6 % X                                     . X # ; 7 p x E LXLXVX#.K 7 % X                                                                                         ",
"                                . O % 1 q g V R { =.d.h.fXLXLXLX7X4.=.#./ L x g y 9 1 ; @ o .                                                                                                                                                                                                                                                                                       . # 1 q h S / | =.x.LXLXLXLX<X(.k.=.[ Y B g t 1 % @ .                                                                                                                                                                                                                                                                 . o O # % < 6 t E LXLXE h < # o .                                                                                                       . # 1 t h D ^ | *.p.dXLXLXLXLX+XN.=.] T x y 1 # .                                         X @ : 7 s T [.LXLX=./ g : o .                                                                                       ",
"                                o # < 9 p B E ] | =.s.:XLXLXLXLXg.=.#.] I x s t 7 < % O X                                                                                                                                                                                                                                                                                           . O : 9 g V ~ | %.7.LXLXLXLX+X`.z.<.| / D l p 9 : % o                                                                                                                                                                                                                                                           . o O # % : 1 7 q y l E KXLXtXE y < # O X .                                                                                                   X % 1 y l K / #.=.g.|.LXLXLXLX.XN.=.] E B y 1 # .                                           X # < q l E LXLXLX#.E 7 @ .                                                                                       ",
"                              . # : 6 y h K / | [.hXLXLXLXLXLX<X<.%.[ R V g t 6 : % O .                                                                                                                                                                                                                                                                                               o % 6 p B Y [ #.7.LXLXLXLX=X|.A.4.#.] L B g t 1 ; @ X                                                                                                                                                                                                                                                     . o @ % ; < 6 q y s g x D E 6.LXLXE B t 1 ; # O X .                                                                                               O ; 7 p B P / #.<.h.|.LXLXLXLX:Xv.=./ E B y 1 # .                                             o % 1 s B ] LXLXLX| S ; X                                                                                       ",
"                              o % 1 q s V T ^ [.LXLXLXLXLXLXLX=.=.{ ^ V g t 6 : % O .                                                                                                                                                                                                                                                                                                 X % 1 y x F ] | 5.LXLXLXLX:X.XF.f.*.{ ^ S l y 9 1 % @ .                                                                                                                                                                                                                                               . o @ ; < 6 9 t s l V K T E W / [ <XLXGXP h t 6 < ; # O X .                                                                                         X @ : 9 s V T ] %.4.m.-XLXLXLXLXnX5.%.] E x y 1 # .                                             . O ; 7 l P { LXLXLXE 9 X                                                                                       ",
"                            o # : 9 p x P ^ ^ jXLXLXLXLXLXLX<.=.| / K h t 6 : % O .                                                                                                                                                                                                                                                                                                   . @ : q h S / { 6.dXLXLXLX7XXX`.v.-.| ] I B g t 7 : % O .                                                                                                                                                                                                                                         . X @ % < 6 q p g B D ^ ] [ | { ] ] =.#.4XLX7.S g y q 6 < ; # @ o X .                                                                                 . o % 1 q g V W [ *.p.V.:XnXLXLXLXLX3.| ] E x y 1 @                                         . o O X X # t W [ ^ /.LXLX4Xl @                                                                                       ",
"                          . O ; 6 t l F ^ { ] LXLXLXLXLXGXp.1.%.[ I x y 7 < % O .                                                                                                                                                                                                                                                                                                       O : 9 g V W [ <.|.LXLXLXLX<X|.D.7.%.[ ^ S l p q 6 : # O .                                                                                                                                                                                                                                     X O # ; 1 9 y g B K / { %.<.5.k.d.<.#.s.=.=.bXLXE S l s y 9 6 < : % # O O o X X X . . .   . . . . . X . . . .                                           X @ : 7 y l D ^ { =.s.Z.<X8XLXLXLXLXa.{ ^ E x y 1 @                                     X t N.7XF.x @ q T.=.2.%XbXLXLXLXE % .                                                                                     ",
"                        . o # 1 q s B ~ [ ;.=.LXLXLXLXhXh.6.*.{ ! B p 9 1 % O X                                                                                                                                                                                                                                                                                                         o % 6 y x I ] %.B.LXLXLXLXLX-XD.f.=.| ] L V g y 9 1 ; # o X                                                                                                                                                                                                                               X O # ; 1 7 t s x S ! [ %.6.A.oX=XfXhXXXn.SXLXGX7XLXW E D x h s y 9 6 1 < ; ; % % # # @ @ O O O @ # # # % # @ @ @ O O o o X X .                           X @ ; 1 q s B P / | <.g.(.<XfXLXLXLXLXZ.| ^ E B y 6 @                                 O x f.y X X # h t @ 1 9 s V | ,XLXLX^ 1 X                                                                                     ",
"                        o @ ; 6 y l F [ #.2.^.LXLXLXCX(.g.<.| / S g q 1 ; @ X                                                                                                                                                                                                                                                                                                           . @ 1 t l K ] | d.CXLXLXLXLXLXZ.j.2.%.{ ] F x g y 9 1 ; % @ O X .                                                                                                                                                                                                                     . o @ ; < 6 q p h V L ] | <.j.`.<XjXLXLXLXLXLXM.p.+XLXLX{ / ^ P D B h s y t 9 7 7 6 1 < < : : : : < < 1 1 1 1 1 1 < < : : ; ; % % @ @ o X .             . X o @ % < 9 y h V W [ %.6.n.(.:XLXLXLXLXLXD.#./ E B y 1 @                           O H *X-.t .               . % 6 s D =.LXLXC.q @                                                                                     ",
"                      o @ % 6 t s V Y | *.] LXLXLXLXC.N.6.*.[ I x y 6 : # o .                                                                                                                                                                                                                                                                                                             o ; 9 s V / | =.).LXLXLXLXLX/.l.5.=.| [ ! S x g y 9 6 < ; % # O o X . .                                                                                                                                                                                                         . o @ % : 6 q y g x S ! [ #.4.N..X4XcXLXLXLXLXLXLXXX!.C.7XLX=.#.{ ] ^ P D B x h s p y t t q q 9 q 9 q t t y p p p y y t t q q 9 9 7 1 < : ; % @ O o X X X o O @ # ; < 7 t s B K / | =.p.M._.7XLXLXLXLXHXF.#.] E V y 1 @                     X 9 k.=.t o                       o 1 t S { LXLX<Xy %                                                                                     ",
"                    . # : 1 q p x K ] #.2.#.LXLXLXCXN.p.<.| ! B s q 1 % o .                                                                                                                                                                                                                                                                                                               o % 6 y x ! [ %.p.<XLXLXLXLX XZ.a.<.*.| [ Y S x g y q 9 1 < : % % # @ O O O O o X X X X . .                                                                                                                                                                               . X o @ % : 1 9 t s l V I ] { %.6.D.XX7XbXLXLXLXLXLXLXLXHXXXXX|.LX2X1.*.| { ] ^ T P D V B x h g g g s g g g l x V S D S S V B x x l h g s p t q 9 6 < ; % % # # # % ; : 1 7 t p l D R [ %.1.g.C.*XLXLXLXLXLXXXA.%.] E g q 1 : : 1 < q 6.XX-X1.=.m.>X1.;                             . ; 9 S %.LXLXd.g %                                                                                     ",
"                    X % 6 t p h S W { *.2.[.LXLXLX(.k.1.*.] L x p 6 ; O X                                                                                                                                                                                                                                                                                                                 X # < q g K / | <.!.fXLXLXLX4X_.j.p.<.%.| ] ! S x g s y q 9 6 1 1 : : ; ; ; % % % # # # @ O o X X .                                                                                                                                                                 . X o O # % : 1 7 q y g x S ! [ | *.6.D.;X7XnXLXLXLXLXLXLXLXLXLX8X5X5XCXLXn.4.%.%.#.| ] / ^ W P K S S V V V S D K T W / / / ^ / ^ ^ W T T K D S S x h p y 9 7 1 < : : < 1 1 7 9 t p l V P / { *.6.n._.HXLXLXLXLX7X].p.#.[ ;.hXfXdXjXhXfXjXyXc @ @ 1 % .                                     # 1 P {.LXLXE s % X                                                                                   ",
";                   X ; 9 y g B K / | <.f.5XLXLXLXM.4.%.#.~ V g q 1 # o                                                                                                                                                                                                                                                                                                                     @ : 9 p S ^ | *.g.:XLXLXLXCX|.Z.h.p.<.%.{ ] Y S B x h s y t q 9 7 7 7 7 6 6 1 1 1 < < : : ; % % @ O o .                                                                                                                                                 . X o o O @ # % ; < 6 9 q y s l V L ] { #.<.d.D.XX7XnXLXLXLXLXLXLXLXLXLXLXLXSXVXfXLXfXZ.p.4.1.=.*.#.| [ ] / ^ W W W W ^ ] [ { { | | | [ [ { | | { ] ] ^ ^ W E P S l g y t 9 7 9 9 9 q t y s l V K ^ [ #.<.g.!.<XLXLXLXLXhX.Xj.=.{ ^ D s 0 6 : @ o X .                                                 o % S 4XLXLXE x < O                                                                                   ",
"{ dXF.` s ; % < y G c.G t g B K ! | *.6.T.,XLXLXLX.X=.| { U x y 7 ; O .                                                                                                                                                                                                                                                                                                                     X % 1 q h L [ #.4.`.LXLXLXLX-X/.Z.j.p.<.%.{ ] ! L D V x l g s s p p p p y y y t t q 9 9 9 9 7 1 < : % # O o X .                                                                                                                               . X o O @ # % ; ; : < 1 7 9 t y s g x V F ! [ | =.4.z.(.;X7XCXLXLXLXLXLXLXLXLXLXLXLXLXLXLXLXLXLXLXLX/.M.g.6.<.=.%.#.| { { { { | #.*.=.=.<.1.5.a.;.;.=.=.=.*.#.%.=.| [ / / / W S x h g s s p s s g h x V K W ] { =.p.M.}.GXLXLXLXLX<X(.6.| / E V y 1 # .                                                         . 1 3.{.LXLXE P q ; X                                                                                 ",
"    1 R 1.C.XX}.V.4.^ g x S U ~ { #.1.A.*X.XLXLXLXhX| [ / V g q 1 % o                                                                                                                                                                                                                                                                                                                       . @ : 9 p V / | =.D.LXLXLXLX5X}.~.Z.N.p.<.*.| [ ] / R K D S V B B B x x x x x x l h g g s s p y t q 7 1 ; % # O X .                                                                                                                 . . X o O @ % ; : < 1 6 9 q t t y p s g x V S I ^ ] | *.1.d.A.+X:X7XSXLXLXLXLXLXLXLXCXLXLXLXLXLXLXLXLXLXLXLXLXAXXX|.F.k.p.4.4.<.=.=.=.=.4.6.s.g.M.D.OXLXLXLXLX6XV.h.k.k.Z. X/.4.*.#.| [ ^ T P D S V B V B V V D P W ] { #.4.n.!.:XLXLXLXLXjX.XN.=.[ W D l q : O                                                             < =.<.LXLXW E g < O                                                                                 ",
"              . @ 1 q x P ^ ] { | =.a.`.~.AXLXLXLXxX{ ] Y x p 7 < @ .                                                                                                                                                                                                                                                                                                                         o % 1 t l L ] #.j.CXLXLXLXSX:X}.(.Z.l.p.1.*.#.| { ] / / ^ ! ! ! R R R I I I I I L L D S S B x l g y t 7 6 < ; # @ o X .                                                                                                     . X o @ # % ; : < 1 7 9 t y p g l l x x B V D I ^ / [ | %.<.6.j.D.*X5XdXGXLXLXLXLXLXLXLXhXfXhXLXLXLXLXLXLXLXLXLXLXLXLXLXfX8X+XV.g.j.d.d.p.a.k.B.D.).>XfXLXLXLXLXLXLXLXLXCXLXLXLXLXLXLX).s.=.*.| [ / ^ W W T T P P P W ^ / [ #.=.s.C.].cXLXLXLXLXXX).a.%.] P l p 6 % X                                                             < 4.E LXLXkXE D 9 % X                                                                               ",
"            O ; 7 y x K T W / { #.1.m.n.,XLXLXLXLX^.| / F g q 1 % o                                                                                                                                                                                                                                                                                                                           X # < q g S ^ { 4.<XLXLXLXLX8X.X]./.Z.m.s.6.<.=.*.%.#.#.| | | | | | | | | | | | | | { { ] / ^ P S x g p y 9 6 : ; % @ O X .                                                                                           . X o @ # ; : 1 1 7 9 t y p g h x V D K I R ^ / ] [ { | %.=.<.6.h.V.`.-X7XjXKXLXLXLXLXLXLXLXdX7XdX5XfXLXLXLXLXLXLXLXLXLXLXLXLXLXLXnX<XD.M.Z.D.D.D.).|.:XxXLXLXLXLXLXLXLXLXLXLXLXLXLXLXLXLXLXLXdXZ.6.<.*.%.| { [ ] / / / / ] ] { #.*.6.M./..XLXLXLXLXLX.XB.<.| ^ V p 7 : O                                                               % ~.s M.LXLXy.E B 1 # .                                                                             ",
"        . X # 1 9 p x P W ^ ] | %.1.g.<XLXLXLXLXLX#.{ / B p 6 : # .                                                                                                                                                                                                                                                                                                                             O % 7 y x P ] %./.LXLXLXLXLXdXXX].^.Z.N.j.j.s.6.6.4.1.<.<.<.=.=.=.<.=.=.=.<.<.<.1.<.*.#.| [ ] ^ R D B x g p q 9 1 : ; % @ o X                                                                                 . X O @ % ; < 1 7 9 t y p g l x V S P ! / ] ] { { | #.%.*.=.<.6.p.h.M.~..X<X8XcXLXLXLXLXLXLXLXLXKX<X;X:X<X;X;X,X<X<X4X7XcXLXLXLXLXLXLXLXLXLXLXdX|..XXX5XdXcXLXLXLXLXLXLXLXLXLXLXLXLXLXLXLXLXLXLXLXLXLXLX`.g.p.6.<.=.*.%.#.| { { | | #.*.4.h./.].fXLXLXLXLX7X}.a.%.] D g q : @                                                                 # N.t P xXLXLXy.E x 1 O                                                                             ",
"      o O % 1 9 s B P ^ / [ { | 6.;XLXLXLXLXLXLXM.%./ ! h q < % o                                                                                                                                                                                                                                                                                                                               X # 1 q g V W { 6.VXLXLXLXLXLXLX8X}._.(.D.D.N.l.k.d.s.p.p.p.p.p.g.j.k.d.g.n.C.C.Z.Z.N.g.6.*.| { [ / ^ P S B g s t 9 1 < ; % @ O X .                                                                     . X o @ % ; < 6 9 t y s g x V S K T ^ / ] [ | #.*.=.=.=.<.1.4.6.d.k.B.D.(.}.<X7X7XxXLXLXLXLXLXLXLXLXLXXX.X}.}.|.|.}._._._.}.}.-XhXLXLXLXLXLXLXLXLXLXLXGX5X7XVXLXLXLXLXLXLXLXLXLXVXxXAXLXLXLXLXLXLXLXLXLXLXLXLXHX_.C.V.l.s.6.1.<.=.=.=.*.=.=.4.g.C.}.-XLXLXLXLXLX.XZ.<.{ W B y 6 % X                                                                 . P y s E LXLXLXvXE B ; X                                                                           ",
"    o # : : 9 p x P / { | | !.AXLXLXLXLXLXLXLX[.=.{ / S p 6 ; O X                                                                                                                                                                                                                                                                                                                                 o ; 7 y l D / #.z.LXLXLXLXLXLXLXLXhX<X|._.Z.Z.V.M.C.Z.~. X<X X{. X.X.X X<XbXLXLXLXLXVXXXZ.d.=.%.| { ] / Y S B g p q 9 1 1 : % # O o X X .                                                       . X o O @ % : 1 7 q y g l B S K R / ] [ { | #.%.*.<.1.6.p.a.a.d.k.v.A.A.F.).*X:X7XGXLXLXLXLXLXLXLXLXLXLXLX;X|.(.Z.m.n.h.n.m.N.m.m.Z.(./.7XLXLXLXLXLXLXLXLXLXLXLXLXLXLXLXLXLXLXLXLXLXdX<X,XXX<XLXLXLX5X>X4XcXLXLXLXLXLX8X.X`.D.B.g.p.4.1.1.4.4.6.p.s.M./. XxXLXLXLXLXLX|.p.#./ K h 9 : O                                                                     < D t l 4.LXLXLXLXE s @                                                                           ",
"  . @ : 1 6 y h K / #.%.4.hXLXLXLXLXLXLXLXLX{.=.] / R l t 1 % O .                                                                                                                                                                                                                                                                                                                                 . @ < 9 p x P ] %.A.GXLXLXLXLXLXLXLXLXhX:X-X-X:X<XcXLXLXLXLXLXLXLXLXLXLXLXLXLXLXLXLXLXLXLXLX;Xh.1.=.*.#.| ] ! F B h s y q 7 1 : % # # @ @ O O X . .                                       . o O # % ; : 1 7 q y s h B S P W / [ { #.*.<.4.p.p.p.d.l.A.F.F.T.T.oX).).+X+X>X5XAXLXLXLXLXLXLXLXLXLXLXLXLXLX7X(.V.N.d.6.<.<.<.1.4.4.6.p.j.m.n.Z.<XLXLXLXLXLXLXLXLXLXLXLXLXLXLXLXLXLXLX8X/.(._.(.!.(.D.A.M.C.}.<XVXLXLXLXLXLX8X<X@XoXF.A.k.h.g.g.g.n.M.M.^. X7XLXLXLXLXLXLX_.=.] E B y 1 % X                                                                     @ { 1 9 x s.LXLXLXLXE 1 X                                                                         ",
"  O ; 6 9 t g S / #.*.^.LXLXLXLXLXLXLXLXLX[.=.{ ^ ^ S s q < # X                                                                                                                                                                                                                                                                                                                                     X # 1 9 s B I { =.g.*XAXLXLXLXLXLXLXLXLXLXKXLXLXLXLXLXLXLXLXLXLXLXLXLXLXLXLXLXLXLXLXLXLXLXLX,XM.s.4.<.*.| [ / W K V l g y q 7 1 < : ; ; ; ; # # O O o o o o X X X X o O X X X o % @ o o @ % ; 1 1 9 q y p h x S I ^ ] [ { | %.<.f.k.B.D.(.(./. X7XAXLXLXLXLXLX8X:X4X4XxXLXLXLXLXLXLXLXLXLXLXLXLXLXLXcXD.l.a.4.<.*.#.| | | #.%.%.*.=.4.6.6.p.z.F.-X8XLXLXLXLXLXLXLXLXLXLXLXLXAX+Xj.s.p.p.p.p.p.p.p.s.g.C.|.dXLXLXLXLXLXLXLXLXLXLXLXLXHX`.C.!.~././.].<XLXLXLXLXLXLXLXD.#.^ P h 9 : O                                                                       o b.: ; t x / ;XLXLXLXx O                                                                         ",
"X # 1 q y g B W #.=.cXLXLXLXLXLXLXLXLXcXh.| ] / ^ P x t 6 % o .                                                                                                                                                                                                                                                                                                                                       o % 1 q s B R { *.6.A.+XhXLXLXLXLXLXLXLXLXLXLXLXLXLXLXLXLXLXLXLXLXLXLXLXLXLXLXLXLXLXLXLXLXLX4X(.l.d.4.=.%.#.[ ^ W P D V x l s y q q 7 1 1 < : ; % % % # # # # # # % % % # ; 9 ` z 9 1 1 7 9 t y s g x V K R ^ / [ | %.<.s.B.<XVX3X>X-X,X<XnXLXLXLXLXLXLXLXLXLXLXLXLXLXLXLXLXLXLXLXLXLXLXLXLXLXLXfXD.k.6.<.*.| [ ] / ^ W ^ / / ] [ | #.%.=.<.5.f.S.GXLXcXLXLXLXLXLXLX7X+Xv.5.<.<.=.*.*.#.#.%.*.=.<.<.6.m.`.7XLXLXLXLXLXLXLXLXLXLXLXLXLX>X}..X|..X;XGXLXLXLXLXLXLXhXs.[ E V s 6 % X                                                                       X F.% o 1 p B W {.LXLX#.: .                                                                       ",
"O ; 9 p h B K ] | LXLXLXLXLXLXLXLX`.s.1.#.] ^ ^ K B p 6 : O .                                                                                                                                                                                                                                                                                                                                           O % 1 q g B R ] #.<.p.(.bXLXLXLXLXLXLXLXLXLXLXLXLXLXLXLXLXLXLXLXLXLXLXLXLXLXLXLXLXLXLXLXLXLX7X`.D.V.V.V.V.k.f.f.v.F.+X3X6X$XQ.$X9.c h y t q q q 9 9 7 q q 9 9 7 7 7 7 9 k $XLXLXQ.H c l x B V S K P W / [ { | %.<.f.+XdXLXLXLXLXCXdXxXLXLXLXLXLXLXLXLXLXLXLXLXLXLXLXLXLXLXLXLXLXLXLXLXLXLXLX.XD.f.4.=.#.[ / ^ I K D S S S S D P R ^ ] [ | #.=.4.;XLXN.*XLXHX<XF.A.m.p.<.*.#.| | [ ] / ^ / ] { | #.*.1.g.M.=XLXLXLXLXLXLXLXLXLXLXLXLXLXdX5X8X8XxXLXLXLXLXLXKX-XV.=.^ P l t < @ .                                                                       . %.: . # 6 s B { LXLX8Xy o                                                                       ",
"# : 9 p h V W | n.LXLXLXLXLXLX-Xj.p.<.#.] ^ I S x s 9 : @ X                                                                                                                                                                                                                                                                                                                                             . O % 1 q s B K / { *.4.h.*XLXLXLXLXLXLXLXLXLXLXLXSXjXnXLXLXLXLXLXLXcXjXcXHXLXLXLXLXLXLXLXLXLXLXLXLXLXLXLXLXLXLXLXLXLXLXLXLXLXLXLXKXy.` H H A A A C G 9.pX#X&.H A k c y.LXLXLXLXLXLXKX2XF.b.b.c.c.0.c.c.oXoX).F.oX2XGXLXLXLXLXLXLXLXLXLXLXLXLXLXLXLXLXLXLXLXLXLXLXLXLXLXLXLXLXLXLXLXLXLXdX~.l.5.<.%.| ] ^ K S B x l g g g g g h x V D P ^ / [ { 1.LXc.1.q.2.=.%.*.*.%.{ [ ] ^ W I K D D K P W ^ ] [ | =.s.h.(.AXLXLXLXLXLXLXLXLXLXLXLXLXLXLXLXLXLXLXLXLXLX-XC.4.| W V p 7 % X                                                                           1 U o X : q p E LXLXLXB % .                                                                     ",
"% 1 t s x S ^ %.!.LXLXLXLXcX|.).p.%.| [ ^ L V x s q < O X                                                                                                                                                                                                                                                                                                                                                   O % 1 9 p x S ! ] #.=.1.k.|.nXLXLXLXLXLXLXLXfX=X>X:X,X*X|.`.*X>X:X:X<X7XdXVXLXLXLXLXLXLXLXLXLXLXLXLXLXLXLXLXLXLXLXLXLXLXnXzXLXLXLXLXLXLXLXLXLXLXLXLXLXLXLXLXLXLXLXLXLXVX>.>.pXLXLXLXLXLXLXLXLXLXLXLXLXLXLXLXLXLXLXLXLXLXLXLXLXLXLXLXLXLXLXLXLXLXLXLXLXLXLXLXLXLXLXLXLXLXGXVXLXhX=XoXZ.s.<.*.#.[ ^ K V x g s y t t q 9 q q t t p g l x V K T ^ LXqX[ [ [ ] / / ^ ^ W R K S B x l h x l x B S P T ^ { *.4.p.n.(.hXLXLXLXLXLXLXLXLXLXLXLXLXLXLXLXLXLXLX>X}.z.*.] K h t < O                                                                             X =.O   # 1 9 E CXLXLXP 1 O                                                                     ",
"< 7 p g B I ] 3.!.LXLXLXLX.X`.j.=.| ] R S B g p t t V | ! ] f.S.Q.A                                                                                                                                                                                                                                                                                                                                         . O % < 9 p h B K / [ | %.<.p.B.Z.Z.Z.Z.V.v.A.A.F.).(.D.Z.Z.Z.(.`.`.|.-X<X<X4XGXLXLXLXLXLXLXLXLXLXLXbX@XT.c.9.;.&.&.&.-.#.-.b.hXLXLXLXLXLXLXLXLXLXLXI.qXLXLXLXLXLXCXw.[ T T / } w.lXLXLXLXLXLXLXLXLXLXLXLXLXLXLXLXLXLXLXLXLXLXLXLXLXLXLXLXAXdX8X7X7XfXLXLXLXLXLXLXcXxXxXLXLX3X@XoXB.p.=.%.| ] R S x g p t q 7 1 1 1 < 1 < 1 6 7 9 t y p g B V cXLXE E T T T K D V B l h s s y y y p p s g l V S K P ^ { *.=.=.4.f.A.).@X8XAXLXLXLXLXLXLXLXLXLXLXLXLX`.Z.<.{ W B y 7 % X                                                                               p #   o : 1 E hXLXLXE q % .                                                                   ",
"1 q h V D ^ { z.'.LXLXLXxX(.N.4.#./ L V l s t q 9 7 6 < #       : &XLXt                                                                                                                                                                                                                                                                                                                                       . O % < 7 t s l V K ^ ] | #.*.=.<.<.<.<.4.6.5.a.a.p.s.d.d.d.d.l.N.Z.~.(.`._.|.5XLXLXLXLXLXLXLXLXLX6X).l.6.1.%.| { [ ] / / ] |  . .&.;.3.3.7.3.&.$./ ! _ G A A c A B V V D K K T / { | $.;.3.f.x.v.T.$XyXHXLXLXLXLXLXLXLXLXLXLXLXLXLXLXfX,X,X:X:X:X:X<X5XVXLXLXLXLXxXLXcX*X).F.z.6.=.#.{ / I V h s t 9 6 < : % % # # # # % % : < < 1 6 q t g #.LX&.E P x h g s p y t q 9 7 7 9 7 7 9 q y p g x S V S W / [ { #.=.4.s.M.(.`.dXLXLXLXLXLXLXLXLXLXLXGX).6.| ^ S g 9 < @ .                                                                               X [ X . # ; E .XLXLXE g 1 @ .                                                                 ",
"6 y l S Y ] #.D.{.LXLXLX|.l.6.%.] I B h p q 1 : % O .               6 LX9                                                                                                                                                                                                                                                                                                                                         X @ ; 1 7 t s l V K ^ / [ { | | #.%.%.%.%.*.*.=.=.=.<.<.<.<.1.6.s.g.m.C.~.^.|.cXLXLXLXLXLXLXLXnX-XD.d.p.=.#.{ ] ^ I K D D S V V V B B V B B B B B l h g g g g l x V S L L R ^ ] [ | %.=.4.6.A.8XKXLXLXLXLXLXLXLXLXLXLXLXLXLXLX7X|. X|.|.}.}.}.|.-X<X5XjXLXLXLXLXhX>XD.z.d.4.*.| [ ! S x g y q 6 < ; % O o X X X X X o o O @ # # % : < t D LXLXLXE.S g q 7 7 1 < < : : ; : : < < 1 6 9 s B V.g.B B D T W / | #.=.6.g.m.!.}.hXLXLXLXLXLXLXLXLXLX~.<.[ T l y 6 % o                                                                                   H .   O % B '.LXLXE S 9 ; o                                                                 ",
"6 s B K ! { <.s.LXLXLXLXM.s.=.{ R V h p q 1 ; @ X                       LX                                                                                                                                                                                                                                                                                                                                          . o # % < 7 t p g x V D R ^ / ] ] ] [ [ [ [ [ [ { { { { { | %.=.<.4.p.g.m.V.~.|.nXLXLXLXLXLXLX7X`.z.d.<.%.{ ] ^ K S V V B x x l g h g h h h g g g g g h g l B V S K I ! / [ | *.<.1.6.p.oXLXLXLXLXLXLXLXLXLXLXxXdX8X4X=X+X+X_.(.D.V.Z.Z.D.Z.~./.*X5X4XLXLXLXLX=XV.5.1.=.#.{ ] I V h p t 7 1 ; # O X .                     . X X O @ 6 g.CXD.KXLXLX] h 6 : ; % # # @ @ # @ @ @ @ # < y F LXx.x p g l x S F ] { #.*.1.p.h.n.~.,XLXLXLXLXLXLXLX5X4.^ D s 9 < @ .                                                                                   7 %   . # y p.LXLXW E s 6 % o X                                                             ",
"t h V I / #.p.h.LXLXLXLXh.1.#.^ S l p q 1 ; @ X                         H J                                                                                                                                                                                                                                                                                                                                             X O # : < 6 q y p g h x B B V V V V V V V S S D F I I ^ ] [ { #.=.4.p.j.N.V.(.@X3XnXLXLXLXLX=XA.k.4.*.| [ ] I D S V B x l l g g g g g g g g g g g l x B S D P R / ] { | %.<.4.6.d.).LXLXLXLXLXLXLXLXLXLX<X:X<X<X>X*X`.(.V.l.j.s.s.p.s.s.n.C._.>X4XnXLXLXLXv.1.=.%.| [ ^ K B g y 9 1 : % O X                                   . h jXO # 1 T xXLXLXE y 6 % @ O o X X . . . X o % y | LX] g q q t y s g x V L ^ [ #.=.4.p.j.F.).T.S.A.1XLXLX-.E V y 6 % o                                                                                     6 %     O 6 E LXLXT.E B t 1 # O .                                                           ",
"g B K ^ [ =.4.fXLXLXLX|.a.=.] K B s q 6 : # X                             LX                                                                                                                                                                                                                                                                                                                                                X O # % : 1 6 7 q t t y y y p p p p p s g g g l x V S K Y / [ #.=.1.s.j.V.~.).=XcXLXLXLXfXF.l.a.<.#.{ ] ! P D S V B x l l h g g g h l l l l x B V S K R ^ / [ | | #.=.6.p.d.D.VXLXLXLXLXLXLXLXLXLXGXXX.X.X`.(.Z.V.l.d.6.1.<.=.=.=.<.p.N.(.*X5XLXLXLXbX6.*.| { ] W K B g t 7 1 ; @ o .                                       (.p     X # 7 B LXLX1.x p < # O @ X         . @ t F.SXz 7 1 1 6 6 9 q y s h x S R / { %.<.6.p.s.s.4.d.CXLX-.T l q 1 @ .                                                                                     @       X : B  XLXLX^ E x t 6 % # o o                                                       ",
"l S I / | 6.4.LXLXLXLXh.<.#.! B g t 6 : # X                               AXX                                                                                                                                                                                                                                                                                                                                                   . o O @ # % ; : : < 1 1 1 1 6 6 7 7 7 q q t y s g h x S L / { %.<.6.g.C.~.+X5XLXLXLXHXoXm.k.5.=.#.{ / ! I K D S V V B x x x B B B V V V S D K R ^ / ] [ | #.*.=.6.s.m.D.*XLXLXLXLXLXLXLXLXLXLXCX_.~.Z.V.N.j.p.4.<.=.*.%.%.*.=.=.4.s.Z.`.=XLXLXLXF.<.#.{ ] W D B g t 7 < % @ X                                           aXX         X # 7 LXLXLXLXLXLXHXb.7           X q ,XdXp : % % ; ; ; : 1 7 q y s l V R / [ | %.*.=.*.1.KXLX-.K s 1 % o                                                                                                 O 6 E LXLXLX#.E l p 7 < ; % O X                                                   ",
"l U W ] #.4.7XLXLXLXVXp.*.[ S h y 6 : # o .                               b :.                                                                                                                                                                                                                                                                                                                                                        . X X O O O @ @ # # # % % % % ; : : < 1 7 9 t y g x V L ] #.=.4.g.n.F.*XHXLXLXLX=XZ.l.f.4.=.| [ ] / ! R I K D D D S D K D D K P I R ^ ^ / ] [ { #.%.=.1.6.j.V.(.*XcXLXLXLXLXLXLXLXjX<X|.(.N.j.d.a.4.<.=.%.#.| | | | | | #.=.6.h.).VXLXLXLXz.=.| ] ^ K x s t 6 : % @ X                                             *X              . P <.s.F.&XnXLXLXLX%         X 7 jX+Xy # . X o O O @ % ; : 1 9 t p l V K R / [ [ [ | HXLX3.S t : O .                                                                                                 . ; s =.LXLXLX] E V g y q 7 1 : # O X . . .                                       ",
"l Y ^ [ =.<.LXLXLXLXM.1.#.Y l y 9 < % o .                                 o iX                                                                                                                                                                                                                                                                                                                                                                . . . X X X X X o o o O @ @ # % ; : 1 7 t p g x D / [ %.4.s.z.).7XLXLXLXdX~.n.j.a.4.*.#.| [ ] / ^ ^ ! Y ! ! ! ! ^ ^ ^ / ] ] [ { | | #.*.=.1.6.k.N.(.|.:X5XLXLXLXLXLXLXVXfX5X*XD.l.a.4.<.*.%.| { [ ] ] ] ] ] { | #.=.4.s.T.LXLXLXhXh.*.{ ^ P V g t 6 : % @ X                                               1X                        o ; 7 h LXc.        X j HX[ q o             X O # % : 1 9 t s h x S D I E W qXLXa.V 7 % o                                                                                                     o 1 s %.LXLXLX] E P B g s y q 9 6 : % # # @ @ O o X .                           ",
"V / / | 2.g.LXLXLXLXp.*.{ S g q 1 ; O .                                     KX                                                                                                                                                                                                                                                                                                                                                                                        . . X o O @ % : 1 9 t g x S I ] #.=.4.v.-XLXLXLXHX`.n.h.j.a.4.=.%.#.{ { [ [ ] ] ] ] ] ] ] [ [ { { | #.*.=.<.1.6.p.s.j.(.|.:X<X8XhXLXLXLXLXLXcXfX5X-X).z.a.<.*.| [ ] / ^ ^ R R ! ^ / [ [ | %.<.$XLXLXLXLXXXs.| ] I S x y 9 < % O X                                               S L                             o 1 oXLX@       ; 1.5Xp g X                 X o @ % < 1 9 t y g g x V P  .LXl.x 1 @ .                                                                                                       # 1 s 4.LXLXLX#.E E E E E P x h s y t y t q 7 7 1 : % O .                     ",
"C ] { %.7.!.LXLXLXfX1.| ~ l y 6 : @ .                                       LX                                                                                                                                                                                                                                                                                                                                                                                                . X o @ % : 6 q p h V L ] #.=.7.).GXLXLXLX4XC.h.h.j.s.4.<.<.=.*.*.%.%.%.#.%.%.#.#.#.#.*.=.=.<.4.6.s.j.m.Z.~.}.-X<XdXdXhXHXLXLXLXLXLXfXdX-X(.l.a.<.%.{ ] ^ R P K D S D K I ! / [ -.VXHXa.v.LXLXLX{.4.{ ^ D B g q 1 ; @ X                                                 J.#                               X S LXg < X . q :Xb 9 h.@                     . o @ % ; < 1 9 q y g S ^ LX_.l : X                                                                                                           # 6 g {.LXLXLXHX>X*XjXGX6.E E D V B V B D E E E E T S s 1 O .               ",
"C { | =.v.{.LXLXLX!.%.] F s 9 1 % X                                         jX;                                                                                                                                                                                                                                                                                                                                                                                                     X O @ % < 9 t s x F ] | =.z.<XLXLXLXCX_.h.s.s.p.6.4.1.<.=.=.=.=.=.=.=.=.=.<.<.<.1.<.4.6.p.j.D.).).|.:X5X8XcXVXCXVXLXLXLXLXLXLXdX>XF.l.p.<.%.[ / I K S V B B B B S D I Y.LX3.%.=.4.S.LXLXLX~.=.] R V l y 7 : # o                                                   &X                                  # LXCXK S l T >X: : p.O                           X o @ # : 1 7 t l W LX>Xh % .                                                                                                           . % 6 V M.LXLXLXLXLXLXLXLXh.#.] ^ E E ] <XxXLXLXLXGX|.W E D t ; O .         ",
"_ | %.4.b.:XLXLXLX<.{ ~ B y 1 % O .                                           ZX                                                                                                                                                                                                                                                                                                                                                                                                        X O # : 7 t s x F ] #.2.(.LXLXLXLXfXD.g.p.p.6.4.4.<.<.<.<.=.=.=.=.<.4.6.p.6.6.s.N.S.T.OX=X=X=X1X5X7XdXbXHXLXLXLXLXLXLXLXLX=XF.k.4.=.| ] ^ K S B x l h h h x B S LX] / [ %.<.p.OXLXLXLXd.#.^ P B g t 1 % O .                                                   VX                                    g LXLXLXLXLXGX*.h ^ %                             : S Q.LXLXLXLX3.W LX8Xs @                                                                                                                 # 1 s E ^.LXLXLXLXLXLXLX`.p.6.p.6.HXLXLXLXLXLXLXLXLXdXE E B 9 ; O X   . ",
"| %.<.s.g.LXLXLXLX{ ^ L h q : # o                                             CX%                                                                                                                                                                                                                                                                                                                                                                                                         . o @ : 6 t s B I ] | p.hXLXLXLXLXLXhX(.v.x.f.d.p.6.4.1.<.-.2.6.6.p.d.d.d.).8XLXLXLXLXLXLXLXLXLXLXLXLXLXLXLXLXLXLXLXLXjX).z.5.*.| / R D V x h g s s s g g l LXK P ^ [ %.<.j.5XLXLXLX7.] W S h y 7 ; @ X                                                     hX                                      x 4X7XxXLXLXLXLXE 1 X               X p S B t < cXLXQ.B t t K VXLXLXR.l x ..xXLXLXLXLX#                                                                                                     O % 7 s E E | <.!.LXLXLXLXLXHXLXLXLXLXLXLXLXLXLXLXLXLX<.E E V y 1 % % ",
"#.=.6.4..XLXLXLXGX] T V p 1 % o .                                               LX                                                                                                                                                                                                                                                                                                                                                                                                            X O ; 6 t s B R ] %.V.LXLXLXLXLXLXLXLXLXGXcXhXdXsXnXLXLXLXAX1XoXT.OXpXLXLXLXLXLXLXLXLXLXLXLXLXLXLXLXLXLXLXLXLXLXLX|.N.p.=.| ] T S B h s p y y t y p s SXK S P W [ =.p.D.8XLXLXLX-.W P B s q 1 % O .                                                     dX                                        : %.{ 2 t L.LXLXP 1         o cXCXLXLXLXLXLXdXq.X     X O # t ' LXLXLXAX@Xz .     z LX                                                                                                      . o @ : q p g E h.LXLXLXLXLXLXLXLX).{ p.C.[.:XLXLXLXLXLX6.] T s 9 1 ",
"] %.4.}.LXLXLXLX X] K h q : O .                                                 y LX                                                                                                                                                                                                                                                                                                                                                                                                            . O : 6 t g V R ] =.A.AXLXLXLXLXLXLXLXLXLXLXLXLXLXLXLXLXLXLXLXLXLXLXLXLXLXLXLXLXLXLXLXLXLXLXLXLXLXLXLXLXLXLXLXdXZ.p.=.| ] R V x g p y t q q q t t D u.h B D W [ =.j.).jXLXLXVX%.T S h y 7 ; @ X                                                       xX                                    o a c.G o   # 7 l 1XLXT : o p nXLXLXS x t o                   X 9  .LX} 7               =.CX                                                                                                        . X O : 6 t g E C.KXLXLXHX'.E E T E E E E ] ].LXLXLXLX=X| E B l ",
"nXhXLXLXLXLXLXLX=.W x y 1 % o                                                     q SX                                                                                                                                                                                                                                                                                                                                                                                                            . O ; 1 q g V T ] *.p.~.4XLXLXLXLXLXLXLXLXLXLXLXLXLXLXLXLXLXLXLXLXLXLXLXLXLXLXLXLXLXLXLXLXLXLXLXLXLXLXLXLXxX~.g.=.| ] R S l g y t 9 9 7 7 7 9 t LXp g B D E [ =.B.@XLXLXLX+X| P V g t 1 % O .                                                       `.O                               # u c.KX@..         X o #.LXr.hXLX9.#                               7 I.LXU 1                 ` LXnXE.R.2XL.                                                                                                  X % : < < q h T E S g p s h x B S K E E ] {.LXLXLXLX.X4.] ",
"LXLXLXLXLXLXLX1.^ S s 9 ; O .                                                       U.7                                                                                                                                                                                                                                                                                                                                                                                                             . O % < q s B P / | =.s.B.-XKXLXLXLXLXLXLXLXLXLXLXLXLXLXLXLXLXLXLXLXLXcXfXhXCXLXLXLXLXLXLXLXLXLXLXLXLXxX~.j.<.| ] T S l s t q 7 1 1 1 1 1 7 LXy y g x D E [ 1.R.KXLXLXLXf.[ K h p 9 : @ X                                                       . H 4.X                       o c nXSXCX&Xk                 o VXLXVXg                                   1 LXLXG :                     % | w.:.q.pX                q I %.&.g         q 1                                                               . X X X O % ; ; : : 1 < 1 1 9 t h x V E =.LXLXLXLXLXLX",
"LXLXLXLXLXLX<.] P h t 1 # X                                                         O $X                                                                                                                                                                                                                                                                                                                                                                                                                X # < 9 p x S R ] #.*.1.d.V.|.:X4XjXSXKXVXxXnXHXLXLXLXLXLXLXLXnX8X-X-X<X8XhXVXLXLXLXLXLXLXLXLXLXbX~.s.<.#.] R S l p t 9 6 1 : : ; : < eXV q y g x D E %.$XLXLXLXLX$X<./ V s t 6 % o                                               $ ;.#X6XjXbXnXLXSXR.,         . $ *.=.S.%Xp < O .                       nXLX%.y                                   < LXGXA ;                               G LXh         cXnX2.l 1 9 Y.LXJ.CXLXaXtXAXpX                                                                    . . X X X X X X O # : 1 q y p x E {.LXLXLXLX",
"LXLXLXLXxX<.| T x p 1 % o                                                             vX                                                                                                                                                                                                                                                                                                                                                                                                                  . @ ; 7 t g B S R / { #.%.*.=.5.7.7.x.A.D.F.).+X,XdXbXxX%XU.F.~._.}.;X5XjXGXLXLXLXLXLXLXLXLX7XV.6.=.| [ R V h y q 6 1 : ; % % % % B u.6 9 y g B P { SXLXLXLXLXsXz.%.W x y 9 1 # .                             O A =.0 o .   X m GX$XH t : o o =Xb yXVX-.2.oXdXbXSXVXY.c X                               xXxXE h O                                 % LXLXz ;                                   W.LXGXAXGXq                             aX<                                                                                     . o # < 1 6 7 s E 6.jXLX",
"LXLXfX| %.| I V g 9 ; o .                                                             LX                                                                                                                                                                                                                                                                                                                                                                                                                    X @ ; 1 9 y g x S T ^ / [ { | #.*.=.4.p.p.a.d.f.x.q.q.7.p.h.C.!./._.5XLXLXLXLXLXLXLXCX<XF.s.4.=.| ] R V g y 9 1 < ; % # @ @ # 1 eX< 1 9 y g S E 5.LXLXLXLX@XN.<.] P h t 6 : @ .                 . X X X , b.SXY.wXLXGX%XT.cXSX+.O         s p   . O # O . . X X .                                     #XLXI.E 9 o                               @ r.LX` ;                                                                             nX                                                                                          X # ; ; ; < q l E ",
"LX<.%.%.{ U V h q : O .                                                               LX                                                                                                                                                                                                                                                                                                                                                                                                                      X O % : 6 q y g x S T W ^ / ] [ | #.%.%.*.=.<.4.4.4.4.6.p.j.M.V.+XLXLXLXLXLXLXKX7X`.j.p.<.*.| ] R B g y 9 1 : % @ O O O O O 0X% : 1 9 t l P ^ oXLXLXLXT.p.=.[ E S s q < % X           X o 2 f.CXKXSXVXCX3.$ . . . : g s 1 .             OX                                                            { LXLXE 1                               . q LXxX6                                                                               pX                ; p 1                                                                     . o O @ # : 6 g ",
"6.=.#.#.U B g t 1 # .                                                                 q.t.                                                                                                                                                                                                                                                                                                                                                                                                                      . X @ % < 7 q p g B S P R W ^ ] [ | | | %.*.=.<.<.4.6.s.s.s.V.VXLXLXLXLXLXcX<X(.d.4.=.%.| ] L B s t 7 1 ; # O o X X X o i.O # : 1 9 y x E [ GXLXLXnX4.#.] E K h t 1 % O .     O ; A 9.xXHX0.u : @ X                                   U.                                                              . CXLXK o                               9 L.LXu                                                                               oXW..         B R.l 1 h D.;                                                                       X o @ : q ",
"M.=.{ / B s t 6 ; o                                                                     CX1                                                                                                                                                                                                                                                                                                                                                                                                                         . O # ; 1 9 t p g x B S L ! / ] [ { | #.%.=.<.4.6.p.p.f.).LXLXLXLXLXhX:X(.f.4.=.#.[ / S l p q 1 : % @ o X . . . @ eXX o # : 1 9 y V W } LXLXLX#X| ] E P x y 6 : ; % % % u c.HXxXb.H %                                           S %                                                                 # LXHXs                               : H LX;.o                                                                               s w.3.=.{ ~             |                                                                           X O : ",
"dX| ^ S s q 6 : @ .                                                                       KX.                                                                                                                                                                                                                                                                                                                                                                                                                         . o @ ; 1 6 9 t s g l B S L Y ~ [ | #.%.*.=.<.<.4.6.b.CXLXLXLXLXhX;XD.a.<.=.| ] I B g y 9 1 : # @ o .       h ... X O # : 6 9 s P ^ ;.LXLXLXH./ E E S h t q A 6._.<XVXHXgXm # .                                               R.                                                                    F LXc.o                             @ k LXH .                                                                                                         g.                                                                            X ",
"!./ K l t 6 : # X                                                                           AX                                                                                                                                                                                                                                                                                                                                                                                                                          . o # ; < 1 9 t y s h x B F L ~ [ | | | %.=.<.4.7.T.LXLXLXLXhX-XF.7.=.%.{ ^ S x s t 7 < ; # O X         r.@     . o # : 1 q l W [ 7.LXLXLX0.^ E C s H oXKXLXsXc.o.0 @ X                                                     3.                                                                    X CXLX6                             X j LXt                                                                                                           O                                                                               ",
"=.W B s 9 : % o                                                                             1 LX.                                                                                                                                                                                                                                                                                                                                                                                                                           o @ % : 1 7 q y s g x V F U ' { | | %.=.4.6.x.2XLXLXLXSX*XD.5.=.#.[ ! V g y q 1 : % @ o .         Z         . O % < 7 p S ] %.A.LXLXLXc.] =.4XHXLXCXH.c 6 # .                                                           h                                                                       / LXS                               k LXq                                                                                                             <                                                                             ",
"[ P h t 1 % O .                                                                               . LXO.                                                                                                                                                                                                                                                                                                                                                                                                                          o @ % : 1 7 q y s l B F U ] [ | | #.%.<.5.b.AXLXLXLX<XF.f.=.| ] R V g t 7 1 ; % O X         t @           . O % 1 q h R %.1.=XLXLXLXLXLXSXxXS.} j 9 # .                                                               9                                                                       g LXW                               u LXu                                                                                                                                                                                           ",
"^ S p 7 : @ X                                                                                     #XwX                                                                                                                                                                                                                                                                                                                                                                                                                        . o @ % < 6 9 t s h B F U ] [ | %.*.=.1.a.S.LXLXLXLX(.a.=.| ] L B g t 7 1 ; @ O X       p p               X @ ; 6 p V ] 1.x.LXLXLXLXLXLX%X%.B q ; O .                                                                 y                                                                       # LX^                               1 LX@..                                                                                                                                                                                         ",
"P x t 1 % o                                                                                         cXX                                                                                                                                                                                                                                                                                                                                                                                                                         X O % : 1 9 t s l V L ^ ] { #.*.<.6.s.f.oXLXLXLXnXs.*.| ] L x g t 7 < % @ o .                           X @ ; 7 g E B.hXLXLXLXLXLXK.;./ l 7 ; @ .                                                                   G                                                                       # LXt                               ; LXsX@                                                                                                                                                                                         ",
"B g 9 : O .                                                                                         . cX                                                                                                                                                                                                                                                                                                                                                                                                                        X O % : 1 9 y g B D / [ { | %.=.6.s.j.B.1XLXLXLX.X<.| ] L B g t 7 : # O X                               X @ : q B [ LXLXLXLXLXLXK.] E l 9 : # X                                                                   X #.                                                                      KXLX                                ; GXLX#                                                                                                                                                                                         ",
"g y 1 % X                                                                                             LX                                                                                                                                                                                                                                                                                                                                                                                                                        . O % : 1 q p x S R / { | %.=.1.6.j.m.D.bXLXLXLXa.| ] I x g t 7 : # O X                               . o # < t V ] LXLXLXLXLXoX[ W B p 7 ; o                                                                     A #                                                                     O LXT                                 ; kXLX@                                                                                                                                                                                         ",
"p q : O .                                                                                             GX                                                                                                                                                                                                                                                                                                                                                                                                                        X O % < 7 t h S I ^ ] { =.3.q.c.b.v.v.R.LXLXLX5X=.] R V g y 9 < % O .                                 . O % 1 t x E &.CXLXLXLX=.W S g t 1 % X                                                                     >.                                                                      S LX7                                 ; GXCXX                                                                                                                                                                                         ",
"t 6 % o                                                                                               cX                                                                                                                                                                                                                                                                                                                                                                                                                        X O % < 9 p B K W ^ ] f.xXLXLXLXLXLXLXLXLXLXLX-.[ R V g y 9 < % O .                                   X O % 1 t x T E ;.LXLXLX| P B p 9 < # .                                                                     3.                                                                      V LXq                                 1 LX0.                                                                                                                                                                                          ",
"9 1 O .                                                                                               H c                                                                                                                                                                                                                                                                                                                                                                                                                       o @ ; 6 t l S R ^ ] 7.LXLXLXLXLXLXLXLXLXLXLXc.[ W S g t 9 < % o .                                     X @ ; 1 t x P E [ KXLXLX{ D x t 1 % o                                                                       #.                                                                      % LXS                                 n LX2                                                                                                                                                                                           ",
"6 ; o                                                                                                   AX                                                                                                                                                                                                                                                                                                                                                                                                                    . O # 1 9 s B P / [ <.VXLXLXLXLXLXLXLXLXLXLXS.[ W D l t 7 : # o .                                       o # : 1 q l K E / LXLXKX] S l q : @                                                                         f.                                                                        LXtX                              : KXzXX                                                                                                                                                                                           ",
"< % .                                                                                                   H r.                                                                                                                                                                                                                                                                                                                                                                                                                  X @ ; 7 y h S ^ { =.%XLXLXLXdX`.D.B.l.k.2.#.[ W K x p 7 : # o .                                       . O % : 7 y B P E ^ LXLXfX] D h 7 ; O                                                                         |                                                                         M.LX:                           X e.LX4                                                                                                                                                                                             ",
"; @                                                                                                       &XuX                                                                                                                                                                                                                                                                                                                                                                                                                o % 1 q g V R { *.b.LXLXLXxXV.g.p.1.=.%.{ ] W K x p 9 : # o .                                         X @ ; 1 q g V P E >.LXLXv./ P g 6 # X                                                                         9 .                                                                         LXu.                          n LXO.                                                                                                                                                                                              ",
"% o                                                                                                         0.LXo                                                                                                                                                                                                                                                                                                                                                                                                           X # < 9 s B R { =.v.xXLXLXLX|.p.<.%.| [ / W P V h y 7 ; @ X                                           . O % : 6 t l D E / AXLXLX5.^ K p < O                                                                             *.                                                                        s.LX.                       r LXAX%                                                                                                                                                                                               ",
"O .                                                                                                             fX;                                                                                                                                                                                                                                                                                                                                                                                                         O ; 7 p x I { =.k.@XLXLXLXLXj.=.| ] / I S x g y 9 1 ; O X                                             X @ ; 1 9 p x P E =.LXLXLXN.^ S t ; o                                                                             s.                                                                        . LX^                     o LXLXd                                                                                                                                                                                                 ",
"X                                                                                                                 sX.                                                                                                                                                                                                                                                                                                                                                                                                     X % 6 y l D / %.p.@XcXLXLXLX).=.| ] ! D x s y q 6 : % O X                                             X O % 1 7 t s V E E *.LXLXLXjX/ V 9 # X                                                                             o Y                                                                         d.LX6                   f LXO..                                                                                                                                                                                                 ",
".                                                                                                                   CX                                                                                                                                                                                                                                                                                                                                                                                                    O : t l D E | 7.OXLXLXLXLXbX%.{ ] R S x s t 9 1 ; # O .                                             . O # : 6 q y h D E ^ *.VXLXLXLX^ h 6 @                                                                                 D.                                                                        o LXiX#               > LXSX%                                                                                                                                                                                                   ",
"                                                                                                                    q.j                                                                                                                                                                                                                                                                                                                                                                                                 X % 6 s S E | OXLXLXLXLXLXVX=./ ^ W S x s t 7 1 ; @ o .                                             . o # ; 1 9 t s x P ^ / =.CXLXLXCXE y : o                                                                                 7.                                                                          *.LX/             X 9XLXe                                                                                                                                                                                                     ",
"                                                                                                                      AX                                                                                                                                                                                                                                                                                                                                                                                                o ; q l T | LXLXLXLXLXLXR.| / W E D x s q 6 : % @ X                                               . o @ % < 7 t p h S ^ / [ H.LXLXAX%.l 6 # .                                                                                 2.                                                                            jXLX#           r LXn                                                                                                                                                                                                     S ",
"                                                                                                                      nXO                                                                                                                                                                                                                                                                                                                                                                                             X # 1 p V ^ `.LXLXLXLXxXx.| ^ W E K x s q 6 : % @ X                                                 o @ % : 1 q s l S R ] [ ;.LXLXLX7.E t : O                                                                                   W                                                                             @ LX0.        O LXCXO                                                                                                                                                                                                 L.LXjX",
"                                                                                                                      q W.                                                                                                                                                                                                                                                                                                                                                                                            o % 7 g T %.SXLXLXLX=Xp.#.] ^ E K B g t 7 < % @ X                                                 X @ ; 1 7 t p x D W ] { 1.bXLXLXxX[ g 1 # .                                                                                 s                                                                                 =XLX        e.LXe                                                                                                                                                                                               . LXLX1   ",
"                                                                                                                        @X6                                                                                                                                                                                                                                                                                                                                                                                         . O ; q B ^ 2.LXLXLX8Xp.=.{ / W P V g t 7 < % @ X                                                 X @ ; 1 t g x D T W { #.q.CXLXLXLX;.P 7 % o                                                                                   &.                                                                                I LX      @ LX,.X                                                                                                                                                                                             H LXlX      ",
"                                                                                                                          sX6                                                                                                                                                                                                                                                                                                                                                                                       X # < t S | F.LXLXLXk.=.#.] ^ P B g t 7 < % @ o                                                 o # ; 1 t B P W { | ;.w.#XLXLXLXLXc.E t ; o                                                                                     >.                                                                                h LX:     O.LX0                                                                                                                                                                                             Y.LXt         ",
"                                                                                                                            $XI.                                                                                                                                                                                                                                                                                                                                                                                    O % 1 s P %.bXLXLXjXp.=.{ / R S h p 9 1 ; # o .                                               X # : 1 t D E [ F.GXLXLXLXLXLXLXLXxX^ y ; O                                                                                       5.                                                                                O LXs     yXHX;                                                                                                                                                                                           H.LXX           ",
"                                                                                                                              A LXI.B x V l p o                                                                                                                                                                                                                                                                                                                                                                   . @ ; 7 g E | LXLXLX).a.%.[ ^ D x p q 6 : % O X                                               X # : 6 t S ] OXLXLXLXLXLXLXLXLXLXsX[ p % o                                                                                         H                                                                                   LXE     bXE.X                                                                                                                                                                                         j LX;             ",
"                                                                                                                                  ` K.9._ z _ H.jXcX@.                                                                                                                                                                                                                                                                                                                                                            X # < 9 x W %.LXLXLXF.4.#.] R V g y 7 1 ; @ X                                               X @ : 7 y D { xXLXLXLXLXLXLXLXLXU./ D y % o                                                                                             |                                                                                 LX&.    VX3.                                                                                                                                                                                        t LXB               ",
"                                                                                                                                                    I.nX                                                                                                                                                                                                                                                                                                                                                          o % 1 t V W -.LXLXLXS.6.| / K x p t 6 < % O X                                             X @ ; 6 y S | dXLXLXLX%Xx.;.} / W K h 9 ; o                                                                                               B.                                                                                LXiX    AXq.                                                                                                                                                                                      x LXP.                ",
"                                                                                                                                                      V xX                                                                                                                                                                                                                                                                                                                                                      . O ; 7 p D ^ #.LXLXLX`.4.| ^ D l p 9 1 ; # o .                                           X @ ; 1 t S ] %XLXLXLXK.%.^ E D V h y 6 ; o                                                                                                 f.                                                                                SXLX    SX7.                                                                                                                                                                                    F LX)                   ",
"                                                                                                                                                        dXo                                                                                                                                                                                                                                                                                                                                                     X # : 9 s P ^ =.HXLXLXjX1.| ^ D h y 7 < % @ X                                           . O % 1 q x W b.LXLXLXc.] E S x s t 7 < # X                                                                                                   z.                                                                                T.LX  . KX@.                                                                                                                                                                                  zXLX:                     ",
"                                                                                                                                                        6 L.                                                                                                                                                                                                                                                                                                                                                    o % 1 9 g T [ <.*XLXLXLX$.[ ^ D g t 6 : % O .                                         . O % < 7 l E c.LXLXLXbX[ E x y 9 1 : # o                                                                                                       b.                                                                                =.LX  + LXb                                                                                                                                                                               s LXFX                        ",
"                                                                                                                                                          hX                                                                                                                                                                                                                                                                                                                                                  . O ; 1 t g R | 6.F.LXLXLX| ] ^ S g t 6 : # O .                                       . O % : 6 s T w.LXLXLXGX%.P g 7 : % @ o                                                                                                           q.        1 X                                                     O D =.<.A O     U.LXO +.LXi                                                                                                                                                                             LXLXh                           ",
"                                                                                                                                                          z G                                                                                                                                                                                                                                                                                                                                                 X # : 7 y x / %.f.T.LXLXAX%.] W V h t 6 : # O .                                     . O % : 1 p D w.LXLXLX1X[ K s 1 % O X                                                                                                               S         z w.-.] I ~ _ C C U S P %.%.| -.2.%.^ / g             1 <.O     O %.F _ LXLX{./.<Xv.                                                                                                                                                                          LXJX                              ",
"                                                                                                                                                            =Xb           9 G g                                                                                                                                                                                                                                                                                                                               o % 1 9 s V [ *.f.bXLXLXCX*./ E V g t 1 : % O .                                   . O % : 1 t S 0.LXLXLXK.E V y < @ X                                                                                                                 7.                                                  . F l o   . 6 %.@         . 7 q LXt.. 9 x.dX                                                                                                                                                                        LXMX                                ",
"                                                                                                                                                              #XKXuXyXcXjXH 7 -.yXaXcXxXnXgX_                                                                                                                                                                                                                                                                                                               X @ ; 6 t l I { *.q.LXLXLXhX=.^ T B g q 6 : # O X                                 X O % 1 7 t V 0.LXLXLXY.P h 9 ; O .                                                                                                                 7                                                         o { =.] 1                 o LXS   1 HX@.                                                                                                                                                                      #.LX                                  ",
"                                                                                                                                                                                            g $Xs                                                                                                                                                                                                                                                                                                           o % < 9 s V / #.=.x.LXLXLX;X<.^ P x s q 1 : # O X .                           . X @ % 1 7 t B 0.LXLXLX6XP p 1 % o                                                                                                                     W                                                                                   g LX#   b KX+                                                                                                                                                                     O LXF                                   ",
"                                                                                                                                                                                                y.g                                                                                                                                                                                                                                                                                                       . @ : 7 y x P { *.<.A.LXLXLX~.=.^ K x s 9 1 : # @ o X .                     . X O @ % 1 9 g S >.LXLXLXc.D y 1 # X                                                                                                                     y                                                                                     &XLX    >.8X                                                                                                                                                                    @ LXy                                     ",
".                                                                                                                                                                                                 nX                                                                                                                                                                                                                                                                                                      o % 1 t l S ^ | =.a.fXLXLXLXf.| W D l y 9 1 : % # O o X X . .       . . X o O @ % ; 6 y V E >.LXLXLX:.B 9 : @ X                                                                                                                       K                                                                                     LXr.    L.q.                                                                                                                                                                  Y LX6                                       ",
"E.                                                                                                                                                                                                : Q.                                                                                                                                                                                                                                                                                                  . @ : q g V R [ *.<.v.LXLXLXCX5.{ E D x s t q 7 1 < % % @ O o o X o O O # @ # % < 6 q l D ' E.LXLXLXOXg < % o .                                                                                                                         t                                                                                   l LX:     dXb                                                                                                                                                               l LXLXO                                         ",
"LX#                                                                                                                                                                                                 1 AXJ.#                                                                                                                                                                                                                                                                                             o % 7 s B I ] #.=.6.&XLXLXLXT.=.[ E K V l s y t 9 7 < : % ; % % % ; ; : ; : 1 7 t s F &.nXLXLXLXLXSXc ; X .                                                                                                                             1                                                                                   kXLX      cX1                                                                                                                                                             LXLXP.                                            ",
"LXI.                                                                                                                                                                                                      J.CXjXS                                                                                                                                                                                                                                                                                     X # 1 y x P ] | %.1.R.LXLXLXGXf.#.] E P S x h g p t q 7 6 7 7 6 1 1 6 7 9 q s -.%XnXLXLXLXLXLXLXKXS.j % .                                                                                                                                 l                                                                                   LXt.      aXa                                                                                                                                                           LX9X                                                ",
"M.LX                                                                                                                                                                                                            : cXQ.                                                                                                                                                                                                                                                                              . O : 9 h K ^ { #.=.Y.LXLXLXLXoX1.{ ^ E T D V B x x l l l h l l g g g h l V [ H.LXLXLXLXLXLXLXW._ s 1 O                                                                                                                                     W                                                                                 x LXO     . qXH                                                                                                                                                         LXi.                                                  ",
"  CXo.                                                                                                                                                                                                                wXO                                                                                                                                                                                                                                                                           o ; 7 g D ^ [ #.=.K.LXLXLXLXLXv.#.^ W E T K D S F ^ $.c.#XbXpX;.{ ] / ' 9.8XCXLXLXHXKXyX0.' a 1 # X                                                                                                                                         ]                                                                                 LXeX      . t.g.                                                                                                                                                      LXLX                                                    ",
"  @ LX                                                                                                                                                                                                                  tX                                                                                                                                                                                                                                                                        X % 7 g S W [ | =.K.LXLXLXLXLX7Xp.[ W E T P T E 7.LXLXLXLXLXLXLXLXGXHXLXLXLXLXLXLXLX$XtX| s 1 @ .                                                                                                                                             T                                                                               v.LX#         ..|.                                                                                                                                                    ` LX                                                      ",
"    ).b                                                                                                                                                                                                                   iX                                                                                                                                                                                                                                                                    . # 1 s S E / [ =.R.LXLXLXLXLXKXC.*.] E E T E ^ f.SXLXLXLXAXaX%XbXLXLXLXLXLXLXSX&XA.-.D y 1 @ X                                                                                                                                               1 .                                                                               KXLX        O i.(.                                                                                                                                                    LXZ                                                       ",
"    @ GX                                                                                                                                                                                                                  DX                                                                                                                                                                                                                                                                  . O < y B T W / ;.bXLXLXLXLXLXhXN.%.[ W E E E ' L.AXLXLXH.&.] ! R | 7.hX%X9.U z s y 9 1 ; @ .                                                                                                                                                   W                                                                                 KXi.        w LXw                                                                                                                                                   wXLX                                                        ",
"      VXs                                                                                                                                                                                                                 0X                                                                                                                                                                                                                                                                  o ; q h D E / c.LXLXLXLXLXLXOXs.#.[ ^ E E E y.LXLXLXLXxX! B g p p g l h y 9 : % @ o X .                                                                                                                                                         P                                                                                 LXu.      . qXsX.                                                                                                                                                   LX#                                                         ",
"      t AX                                                                                                                                                                                                              JX                                                                                                                                                                                                                                                                  . # 7 s V E / K.LXLXLXLXLXSXoX4.%.[ ^ W E ^ #XLXLXLXVX9.S g y 9 6 1 < : % O X X .                                                                                                                                                               $.                                                                                  LXu.      < LX=                                                                                                                                                   tXJX                                                          ",
"        LX:                                                                                                                                                                                                         H t.                                                                                                                                                                                                                                                                    o < y x P / c.LXLXLXLXLXxX).6.| ] ^ E E ^ 2XLXLX$X .D l p t 6 : # O o X .                                                                                                                                                                       g                                                                                   LXr.      $.H.                                                                                                                                                  kXLX                                                            ",
"      g 7XLX#                                                                                                                                                                                     ; :.J.>.w.w.9.' 6                                                                                                                                                                                                                                                                       X # 9 h D ^ 2.LXLXLXLXLX<XZ.p.%./ W E P E a.LXLXW./ S p q 9 1 ; @ X                                                                                                                                                                             W                                                                                     LXu.      aXA                                                                                                                                                 K.LX                                                              ",
"          P HXr.                                                                                                                                                                          o ` L.>.O                                                                                                                                                                                                                                                                                       O < y V W #.=XLXLXLXSX`.h.1.#.] W W T P E -XLXLXb.D s q 1 ; # O .                                                                                                                                                                               T                                                                                     fXLX      HX6                                                                                                                                               x LXZ                                                               ",
"            @ <XtX                                                                                                                                                                      3.;                                                                                                                                                                                                                                                                                             X % 7 h P ] 5.LXLXLXLXoXg.<.#.[ / E K D K E T.LXCX<.g q < # o .                                                                                                                                                                                   {                                                                                     s LX:     GX1                                                                                                                                               LXrX                                                                ",
"              o bXH                                                                                                                                                                                                                                                                                                                                                                                                                                                                   . @ 1 y V ^ *.6XLXLXLX5Xn.<.| { / ^ T S S D E 3.LXbX/ p 1 # o                                                                                                                                                                                       P                                                                                       GXLX    R.`                                                                                                                                             R LX                                                                  ",
"                g LX                                                                                                                                                                                                                                                                                                                                                                                                                                                                  O ; 9 g K ] 4.LXLXLXbXC.4.| [ ] W W E K S D E &.LXnXU 7 ; O .                                                                                                                                                                                       S                                                                                       / LX    i dX.                                                                                                                                           CXq                                                                   ",
"                  LX%                                                                                                                                                                                                                                                                                                                                                                                                                                                               X % 1 y B ^ %.).LXLXLX(.s.%.[ / ^ E P D S V D E t.LXjXC < @ .                                                                                                                                                                                         q                                                                                       6 LX    . 8Xe                                                                                                                                           LX                                                                    ",
"                  xXA                                                                                                                                                                                                                                                                                                                                                                                                                                                             . @ : 7 s D ] 4.bXLXLXLXk.1.#.] W T T D B h l D ] LXLXb.s ; o                                                                                                                                                                                           V                                                                                       l LX      @.+X                                                                                                                                        &XmX                                                                    ",
"                  :.L.                                                                                                                                                                                                                                                                                                                                                                                                                                                            o % 6 t x ^ { f.LXLXLXAXn.=.| / P D S B x h x E t.LXLX! 9 # .                                                                                                                                                                                           S                                                                                       xXiX      2 xX                                                                                                                                      O LX                                                                      ",
"                  # LX                                                                                                                                                                                                                                                                                                                                                                                                                                                          X # < 9 s S ] #.z.LXLXLX5Xg.%.{ ^ P D V l l V T :.LXLXJ.V 1 O                                                                                                                                                                                             |                                                                                     < LX6       X CX                                                                                                                                      LXt                                                                       ",
"                    7XO.                                                                                                                                                                                                                                                                                                                                                                                                                                                      X @ ; 7 y x R { =.V.LXLXLX`.p.%.[ W P D V x V P :.LXLXSX/ p %                                                                                                                                                                                               W                                                                                   q LXLX        O cX                                                                                                                                    yXLX                                                                        ",
"                      LX1                                                                                                                                                                                                                                                                                                                                                                                                                                                   . O ; 1 t g S / #.1.).LXLXLX).1.#.{ W P S D D ' uXLXLXLX&.x < X                                                                                                                                                                                               V                                                                                   VXLXo         1 cX                                                                                                                                    yXJX                                                                        ",
"                      X LX:                                                                                                                                                                                                                                                                                                                                                                                                                                               . O % 1 q s B T { =.d.-XLXLXLX+X=.| [ W E E ' 2XLXLXLXR.] B 7 O                                                                                                                                                                                                                                                                                   &.LXeX          B R.                                                                                                                                    s LX                                                                        ",
"                        1 LXk                                                                                                                                                                                                                                                                                                                                                                                                                                           . O % 1 9 p x D ^ %.p.F.5XLXLXLX|.1.{ / ] &.gXLXLXLXLXLX} B 1 @                                                                                                                                                                                                     ]                                                                             1 LXNX            #.0.                                                                                                                                      LXO                                                                       ",
"                          ; KXLXq                                                                                                                                                                                                                                                                                                                                                                                                                                     . O % < 9 p x D ^ | 4.Z.=XnXLXLXLX|.=. .0.HXLXLXLXcXt.t.LX[ t @ .                                                                                                                                                                                                     o q                                                                           LXHX              ~.G                                                                                                                                       I W.                                                                      ",
"                              . w.aXHXKXLXLXs                                                                                                                                                                                                                                                                                                                                                                                                                       . O % < 9 s x K ^ { =.h.+XsXLXLXLXLXfXaXLXLXLXLXfXw.%.E ^ LX&.6 X                                                                                                                                                                                                         y 1                                                                       =.LX                1.=.                                                                                                                                      : LX                                                                      ",
"                                          : wXwX                                                                                                                                                                                                                                                                                                                                                                                                                  . O % 1 q s B P / { *.p.~.8XLXLXLXLXLXLXLXLXKXOX&.W D B V F LX7.6                                                                                                                                                                                                             6 t                                                                     LXp                 1 .XX                                                                                                                                       LX                                                                      ",
"                                              | uX                                                                                                                                                                                                                                                                                                                                                                                                              X @ ; 1 t g V T / { %.4.!.4XLXLXLXLXLXLXnX7Xc.$.W K l s y s g LX>.9                                                                                                                                                                                                               7                                                                   `.LX                    Z.i                                                                                                                                       jXZ                                                               o     ",
"                                                Q.k                                                                                                                                                                                                                                                                                                                                                                                                         X O # : 7 y l D ^ { %.=.6.~.xXLXLXLXLXLXLXKXD.*./ E V g y q 7 7 q LX:.t                                                                                                                                                                                                                 p                                                                 :XLX                    , <XX                                                                                                                                     6 LXt                                                                   ",
"                                                  LX                                                                                                                                                                                                                                                                                                                                                                                                    . o # ; 1 q g V P W { =.s.M.~.SXLXLXLXLXLXLX8Xz.{ W E B p 9 1 : % % 1 LXL.y                                                                                                                                                                                                                 E                                                                 ` LX                      5.a                                                                                                                                       q LX:.                                                                ",
"                                                  1.P.                                                                                                                                                                                                                                                                                                                                                                                                X @ % < 9 y h D E ^ ] =.h._.).bXLXLXLXLXLXLX*X6.[ E P x p 9 1 : % o X : P.LXA o                                                                                                                                                                                                               E                                                                 : LX1                     6 +X                                                                                                                                        # LX_                                                               ",
"                                                    7XwX                                                                                                                                                                                                                                                                                                                                                                                          X O % < 6 t g B K W ^ W =.).dXKXLXLXLXLXLXLXLX.X6.[ E D h t 9 < : @ X .   O a LXY.;                                                                                                                                                                                                               g                                                                   LX[                     < T.                                                                                                                                          h LXO                                                             ",
"                                                      9 nXCX` O                                                                                                                                                                                                                                                                                                                                                                               . o # : 6 q p l D ^ ] [ ] %.LXLXLXLXLXLXLXLXLXLXnXp.[ E S g t 7 < % # X .     . : OXAX;                                                                                                                                                                                                             R                                                                     AXE.                    l %.                                                                                                                                            #.LX                                                            ",
"                                                            0.KXLXA                                                                                                                                                                                                                                                                                                                                                                         X @ % 1 q p h V ! { #.=.<.1.=XLXLXLXLXLXLXLXLXLXLX5.^ E S g t 6 : % O .           o k LXa                                                                                                                                                                                                           . q                                                                     GXtX                    6.7                                                                                                                                               LX1                                                           ",
"                                                                O P...                                                                                                                                                                                                                                                                                                                                                                  X O % 1 q s x S ! ] #.4.s.h.M.).LXLXLXLXLXLXLXLXLX*X=.W E S g t 1 ; @ o                 : LX&.X                                                                                                                                                                                                         (                                                                       LXu.                    -XX                                                                                                                                               : LX                                                          ",
"                                                                    R.#                                                                                                                                                                                                                                                                                                                                                             . o # < 9 s x D W ^ ] | <.N.`.*X5XLXLXLXLXLXLXLXHX).<.[ E T B g q < % O .                   O aX&X@                                                                                                                                                                                                         E                                                                       LX(                     5X                                                                                                                                                  y LXZ                                                       ",
"                                                                      LX                                                                                                                                                                                                                                                                                                                                                        . o # : 7 p x K W ^ / | &.;.x.@XCXLXLXLXLXLXLXLXLX<XV.%./ E K x p 9 : # o                         H LX%                                                                                                                                                                                                       .                                                                         LXu.                    4XX                                                                                                                                                     nXGX                                                    ",
"                                                                      y iX                                                                                                                                                                                                                                                                                                                                                  . o @ ; 1 t g S W ] #.<.T.LXLXLXLXLXLXLXLXLXLXLXLXLX:XC.=.^ T V g t 1 % o .                           : LXb                                                                                                                                                                                                       S                                                                         4XLX                    F.q                                                                                                                                                       7XHX                                                  ",
"                                                                        $X9X                                                                                                                                                                                                                                                                                                                                          . X O # ; 1 9 p x P W { 1.B.dXLXLXLXLXLXLXLXLXLXLXLXLXLX<Xh.*.^ D h y 7 : @ X                               @ AX3X.                                                                                                                                                                                                   t                                                                           =.LX                    G 1.                                                                                                                                                        LX6                                                 ",
"                                                                          -.LXZ                                                                                                                                                                                                                                                                                                                               . X o o @ # : 1 7 y g B T / %.x.bXLXLXLXLXLXLXLXLXLXLXLXLXLXLX>X4.{ T B s q 1 % o .                                 @ NXdX.                                                                                                                                                                                                   B                                                                           S LX                    o 7Xo                                                                                                                                                       6.LX                                                ",
"                                                                              G vXX                                                                                                                                                                                                                                                                                                                     X o O @ @ % : 7 y g s g x S E { c.GXLXLXLXLXLXLXLXLXLXLXLXLXLXhX(.2.#.^ K l t 7 : # X                                     X vXT.                                                                                                                                                                                              X y B                                                                             t LX:                     H l                                                                                                                                                         LX                                                ",
"                                                                                  OXVX                                                                                                                                                                                                                                                                                                    . . o # % O @ # % ; ; : 7 p ~ q.;.[ P P W #.R.LXLXLXLXLXLXLXLXLXLXLXLXLX<Xl.<.| / E V s q < % o                                         . cX3.                                                                                                                                                                <  ...[ D             h x                                                                                       9 LXoX                    o f.#                                                                                                                                                       LX9                                               ",
"                                                                                    : LX:                                                                                                                                                                                                                                                                                   . . . X X o O ; 9 z [ / j t q 7 7 9 g &.jXLXLXLXLX0.] <.T.LXLXLXLXLXLXLXLXLXLXLXLX5XN.<.| / E K l y 6 ; @ X                                             KXG                                                                                                                                                               P g           y T | %.;                                                                                           @ VXcX                      # p.                                                                                                                                                      h wX                                              ",
"                                                                                      # zX                                                                                                                                                                                                                                                                            % 6 p C g t 9 1 1 t H dXLXLXLXLXSX9.B l D y.LXLXLXLXLXLXLXY.hXLXLXLXLXLXLXfXcX8X;X_.V.f.<.{ ^ E K l p 9 1 % o                                                 LXu                                                                                                                                                             [                                                                                                                     KX/                         C :                                                                                                                                                       LXX                                             ",
"                                                                                        LX                                                                                                                                                                                                                                                                        X u J.LXLXLXLXLXQ.} G 0.LXLXLXLXLXLXLXLXyX&.Q.LXLXLXI.3.T.LXLXLXLXLXLXLXLXLXLXLXAXD.g.4.%.{ ^ E P B g t 1 ; O .                                                 . LX<                                                                                                                                                           {                                                                                                                       LXp                         @ 2.                                                                                                                                                      O LX                                            ",
"                                                                                        AX                                                                                                                                                                                                                                                                      X d LXLXLXLXLXLXLXLXLXLXLXLXLX:._ _  .yXLXLXLXLXLXLXr.E T E } tXLXLXVXT.x.f.b.LXLXb.*.| ] ^ T K B g y 7 : @ .                                                     O KXO                                                                                                                                                         D X                                                                                                                       HX)                         . H.                                                                                                                                                        6 LX.                                         ",
"                                                                                        t.                                                                                                                                                                                                                                                                    o y kXLXVX0.` G A _ E.LXLXLXyXb p q q y V y.LXLXLXgX` l s s h V P R ^ ^ E E E -.LXLX-.W P S V x h p 9 < % o                                                         j pXX                                                                                                                                                         :.                                                                                                                        fX9X                        o -.                                                                                                                                                          <.LX                                        ",
"                                                                                        : A                                                                                                                                                                                                                                                                 @ t :.LXLX>.S g y t t p g G j q 1 ; % % ; 1 p B F h t 9 6 6 7 9 9 t p h B D T E | LXLX$.P x g s y 9 1 ; O .                                                           4.$XX                                                                                                                                                         9                                                                                                                         h.LX                        1 <                                                                                                                                                             LX                                        ",
"                                                                                          kX                                                                                                                                                                                                                                                            X ; s ..LXLXgXB t 7 < ; % % % % @ O O O X X X O @ @ # @ @ # % % ; : : 1 6 q p l S T ] LXLX| V p t 9 6 : # X                                                               6.xX$                                                                                                                                                       X o                                                                                                                         1 LX                        t                                                                                                                                                               LX                                        ",
"                                                                                          q.1                                                                                                                                                                                                                                                       . @ 9 B :.LXLXLXb 7 % O X . . . . .     .             . . . . X X O @ % # # # ; 1 9 s V ^ LXLX| h 9 1 : % O .                                                                 2 jX1.                                                                                                                                                        1                                                                                                                           bXKX                      @                                                                                                                                                               LX                                        ",
"                                                                                            jX                                                                                                                                                                                                                                                  X % 1 s } L.LXLXLXJ < O .                                             . X O @ @ @ @ ; 6 t x ! LXLX{ p < ; # o                                                                       <.8X                                                                                                                                                        p                                                                                                                           % LXr.                      .                                                                                                                                                             LX                                        ",
"                                                                                            @..                                                                                                                                                                                                                                           X % : y G >.xXLXLXLXLXn ; .                                                     . X o O O # : 9 l ^ LXLX^ 9 # @ o                                                                         > GX.                                                                                                                                                       K                                                                                                                             I LXK                     9                                                                                                                                                             LX                                        ",
"                                                                                            ; 1                                       .                 . # t a 7 o                                                                                                                                                                   X 1 H vXLXLXLXLXLXLXLXW.u #                                                               X o O ; 6 x ' LXLXR : o                                                                             % GX.                                                                                                                                                       ^                                                                                                                               D LXFX                  g                                                                                                                                                             LXx                                       ",
"                                                                                            o 6                               % ,.nXLXLXCX4         w uXLXLXLXLXLXLXO.                                                                                                                                                          . @ < k iXLXLXLXLXLXLXrX..1 %                                                                       o # 6 V y.LXfXs o                                                                               0 GX                                                                                                                                                        W                                                                                                                                 s HXLX                x                                                                                                                                                             F.KX                                      ",
"                                                                                            . :                   O 9 h p q O.LXLXf o & I.LXy.w w P.LXnX4 O o o % N LXM                                                                                                                                                 o @ % 1 t h >.HXLXHXu.:. .z 1 # .                                                                           o ; y R LXLXf.9                                                                                 A bX                                                                                                                                                        t                                                                                                                                   : LXt.                                                                                                                                                                            O LX;                                     ",
"                                                                                            q               X u.LXLXkXL.tXCXzX8.+         d AXLXLXGXm X             n LXn X                                                                                                                                       X ; j >.yXcXuXtXVXLXLXSXd 7 1 % X                                                                                 O 9 S r.LXLXL ;                                                                                 A cX.                                                                                                                                                                                                                                                                                             =.LX                                                                                                                                                                              <X^                                     ",
"                                                                                            :.              e.LXf X                           .                       N LXH.$       . > >.#XhXbXyXH .                                                                                                           e lXLXLXLXLXLXLXLXLXLXQ.0 o                                                                                         : l :.LXLX:.s o                                                                                 < cXX                                                                                                                                                         s                                                                                                                                   : LX@                                                                                                                                                                             y >X                                    ",
"                                                                                            9X            * LX-                                                         r SXLXuXP.wXKXLXLXKXvXBXLXLX0..                                                                                                     . O.LXLXLXeX:.G G ' } U 7 #                                                                                           X y :.LXLXK.l %                                                                                   . jX>                                                                                                                                                         I                                                                                                                                     LXV                                                                                                                                                                               CX                                    ",
"                                                                                          # 9           X mXn                                                             @ 0.GXLXLXuXJ # X . . $ r.LXn .                                                                                                   t LXLXP.A q ; O X O X                                                                                                 %  .LXLXL.V 1                                                                                       m.=.                                                                                                                                                        /                                                                                                                                     LXE                                                                                                                                                                               dXp                                   ",
"                                                                                          eX            n ZX.                                                                 . X X               % I.LXt.8 @ O ; i 0.L.H.O.@                                                                             : t.LXwXx %                                                                                                             : HXLX&XT 9 .                                                                                       i bX,                                                                                                                                                       P                                                                                                                                     LXE                                                                                                                                                                               _ S.                                  ",
"                                                                                        t p           5 LX-                                                                                         ; I.LXLXLXLXLXLXLXLXLXLXLXf                                                                         % b LXLXH %                                                                                                               6 LXLX} y o                                                                                         . |.>X                                                                                                                                                      p                                                                                                                                     LXE                                                                                                                                                                               . bX                                  ",
"                                                                                        iX          5 LXr                                                                                               ; H 9.,.u # o o O r GXLXr                                                                   o 1 H mXLXQ.;                                                                                                                 c LXVXV %                                                                                             4 LXo                                                                                                                                                     V                                                                                                                                     LX..                                                                                                                                                                              O CX                                  ",
"                                                                                      iX          r LXf                                                                                                                     e LXLX,                                                         X # 1 7 k 0.LXLXKX,                                                                                                                 O y.LX:.9 .                                                                                             . CXi                                                                                                                                                     S                                                                                                                                     LXe.                                                                                                                                                                                AX                                  ",
"                                                                                    6         . f LX5                                                                                                                         f LXQ.,     . . o : :                                       2 I.LXLXLXLXLXLXzX4                                                                                                                   O qXLXL @                                                                                                 #XH                                                                                                                                                     O                                                                                                                                     HX0X                                                                                                                                                                              H z.                                  ",
"                                                                                    r.      * rXiX=                                                                                                                             n LXKXu.t.E.SXLXLXLX,..                             X : M LXLXLXKXLXKXW.w X                                                                                                                     O W.LXW o                                                                                                 1.%.                                                                                                                                                  #                                                                                                                                       p.LX                                                                                                                                                                              @Xg                                   ",
"                                                                                    P.  . f FXw .                                                                                                                                 n HXLXLXLXLXqXt.HXLXn X                         8 I.LXLXLXt.G g 9 % X                                                                                                                         @ y.LXW .                                                                                                 U %.                                                                                                                                                  g                                                                                                                                         LXp                                                                                                                                                                             dX%                                   ",
"                                                                                    P.O eX9X$                                                                                                                                       @ : ; # O O O 8 wXLX8.1 o                 # ,.LXLXLXkXd 1 X                                                                                                                                 O  .LX%.X                                                                                                 G V.                                                                                                                                                  x                                                                                                                                         A LX                                                                                                                                                                            4X;                                   ",
"                                                                                    E.u.t.#                                                                                                                                                         6 W.LXSXr.0 @ o       % e AXLXLXt.c :                                                                                                                                       O G LXq.X                                                                                                 q.v.                                                                                                                                                  K                                                                                                                                           dXZX                                                                                                                                                                          C.c                                   ",
"                                                                                    W.LX$                                                                                                                                                             7 I.LXLXLXLXqXH a H W.LXLXLXL.q                                                                                                                                           % r.LX/                                                                                                 . CXo.                                                                                                                                                  s                                                                                                                                             LX:.                                                                                                                                                                        g U.                                  ",
"                                                                                  : DXr                                                                                                                                                                 : F >.tXLXLXLXLXLXLXLXwXw @                                                                                                                                             6 LXLX<                                                                                                 5 LXo                                                                                                                                                   x                                                                                                                                             l LX                                                                                                                                                                          CX                                  ",
"                                                                                  i.P.                                                                                                                                                                      X @ % 9 G 0.0.c % .                                                                                                                                               o J LXH..                                                                                               + CXO.                                                                                                                                                    t                                                                                                                                               LXHX                                                                                                                                                                        ;Xy                                 ",
"                                                                                5 LX@                                                                                                                                                                                 X X                                                                                                                                                     r LXLX2                                                                                                 J.q.X                                                                                                                                                                                                                                                                                                     x LX                                                                                                                                                                          LX                                ",
"                                                                            X n KX0X                                                                                                                                                                                                                                                                                                                                        7 GXLXO.                                                                                                4 pX#                                                                                                                                                         S                                                                                                                                               LX%.                                                                                                                                                                        *.LX;                             ",
"                                                                          ; MXr.:.                                                                                                                                                                                                                                                                                                                                        ; 9XLXE.<                                                                                               . nX=                                                                                                                                                           X                                                                                                                                               1.LX                                                                                                                                                                          ^ LXI.                          ",
"                                                                      + qX..@   0X                                                                                                                                                                                                                                                                                                                                      O r.LXGX0                                                                                                 i 3.                                                                                                                                                              1                                                                                                                                             y LX                                                                                                                                                                              z.W.                        ",
"                                                                    3 MX$     ..                                                                                                                                                                                                                                                                                                                                      X J LXLXr                                                                                                   GX8                                                                                                                                                                 ;                                                                                                                                             LX%                                                                                                                                                                               d.h                       ",
"                                                                  o DX*       u.                                                                                                                                                                                                                                                                                                                                      O.LXLXf                                                                                                   O SXX                                                                                                                                                                   #                                                                                                                                           4XmX                                                                                                                                                                                LX                      ",
"                                                                  ) b       9X                                                                                                                                                                                                                                                                                                                                      r LXLXf                                                                                                     g E.                                                                                                                                                                      ;                                                                                                                                         . LXy                                                                                                                                                                               xXB                     ",
"                                                                % 9XX     O p                                                                                                                                                                                                                                                                                                                                     o LXLXn X                                                                                                     Y [                                                                                                                                                                         O                                                                                                                                         C LX#                                                                                                                                                                             f.P.                    ",
"                                                              # qX@       r.                                                                                                                                                                                                                                                                                                                                      M LXO.;                                                                                                       U y                                                                                                                                                                         1                                                                                                                                           <.LXt                                                                                                                                                                           F zX                    ",
"                                                            < 9X@         X.                                                                                                                                                                                                                                                                                                                                    o LXCX9                                                                                                         _ 9                                                                                                                                                                                                                                                                                                                       n.LXX.#                                                                                                                                                                       . GX                    ",
"                                                        ; 9Xz X         t.                                                                                                                                                                                                                                                                                                                                      w LX0.@                                                                                                         K.o                                                                                                                                                                                                                                                                                                                         { LXLXLXLXLXT                                                                                                                                                                 KX                    ",
"                                                    # u.( O             eX                                                                                                                                                                                                                                                                                                                                    . 0XLXj                                                                                                         & aX                                                                                                                                                                                                                                                                                                                                  # T LXLXO                                                                                                                                                             8Xo                   ",
"                                                  9 r.#               r.                                                                                                                                                                                                                                                                                                                                      # LXLXO                                                                                                       $ uX,                                                                                                                                                                                                                                                                                                                                         KXLX                                                                                                                                                              #X                  ",
"                                                : r.#                 ZX                                                                                                                                                                                                                                                                                                                                      N LX0.                                                                                                      & W.o.                                                                                                                                                                                                                                                                                                                                            nXLXo                                                                                                                                                           OXL.                ",
"                                              X u.#                   P.                                                                                                                                                                                                                                                                                                                                    > LXLX%                                                                                                   . e VXo.                                                                                                                                                                                                                                                                                                                                                =.LXV                                                                                                                                                           jXCX              ",
"                                              s %                     P.                                                                                                                                                                                                                                                                                                                                  . i.LXM                                                                                                   $ tX&X,                                                                                                                                                                               O                                                                                                                                                                     @ LX(                                                                                                                                                           @XBX            ",
"                                              r.                      L.                                                                                                                                                                                                                                                                                                                                  r LXHXO                                                                                               X z #X2                                                                                                                                                                                   6                                                                                                                                                                       q LX.                                                                                                                                                           fX^           ",
"                                            @ <                       qX                                                                                                                                                                                                                                                                                                                                5 LXLX5                                                                                               : Q.U o                                                                                                                                                                                     .                                                                                                                                                                         8XeX                                                                                                                                                            HX          ",
"                                            Q                         Q.                                                                                                                                                                                                                                                                                                                          X > e.LXLXf                                                                                             @ ^ ^ @                                                                                                                                                                                                                                                                                                                                                                   U LX                                                                                                                                                            =XT         ",
"                                            W                         G                                                                                                                                                                                                                                                                                                                       2 H.CXLXLXLXf                                                                                             $ qX6                                                                                                                                                                                                                                                                                                                                                                         LX.                                                                                                                                                           p VX        ",
"                                          ; %                           ~                                                                                                                                                                                                                                                                                                                 @ u.LXLXAXE.c o                                                                                             , tX#                                                                                                                                                                                                                                                                                                                                                                           SX(                                                                                                                                                             LX        ",
"                                        . t.                            q.                                                                                                                                                                                                                                                                                                              $ HXLXI.2 X                                                                                                 . BX&                                                                                                                                                                                                                                                                                                                                                                             t LX                                                                                                                                                            LX        ",
"                                      . 9 s                               `                                                                                                                                                                                                                                                                                                           . iXLXM O                                                                                                     q 9X                                                                                                                                                                                                                                                                                                                                                                                dXr.                                                                                                                                                          LX        ",
"                                    X r.p                                 Y                                                                                                                                                                                                                                                                                                           d LXO.o                                                                                                       W.q                                                                                                                                                                                                                                                                                                                                                                                   LXt                                                                                                                                                         LX        ",
"                                  D t .                                     b.                                                                                                                                                                                                                                                                                                        mXKX1                                                                                                       O tX.                                                                                                                                                                                                                                                                                                                                                                                   7 LX                                                                                                                                                        LX:       ",
"                              x <                                             c.                                                                                                                                                                                                                                                                                                    X LXR.X                                                                                                       G g                                                                                                                                                                                                                                                                                                                                                                                       n.LX                                                                                                                                                      bX|       ",
"                          . h                                                   Y.                                                                                                                                                                                                                                                                                                  @ LX&.                                                                                                      X tXX                                                                                                                                                                                                                                                                                                                                                                                         xXLX.                                                                                                                                                   <.cX      ",
"                        o <                                                       H.                                                                                                                                                                                                                                                                                                r LXk                                                                                                       p z                                                                                                                                                                                                                                                                                                                                                                                             cXLX6                                                                                                                                                   KX      ",
"                        1                                                           | 1                                                                                                                                                                                                                                                                                           3 LXLXX                                                                                                   X s H.X                                                                                                                                                                                                                                                                                                                                                                                               B.LXX.                                                                                                                                                jXO     ",
"                      h                                                               p z                                                                                                                                                                                                                                                                                       X DXLX5                                                                                                   : E.3.#                                                                                                                                                                                                                                                                                                                                                                                                     8XLXu.E E :                                                                                                                                       p.E     ",
"                    y                                                                   O &.                                                                                                                                                                                                                                                                                    M LXM                                                                                                 % ;.c.%                                                                                                                                                                                                                                                                                                                                                                                                             _ nXLXLXg                                                                                                                                     6 =X    ",
"                  ;                                                                         9.                                                                                                                                                                                                                                                                                . LXLXX                                                                                             #  .9.:                                                                                                                                                                                                                                                                                                                                                                                                                       s LX#                                                                                                                                     HX    ",
"                . X                                                                           F                                                                                                                                                                                                                                                                               r LXn                                                                                             7 R.x X                                                                                                                                                                                                                                                                                                                                                                                                                           H LX                                                                                                                                    AX    ",
"                7                                                                             : .                                                                                                                                                                                                                                                                           o LXGXo                                                                                           y K.%                                                                                                                                                                                                                                                                                                                                                                                                                                 4.LX                                                                                                                                  dX    ",
"              p                                                                                 9.                                                                                                                                                                                                                                                                          N LX5                                                                                           s { #                                                                                                                                                                                                                                                                                                                                                                                                                                     T.LX                                                                                                                                <.%   ",
"            <                                                                                     kX                                                                                                                                                                                                                                                                      3 LXG.                                                                                          g / #                                                                                                                                                                                                                                                                                                                                                                                                                                         LX(                                                                                                                               : P   ",
"          X                                                                                         .                                                                                                                                                                                                                                                                   5 JXLX+                                                                                         < c.#                                                                                                                                                                                                                                                                                                                                                                                                                                           . LX                                                                                                                                NX  ",
"                                                                                                                                                                                                                                                                                                                                                                  . * I.LXLX5                                                                                           P <.                                                                                                                                                                                                                                                                                                                                                                                                                                              CXK                                                                                                                               LX  ",
"        9                                                                                                                                                                                                                                                                                                                                                   . f nXLXLXLXvX3                                                                                             O 6.1                                                                                                                                                                                                                                                                                                                                                                                                                                             _ GX                                                                                                                              LXp ",
"      t                                                                                                                                                                                                                                                                                                                                                   o JXLXiXt.k o                                                                                                   @ =.;                                                                                                                                                                                                                                                                                                                                                                                                                                             LX                                                                                                                              L.a.",
"    :                                                                                                                                                                                                                                                                                                                                     . o           X e.LXr X                                                                                                           @ h.%                                                                                                                                                                                                                                                                                                                                                                                                                                           LX9                                                                                                                               .X",
"  X                                                                                                                                                                                                                                                                                                                                 2 P.HXLXLXAXr .   * 9XLXy.                                                                                                                % C.                                                                                                                                                                                                                                                                                                                                                                                                                                          9 LX                                                                                                                              < ",
"                                                                                                                                                                                                                                                                                                                                # u.LXHXJ.w w Q.LXLXLXLXLX8..                                                                                                                   )..                                                                                                                                                                                                                                                                                                                                                                                                                                           T.FX                                                                                                                              ",
"                                                                                                                                                                                                                                                                                                                              % 9XLXN o         > O.>.J O                                                                                                                       b.X                                                                                                                                                                                                                                                                                                                                                                                                                                             CXeX                                                                                                                            ",
"                                                                                                                                                                                                                                                                                                            X u | u o     X f GXLXt.                                                                                                                                          # f.                                                                                                                                                                                                                                                                                                                                                                                                                                                LXS                                                                                                                           ",
"                                                                                                                                                                                                                                                                                                      X n nXLXLXcXKXHXtXeXLXLX2X,                                                                                                                                           . ] q                                                                                                                                                                                                                                                                                                                                                                                                                                                 < LX#                                                                                                                         ",
"                                                                                                                                                                                                                                                                                                    3 HXLXY.2 .   . w k.B.#.%                                                                                                                                               y ]                                                                                                                                                                                                                                                                                                                                                                                                                                                     E LXO                                                                                                                       ",
"                                                                                                                                                                                                                                                                                                  5 LX&X,                                                                                                                                                                 c 4.@                                                                                                                                                                                                                                                                                                                                                                                                                                                       =.LX                                                                                                                      ",
"                                                                                                                                                                                                                                                                                                * LXU.#                                                                                                                                                                    X&                                                                                                                                                                                                                                                                                                                                                                                                                                                           5X$.                                                                                                                    ",
"                                                                                                                                                                                                                                                                                                eXjX$                                                                                                                                                                     ^.;                                                                                                                                                                                                                                                                                                                                                                                                                                                             KX                                                                                                                    ",
"                                                                                                                                                                                                                                                                                              @ LX4                                                                                                                                                                       p s                                                                                                                                                                                                                                                                                                                                                                                                                                                             4.X.                                                                                                                  ",
"                                                                                                                                                                                                                                                                                              v w.                                                                                                                                                                          S                                                                                                                                                                                                                                                                                                                                                                                                                                                               fX                                                                                                                  "
};
