/* XPM */
static char *e28bb3aa2dd84ab1e8a951035d9127d7tyhkF5HSP2KvQ93v[] = {
/* columns rows colors chars-per-pixel */
"128 128 177 2 ",
"   c #412F47",
".  c #442E4D",
"X  c #482F4F",
"o  c #413247",
"O  c #45324B",
"+  c #49334E",
"@  c #47394D",
"#  c #49394E",
"$  c #462D51",
"%  c #4A2E55",
"&  c #4E2E5B",
"*  c #512E5D",
"=  c #473150",
"-  c #4C3353",
";  c #4C3A52",
":  c #4E3159",
">  c #513556",
",  c #523A56",
"<  c #54345C",
"1  c #59365E",
"2  c #553A5A",
"3  c #593A5D",
"4  c #542E62",
"5  c #592F66",
"6  c #563161",
"7  c #5C3464",
"8  c #5D3A62",
"9  c #5E3169",
"0  c #613666",
"q  c #613966",
"w  c #64356B",
"e  c #69366E",
"r  c #653A6B",
"t  c #68386C",
"y  c #68386D",
"u  c #69386E",
"i  c #68386F",
"p  c #68396F",
"a  c #69396F",
"s  c #6A386F",
"d  c #6A396F",
"f  c #683B6E",
"g  c #683B6F",
"h  c #683C6E",
"j  c #69396E",
"k  c #673370",
"l  c #683371",
"z  c #683570",
"x  c #693471",
"c  c #693571",
"v  c #6A3571",
"b  c #693670",
"n  c #6A3770",
"m  c #6B3771",
"M  c #6B3572",
"N  c #6A3473",
"B  c #6B3573",
"V  c #6A3672",
"C  c #6B3672",
"Z  c #6D3672",
"A  c #6C3772",
"S  c #6C3673",
"D  c #6D3773",
"F  c #6C3575",
"G  c #6D3674",
"H  c #6E3774",
"J  c #6F3774",
"K  c #6E3675",
"L  c #6F3775",
"P  c #6F3576",
"I  c #6F3676",
"U  c #6B3573",
"Y  c #673C71",
"T  c #693870",
"R  c #693970",
"E  c #6B3871",
"W  c #6A3971",
"Q  c #683A70",
"!  c #693A70",
"~  c #693B70",
"^  c #6B3872",
"/  c #6A3A72",
"(  c #6A3B73",
")  c #6C3871",
"_  c #6C3872",
"`  c #6D3872",
"'  c #6C3972",
"]  c #6D3972",
"[  c #6C3873",
"{  c #6D3873",
"}  c #6C3973",
"|  c #6D3973",
" . c #6C3A73",
".. c #6D3974",
"X. c #6E3874",
"o. c #6F3875",
"O. c #6E3975",
"+. c #6C3A74",
"@. c #6D3A75",
"#. c #6E3976",
"$. c #6F3976",
"%. c #6F3877",
"&. c #6F3977",
"*. c #6C3A76",
"=. c #6E3A76",
"-. c #6C3A73",
";. c #6F3978",
":. c #6C3B78",
">. c #6D3B78",
",. c #6F3A78",
"<. c #6E3B79",
"1. c #6E3B7A",
"2. c #6F3B7B",
"3. c #6E3B79",
"4. c #703577",
"5. c #703676",
"6. c #703776",
"7. c #713776",
"8. c #703677",
"9. c #703677",
"0. c #703876",
"q. c #703877",
"w. c #703678",
"e. c #713678",
"r. c #713778",
"t. c #723778",
"y. c #733778",
"u. c #723679",
"i. c #733679",
"p. c #723779",
"a. c #733779",
"s. c #743779",
"d. c #74377A",
"f. c #75377B",
"g. c #733779",
"h. c #703979",
"j. c #713979",
"k. c #723879",
"l. c #703A79",
"z. c #71397A",
"x. c #72397B",
"c. c #703A7A",
"v. c #713A7A",
"b. c #713A7B",
"n. c #723A7A",
"m. c #75387B",
"M. c #713B7D",
"N. c #713B7C",
"B. c #723B7D",
"V. c #733B7F",
"C. c #723B7F",
"Z. c #75387D",
"A. c #75397F",
"S. c #743A7E",
"D. c #753B7F",
"F. c #763A7F",
"G. c #73397C",
"H. c #544057",
"J. c #554059",
"K. c #5A415D",
"L. c #5D4061",
"P. c #664070",
"I. c #743A80",
"U. c #753B80",
"Y. c #763A81",
"T. c #763B81",
"R. c #753B82",
"E. c #763A82",
"W. c #773B83",
"Q. c #763B83",
"!. c #753C81",
"~. c #773C83",
"^. c #773B85",
"/. c #773C85",
"(. c #763B82",
"). c #783D86",
"_. c #783E88",
/* pixels */
"G e w w e W #.Z e b e e e e b e e e e e e g b ' #.#.#.#.#.G 7.r.r.7.G b b e 9 7 6 6 4 4 6 7 7 9 w G G r.m.f.m.S.T.T.!.^./.B.B.B.k.#.W f 0 w w w w w w 0 8 8 8 8 8 8 q 8 8 8 8 8 8 7 0 q r h h h ( #.#.' g g W W r 8 8 8 8 8 8 8 7 8 7 8 8 0 0 r f g ' W ,.k.S.r.",
"k.G Z G #.#.0.7.G ' W e b e b e e e e e e e e e ' ' W ' ' Z 7.r.r.7.b b e w 9 7 6 6 4 4 4 7 7 9 w b G r.f.r.f.S.T.T.T.!.B.B.,.,.,.( W f r f w w w w w 0 8 0 8 8 0 8 r q q q 0 0 8 0 0 0 q r h h h ' #.' W W W r 0 8 8 8 8 8 8 8 7 7 7 7 0 w w g ' #.0.B.B.!.!.T.",
"k.k.k.k.k.k.k.k.,.#.' ' b b e e e e e e e w 0 r f g g g b ' G r.f.r.b b b e w 9 7 6 4 4 4 5 5 9 w l b G r.r.r.S.S.T.T.T.B.2.,.,.,.( W f f g e g g g r r r r r r r q q r r r r r r r r r r r r h h W ' ' W f f r 8 8 8 8 8 1 8 8 8 7 8 8 0 0 e Z #.,.k.B.T.S.T.T.",
"B.k.k.k.k.,.k.k.k.,.#.' b b Z e w e e g r r 0 0 r g f f W ' G r.f.r.Z b e e w w 9 6 4 5 4 5 5 9 w l l G 7.r.k.S.S.T.!.T.B.3.3.#.( ( Y g g f f g W W r h h r r r r r r r r h Y h f r r r r q q r r r W g g f r r 8 8 8 8 8 8 8 8 8 q 8 q r f g W #.k.k.S.T.T.T.T.",
"S.k.0.#.,.#.,.B.,.( W W W W W e e f W g f r r r r e g g W ' #.k.f.7.G b b e w 9 9 9 5 5 5 4 5 7 9 w l l G 7.k.m.S.T.T.T.B.3.3.:.#.W W f g f f Y W W h h h r r r r r r r h Y Y Y h h r r 0 q q r r f f g f f r 0 8 8 8 8 8 8 8 8 8 8 8 0 r e W #.k.k.B.T.T.T.S.S.",
"k.k.k.#.#.#.,.k.#.Y h f f g f r g g W W g f f r f g g W W W 0.m.m.k.7.Z e e w 9 9 9 9 9 5 7 7 7 9 9 w w b G r.k.S.S.T.T.C.3.3.( ( ( W W W f f f W W h h r h h h r r r r h h r h h h f r 0 q q 0 r r r r r 0 8 8 8 8 8 8 8 8 8 8 8 8 8 0 r W W #.k.k.S.T.T.T.S.S.",
"S.k.k.#.#.' #.#.W ( Y r h Y h h h W W ' ' W h h h f f W W W #.k.B.k.0.#.b e w 9 9 9 9 w w w 9 9 9 9 9 w w G G r.k.S.B.C.C.3.:.( ( ( Y W f f f f W ( h r r r h r r r r r r r r r r r r r r 0 8 0 0 0 0 0 8 8 8 8 8 8 8 8 8 3 8 8 8 8 0 r f ' #.G k.k.S.T.T.T.T.S.",
"S.k.k.0.' W W W W Y Y h h h h r h f W #.' W W ( ( f f g W W #.k.#.#.#.' ' e w w w 9 w w l w w w w 9 9 w e Z G G k.k.,.+.3.3.( ( ( W Y Y W Y f f Y W f r r h h h r r r r r r r r r 0 0 0 0 0 8 8 8 8 8 8 8 3 1 8 3 8 8 3 3 8 8 8 8 0 r r g ' #.#.#.k.S.T.T.!.T.T.",
"S.S.k.0.#.#.g g g h f h h r r r r h W W ( #.#.W ( Y h f f W #.( W g W #.b k e e l w w w b k k w w 9 9 w w Z G G 0.k.#.+.+.3.( ( ( Y Y h f f f Y f f r r h h h h h h r r r r r r 0 0 0 0 0 8 8 8 8 8 1 8 1 1 1 1 3 8 3 3 3 8 8 8 8 8 r f g #.#.k.0.k.S.T.!.T.!.T.",
"S.k.k.0.0.#.W W g r f h r r r r r h f W ( +.#.#.W Y f f r w r r r r g W b e b b e e b ' ' #.r.G w w w b b G 7.k.#.#.#.+.( ( ( ( ( Y h h f f f Y f f r r r r r h h W f f r r 0 0 0 0 8 8 8 8 8 3 1 8 8 1 1 1 1 1 3 3 3 3 3 8 8 8 8 8 0 r g W #.k.k.k.S.S.T.^.T.!.",
"k.k.k.r.#.#.f W f r h h h r r r r r r f ( W #.#.W g f 0 8 7 8 8 8 7 w e e e b e w f W f ( 3.k.m.f.G b Z G 0.7.#.#.#.#.' ( ( ( ( Y Y r r r r r f f r r r r r r r Y W W f r r r r q 8 0 8 7 7 7 1 8 1 1 1 1 1 2 1 1 3 3 1 3 3 8 8 8 8 8 q r g #.k.k.k.S.S.T.T.T.B.",
"k.0.G G G Z e g f r r h h h h r r r r f W ' ' ' g r 7 7 1 < < < 1 1 8 w e e e f r f h ( 3.C.C.B.S.S.f.r.r.k.k.k.#.#.' ' ( ( ( ( ( Y f f r f f f f r r r r 8 8 r f ( W f r r 0 0 q 8 8 8 7 1 1 1 7 1 1 1 1 1 2 1 1 1 1 1 1 1 1 8 8 8 8 q r r W #.k.B.S.S.B.B.B.B.",
"k.0.b e b e e W g r r h h r f r r r r 0 f b e e w 8 1 1 < < < < < 1 8 9 e e g h h r ( ( 3.!.!.!.T.T.T.S.S.S.B.k.#.#.e b W W W W g W f f f f r f r 0 q 8 8 8 8 r f W W f r 0 8 0 8 8 8 8 7 1 1 1 1 1 1 2 2 1 2 2 1 1 2 2 2 2 1 3 3 8 8 8 q r f W #.k.B.B.k.k.k.B.",
"k.#.b e w e e w 0 r 0 r r r f r r 0 0 8 0 w w 9 7 6 1 < < < < 1 1 7 8 w e b g h h h Y ( 3.C.!.C.C.C.T.T.T.B.B.,.#.#.b b b g g g W b g r r r r r 0 8 8 8 8 8 8 r f W W f r 8 8 8 8 8 3 8 1 1 1 1 1 1 2 2 2 2 > 2 2 2 1 2 2 2 2 3 3 3 8 8 q q r g W W #.,.#.#.,.k.",
"#.' e e w w w w w 0 0 8 0 r r r 0 7 7 7 1 1 6 7 7 6 1 1 1 < < 1 1 7 w w w g g h h Y Y Y +.C.C.!.C.C.C.,.k.3.#.#.#.Z b b e w r e w w 0 0 0 0 0 0 0 8 8 3 8 8 8 0 f Y W f r 0 8 8 8 8 8 1 1 1 1 1 2 2 2 < > > > < 2 2 2 2 2 2 2 3 3 3 8 8 q q r r f h W #.#.#.#.#.",
"' Z e e w 8 9 9 9 8 8 8 8 r 0 8 1 1 1 1 < 1 7 7 7 6 6 6 1 1 1 6 7 8 w w r r r h ( Y P.Y ( +.3.C.C.C.N.3.#.#.g W W b e w w w r w 0 8 8 7 7 7 8 8 8 8 1 3 8 8 8 0 r f f f r 8 8 8 8 8 1 2 1 < < < < 2 < > > > > > > 2 2 2 1 2 2 2 3 3 K.L.q q r r r r g W W W ' #.",
"W e w w w 8 9 9 9 9 7 7 8 8 8 7 1 1 < < < 6 7 7 7 6 6 7 1 1 1 7 7 0 r r 0 q r h ( ( ( Y h h ( ( ,.N.k.,.,.W f r f r w 0 0 0 w w 8 7 7 1 1 1 1 1 1 1 1 1 1 8 8 8 0 r r f r 8 8 8 8 1 2 2 < < < < < < > : : - : > > > , 2 2 2 2 2 3 3 K.L.8 q q r r r f W W W g W ",
"e w w w w 9 7 7 9 9 9 7 1 7 7 6 1 6 1 1 6 7 9 9 7 7 7 8 8 7 7 7 0 r r r q r r h ( ( W ( W ( h h W ' #.#.,.W g r r 0 8 7 7 8 8 w 8 7 1 1 1 1 1 1 1 1 3 3 1 1 3 8 7 0 r r w 8 8 8 8 1 2 2 < < < < < < > : : - : : > > > 2 2 2 1 1 3 3 K.K.L.L.L.q r r h g W f g g ",
"r w w w 8 8 9 9 9 9 9 7 6 1 6 7 9 9 9 7 7 7 9 9 w 7 6 8 8 7 7 0 r r r r r r h h W ' W ' W W g W #.' ' ' #.' g 0 0 0 8 7 7 7 8 9 7 7 1 9 w 8 1 1 1 1 3 3 2 2 2 1 7 0 0 0 8 8 8 8 1 1 2 < < : : > : > : : - - - - - - > > 2 2 2 2 3 3 K.K.K.L.L.8 q q q r r r f r ",
"0 8 8 8 7 7 8 w 8 7 7 7 7 9 9 9 w w w w 9 9 9 w w 9 7 w w 8 8 w e r f r r h h h W #.#.#.' ' ' #.#.0.k.k.0.0.W r r r r 8 8 9 9 9 9 7 9 w e w 7 8 3 3 3 3 2 2 2 1 8 0 0 0 8 8 0 7 1 1 1 < : : - - % % - - - - - - - - > > , 2 2 2 3 3 K.K.K.K.K.8 8 8 8 q q q q 0 ",
"8 8 8 8 7 8 0 w 0 8 7 9 w w w w w w b k e w w w w w e e e w 8 w e W g g f h h g W ' ' #.#.#.' 0.0.k.0.k.k.k.#.W g W ' e e w w w w w w e w w w 7 8 8 8 1 1 2 2 3 8 8 0 8 7 8 0 8 1 1 1 < : - - . $ . $ . + + + + - - - > > 2 2 2 2 K.K.K.K.K.K.K.3 3 3 8 8 8 q 8 ",
"8 8 8 8 8 0 w r w 9 9 w w G w w w w e b b w w 9 e e b #.W e w w g W ' g f f f g W W ' ' G G G 0.r.m.f.S.S.S.B.k.B.k.k.k.Z e e e k b b b l e b w 0 7 7 1 1 1 1 0 w 0 8 8 0 w e 8 7 1 1 > - % . . . . . . . . . + - - - > , , 2 2 2 3 K.K.K.K.K.K.K.K.3 K.3 3 8 8 ",
"K.8 8 q r f r f e w w G f.r.N k l l b b b e e w e e Z 0.#.W f f W W W W g f f g W ' #.0.k.k.0.7.f.m.S.T.T.T.S.S.B.B.T.B.0.G b b G Z G G G G b b e 0 0 0 7 7 7 w e e e w e w e 7 7 < < : - . . . . $ . . . . $ % - - - , > > , 2 2 K.K.K.K.K.K.K.K.K.K.J.K.K.K.K.",
"L.L.8 8 r r f f f W 7.k.S.S.S.r.r.f.r.r.k.7.Z b b G k.k.k.W g W W W W ' W f f g W #.k.k.k.k.k.S.T.T.T./././.!.T.T.T.T.k.,.7.G 7.G G G G G G Z b b b e w w 9 w e b Z Z b w w 9 9 1 < : % % $ $ $ . $ . . . . . . - - ; , , > > 2 2 3 K.K.K.K.K.K.K.J.J.J.J.K.K.K.",
"K.8 8 8 q r h Y ( ( k.B.T./.T.T.T.T.T.T.!.B.B.k.k.k.k.B.C.' W W ( W W #.W f f g W #.k.k.S.S.T.T.T.^./././.).).T./.^.T.k.#.r.k.r.S.S.k.7.7.G b b e b l w w w w w e b b w 9 7 7 7 7 < & % % $ $ . $ $ . . . . . X - - - > > , , 2 2 2 2 3 K.K.K.K.J.J.J.J.J.J.K.3 ",
"K.3 8 8 q r h Y 3.2.2.!./.).).^././.^.^.!.!.C.!.B.C.B.B.C.#.W Y Y f W W W g g f W #.#.B.T.T.T.T.T.!.T./././.).)./././.B.B.S.S.S.T.T.S.k.r.G b e w w l w 9 9 9 w w w k w 5 4 4 4 4 * & & % $ . . $ . . . . . . . + - - > > > > 2 2 2 2 K.K.K.K.K.J.J.J.H.J.J.K.K.",
"K.K.8 8 8 r f ( 3.C.!.!.!.)././.!.!.^.T.T.!.!.C.!.C.C.C.3.3.( ( f f g W W W g g W W #.S.S.T.T.T.T.T.^./././.)./.)./.^.T.T.T.T.T.T.T.T.k.r.G b b l w w w 9 7 7 7 9 9 w 9 4 4 4 6 * * % % $ $ $ . . . . . . . . . + + + ; ; ; , > , 2 2 2 2 J.K.J.J.J.J.H.J.H.J.K.",
"3 3 8 8 q r W ( ,.C.!.!.C.T.T.T.T.T.T.T.S.!.C.C.C.C.C.3.3.( Y Y h f g W W g g g ' #.k.B.S.T.T.T.T.T.!./.)./.)././.^.!.S.T.T./.T.T.T.S.k.G b b b w w w 9 7 7 6 4 7 7 9 9 * * * * * & % % % $ $ . . . . . . . O O O + + # ; ; ; > , 2 2 2 2 2 2 2 J.J.J.H.H.H.H.J.",
"3 3 8 8 r h ( ( ,.C.B.B.B.T.T.S.S.S.S.S.B.S.B.k.,.3.,.3.3.( ( h r f g g g g g f W #.k.k.k.B.T.T.T.T.T././.^.T.T.!.T.T.S.S.T.!.!.T.!.T.S.r.l b b l w w 9 9 5 4 4 6 6 5 4 4 * & & % % % % % $ $ . . . . . + O O O O O # # # ; ; > , > > 2 2 2 2 2 2 2 J.H.H.H., 2 ",
"3 3 8 0 r W +.,.B.T.T.T.T.T.S.S.S.m.f.k.k.k.#.#.#.,.#.3.+.( Y h r f f e g e e W W 0.0.0.0.k.m.S.T.T.T./.T.T.B.B.k.S.S.S.S.S.T.T.T.T.T.T.k.G Z Z e w w 9 7 6 4 4 4 4 4 4 4 & & % % % % % % $ $ . . . . . O O O O O O + # # # ; ; , , > > , > , , 2 2 H.H.2 2 , 2 ",
"3 3 0 r f W +.3.B.S.T.T.T.T.S.f.r.f.r.7.7.r.k.#.#.#.#.+.+.( h r r r f f f g g g W #.G G G 0.k.k.k.S.T.T.T.S.,.k.k.S.S.B.S.S.S.T.T.T.T.T.k.#.G Z e e w w 7 7 6 6 < : & * * & & & & & % % % $ $ $ . . . + O O O O O O + + + + - - , , > > > > > > > 2 , , 2 2 2 2 ",
"3 8 0 r g W #.k.B.S.S.S.S.m.r.7.7.r.r.k.0.G ' ' W #.W W ( h r r r r r e f g g g W ' Z G Z 0.0.0.0.k.S.T.B.,.#.#.k.k.k.k.S.T.T.T.T.T.T.T.k.,.G 7.Z b l w 9 7 6 1 < : : * * * * & & & & % $ $ $ $ $ . . + O O O O O O + + + + - - > > > > > > > > > > , , 2 , 2 2 ",
"1 8 0 r b b #.#.B.B.S.S.S.f.G G G r.r.r.G Z Z e W W g W h f r 0 0 r r r r f g g g W Z G G ' #.#.#.k.B.B.k.#.W ' #.0.' ,.k.k.k.S.S.S.S.S.k.#.k.#.G G Z e 8 7 1 < < : : & & * 4 * & & % % $ . . . . . . + . . O O + + + + + + + - > > > > > > > > > > > > , 2 2 1 ",
"8 0 0 0 e e e Z k.k.m.f.r.G G G G 7.G b b b b e e f r r r r r 0 0 r r r r r r r r g W b ' ' ' W ' #.,.k.k.W W g W g W W W W G #.0.k.0.k.7.#.G #.#.0.Z e 8 1 2 2 < < : : * * 4 4 & & % % $ $ . . . . . + . . . + + + + + + + + - : : > > < , , > > > > 2 2 1 1 8 ",
"0 0 0 w w e w l G r.r.7.G G b N G G b l b b e e w w r r 0 0 0 0 0 0 0 0 r r r 0 0 0 r e W g g g g W ' ' ' W g r r w w e e g g g e g g e e G Z e ' #.Z w 8 8 1 2 2 : : : : & * & & % % % $ $ . . . . + + . . . . X + + - + + - - : > > > < 2 , , 2 > , 2 2 1 1 0 ",
"w w w w w e w w b r.G b N b k b b b k l l e w 8 0 8 8 0 0 0 8 0 0 0 0 0 8 8 7 7 8 8 0 w e e w r r r f g g r r r w w 0 w e e e r w r w r e b w w e e r w 0 8 3 3 2 2 : : - : & & & % % % % $ . O . . . + + + + + + - + + + + - : > < < < < 2 2 2 2 , 2 2 2 7 7 w ",
"e e w w e w w w N 7.G Z k w w k b b w w k w 8 8 8 7 7 7 7 7 7 8 0 0 0 8 8 7 8 8 8 8 8 8 8 8 8 8 8 0 0 r r r 0 0 0 w 8 8 w e w r w w w r e b e e e g e r 0 8 3 3 3 2 2 : - - : - & % % $ $ . . O . O O + + + + + % - - - - % : > < < 1 1 1 1 2 2 2 2 2 2 1 7 w w ",
"b e e e w w l l b G G b w w w e w w w l e w 8 8 7 7 7 1 1 1 7 8 8 8 8 8 1 1 1 1 8 8 8 8 7 7 7 8 8 8 8 0 0 0 8 0 8 8 7 7 0 0 w w w w w w e e f e b f r 0 8 3 3 3 2 2 > : - - - - % % % $ . . O O O . O O . + + + + - - % % - : < < 1 1 1 7 7 1 1 2 2 2 1 9 w w e ",
"w w w 9 w 9 w w w b k w w 9 w w 9 w w w w 8 8 7 7 7 1 1 1 1 1 7 7 1 8 1 2 2 2 2 2 2 2 1 2 1 1 2 2 1 8 8 8 8 7 7 7 7 1 7 8 7 8 w 0 0 0 w g g e f g e r 8 8 3 2 2 , > ; ; ; - - - = = $ . + O O + + + O O O + + + + + - : : > > < 1 1 1 7 7 7 1 7 1 < 1 7 9 w e b ",
"9 7 9 7 7 5 7 9 9 w 9 9 8 9 9 9 9 9 w w w 8 8 7 7 1 1 7 6 1 1 6 1 1 2 2 2 2 2 2 2 2 2 2 1 < 2 2 2 2 1 1 1 1 2 7 7 6 1 7 7 7 7 8 8 8 w e e w w w w w 0 8 1 3 2 > ; ; ; ; ; - - - = = . + O . O + + + O O O + + + + - - > < < 1 1 1 1 7 7 w 0 7 9 7 7 7 7 7 9 w w ",
"7 5 7 7 5 5 7 7 7 7 7 7 7 7 7 7 7 9 9 9 8 7 7 1 1 < 1 7 7 6 6 7 1 < < 2 2 2 > > 2 2 2 2 2 < < 2 < 1 1 2 2 2 2 1 1 1 1 6 6 1 1 7 7 7 7 8 9 8 8 8 8 8 7 1 2 2 , ; ; ; ; ; ; ; ; + + + + O + + O O + + O O + + + - - - > > < 1 1 7 7 7 7 0 w w 9 9 9 9 7 7 1 7 w 9 ",
"5 7 5 4 4 4 4 4 6 6 6 7 7 1 6 7 7 7 9 7 7 6 1 < < < 6 7 6 1 1 1 1 1 < < < < : ; > > 2 2 2 < ; 2 < 2 2 1 2 2 2 2 < 1 1 1 1 1 1 1 1 6 6 6 7 7 7 7 7 1 1 2 2 > ; ; ; ; ; ; ; ; ; # + O + + + + O O O O O O O + + - > > > > 1 1 1 1 7 7 7 7 0 w w 9 9 9 7 7 6 7 9 5 ",
"5 4 4 4 4 4 4 6 6 6 7 8 2 2 2 2 6 7 7 6 1 1 1 1 < < 1 6 1 < 1 1 1 < : : > > : > > ; ; : > > > < < 2 2 2 2 2 2 2 < < 1 1 1 < < < 1 1 1 1 6 1 6 1 1 < : ; > ; ; ; ; ; ; ; ; ; # @ + + O + + O O O O O O O O + - > > > > < < < 1 7 7 7 7 7 9 w w 9 w 9 7 7 4 7 7 5 ",
"4 4 < 6 * * 1 1 6 7 8 1 3 2 2 2 2 1 1 < 1 1 < 1 < 1 7 1 1 < < < < < : : : : : : : ; ; ; > > 2 : : 2 < 2 2 2 2 2 < 2 < 2 < 2 < < 1 1 1 < < < < < : : - ; ; ; ; ; ; ; ; ; ; ; @ @ + + + + + O O O O + + + + + - - - - > > < 1 1 7 7 7 * 9 9 w w w w w 9 7 5 4 7 5 ",
"4 4 * * * < 6 6 7 8 8 8 3 2 J.2 2 2 2 2 < < < < 2 1 7 1 1 < 2 < : < : : : : - - ; ; ; > < < < 2 2 2 < > > > > 2 2 < < < 1 < < 2 2 2 2 2 2 < < : - - - - ; ; ; ; ; ; ; ; ; @ @ @ + + + + - + O O + + + O + + - - - - - < < < 1 1 7 7 * 5 9 w w w w w 9 9 9 7 7 4 ",
"4 4 4 4 4 6 9 8 0 0 8 8 3 3 2 J., , 2 2 < < < < 2 1 1 1 2 2 < < : : : - - - - : : : < < < 2 2 2 2 2 > > > > > 2 2 2 2 < 1 1 1 2 2 2 2 2 < > : : - - - - - - + # # # # # @ @ + + + + + + + + + + # + + + + + - - - - - > < < < < 1 1 * * 5 w w w 9 9 9 9 9 5 5 4 ",
"4 4 4 5 7 w w e f r 8 8 3 3 2 2 2 , 2 2 < < < < 2 1 1 1 2 2 < < : : : - - : > > < 2 2 1 1 2 2 2 2 2 < > > > > < 2 > > 2 2 7 8 2 2 1 2 2 > : : - = - - - = = + + + @ + @ + @ + + + + + + + + + # + + + + + + + + + - - : > < < < 1 1 1 * 7 5 9 9 9 9 9 9 7 5 5 4 ",
"7 9 9 w w b G b g r r 8 3 3 3 3 3 3 2 2 2 > < 2 2 2 1 1 1 2 2 < 2 2 > < < < 2 2 2 1 8 8 8 1 1 3 1 2 2 < > > > 2 2 2 > 2 2 2 1 1 1 1 2 > ; : - - + = = - = = + + + + + + + O O + + + + + + + + + + + + + + + + # - - - - > < < < 1 1 7 7 6 7 9 9 9 9 9 9 7 5 4 4 ",
"9 w l b b 7.7.' b g r 8 8 1 1 3 3 3 3 2 2 2 < 1 1 1 1 1 1 2 1 1 1 1 1 1 1 1 1 1 1 3 8 8 8 8 1 1 1 1 2 2 > > > 2 2 2 , 2 2 2 2 1 2 2 2 > > > - + + + + - = = + + + O O O O O O + + + O O + + + + + + + O + + + + - - - : > < < 2 1 1 7 7 1 7 9 9 w w w w 9 5 5 5 ",
"b G f.k.r.k.#.#.g g r r q 8 8 8 8 8 3 2 2 2 2 1 1 3 1 1 1 1 8 7 8 8 8 1 2 1 1 8 8 8 8 8 8 q 8 8 1 1 2 1 2 , 2 2 2 2 , , 2 2 2 2 2 2 > > > : - + + + = = + + + + + O O O O O O + + O O O O O + O + + O O + + + + + ; - - : > 2 2 2 1 1 7 7 1 7 w w w w w 9 5 5 9 ",
"7.S.S.S.r.k.#.' e w r r 0 8 8 8 0 8 1 1 1 1 2 1 1 1 1 1 1 1 8 8 8 8 8 2 2 2 7 7 7 8 8 8 8 8 8 8 1 1 2 2 2 2 2 2 2 2 2 2 2 2 < > > > > : : - - + + + + = = = + + + O O O O O O O + O O o o O O O O O O O + + + + # # ; - ; > , 2 2 1 1 1 1 1 7 w w w e w 9 9 9 w ",
"r.S.S.S.0.k.k.' f e e r r 0 0 r r 0 8 8 1 2 2 1 1 1 3 1 3 8 8 8 8 8 8 1 1 1 1 8 8 q 0 8 8 8 8 8 1 1 2 2 2 2 2 2 2 , > > > > > : ; ; - - - - - + + + + + + + + + O O O O O o O O O O O o o O O O O O O + + + + + # # ; ; ; , > 2 2 2 1 1 1 7 0 0 0 w e w w w w b ",
"f.S.S.B.k.0.k.#.e e e e f f r r r 0 7 7 1 1 2 2 1 1 1 8 8 8 8 8 8 8 8 8 8 8 1 8 8 0 0 0 8 8 8 1 1 3 2 2 2 2 2 > , > , , > > : - - - - - + + + + + + + + + + + + O O O O o O o O O O o o O O O O O O O + + + + + # # ; ; ; , > 2 2 2 2 1 8 8 0 q 0 w e e k e k G ",
"S.m.B.k.k.#.#.W e e e e W W W f r 0 0 7 1 2 > 2 1 1 1 8 0 8 8 0 0 0 0 0 8 8 1 8 r r r 0 8 8 8 3 1 1 2 2 2 , > > > > , - - - - - - + + + + + + + + + + O O O O O O O O O o o o O O O O O . O O O O O O + + + + + + ; ; ; ; > > 2 2 2 2 2 1 8 8 q 0 w r e b G G 7.",
"f.S.B.k.k.#.W e e e e e W ( W g w 0 8 7 1 > > , 2 1 8 7 8 8 8 0 r r r 0 r 8 8 8 0 r 0 0 0 0 8 1 1 2 2 , > , > > > , - - - - ; - + + + O O + O O + + + O O O O O o O O O O O O + + + O O . . O O O O + + + + + + + # ; ; , > > > 2 > 2 2 2 3 L.q r r w b 7.r.r.r.",
"r.f.f.r.k.#.W W b e e b b g W f e w 8 1 < > > > 2 2 1 8 8 0 0 r r 0 0 0 8 8 8 1 0 0 w 0 8 0 q 1 1 2 , > > > > > > - # # - + + + + O O O O + O O O O O O O O O O o O O O O O + + + + + + . + . O + + + - - + + + + # - - : > > > > 2 2 2 2 3 3 8 0 0 w b 7.G r.f.",
"r.f.k.r.0.#.( ( ( W e e e f f e 0 8 7 1 < > > > 2 1 1 7 8 r r r r 0 8 8 8 1 1 1 0 0 r 0 0 0 7 1 1 2 , , > - - - - - + + + + + + O O O O O O O O O O O O o o o o o . . O . O O + + + + X O X + + + + + - - + + + - - - - - - > > > 2 2 2 2 2 3 8 8 r w b G G r.7.",
"G r.k.k.0.#.#.#.' Z W e e f f w 0 0 8 7 2 > > > 2 1 1 1 0 r r r 0 8 8 8 8 1 2 8 0 0 0 0 0 0 7 1 2 , , > > - - - - # + + + + + + O O O O O O O O O O O O o o O O o . . . O + + O + + . + + + + + + + + + - + + + - - - > > > > 2 > 2 2 2 2 2 1 8 8 w e b b b b N ",
"G G 7.r.7.k.,.#.Z e e e e w e w 0 0 8 7 1 < < < 2 1 7 8 w w 0 0 7 8 8 8 8 1 2 3 7 0 8 8 7 7 1 1 2 > > > - - - - + + + + + + + O O O O O O O O O O O O o   O . .   . . . . + + + + + + O + + + + + + + + + - + + - - - > > > < > > 2 < 2 1 1 8 8 8 w e l w l b b ",
"b b G 7.r.k.#.W b e w w w w w w w 0 0 7 1 < < < 1 1 7 0 0 r 0 8 8 8 8 8 1 1 2 1 1 7 8 8 7 1 1 1 , > > - - - + # + + + + + + + O O O O O O O O O O O o o o O . O . . . . . + + + + O + + O O + + + + + + - - - - - - > > > < 2 < < < < 1 1 1 8 8 w w k w e l l b ",
"w k b b Z G b e e w w w w w 0 0 w 0 0 7 1 < < 1 1 7 7 8 0 0 0 7 8 3 1 1 8 1 1 1 1 7 7 7 7 7 1 2 2 > - - - + + + + - - + + + O O O O O O O O O O O O O O o O O O O . . . . X X + + O + + O O + + + + + - - - - - - : > > < 2 1 2 1 1 1 1 7 7 8 w e e k e w l l l ",
"w w k e b e e w w e w w w w 0 w w w 0 7 7 1 1 7 7 0 0 7 8 0 7 8 8 7 7 1 7 1 1 1 1 7 7 7 8 7 1 2 > > : - + + + + - - - - - + O O O O O O O O O O O . . O O O O O . . . . . . + + + + O O O O O + + + + - - - : - : < < 1 1 1 7 7 7 6 7 8 8 8 0 w e b b k l w l k ",
"w w w l e e w w e e w e w w r r w w w 0 7 7 7 7 0 0 0 7 7 7 7 1 1 8 7 7 7 1 2 1 1 1 7 7 0 7 7 2 > > - - + + + + - - : > - + + O O . . . O O O O . . . . O O O . . . . . + O O O + . O O O O O + + + - - : > : > < 1 1 7 7 7 7 8 8 8 8 8 w w w e k b b l l l k l ",
"l w l l e e e w w e e e w w f r f e w w w w 0 w 0 0 8 7 7 7 1 1 1 1 7 7 7 1 1 1 1 7 7 7 7 7 7 1 2 > - - - - - % % - > < : - . . . . . . . . O O . . . . O O O . . . . . X + + . . . O O O + O + + + - - - : > < 1 7 7 7 0 9 9 8 w w w w e w w w k b b b l l w w ",
"w w l l w w e w e e e w w w r f f e w e w w 0 0 0 0 w 0 1 1 2 2 1 1 7 7 7 7 1 1 1 7 7 7 7 7 1 1 < : - - - - - % % & : & & % % . . . . . . . . . . . . . . . o   . . . X X X % + + + . + O O O O + - - - > < < < 1 7 9 9 w w 9 w w w w e k b w l l b b N l l w w ",
"w w w l w w w w e e w w w 0 r r f f e e w w w 0 0 w w 9 1 < 2 2 1 7 8 7 7 7 1 7 7 7 7 7 7 7 1 1 < - - % - & : % % % % % % $ $ $ . . . . . . . . . . . . . . O o . . . . % % - % - - X O O + + O + - - - > < < 1 7 9 w w w e w w w w w w w b w l b l l l l k l l ",
"w w l l e w w w w w 0 0 0 0 0 r r w f w w r 0 0 0 0 w 9 < < < 1 1 7 7 7 7 7 7 7 7 7 7 7 7 1 1 < > - - % & & & % % % % % $ % % $ $ $ . $ $ $ . . . . . . . . O O . . . . % - - - - + + + O O + + - - - : < 1 1 7 w w w e b e w w w w w w w l l l w w w l l l l l ",
"w l l l e w w w w w 8 0 0 0 0 0 r r w r r w 0 0 0 0 0 7 1 < < 1 1 7 8 0 8 7 8 7 7 7 7 7 7 1 1 < < : & & % % % % % % % % % $ % % $ $ $ % $ $ . . . . . . . + - + . . . X % : - - - + + + + + O O - : > < < 1 7 9 w w b e e e w e w w w w w w l l w w l l l k l w ",
"w k k k b e e e e 0 0 8 0 0 0 0 0 0 0 w w w 0 0 0 0 9 7 1 < < 1 7 7 8 0 0 9 9 9 0 0 0 0 7 7 1 < < < * & & % % % % % % % % $ % % % $ % % % $ $ $ $ . . . + + - - - X X X - : - - + + + + + + + + - > > < 1 1 7 8 0 w e e e e w w w w w w w w l w l l l l b l k l ",
"e b b b b e e e w w 0 0 0 q 0 0 0 0 0 r w w r 0 0 0 9 7 1 < < 1 7 7 7 0 w w 9 9 0 0 0 8 7 7 1 1 1 1 < * & % % % % % % % % % % % % % % % % $ $ $ $ $ % . + + + - : : % X % & - - - + + + + + + + - : < < 1 7 7 0 w w e e e w w 9 9 w w w w l l b l l l l b N b w ",
"b G b b b e e e w w w 0 0 r 0 r r 0 0 r r w w w w 0 0 9 7 7 1 7 7 7 7 w 0 0 7 7 7 0 7 7 7 7 7 8 9 6 6 < < & % % % % % % % & & % % & % % $ $ $ % $ . $ . X X + - : > > % : & : - - - - + - - - - < 2 1 7 7 0 0 0 e w e w w 9 9 9 9 9 w w l l k l b l l b b G N b ",
"b Z Z b Z Z b g g r w w r r 0 r r q q w g r w w w w 0 0 7 7 7 9 9 0 w w 0 7 1 7 7 7 7 1 7 8 8 0 0 9 7 1 < < & & % % & % & 1 < & * * & & % % % % $ . . $ % % % % : < < : < < : - - - - - - - - > 2 1 7 7 0 0 w w w w w w 9 9 7 9 9 w w l l l b k b b b b b G G Z ",
"Z Z Z Z Z #.' e g f w r r w 0 w r f w e e e e w w w w w 0 9 9 0 0 w w 0 9 7 1 1 7 7 7 1 1 7 0 w w w 9 7 1 < 6 1 < < : & < 7 1 1 6 * * & % % & % % $ $ $ % % % % & < * < 1 * > : : : > - - - - > 2 1 1 7 w r w w w e w w 9 9 9 9 w w w l b N G b b b b b b G G Z ",
"G Z b Z ' ' ' g f r w w w w 0 0 w w e e e e e e e w w e w 0 8 0 w 0 0 8 9 7 1 1 1 7 1 1 7 8 0 w w 8 0 w 8 6 9 0 8 7 7 7 7 7 7 9 6 6 * & & & & & & % $ . $ % % % % : < 1 * < * > > < > - - - > 2 1 1 7 0 r r w r e e e w 8 8 8 9 w w e e b b G G G G b G G G G G ",
"G b b b ' ' W f w w r w 0 0 7 1 7 w e e e e e e e e e e w 0 0 0 0 8 9 9 9 7 1 1 1 1 1 1 7 8 r w w w w w 0 0 0 w w 0 w 0 0 w 0 w w 9 7 & & & & & & & % % % % % % % % & * * * < < : > : - - > > 2 1 0 0 0 r r r w w e w w w 0 9 9 9 w e e e b Z G 7.G b G r.7.G G ",
"G e e e b b W g r r 0 0 0 0 7 7 8 w e e e e e e e e e w 0 8 0 0 8 9 9 9 9 7 1 1 1 1 1 1 7 7 0 w 0 0 0 w r 0 0 r w r w w f w e e w w w 4 4 & & & 4 & & % % % % % % % & & & & < 1 < : - - - > 2 1 7 7 0 0 r r r w w e e e w w 9 9 9 w e e e b Z G G 7.r.G G G G G ",
"b e e e e W W g e w 0 8 0 0 8 0 w e e e e e e b b e w 0 8 0 7 7 7 7 7 7 7 7 1 1 1 7 7 7 7 7 0 0 0 0 r r r 0 8 0 0 r r r e w e b b k w 5 4 4 * * 4 4 & % % % % % % % $ % & & * < < - % - : > < < 1 7 8 0 0 r w r w w w w w w 9 9 9 w e e e e b Z 7.7.G Z Z b Z G ",
"G G e e e b ' W g w 0 0 0 0 0 0 w e b e e e e e e w 8 9 7 7 7 7 7 7 7 7 6 1 1 1 7 8 7 7 7 0 0 0 0 0 0 0 8 8 8 8 8 8 r r r e e b b w w 7 4 4 & & 4 * & & % & & & % % % % & & < < & & % : : > < 1 7 7 8 8 0 8 0 0 r 8 8 w w w w 9 8 w r r w e ' ' G G G Z Z b b b ",
"b G G b b b e e e w 0 0 7 0 0 0 e b Z b b e e w w w 9 7 7 1 1 6 7 7 7 7 6 1 1 8 w w 9 w 0 0 0 0 r r r 8 8 8 1 1 1 8 8 0 w w b b e e w w 9 5 4 & * * & & & & & & % % % % % % * * * & & : : : < 1 1 1 1 1 8 8 8 8 0 8 8 9 w w 9 8 8 8 8 0 r f g g Z ' Z W b e b b ",
"b b N b b b e w w w 0 0 7 0 8 0 e Z G b b e e w w 9 7 7 1 1 1 6 6 6 7 7 7 7 9 w w w w w w 0 w r r r 8 8 1 1 1 1 1 7 0 0 w e e e e w 9 w 9 5 4 4 4 4 * & & & & & & % & % % & & * * * < : : : < 1 1 1 1 1 1 1 8 8 8 8 8 0 8 8 8 8 8 8 8 8 r r f g W ' g g e e b b ",
"e w w w w e e w w 9 9 7 7 8 7 7 9 e b b w w 8 7 9 7 1 1 < 1 1 < < 6 6 7 7 9 w w w w w e w w w r r r 8 8 2 1 1 1 7 7 8 8 w e b e w 9 9 9 9 5 5 5 4 4 4 4 & 4 & & & & & & & & & * * < < & - : : < 2 2 2 2 2 2 1 1 7 7 7 8 8 7 8 8 7 8 8 8 0 r r r g g g g e e b e ",
"w w 9 9 9 w w w 9 7 7 1 1 1 1 7 7 w w w w 7 7 7 6 1 < < < * < * * * 6 6 6 7 9 9 w w w w e w w w 0 0 8 1 2 2 2 1 7 7 8 8 w e e w w 9 9 w w 9 5 7 5 9 4 4 4 4 * * * & & & * & * * : : - - - - : < 2 2 < > > 2 2 2 8 8 7 7 7 7 8 8 7 8 8 8 8 0 r r r r e e w e e w ",
"7 7 5 7 9 9 w 9 7 7 6 1 1 1 1 6 7 9 9 9 9 7 6 < < < < : & : & * : < < 6 6 4 7 7 9 w w w w w 0 0 0 0 7 1 1 2 1 1 7 0 8 0 w w e e w 9 w w 9 9 9 9 9 5 5 5 5 5 5 4 4 4 * & & & & & - - + + + - : > < < < < > > < 2 1 2 2 1 8 8 8 7 7 7 1 1 8 8 r 0 0 0 w w 8 w 9 9 ",
"* * 4 * 7 7 7 7 6 6 1 1 1 1 7 7 7 9 9 9 7 7 < < : : : : : : - & : : : < 4 4 6 6 7 9 w 9 w 0 9 0 0 7 7 7 1 1 1 1 7 7 0 w w e e w w 9 w w w 9 w w 9 9 7 7 9 9 9 9 9 5 * & % % % % - - + + + + - - : < : : > > < 2 2 2 2 2 8 8 7 7 7 7 1 1 8 8 8 8 8 8 7 8 7 7 7 6 ",
"& & & & & 6 6 6 6 6 6 7 1 1 7 7 9 9 9 9 7 5 * * : : - - - - - - - : : * * * < 6 7 9 9 9 w w 8 8 0 8 7 7 7 1 1 7 7 7 0 w e e b e w w l k l w w w w 9 9 9 w w w w 9 6 * & % % % % + + + + O + + + - : : : > > < < < 2 1 2 7 7 1 7 1 1 2 2 2 1 8 8 8 7 7 7 6 6 6 : ",
"- - = % % : < 1 6 1 1 6 7 7 8 9 9 9 9 9 5 * * & & & % % - - - - - - : & * * * 1 6 7 9 8 9 7 7 8 8 8 8 8 7 7 6 1 7 8 8 w k e l b l w k b b l w w w w 9 w l l w w 7 1 * & % % % = + + + O O O + + + - : : > < < < < 2 2 2 1 7 1 7 1 1 1 1 2 2 2 1 1 1 1 1 1 1 < : ",
"- - - - - : < < 1 1 1 7 7 8 0 9 w w w w 5 6 * * & & % % - - - - - % % & < < : < < 7 7 7 7 7 7 7 7 7 9 7 7 7 7 6 6 7 7 0 e e e e b l b b N N l w l w w N G G w 0 9 1 < : % $ . = + + O O O O + + + - : < > < 2 < 2 2 2 2 2 1 7 1 2 2 1 1 1 1 1 1 < < 1 1 1 < < - ",
"- - - - - : < < 1 < 2 7 0 w e e l b b e w 9 6 * * : % % % % % % % - % & & * : : < 1 6 7 9 0 8 8 9 9 7 9 8 8 7 7 7 7 8 8 9 w e w k b G b G G G l l G 7.G r.Z e 0 9 7 < < % $ + = + O O O O + + + + - > < < < 2 2 < < 2 2 2 1 7 1 1 2 2 2 1 1 1 1 < 1 < < < : : - ",
"- - - % : < 1 6 7 1 1 8 w w e b G G G 7.b e w 7 7 * % % % % % % % % - & & : : : < 1 6 7 w w 8 8 w w 0 w w w w 7 6 7 9 9 9 w w w l b l N G r.r.G G 7.f.k.7.w 0 9 7 1 < : : - + + + O O O + + + + - - : > 2 2 2 < 2 2 2 2 2 2 1 1 1 1 2 2 1 1 1 1 < < < : < : - - ",
"- - - : < < 7 7 7 7 7 8 0 w f b 7.G 7.f.r.7.e w 9 7 * & & & & & % & % & & & : < 1 6 7 9 w w 0 8 8 w w 0 w w w 9 7 1 7 9 9 w w w b b l G r.f.S.S.f.f.f.k.e 0 9 7 1 1 < : - = + + O O O O + + + + - - - > 2 2 1 1 2 2 2 2 2 1 1 1 1 1 1 2 1 1 1 1 1 < < : & : - % ",
"- % & * < < 7 7 7 7 7 7 w w r g W #.7.r.f.r.b w w 9 1 < & & & & & & & & & & < 1 6 7 7 0 0 8 w 0 0 w w w w w w 7 7 1 7 9 w w w w b b F G r.S.S.S.f.S.S.G w 9 6 1 < : * - = . + O O O O O O O + + - - : > < 2 1 1 2 1 2 1 2 2 1 1 1 1 1 2 1 7 7 8 7 1 * & & % % % ",
"% & * * < 6 7 8 w w 0 0 w w r g W #.G G 7.G b e e 9 7 6 < & * * * & & & & & < 1 7 8 0 0 0 8 8 w 0 0 8 0 8 0 0 7 7 7 1 7 9 9 w w b l l G r.m.f.m.f.G G w 9 7 1 < & & & % . . . O . . . O O O O + + - : < < 2 1 1 1 1 1 1 1 2 2 1 1 1 1 1 1 7 8 8 9 1 * & & % % % ",
"& * * 1 7 7 7 9 w w w w w w w e W W #.Z G Z b e e w 9 8 7 4 4 4 4 * * * 1 < 1 7 8 w w w 0 8 8 0 0 8 9 9 8 8 7 7 7 7 6 6 7 9 9 w w l F G r.r.b k w l w w w 7 1 < < & & % $ . . . . O O + O O + + + - - > < < 1 1 1 1 1 1 1 1 2 1 1 1 1 1 1 7 7 9 9 1 1 & & % % % ",
"& * * 1 7 7 9 w e w w w w w w e e W W W W W b e e e w w w 9 5 4 4 4 4 4 7 7 7 9 w e e w 0 7 7 9 7 7 8 9 7 8 8 8 7 7 1 1 7 9 9 9 w l l F b w 9 9 9 9 w 9 7 7 6 7 7 * & % $ . . . . . . . + + + = - - - - > < 1 1 1 2 2 2 2 2 1 1 1 7 7 3 1 7 7 9 0 9 * & & & % & ",
"& * < 1 7 0 e b e e e w w w e e b #.#.#.f e b e b e e w w 9 4 4 4 4 5 5 7 9 9 w Z Z e e 0 8 7 7 7 7 9 w 9 9 9 w 9 7 6 4 5 5 5 9 9 9 5 5 9 9 7 7 9 9 9 9 9 5 7 9 7 1 * & % $ . . . . . $ $ . + = + - % - : < < 2 2 2 2 2 2 2 1 1 1 1 1 3 1 7 7 9 w 9 7 < & % % & ",
"* * 1 7 9 e G Z G Z Z e e e Z Z 7.k.k.#.#.f w e e e e e w 9 4 4 4 5 9 5 w w w b 7.7.Z e w 8 8 7 7 8 9 w w 9 w w 9 4 4 4 4 4 5 9 5 5 5 5 5 9 5 7 5 9 9 9 9 9 9 9 7 6 * & : % % . % % % % % . + = = - % - - : < < < 2 < 2 2 2 1 1 1 1 8 8 8 8 8 0 w w 7 6 * : % & ",
"1 7 7 9 w e 7.G r.r.7.Z b Z G r.m.k.k.#.#.' g w e e Z Z l 9 4 4 5 5 w l b b b b 7.Z Z b e w w 9 8 8 9 9 w w k w 9 4 4 4 4 4 4 5 4 4 4 4 5 9 9 9 5 9 w w w w w w 9 9 9 1 < < & & & % - : : % % + - + % % % & : : > > < 2 1 1 1 1 7 7 8 7 8 0 w w w 9 9 7 * & < < ",
"7 9 w e e b G G r.f.m.7.G 7.r.m.S.S.m.k.k.k.' b Z 7.r.b w 5 5 9 w w b l b G G Z G Z Z Z Z e w 9 w 9 7 9 9 9 w w 7 4 4 4 4 4 4 4 4 4 4 4 5 7 w w w w l l l l l b w w w 9 7 1 1 < * * < < 1 * & % % - : & & : : : > > > 2 1 1 1 1 7 8 8 0 w w e w 9 9 9 7 * * < 1 ",
"7 9 e e b G G 7.7.r.m.r.r.f.r.f.S.S.k.k.m.m.r.r.7.G Z b w 9 w w G r.G l b G G G G G b b b e w w w 9 7 6 5 9 9 9 * 4 4 4 4 4 4 4 4 4 7 7 7 9 w l l l l l l l N l G G G b w 9 9 1 < 1 < * * < : : : < < < < : < : : > > 2 2 1 1 1 8 w w w e e e w 9 7 9 6 * 1 1 1 ",
"0 w e e G G G 7.r.r.k.r.m.f.f.S.S.S.S.S.S.S.S.f.r.G b l w w b b r.7.r.7.r.r.7.r.7.N b b e b w 9 9 7 6 5 5 4 6 6 6 4 4 4 4 4 4 4 4 5 9 9 9 w w G G l b l b N G G r.f.S.r.Z e w 7 7 7 1 * < 1 1 < < 1 1 1 * < < < : : > < 2 2 1 1 7 9 w w w w w 9 7 7 9 7 4 1 7 7 ",
"w e e Z Z G G r.S.m.f.m.m.m.S.S.S.S.S.T.T.T.T.S.m.r.r.r.r.7.G G r.r.f.S.S.m.r.r.7.G G Z Z b w 9 7 6 * 4 4 * 6 4 * 4 6 6 6 4 4 4 7 9 9 w w l G r.G b b G b G 7.r.f.S.T.T.B.0.b 0 0 0 8 1 7 9 7 7 7 7 7 7 7 1 < 1 < : > < < < < 1 6 6 6 7 9 9 9 9 9 9 9 9 9 7 7 0 ",
"e b b Z Z Z G r.S.m.m.k.f.S.r.S.S.S.S.T.T.T.T.T.T.S.S.m.S.T.S.m.f.f.S.S.S.f.f.k.r.r.G Z G b 9 9 6 < < : : < * < : < 7 7 7 9 7 6 7 9 w b w b w.r.7.G b G G f.S.S.T.T./.^.S.k.G e w 0 0 9 9 e b w w w w 9 9 7 1 1 < < < < < < * * 1 < < < 4 7 5 9 9 w 9 9 w w e w ",
"b e Z Z Z Z G r.S.S.S.S.S.k.k.S.T.S.T.!.!.T.T.!.T.T.T.S.T.S.S.S.f.S.S.S.S.f.f.f.r.r.r.b b 9 7 7 4 * : & & * < < : < 6 7 7 9 9 7 9 9 l b Z G r.r.r.G G r.m.S.S.^.).)._./.T.S.r.G b w w e e G G Z Z b w l w 9 7 6 < < 1 1 1 1 * * < < < < * 7 5 9 9 w 9 w w b b b ",
"b e b Z G 7.r.k.S.S.S.S.S.k.B.S.T.B.T.T./.T.T.T.T.T.T.T.T.S.B.S.S.S.S.r.r.7.r.7.r.7.G b w 9 6 4 * 4 * * * * < < < 6 7 7 8 8 w w w w b Z G f.f.m.r.r.r.r.S.S./.)././._.^.T.S.S.d.k.G Z 7.G 7.7.G G l l w w 9 9 7 1 1 7 7 7 7 7 5 4 < < 4 6 7 5 9 9 w w w e Z Z Z ",
"Z b b Z G r.r.f.S.S.S.T.S.S.k.B.B.B.T././././.T.T.T.T.T.T.S.B.k.S.f.r.7.G G G 7.G 7.w.b e 9 * * 4 4 * 4 4 6 6 < 6 7 8 8 8 0 w w w e b G 7.f.S.f.S.S.f.m.S.T.T.^.T./.^./.T.T.T.S.S.S.r.r.7.7.G G G G l w w w w 9 7 1 7 9 9 9 5 5 4 4 4 7 4 7 7 9 w w w e b Z G G ",
"Z b Z b G G G 7.k.S.S.S.S.S.k.k.B.S.T./.)./.)./.T.^.T.T.S.S.S.S.f.f.f.G G b l b N b N w w 7 * & 4 4 4 4 4 6 6 6 6 w w w 8 w w w e e b Z r.f.S.S.S.S.S.S.T.T.T.T.T.T.T.T.T.T.T.T.S.S.S.r.r.r.r.G G N b k w k l w 9 9 7 9 9 9 9 9 5 6 4 5 7 7 5 w w l w b b Z 7.G ",
"b b b Z G G G r.k.B.S.T.S.T.B.T.T.S.T././.)._.)./.).T.T.S.S.S.S.f.f.r.G G G l b G w w 9 7 6 * & * * 4 * 4 6 6 6 w e f f e r w w w e e b #.k.S.k.r.B.S.S.T.T.T.T.S.S.S.S.S.S.S.T.S.S.S.r.r.r.7.7.G N b l b b b b w w w 9 9 9 9 9 7 4 4 4 5 7 7 9 w w e b b Z G Z ",
"b b b Z G Z b Z 0.#.k.S.S.S.T.^.!.T.T.T.!./.)./.).T.S.T.S.S.B.S.S.f.r.7.G b w w w 9 7 7 6 * & & * & 4 6 7 7 7 7 Z #.#.g e w w e e e e Z 0.k.k.k.k.r.k.S.S.T.T.S.r.r.S.S.S.S.r.S.S.S.r.r.f.r.r.r.r.G b l l l l b w w w 9 9 9 7 5 4 4 4 6 5 5 7 7 9 w e e e b b b ",
"b b e e b b e e b ' #.k.S.S.T./.T.T.T.S.T./.).!.T.S.k.S.T.S.T.S.S.f.G b l l 7 5 6 6 & & & & & & & & * 4 9 9 9 w e r.#.' e e e e b e e b ' #.#.#.#.0.k.m.B.S.T.f.7.r.r.r.r.m.r.r.r.f.f.f.f.f.r.r.r.G b b l l l w w w w w 9 9 7 6 4 6 4 4 4 4 5 5 9 w w e e e b b ",
"b b b e e e w w w w g k.k.S.S.T.T.B.k.B.T.B.B.k.,.k.#.k.f.S.S.f.f.r.G l w 9 5 4 * & & & & & & * * * * 6 5 9 9 w r.f.k.7.b b b e W e e f g W W ( ' ' k.k.k.k.S.m.r.r.r.r.7.G 7.r.r.m.S.r.r.r.r.r.G G N b l l l l l w w w 9 7 5 4 4 6 6 7 4 4 4 4 9 9 w w e w w b ",
"w w w 9 8 9 8 8 8 8 w w b 7.r.S.k.0.G k.k.#.b ' b e Z e b G G N b w w 7 7 5 7 4 & & & & & & & & * * * * * 4 9 b 7.r.7.G Z G b b e e e f g f W W W ' #.7.#.r.f.r.7.r.7.G G 7.r.r.r.m.S.S.f.r.7.G G b l w w l l l l b w w w 7 5 6 6 6 6 * * * 4 < 7 7 9 w w w w e ",
"9 7 7 7 7 7 8 7 7 7 7 w w b #.,.G b b Z b e e b e e e e w k e e w 9 7 7 9 9 w 9 4 & & & & & & * * * * * * 4 9 w b 7.7.G G G b b e e e f r f f g g W #.#.G 7.r.7.G 7.G G G G 7.r.m.S.S.f.r.G G G b l l l l l l G G G N b w 9 6 6 7 7 6 4 * * < 1 1 1 1 7 9 9 9 w ",
"7 6 1 1 6 7 6 1 1 1 1 7 8 0 w 7 9 8 0 e e e e e e w w e e w 9 9 9 9 9 7 9 9 9 9 4 < & & & & & & * * 4 4 4 4 9 9 e b b N G b G b e e w r f g f f f g g Z G r.r.7.G G G G G 7.G r.S.m.r.G G G b l w w l l l b G G 7.7.G G e 9 7 7 9 9 6 7 1 1 1 1 1 1 1 1 7 7 8 9 ",
"6 6 1 < 1 1 < < < < < : < 1 7 1 6 7 7 8 w r w w 0 w b e w w 9 9 w 9 9 9 w w 9 9 7 7 6 * & & : & 4 4 4 4 4 4 7 7 9 w e b b Z G Z b e w w e g r r r e e b G 7.7.7.G G G G G 7.r.r.r.7.b w w w w w w w w l l G 7.r.r.r.r.G e w w 9 w w w w 9 7 1 7 7 1 7 7 7 7 7 9 ",
"6 < < < < & & & - - : : : : : : < < 7 7 8 0 w 0 w e e e w w w 9 9 9 9 9 w w w w 7 7 * & & & : & & 4 4 4 5 5 7 7 7 9 e b b b G G Z e e e e w w w w w e b Z G 7.G G G G G G G G G r.w 9 5 5 9 9 w w w l l G 7.r.r.f.m.r.G #.Z e e e e e w 8 8 7 7 8 8 7 7 7 7 7 7 ",
"< < : & & & & & : - - - - - - : : < 1 8 7 8 0 w w e e w w w w w w w 9 e w e e l w 7 * & & & & * * * * 4 7 7 7 9 9 w w e b b G G Z e e e w w w w w w e b b G G b l b B G G G N N w 5 5 5 5 5 7 9 9 w l b G r.r.f.S.f.r.7.#.#.#.W W e g w w 0 0 8 8 8 8 8 8 8 8 7 ",
"< < : : & & & : : : : : - - : : < 2 1 8 8 8 0 w w b Z b e e e e e w w e e e b b w 9 * & & & & & & * 4 6 9 w w 9 w w w w k b b G b e e e w w 0 0 0 w e e e b b l w l l b G G l l 9 4 4 4 5 7 7 9 9 w l b G r.f.m.S.S.S.k.k.#.#.W g g W f r 0 8 0 8 0 0 0 0 w w 7 ",
"7 < < : & & & & : & : : : - : < 2 2 3 8 0 r 8 w ' #.k.G e e e W g e e e ' ' e e w 7 4 * & * & & * 6 7 9 w w 9 w w w w w e k b b b b e e w w w w w w e w w e e e e k b l b N b w 5 4 4 4 5 5 9 9 w w l k N 7.f.S.S.T.S.S.k.k.#.W W W g g r 0 0 0 0 0 r w w w w 9 ",
"6 6 < < * & & & : : : : : : < 2 2 2 3 8 q r W ' ,.k.B.0.' e e W W e b b Z Z w 9 7 5 4 4 * 4 & * * 6 7 9 w e w w w e e w w l b b k b l e w w w e w w w w w w w w w k l w 9 9 9 9 4 4 4 4 4 5 9 w w l l l b G r.S.S.S.T.k.k.B.k.#.( W W g r r 0 r r r r w e w w 9 ",
"7 6 < 6 * * < < : : : : : < < 2 2 8 8 8 r W W #.,.B.B.0.' W W ' ' g Z Z Z G w 7 6 4 4 4 4 4 6 * 4 9 w e b W e e e #.7.Z k l b w w w w w w 9 w w w 9 9 8 9 w 9 7 9 9 9 7 5 5 5 4 4 4 4 4 4 5 9 w w w w l b G r.S.S.T.B.k.#.,.,.+.( W W f r r r r r r r w e w w 9 ",
"7 6 1 1 6 6 6 & : < < < < < 1 1 2 1 8 r r W ' #.#.B.B.k.' W W W ( #.0.G G b l w 9 4 4 4 4 4 9 7 w k b G 0.#.G Z Z k.k.r.G b b b N l w w 9 9 9 7 7 7 7 7 7 7 7 7 7 6 1 6 5 5 4 4 4 4 4 4 4 6 7 9 w w w l N G 7.r.f.S.B.,.#.W W W W W W W f f f f f f r e b w 8 8 ",
"7 6 < 6 7 9 7 6 < 1 < 1 < 1 1 1 1 7 r w g ' #.#.k.k.k.k.#.#.#.#.#.k.k.0.7.F l w 9 4 4 4 4 9 w k b G G r.k.k.7.7.r.m.m.S.S.f.r.r.G b w w 9 9 7 7 6 6 6 6 6 7 6 1 7 1 < < 6 6 4 4 4 4 4 4 6 6 7 9 w w l l G G G 7.r.k.B.#.W W W W e W W W g f r f f g e e w w 8 8 ",
"8 7 < < 6 7 7 6 6 7 1 1 1 1 7 7 7 8 w w e ' k.0.k.k.B.k.,.k.k.k.k.S.S.f.r.l w w w 7 4 4 4 w l l G r.r.S.S.S.r.r.k.S.S.S.T.T.S.m.d.r.b w w 9 7 7 6 6 1 6 7 7 6 1 1 1 < < < 6 6 4 * 4 4 < 6 6 7 9 w l F F G G G G 7.0.#.#.f r r w w e e e f r f f r r g e e w w 8 ",
"8 7 < < 1 6 6 6 7 6 6 1 1 1 7 7 8 w e e W #.#.#.N.N.B.k.k.k.k.B.S.S.r.r.G l w w 9 7 6 5 9 w l l 7.f.m.S.S.f.f.f.S.S.S.T.T.T.T.S.S.k.G w w 8 9 7 7 8 7 7 7 7 7 7 1 1 < < < 1 6 < < 6 6 6 7 7 9 9 w e b b G b Z G ' W W W r w 0 0 0 0 0 0 r r r r r r f e w w w 0 ",
"8 7 7 1 6 6 6 7 6 6 6 6 6 8 7 8 8 w w e ' #.k.k.3.N.B.k.k.k.k.B.S.S.f.G G l w 9 7 6 7 9 w w w w r.f.S.S.S.S.f.S.S.S.T.T.T.T.T.T.T.k.G b e w 9 w w w 0 8 8 8 7 7 7 1 1 2 < < 6 < < < 7 7 8 8 w e Z b b b e b Z #.' g g r r 0 0 0 0 0 0 8 0 0 0 0 0 0 r r r r w 0 ",
"w 8 7 7 6 7 7 9 9 7 7 7 9 0 0 8 w w w e W #.k.k.k.,.k.k.k.0.k.k.f.r.G G r.b w 9 6 5 5 9 9 w w e G m.S.S.S.S.f.S.S.T.T././.T.!.!.S.k.' g e w w w w w w 8 8 8 8 7 7 1 2 2 2 < 2 1 1 1 7 8 r r g ' Z G b b b Z G #.#.W g r r 8 7 8 0 8 8 8 8 8 0 0 0 0 r r r w w w ",
"w w 9 7 8 9 e w 9 w 9 w 9 w w w w w e e g #.#.,.k.,.,.k.#.0.0.k.f.r.G G G l w 7 4 4 5 5 7 w w e G r.f.f.S.S.S.S.S.T.T.^.^./././.T.k.g g r w w e w w 8 7 8 8 w 8 8 8 3 3 2 2 1 2 1 7 8 r r g W #.#.0.Z Z Z Z #.#.W g f 0 0 8 8 8 7 7 8 7 8 8 0 0 r 0 0 0 r g W e ",
"e w 9 9 w b b e e w w w w w e e e e e e e W #.#.k.3.+.,.0.#.#.r.r.r.G G G w 9 7 6 4 4 5 6 7 9 9 w G r.f.S.S.f.S.T.T.T./.^.!.!.!.S.#.g g r 0 w e w w 8 8 8 0 w 0 8 8 8 3 3 3 8 1 7 8 0 0 r f g W #.#.Z #.e W #.#.f r 8 8 8 8 8 8 7 7 7 8 0 0 8 r r r r r g #.7.G "
};
