/* XPM */
static char *_526b378266649c1f40d25ad1afae5d8QTKKMXDuM6YMUlko[] = {
/* columns rows colors chars-per-pixel */
"128 128 184 2 ",
"   c #7E9C9E",
".  c #759BA6",
"X  c #7C9DA4",
"o  c #759FAC",
"O  c #7A9FA9",
"+  c #7FA1A6",
"@  c #76A1AE",
"#  c #7CA2AD",
"$  c #73A4B6",
"%  c #7AA6B4",
"&  c #7DA9B6",
"*  c #7FAAB8",
"=  c #859B97",
"-  c #849E9E",
";  c #8A9F9B",
":  c #87A09F",
">  c #8DA29D",
",  c #92A49D",
"<  c #99A79C",
"1  c #9AA99E",
"2  c #829EA1",
"3  c #84A2A5",
"4  c #8BA5A3",
"5  c #8EA8A6",
"6  c #83A5AB",
"7  c #89A7A9",
"8  c #86A9AE",
"9  c #8BAAAD",
"0  c #92A6A1",
"q  c #94AAA4",
"w  c #9BADA3",
"e  c #93AEAC",
"r  c #99AFA9",
"t  c #9EB0A6",
"y  c #95B1AF",
"u  c #9CB2AC",
"i  c #81A7B1",
"p  c #83AAB4",
"a  c #8BADB2",
"s  c #85AEB8",
"d  c #89AFB8",
"f  c #91AFB1",
"g  c #8DB1B6",
"h  c #8DB2B8",
"j  c #97B5B5",
"k  c #95B5B6",
"l  c #96B6B7",
"z  c #94B2B3",
"x  c #98B4B3",
"c  c #99B5B4",
"v  c #99B6B5",
"b  c #98B6B7",
"n  c #9AB7B6",
"m  c #9BB5B2",
"M  c #9AB8B7",
"N  c #9DB8B5",
"B  c #90B3B8",
"V  c #93B5B8",
"C  c #90B4BA",
"Z  c #93B6BA",
"A  c #93B6B9",
"S  c #98B7B8",
"D  c #99B7B8",
"F  c #97B8BB",
"G  c #97B8BA",
"H  c #9AB9B9",
"J  c #99B9BB",
"K  c #9BBABA",
"L  c #9DB9B8",
"P  c #9DBAB9",
"I  c #9FBBB8",
"U  c #9DBBBB",
"Y  c #9EBBBA",
"T  c #9FBCBB",
"R  c #9CBBBC",
"E  c #9CBBBB",
"W  c #A0ADA1",
"Q  c #A2B2A6",
"!  c #A3B5AB",
"~  c #A9B7AA",
"^  c #A6B9AE",
"/  c #ABBAAD",
"(  c #B2BEAD",
")  c #A1B7B0",
"_  c #A4BAB3",
"`  c #AABEB3",
"'  c #A0BDBB",
"]  c #A3BEBB",
"[  c #A4BFBB",
"{  c #A0BDBC",
"}  c #A1BEBC",
"|  c #A3BFBC",
" . c #A2BFBE",
".. c #A4BFBC",
"X. c #A2BEBA",
"o. c #B0BFB1",
"O. c #B5C0AE",
"+. c #B8C2AF",
"@. c #AEC1B5",
"#. c #A5C0BC",
"$. c #A7C1BD",
"%. c #A7C2BE",
"&. c #A5C1BD",
"*. c #A8C2BD",
"=. c #A9C3BE",
"-. c #ACC3BC",
";. c #ABC4BE",
":. c #ADC5BF",
">. c #ADC6BF",
",. c #ACC4BD",
"<. c #B4C3B4",
"1. c #B9C5B4",
"2. c #BCC8B6",
"3. c #B2C6BA",
"4. c #B8C7B8",
"5. c #B3C9BF",
"6. c #B5C9BD",
"7. c #BCCBBC",
"8. c #C1CAB6",
"9. c #C1CEBB",
"0. c #C5D1BE",
"q. c #C9D3BE",
"w. c #A7C3C0",
"e. c #ADC7C1",
"r. c #AEC7C0",
"t. c #ACC6C0",
"y. c #AFC8C0",
"u. c #AFC8C1",
"i. c #AFC8C2",
"p. c #B0C7C0",
"a. c #B0C7C0",
"s. c #B0C9C1",
"d. c #B2C9C1",
"f. c #B1CAC1",
"g. c #B3CBC1",
"h. c #B1C9C2",
"j. c #B3CBC3",
"k. c #B2CAC2",
"l. c #B1CAC2",
"z. c #B5CBC2",
"x. c #B7CDC3",
"c. c #B4CBC2",
"v. c #BACEC2",
"b. c #B8CEC4",
"n. c #B9CFC4",
"m. c #BBCFC5",
"M. c #BACEC3",
"N. c #BED1C3",
"B. c #BBD0C6",
"V. c #BCD1C5",
"C. c #BDD1C6",
"Z. c #BED2C7",
"A. c #BFD3C7",
"S. c #BDD1C5",
"D. c #BED4C8",
"F. c #C0CFC0",
"G. c #C3D3C3",
"H. c #C9D6C3",
"J. c #C6D8C7",
"K. c #CDD9C5",
"L. c #C1D5C8",
"P. c #C2D6C9",
"I. c #C6D9CB",
"U. c #CADCCC",
"Y. c #D1DCC6",
"T. c #D3DEC9",
"R. c #CFE0CE",
"E. c #D5E1CB",
"W. c #DAE4CC",
"Q. c #DEE8CF",
"!. c #D4E4D1",
"~. c #D9E7D2",
"^. c #DDEAD4",
"/. c #E1E9CF",
"(. c #E3EDD4",
"). c #E1EFD8",
"_. c #EBF2D6",
"`. c #E6F2DA",
"'. c #EBF5DC",
"]. c #EFF9DE",
"[. c #F1FADF",
"{. c #F5FEE1",
"}. c #FAFFE4",
"|. c #FFFFE9",
/* pixels */
"$ $ $ $ $ $ $ $ $ $ $ $ $ $ $ $ $ $ $ $ $ $ $ $ $ $ $ $ $ $ $ $ $ $ $ $ $ % & s h C h B s p & $ $ $ $ $ $ $ $ $ $ $ $ $ $ $ $ $ $ $ p & % $ $ $ % & & p & a p p a z -.N.v.5.l.,.&... .b.A.L.A. .R F h p % $ $ $ $ $ $ $ $ $ $ $ $ $ $ $ $ $ $ $ $ $ $ $ $ $ $ $ ",
"$ $ $ $ $ $ $ $ $ $ $ $ $ $ $ $ $ $ $ $ $ $ $ $ $ $ $ $ $ $ $ $ $ $ $ $ $ % & s h h h s p p s % $ $ $ $ $ $ $ $ $ $ $ $ $ $ $ $ $ $ $ $ $ $ $ $ $ % p a p a z a a g P P P g &.' T P K  .r.l.A.l. .K h s % $ $ $ $ $ $ $ $ $ $ $ $ $ $ $ $ $ $ $ $ $ $ $ $ $ $ $ ",
"$ $ $ $ $ $ $ $ $ $ $ $ $ $ $ $ $ $ $ $ $ $ $ $ $ $ $ $ $ $ $ $ $ $ $ $ $ & & p s s % % % & p & % $ $ $ $ $ $ $ $ $ $ $ $ $ % % % $ $ $ $ $ $ $ $ $ & p p p b m x z d d d % M P S K P T -.l.A.B.l.R C C h $ $ $ $ $ $ $ $ $ $ $ $ $ $ $ $ $ $ $ $ $ $ $ $ $ $ $ ",
"$ $ $ $ $ $ $ $ $ $ $ $ $ $ $ $ $ $ $ $ $ $ $ $ $ $ $ $ $ $ $ $ $ $ $ $ $ & & p p & $ $ $ $ % $ $ $ $ $ $ $ $ $ $ $ $ $ $ % p p p & $ $ $ $ $ $ $ $ & % p p a a z a % & $ $ d V j j K P &.l.b.b.x.l.r.i.h % $ $ $ $ $ $ $ $ $ $ $ $ $ $ $ $ $ $ $ $ $ $ $ $ $ $ ",
"$ $ $ $ $ $ $ $ $ $ $ $ $ $ $ $ $ $ $ $ $ $ $ $ $ $ $ $ $ $ $ $ $ $ $ $ $ p s s p & $ $ $ $ $ $ $ $ $ $ $ $ $ $ $ $ $ $ % & d d d p % $ $ $ $ $ $ $ $ $ % & & % % % $ $ $ % s j b b P P  .r.b.A.b.l.i.,. .% $ % % $ $ $ $ $ $ $ $ $ $ $ $ $ $ $ $ $ $ $ $ $ $ $ ",
"$ $ $ $ $ $ $ $ $ $ $ $ $ $ $ $ $ $ $ $ $ $ $ $ $ $ $ $ $ $ $ $ $ $ $ $ $ s s d s p $ $ $ $ $ $ $ $ $ $ $ $ $ $ $ $ & & p p d d d & % $ $ $ $ $ $ $ $ $ $ $ $ $ $ $ $ $ p a j b M b P ' T &.l.A.z.i.,.-.&.p % $ $ $ $ $ $ $ $ $ $ $ $ $ $ $ $ $ $ $ $ $ $ $ $ $ ",
"$ $ $ $ $ $ $ $ $ $ $ $ $ $ $ $ $ $ $ $ $ $ $ $ $ $ $ $ $ $ $ $ $ $ % & & s h d & % $ $ $ $ $ $ $ $ $ % $ % & % % % p d s s d d d & $ $ $ $ $ $ $ $ $ $ $ $ $ $ $ $ s g z z z j b b P [  .&.r.x.z.l.-.&.' d p s & % $ $ $ $ $ $ $ $ $ $ $ $ $ $ $ $ $ $ $ $ $ $ ",
"$ $ $ $ $ $ $ $ $ $ $ $ $ $ $ $ $ $ $ $ $ $ $ $ $ $ $ $ $ $ $ C h & % p s s s & $ $ $ $ $ $ $ $ $ $ $ $ $ % p p & p d h g d d d p p $ $ $ $ $ $ $ $ $ $ $ $ $ $ % $ g d p p p z b b P -.&.-.,.p.r.l.p.,.K C C p p s & $ $ $ $ $ $ $ $ $ $ $ $ $ $ $ $ $ $ $ $ $ ",
"$ $ $ $ $ $ $ $ $ $ $ $ $ $ $ $ $ $ $ $ $ $ $ $ $ $ $ $ $ & g  .R h h d s p & % $ $ $ $ $ $ $ $ $ $ $ $ $ % p p p s h z j g s p p p % $ $ $ $ $ $ $ $ $ $ $ $ $ % % g a a % & p m L P &.-.,.,.l.i.l.x.z. .K G F h p $ $ $ $ $ $ $ $ $ $ $ $ $ $ $ $ $ $ $ $ $ $ ",
"$ $ $ $ $ $ $ $ $ $ $ $ $ $ $ $ $ $ $ $ $ $ $ $ $ $ $ $ $ & h &.R  . .C s % $ $ $ $ $ $ $ $ $ $ $ $ $ $ $ $ p s s s h g h p d s p p & $ $ $ $ $ $ $ $ $ $ $ $ $ $ & g & % % & x b L P ' &.&.,.l.l.x.A.b.A.x.t.&.p $ $ $ $ $ $ $ $ $ $ $ $ $ $ $ $ $ $ $ $ $ $ $ ",
"$ $ $ $ $ $ $ $ $ $ $ $ $ $ $ $ $ $ $ $ $ $ $ $ $ $ $ $ $ % h  . .G h h p $ $ $ $ $ $ $ $ $ $ $ $ $ $ $ $ $ & s s s d d s s d d p & % $ $ $ $ $ $ $ $ $ $ $ $ $ $ % % % % % p b L ' #.#.-.,.,.l.l.x.B.b.L.L.D.&.s $ $ $ $ $ $ $ $ $ $ $ $ $ $ $ $ $ $ $ $ $ $ $ ",
"$ $ $ $ $ $ $ $ $ $ $ $ $ $ $ $ $ $ $ $ $ $ $ $ $ $ $ $ $ $ p K F C h d & $ $ $ $ $ $ $ $ $ $ $ $ $ $ $ $ $ $ % & & p p p & & $ $ $ $ $ $ $ $ $ $ $ $ $ $ $ $ $ $ $ $ $ & & a b L _ [ ,.l.l.l.l.l.z.b.B.A.U.L.l.F s % $ % $ $ $ $ $ $ $ $ $ $ $ $ $ $ $ $ $ $ $ ",
"$ $ $ $ $ $ $ $ $ $ $ $ $ $ $ $ $ $ $ $ $ $ $ $ $ $ $ $ $ $ & G C R C h G C & $ $ $ $ $ $ $ $ $ $ $ $ $ $ $ $ $ $ $ $ $ $ $ $ $ $ $ $ $ $ $ $ $ $ $ $ $ $ $ $ $ $ $ $ $ & p b L L [ ,.v.x.z.l.l.x.l.l.x.A.I.U.I.b.K C R #.C K t.h $ $ $ $ $ % $ $ $ $ $ $ $ $ $ ",
"$ $ $ $ $ $ $ $ $ $ $ $ $ $ $ $ $ $ $ $ $ $ $ $ $ $ $ $ $ & s G C  .R F R &.R % $ $ $ $ $ $ $ $ $ $ $ $ $ $ $ $ $ $ $ $ $ $ $ $ $ $ $ $ $ $ $ $ $ $ $ $ $ $ $ $ $ $ $ $ & a x L [ *.6.v.z.,.5.l.i.l.x.b.A.A.x.A.U.U.l.A.U.I.!.!.D.* $ $ h s & $ $ $ $ $ $ $ $ $ ",
"$ $ $ $ $ $ $ $ $ $ $ $ $ $ $ $ $ $ $ $ $ $ $ $ $ $ $ $ % & g  .#.#.R K #.r. .$ $ $ $ $ $ $ $ $ $ $ $ $ $ $ $ $ $ $ $ $ $ $ $ $ $ % $ $ $ $ $ $ $ $ $ $ $ $ $ $ $ $ $ $ % p z b -.5.7.v.5.,.[ ,.,.l.A.B.A.A.G.L.J.U.R.E.!.^.`.(.^.x.w.w.C s $ $ $ $ $ $ $ $ $ $ ",
"$ $ $ $ $ $ $ $ $ $ $ $ $ $ $ $ $ $ $ $ $ $ $ $ $ $ % % p g G r.l.&.R R -.A.h $ $ $ $ $ $ $ $ $ $ $ $ $ $ $ $ $ $ $ $ $ $ $ $ $ $ $ % $ $ $ $ $ $ $ $ $ $ $ $ $ $ $ $ $ & & z b 3.6.v.N.6.,.' [ -.l.b.b.b.A.L.J.I.U.E.~.^.'.].{.!.D.I.j.#.h p $ $ $ $ $ $ $ $ $ ",
"$ $ $ $ $ $ $ $ $ $ $ $ $ $ $ $ $ $ $ $ $ & d d s p p p T &.,.l.r.#.R  .r.A.s $ $ $ $ $ $ $ $ $ $ $ $ $ $ $ $ $ $ $ $ $ $ $ $ $ $ $ $ $ $ $ $ $ $ $ $ $ $ & p a p % % $ % a ` @.3.3.7.v.x.,.[ #.-.,.b.A.b.A.J.J.U.U.!.^.`.].{.}.U.x.t.#.G L.r. .h $ % $ $ $ $ $ ",
"p & s p % % % & $ $ $ $ $ $ $ $ $ $ $ $ $ s P [ K j j S [ -.r.t.&.#. .R t.x.&.% $ $ $ $ $ $ $ $ $ $ $ $ $ $ $ $ $ $ $ $ $ $ $ $ $ $ $ % & $ $ $ $ $ $ % p a a z a p & & 8 z ` @.-.3.6.7.7.6.5.5.&.&.r.B.B.A.G.J.U.!.!.(.`.[.}.{.!.D.I.U.U.x.i.r.t.C h p p * * * ",
"h C d s p s h h s d G s $ $ $ $ $ $ $ $ $ V [ [ _ M b P ' &.&.&. .&.&. .#.r.A.C $ $ $ $ $ $ $ $ $ $ $ $ $ $ $ $ $ $ $ $ $ $ $ $ $ $ $ % & & $ $ $ % 9 e a a 9 z z 8 8 8 e m ` @.3.3.3.7.6.6.6.v.N.A.x.x.A.A.L.I.U.E.!.(.`.{.}.}.`.).'.`.I.i. .r.x.D.x.G h h d h ",
"R R R G &.l.x.b. .t.&.L.s & $ $ $ % h s K [ [ [ _ L L [ &.#.&.&.R  .&.,.&.l.b.R % $ $ $ $ $ $ $ $ $ $ $ $ $ $ $ $ $ $ $ $ $ $ $ $ $ $ $ $ & % % $ p 8 e e y u y y y y e y ) -.3.3.3.3.6.3.6.7.6.z.x.x.l.i.l.r.i.I.R.^.`.`.{.}.{.|.'.`.).U.B.l.L.L.A.U.B.i.j.i.t.",
"i.&.t.x.U.U.I.L.B.x.I.!.I.B.t.G d K A.x.5.,.[ ' P P ' [ &.-.,.-.P  .#.&.&.l.x.t.p $ $ $ $ $ $ $ $ $ $ $ $ $ $ $ $ $ $ $ $ $ $ $ $ $ $ $ $ p p & % p 8 e e y 9 8 9 m ) m a f -.-.3.@.@.3.3.6.7.7.v.x.x.,.&.R #.i.I.!.(.{.].{.|.{.{.'.^.~.L.B.I.U.I.U.!.~.!.U.L.x.",
"U.!.U.R.^.^.!.!.!.U.`.'.(.!.R.U.U.U.A.v.z.l.-.' ' ' [ [ -.-.,.&. .R  .&.t.l.x.r.& % $ $ $ $ $ $ $ $ $ $ $ $ $ $ $ $ $ $ $ $ $ $ $ $ $ $ $ & z j z z m z m m 8 & p 9 9 z a a m @.@.` ` ` 3.3.7.6.-.v.x.t.R R R &.x.T.~.[.[.{.}.}.}.{.`.~.U.U.!.!.~.!.^.[.}.(.!.D.",
"^.).`.!.^.!.{.{.{.'.].].`.^.!.!.E.U.A.b.v.5.-.' P ' [ [ *.,.,.&...K K R #.l.x.C s $ $ $ $ $ $ $ $ $ $ $ $ $ $ $ $ $ $ $ $ $ $ $ $ $ $ $ $ % $ & & p p p f y 8 $ $ % % 8 a a x ` ` ` ` ` @.@.@.-.` *.*...T G P [ ,.K.E.~.`.{.{.{.~.^.!.^.!.U.!.U.!.).^.'.}.|.`.^.",
"}.[.'.!.^.].{.}.[.{.{.[.[.^.!.!.E.U.L.v.x.v.6.*.K L [ *.5.l.,.r.-. .R K  .r.x.h s % $ $ $ $ $ $ $ $ $ $ $ $ $ $ $ $ $ $ $ $ $ $ $ $ $ $ $ $ $ $ $ $ $ % $ $ $ $ $ $ $ & p a z _ ) m z _ ` @.3.<._ m [ [ b b L L -.7.K.W.~.(.^.'.`.U.U.!.).~.E.I.U.!.!.^.`.{.|.|.",
"}.}.{.[.`.}.}.{.[.[.[.].'.(.E.E.R.U.G.B.x.x.z.[ P M _ [ 5.z.z.z.,.&.P K P r.z.G p $ $ $ $ $ $ $ $ $ $ $ $ $ $ $ $ $ $ $ $ $ $ $ $ $ $ $ $ $ $ $ $ $ $ $ $ $ $ $ $ $ $ $ % a p z m 8 8 9 y m ` ) m e f m L m z _ 3.K.W.(.(.(.(.(.(.R.U.I.).).!.U.D.L.I.U.b.L.}.}.",
"}.{.[.].[.}.}.[.(.(.(.(.~.~.U.U.U.U.J.A.v.x.5.' b M _ [ ,.-.v.,.,.-. .P P &.l.C % $ $ $ $ $ $ $ $ $ $ $ $ $ $ $ $ $ $ $ $ $ $ $ $ $ $ $ $ $ $ $ $ $ $ $ $ $ $ $ $ $ $ $ $ % % z 8 8 i & 8 e m ) m e 9 z m ) m ` H.W.(.(.(._._.(.).!.U.U.L.R.!.U.I.D.L.j.i.t.L.'.",
"`.}.{.[.].{.].].W.E.Y.K.K.G.v.A.J.J.G.A.v.z.,.' b j M _ _ ` ,.,.,.-.&. .T &. .s & $ $ $ $ $ $ $ $ $ $ $ $ $ $ $ $ $ $ $ $ $ $ $ $ $ $ $ $ $ $ $ $ $ $ $ $ $ $ $ $ $ $ $ $ $ % a p p p & 8 9 z ) _ m f a f N ` <.W./.W.Q.W.(.(.~.(.^.E.A.L.D.D.B.L.j. .K F &.t.I.",
"B.U.!.).].'.Q.~.K.H.H.H.J.N.,.v.v.N.G.L.N.6.,.' j z j j b L *.,.,.,.-.&...&.T s $ $ $ $ $ $ $ $ $ $ $ $ $ $ $ $ $ $ $ $ $ $ $ $ $ $ $ $ $ % $ $ & $ $ $ $ # 6 % % % $ $ $ % & a a p % $ p z m m ` _ m m m _ 4.H.H.Y.Y.Y.(.E.K.Y.E.W.E.G.z.l.l.l.r.R C g s h R &.",
"p d P [ 5.E.K.Y.H.0.G.G.J.6.,.5.6.6.v.G.J.L.v.[ L z z b m ` *.-.,.,.-.-.&.&.&.d $ $ $ $ $ $ $ $ $ $ $ $ $ $ $ $ $ $ $ $ % $ $ $ $ $ $ $ $ $ % % & % $ $ & % % # % % 6 % # # a z a p p % $ % p 8 m ` <.@.<.@.2.0.K.H.Y./.W.H.G.J.7.5.7.v.v.,.v.v.x.,.,.-.b p $ $ ",
"$ $ $ & p z ) 7.0.0.H.J.7.6.3.3.3.6.v.v.G.K.K.,.' M L _ ` -.-.-.v.x.i.-.-.,.-.G p $ $ $ $ $ $ $ $ $ $ $ $ $ $ $ $ $ $ % p p $ $ & & $ $ $ $ % & & % % % % % $ % # $ $ 8 6 e _ ` m a 8 % % % i & % % 8 <.4.9.<._ m ` H.E.E.H.7.*._ m ` _ _ 5.-.,.5.6.*.` L j & $ ",
"p & % $ & a z 3.9.0.9.7.7.6.3.3.3.6.7.v.J.U.K.6.*.[ [ _ ` 3.6.7.J.G.B.,.-.-.r.K p $ $ $ $ $ $ $ $ $ $ $ $ $ $ $ $ $ p p h s g s d s p % $ % & p p p p p i & & & 6 % $ % 6 a z m y e 8 # % & # % $ $ $ % 9 u u ) a a a z ` 3.6.` b z a p p a a z x m a p p a p p ",
"$ $ & % % p z m 3.0.7.7.7.7.3.3.3.6.v.G.K.K.K.v.3.-.*.` ` 3.v.G.U.I.A.l.,.-.,.l.h $ $ % $ $ $ $ $ $ $ $ $ $ $ $ $ $ & h h h V j g a p & & & & p z z z a 8 9 9 8 8 e a & & 8 p 8 9 8 9 8 8 8 % $ $ $ $ $ $ % 8 y a p & & p a z j p p p % % % % % & & $ $ $ $ $ $ ",
"$ $ % & & i z x ` 3.4.7.7.6.-.-.5.6.v.G.K.K.K.G.7.5.-.` ` 5.G.K.U.U.G.v.,.,.,.x.l.% % & % & $ $ $ $ $ $ $ $ $ $ $ $ p g G G V z g a p & & % & a m b m f z m ) ) y 9 e 9 9 u m 9 9 e e e 7 6 # $ $ $ $ $ $ $ # & 9 & % % % % p % p p & % % $ $ $ $ $ $ $ $ $ $ $ ",
"$ $ $ % i & a z x ` ` 3.3.-.-.-.3.5.7.G.H.K.H.J.G.6.3.@.-.6.v.U.U.U.G.A.l.,.l.x.A.s & p d h & $ $ $ $ $ $ $ $ $ $ $ p g j j j g g g d & % & p z m m x z m m ` <._ y m y u ) _ y 9 e e 8 6 + # $ $ $ $ $ $ $ $ & & % % & p i % $ $ $ $ $ $ $ $ $ $ $ $ $ $ $ $ $ ",
"$ % $ $ & % p a z a z m ` @.-.-.-.3.7.G.J.H.K.H.G.7.4.3.-.3.v.J.J.G.G.A.x.z.x.L.A.C h h B h & $ $ $ $ $ $ $ $ $ $ $ % h j j j g a a z p % p a z z y u m m _ <.3.` _ ` ` _ @.` ) u e e 8 # # # $ $ $ $ $ $ $ $ $ $ % $ & p p % % % $ $ $ $ $ $ $ $ $ $ $ $ $ $ $ ",
"% % $ $ $ $ % p p p a p p m @.-.3.6.7.7.G.H.K.H.G.9.7.4.3.7.7.L.L.A.A.v.v.U.U.I.x.K C G C g p % $ $ $ $ $ $ $ $ $ $ % s j j z z g g z p & p a z y e m u ) <.4.9.7.4.q.0.9.4.<.` _ u 5 6 % @ % $ $ $ $ $ $ $ $ $ $ $ % % p p & & & % $ $ $ $ $ $ $ $ & p $ $ $ $ ",
"% % % % $ $ $ % % % & p p a ` @.3.3.7.7.G.0.0.0.0.9.7.7.7.4.6.x.v.B.x.v.J.~.!.U.A.K K F G h s & $ $ $ $ $ $ $ $ $ $ % d z j j j z z j g p p a z f y m u ` 4.0.H.H.K.Y.H.0.9.<.` ` u 7 # % # @ $ $ $ $ $ $ $ $ $ $ $ $ $ & a f L ` _ #.j z j d $ & a m a 9 a i % ",
"% % & % $ % % & & & p p a m ` @.3.4.4.4.<.<.<.4.3.7.7.7.4.4.6.6.v.b.A.G.U.~.!.U.z.K P K G C B p $ $ $ $ $ $ $ $ $ $ $ s j M P M j j j V s p a f 9 e z m ` <.4.q.T.T.Y.K.H.9.7.<.<.~ e # # # # $ $ $ $ $ $ $ $ $ $ $ $ $ & p % % & a L v.v.G.5.P *.-.-.) ) m u % ",
"p 9 u e a p i p 9 a m N ) <.4.7.4.4.3.<.<.<.` <.<.4.3.` @.3.3.5.z.B.A.A.G.U.E.U.b. . .&.K C h & & $ $ $ $ $ $ $ $ $ % s j P P P b j j z g d a f a a z m ` ` <.2.q.K.K.K.0.9.7.3.<.` u 7 # # + % $ $ $ $ $ $ $ $ $ $ $ $ $ $ $ $ $ $ $ p L 7.7.5.5.3._ m ) _ ) 9 ",
"_ _ m u y e e y m ) _ @.3.7.9.9.7.4.4.<.<.` ` ` ` ` m m m ` ` *.,.b.A.A.b.b.A.A.v.z.x.r.,.G d & & $ $ $ $ $ $ $ $ $ & d g K M L b j z z z a a a d a z u ^ / o.1.9.q.H.0.9.7.7.4.9.7.` 9 6 # # # % $ $ $ $ $ $ $ $ $ $ $ $ $ $ $ $ $ $ $ p z _ L L m z m m ) _ _ ",
"! _ ` _ m e e e m ) _ <.<.7.7.0.9.9.4.<.<.` _ _ _ N e 8 9 y m L ,.x.A.b.v.x.z.x.x.b.b.B.l.K & & % $ $ $ $ $ $ $ $ $ $ s g j M L j z z g g a a a d a z ! ~ o.1.2.9.0.9.9.9.9.9.9.0.9.` e 8 # # % $ $ $ $ $ $ $ $ $ $ $ $ $ $ $ $ $ $ $ $ & & p p p a a e e 9 y e ",
"e e e y y e y u ! _ ` <.2.4.9.0.0.0.7.<.@.` ) _ ) m f e y y z b P -.z.x.z.l.l.z.b.A.A.L.v.G & % $ $ $ $ $ $ $ $ $ $ $ % g b b b z z z a a a a a a a y ! / <.1.4.2.8.2.2.2.9.0.0.0.9.` e 8 & % % $ $ $ $ $ $ $ $ $ $ $ $ $ $ $ $ $ $ $ $ $ & & & & & p 8 8 8 8 9 ",
"e z ! u y u u u ! ^ ` <.2.7.9.q.q.0.7.<.` _ ) ) N m z z z m y m L ' ,.5.l.l.z.x.A.B.B.B.l.C & % $ $ $ $ $ $ $ $ $ $ $ % d j b x z z z a a a a a a f u ! ~ ( <.1.1.4.1.4.4.2.0.q.q.2._ e 8 & % $ $ $ $ $ $ $ $ $ $ $ $ $ $ $ $ $ $ $ $ $ $ % i & & & & p i 8 8 9 ",
"` 4.<.<.` _ ) _ _ ` / <.1.8.9.9.9.9.7.<._ ) ) N m m z z z m z m L ' [ [ &.,.z.v.A.v.A.v.,.G & % $ $ $ $ $ $ $ $ $ $ $ $ p z b m z z z z z z z z a f y u ! ~ / ( ( <.<.<.<.4.9.0.9.<.` ) e i $ $ $ $ $ $ $ $ $ $ $ $ $ $ $ $ $ $ $ $ $ $ $ $ & a a p p a 8 9 y ) ",
"@.<.7.4.<.` _ _ _ ` / <.1.1.8.2.1.1.<.` ) ) m ) ) _ z z z m m m m _ [ _ ' -.r.z.A.A.A.v.l.P s & % % $ $ $ $ $ $ $ $ $ % & z x m z z y e y z z z f 9 e r ! w Q t Q ~ <.<.<.4.2.8.9.4.` u y & $ $ $ $ $ $ $ $ $ $ $ $ $ $ $ $ $ $ $ $ $ $ $ % % & a z z m z m ) ` ",
"4.0.9.4.<.` _ _ _ ` / <.+.1.8.1.O.o.~ ! u u u m _ ` m m m m m m m L _ L P &.r.l.v.b.V.A.z.-.T p & % % % & $ $ $ $ $ $ $ & z z m m z y y e y y e e e r r w w w w w ! / <.<.4.4.2.2.2.<.^ u 8 $ $ $ $ $ $ $ $ $ $ $ $ $ $ $ $ $ $ $ $ $ $ $ $ $ % i a a a a a f u ",
"9.9.7.4.<.` _ _ ^ ^ ~ ( +.+.1.1.<.<.` e 9 u u m x ` _ N m N m m z z m b M [ ,.l.l.5.z.l.l.l.&.G p & % & p p $ $ $ $ $ $ % a z z z y y y e y y y e e q q q q 0 q r r ! ` <.1.4.4.<.4.<._ ) 9 $ $ $ $ $ $ $ $ $ $ $ $ $ $ $ $ $ $ $ $ $ $ $ $ $ % 6 8 9 e a f _ <.",
"2.4.<.<.<.o.` ^ u y u ~ +.+.+.<.r 8 6 # % & p p & a b _ ` N m m m z z z b ' ' 5.x.z.,.,.l.l.p.' s p & & p i a & $ $ $ % $ p p a 8 e y e r r e e r r r e q q q r w u ! ` <.1.<.<.<.2.7.<.) z p $ $ $ $ $ $ $ $ $ $ $ $ $ $ $ $ $ $ $ $ $ $ % @ + 7 7 q r u ) o.8.",
"1.4.1.<.` u r r e e e ! ( ( ( ! e # % % % % % % % & p z b m m m m x f z b P ' B.b.x.,.,.,.x.l.,.C p p p p p p f i $ $ $ % & & & 6 e r r r r r r r r q e 5 q q w u ! ~ <.4.7.7.9.7.0.H.H.) z g p $ $ $ $ $ $ $ $ $ $ $ $ $ $ $ $ $ $ $ $ $ $ % # 5 q w ! u / 1.4.",
"<.1.<.( / u 3 7 e e e r u r r e % % % $ $ $ % & & & p a z m z m m m g a z b b ,.r.,.,.,.,.l.l.,.V p g z a p 8 e 8 % $ $ % & i i # 7 q q 0 q q q r q q r r r w u ! ~ ~ <.2.9.0.G.H.Y.Y.T.T.7.g a % $ $ $ $ $ $ $ $ $ $ $ $ $ $ $ $ $ $ $ $ $ % # 7 q w ~ +.+.1.1.",
"<.<.<./ ! r 7 7 e 5 7 e r r 7 % $ $ $ $ $ $ % % & i p z a p a z z z z a a a z j ' #.-.-.,.,.l.5.G d z a 8 i 8 9 6 % $ $ % # 8 8 6 6 q 0 4 4 0 0 q q w w r r w ! ! ! ` 2.4.7.0.K.Y.E.W.W.W.E._ a & $ $ $ $ $ $ $ $ $ $ $ $ $ $ $ $ $ $ $ $ $ % # 7 5 w ! / +.+.+.",
"+.+.( ! w 5 7 7 7 7 7 6 7 7 % $ $ $ $ $ $ $ % % % $ % & % $ % p a a a a p p g L ' [ &.&.-.,.,.,.P z z 8 6 8 7 7 6 # $ $ % # 7 7 7 3 5 0 4 4 4 0 q w w Q r w w ! r r / 2.9.0.K.Y.E.W.W.W.E.E.T.g p & $ $ $ $ $ $ $ $ $ $ $ $ $ $ $ $ $ $ $ % # # 7 3 q Q ~ ( +.+.",
"+.+.( r q 5 7 7 7 7 6 % $ $ $ $ $ $ $ $ $ $ $ $ $ $ $ $ $ $ $ $ p p p d d g j P ' ' '  .' &.,.,.,.j m 9 8 8 7 7 6 6 % % % # 7 q 5 3 4 0 > , > 0 q w Q Q Q w t t w e ^ 4.0.K.T.W.W.T.W.T.Y.K.K.b p & $ $ $ $ $ $ $ $ $ $ $ $ $ $ $ $ $ $ $ % # 6 6 3 3 r Q / ( +.",
"( / w q 5 3 3 7 7 3 % $ $ $ $ $ $ $ $ $ $ $ $ $ $ $ $ $ $ $ $ $ $ % p d g j P ' P ' ' ' T ' #.-.,.L m 9 8 7 5 5 7 6 6 # # + 5 q 0 4 3 , , , 0 0 q w w w w w t Q ! r r <.0.Y.W.T.Y.T.K.H.H.K.5.s p d s & % $ $ $ $ $ $ $ $ $ $ $ $ $ $ $ $ % # # # 6 3 7 q t ( ( ",
"! w 7 5 7 3 O # @ % $ $ $ $ $ $ $ $ $ $ $ $ $ $ $ $ $ $ $ $ $ $ % & p p p s b ' K j P P P ' ' -.' L z m 7 7 5 5 7 6 6 + + 3 4 4 , 0 4 , 0 1 q q q w w 1 1 w t Q ! t e ` 7.K.T.T.E.W.E.H.H.H.' g z a d s p $ $ $ $ $ $ $ $ $ $ $ $ $ $ $ $ $ @ % # + 3 3 7 q t ( ",
"r q 7 7 6 O O o $ $ $ $ $ $ $ $ $ $ $ $ $ $ $ $ $ $ $ $ $ $ $ $ $ $ % $ $ % s z z b M M b P ' *.' z z m e e q 5 7 3 3 + # 2 > > > , > q w w q 1 q w w 1 1 w Q Q Q Q e u <.0.Y.Y.E.W.E.K.G.G.*.L L g a s a & % $ $ $ $ $ $ $ $ $ $ $ $ $ $ $ $ $ % # 6 3 7 4 w Q ",
"5 6 # # 6 # @ @ $ $ $ $ $ $ $ $ $ $ $ $ $ $ $ $ $ $ $ $ $ $ $ $ $ $ $ $ $ $ p a z j b j j M P #.[ z a u u r r 5 4 3 2 X O 2 : > > q w w w q q q w w w w w w w w t w r e @.7.H.K.Y.T.Y.7.G.G.6.3.-.7.G.6.g p % % $ $ $ $ $ $ $ $ $ $ $ $ $ $ $ $ $ $ # 6 3 5 q q ",
"7 6 % % # # % $ $ $ $ $ $ $ $ $ $ $ $ $ $ $ $ $ $ $ $ $ $ $ $ $ $ $ $ $ $ $ & p a z j z b b _ [ *.j z f u u r q 3 3 - X O X - > > q w w w q 0 0 q 1 w w t t t t t t u e ` 4.9.K.K.K.K.7.G.G.G.H.K.K.Y.K.3.m p % $ $ $ $ $ $ $ $ $ $ $ $ $ $ $ $ $ $ $ % 6 3 7 5 ",
"7 6 & % % $ $ $ $ $ $ $ $ $ $ $ $ $ $ $ $ $ $ $ $ $ $ $ $ $ $ $ $ $ $ $ $ $ $ p a z m z z m _ ` -.[ z a e u u w 4 > - - X X - > 4 w q q q 0 0 < q 1 w t t ! u u ! ! ! 7 ) @.7.0.H.H.H.7.F.G.G.K.E.E.E.T.H.G.3.m p $ $ $ $ $ $ $ $ $ $ $ $ $ $ $ $ $ $ % % # 6 7 ",
"e 9 p & $ $ $ $ $ $ $ $ $ $ $ $ $ $ $ $ $ $ $ $ $ $ $ $ $ $ $ $ $ $ $ $ $ $ $ $ $ & m m m m ) @.3.3.N z u u ! w q > ; =   X 2 3 3 : > < < < 0 0 0 q w w w r u u e r u 7 u _ 7.7.H.K.H.H.G.H.K.W.(.(.Q.W.Q.Q.K.7.-.a $ $ $ $ $ $ $ $ $ $ $ $ $ $ $ $ $ % % # 6 7 ",
"8 p & % $ $ $ $ $ $ $ $ $ $ $ $ $ $ $ $ $ $ $ $ $ $ $ $ $ $ $ $ $ $ $ $ $ $ $ $ $ $ % a m m ) ` 3.<.<._ ! ! ~ t w , , > = -   - - - ; > , < < , < < q w q 5 u r 7 7 r e u ` 7.H.K.Y.Y.Y.Y.W.W.(.(.(.(.(.(.(.T.6.@.m i $ $ $ $ $ $ $ $ $ $ $ $ $ $ $ $ $ # # 6 7 ",
"% $ $ $ $ $ $ $ $ $ $ $ $ $ $ $ $ $ $ $ $ $ $ $ $ $ $ $ $ $ $ $ $ $ $ $ $ $ $ $ $ $ % p a y u ^ @.<.<.@./ ^ ~ Q w < , > ; - 2 - 2 - ; , , , < w 1 w q w 5 5 u 7 # + q 5 e 7.0.H.E.W.W.W.Q.~.(.(.(.~./.Q.Q.W.H.G.3.) 9 % $ $ $ $ $ $ $ $ $ $ $ $ $ $ $ $ # 6 6 7 ",
"$ $ $ $ $ $ $ $ $ $ $ $ $ $ $ $ $ $ $ $ $ $ $ $ $ $ $ $ $ $ $ $ $ $ $ $ $ $ $ $ $ $ $ $ 8 8 5 ~ ` <.o./ ~ ~ ~ Q W < , > > ; > > - ; > > > , 1 w w w w w 5 7 u e 6 + 7 7 e y 9.0.K.T.W.Q.Q.Q.W.Q.T.E.E.W.Q.W.7.3.3.` m y 6 % $ $ $ $ $ $ $ $ $ $ $ $ $ % # 6 # # ",
"% $ $ $ $ $ $ $ $ $ $ $ $ $ $ $ $ $ $ $ $ $ $ $ $ $ $ $ $ $ $ $ $ $ $ $ $ $ $ $ $ $ $ $ & 7 5 ! ~ ~ ~ ~ ! Q Q Q 1 , , > , > > - ; > > ; > , 1 w w w w w 5 7 r 5 # % + 3 7 6 e 3.9.H.Y.W.W.W.W.W.W.W.Y.E.W.E.6.` ) m z e 8 6 $ $ $ $ $ $ $ $ $ $ $ $ $ $ # # # % ",
"$ $ $ $ $ $ $ $ $ $ $ $ $ $ $ $ $ $ $ $ $ $ $ $ $ $ $ $ $ $ $ $ $ $ $ $ $ $ $ $ $ $ $ % % 6 7 q ! ~ ! ! Q w w w < , , > , , , > ; > > ; , , 1 1 w w w w 5 6 7 7 # % % # 6 $ # e ` @.7.Y.E.E.W.W.W.Y.K.Y.Y.H.<.m u e e e 8 6 % $ $ $ $ $ $ $ $ $ $ $ $ $ % % % % ",
"$ $ % $ $ $ $ $ $ $ $ $ $ $ $ $ $ $ $ $ $ $ $ $ $ $ $ $ $ $ $ $ $ $ $ $ $ $ $ $ $ $ $ % # # 7 7 t ! ! w w < , , , , , > > > , , , , > ; , , , 1 w w w w 7 # + 6 % $ $ $ $ $ $ 6 e u y y y m G.W.E.E.K.H.G.6.` z e 7 8 8 8 8 # $ $ $ $ $ $ $ $ $ $ $ $ $ $ $ $ $ ",
"% % & % % & $ $ $ $ $ $ $ $ $ $ $ $ $ $ $ $ $ $ $ $ $ $ $ $ $ $ $ $ $ $ $ $ $ $ $ $ $ $ # 6 7 7 3 w w 0 0 4 4 4 4 4 4 4 > > , , , > > ; > , , < w w t Q 5 % # % $ $ $ $ $ $ $ $ # # # 8 9 9 f 3.Y.K.Y.7.G.3.m y 8 p 8 $ & 8 # % $ $ $ $ $ $ $ $ $ $ $ $ $ $ $ $ ",
"& & s s s s p $ $ $ $ $ $ $ $ $ $ $ $ $ $ $ $ $ $ $ $ $ $ $ $ $ $ $ $ $ $ $ $ $ $ $ $ $ # 3 + + 6 3 4 4 7 7 7 5 4 0 4 4 4 > 4 > , > > ; > , < < 1 w Q u 7 # % $ $ $ $ $ $ $ $ $ $ $ % # 8 6 8 u 9.K.K.6.7.` m a 9 p & & $ i & % $ $ $ $ $ $ $ $ $ $ $ $ $ $ $ $ ",
"s s h h h s & $ $ $ $ $ $ $ $ $ $ $ $ $ $ $ $ $ $ $ $ $ $ $ $ $ $ $ $ $ $ $ $ $ $ $ $ $ # 3 + + 6 6 + # 6 7 7 5 5 q 4 4 4 4 > > > > ; ; , < < 1 1 w Q r 6 # $ $ $ $ $ $ $ $ $ $ $ $ % # # & # 8 ` G.K.7.3.` ) a 8 % % $ $ i 8 & % $ $ $ $ $ $ $ $ $ $ $ $ % $ & ",
"d h C C s p & $ $ $ $ $ $ $ $ $ $ $ $ $ $ $ $ $ $ $ $ $ $ $ $ $ $ $ $ $ $ $ $ $ $ $ $ $ % + # X + # # + + 6 6 7 5 4 0 4 4 4 4 > > ; ; ; , , < < 1 w Q 6 % $ $ $ $ $ $ $ $ $ $ $ $ $ $ % # % % & a ` 7.-.` ` z p p & $ $ % & & 6 % % $ $ $ $ $ $ $ $ $ $ $ $ p p ",
"h h K C d & & & $ $ $ $ $ $ $ $ $ $ $ $ $ $ $ $ $ $ $ $ $ $ $ $ $ $ $ $ $ $ $ $ $ $ $ $ % @ % # # # # # # 6 + 7 4 0 4 4 4 4 > > > ; > > , , < 1 w Q r % $ $ $ $ $ $ $ $ $ $ $ $ $ $ $ $ $ % % % & z m ` ` ` z a p & $ $ $ % % % & & % % % $ $ $ $ $ $ $ % p s d ",
"h G G g p & % % $ $ $ $ $ $ $ $ $ $ $ $ $ $ $ $ $ $ $ $ % % % % $ $ $ $ $ $ $ $ % $ $ $ % $ $ % % # # # + + 3 7 4 4 4 4 4 4 4 > 4 > > , w W w Q t q + $ $ $ $ $ $ $ $ $ $ $ $ $ $ $ $ $ $ $ $ $ $ p z _ m _ ) z & % $ $ $ $ $ % % & & % % % $ $ $ $ % % & s h z ",
"d h d & & & % $ $ $ $ $ $ $ $ $ $ $ $ $ $ $ $ $ % $ $ % & a p p % % $ $ $ # # % % % @ @ @ % $ $ % # # # + + 4 4 4 4 3 4 4 4 4 4 4 > , q w ! w r 5 6 $ $ $ $ $ $ $ $ $ $ $ $ $ $ $ $ $ $ $ $ $ $ $ p f m m _ L m a % $ $ $ $ $ % % % & & % & & % $ % & p & p s p ",
"p p % $ $ $ $ $ $ $ $ $ $ $ $ $ $ $ $ $ $ $ $ $ % % % p a z m a p p & % % 6 # + # @ @ % % % $ $ $ % # # + 3 4 4 4 3 + 3 4 4 4 4 4 > 0 q w # % # # $ $ $ $ $ $ $ $ $ $ $ $ $ $ $ $ $ $ $ $ $ $ $ $ p p z z m N m a & % $ $ $ $ $ $ % & & & & p & p p p p % p p p ",
"% $ $ $ $ $ $ $ $ $ $ $ $ $ $ $ $ $ $ $ $ $ $ $ % & a a a a m m m z a & # 6 6 6 + # # # @ @ % % $ $ @ o X 3 4 4 4 3 3 4 4 5 7 4 4 3 # 7 6 $ $ $ % $ $ $ $ $ $ $ $ $ $ $ $ $ $ $ $ $ $ $ $ $ $ $ $ $ & e m z x g d & % $ $ $ $ $ $ % % % % % & p & % % % % % $ % ",
"$ $ $ $ $ $ $ $ $ $ $ $ $ $ $ $ $ $ $ $ $ $ $ & % p p a a a z b b m z 9 5 5 7 6 + # # # @ % % % % $ $ o . X 2 3 3 X X 3 4 5 7 7 3 + $ $ $ $ $ $ $ $ $ $ $ $ $ $ $ $ $ $ $ $ $ $ $ $ $ $ $ $ $ $ $ $ % 6 9 m a p p & % $ $ $ $ $ $ % % % % % % % $ $ $ $ $ $ $ $ ",
"$ $ $ $ $ $ $ $ $ $ $ $ $ $ $ $ $ $ $ $ % $ % p & & % % p p g x m m m r 5 5 7 + + # @ % % % % $ $ % @ o . . X X X X 3 4 4 5 7 6 # $ $ $ $ $ $ $ $ $ $ $ $ $ $ $ $ $ $ $ $ $ $ $ $ $ $ $ $ $ $ $ $ $ $ % % 6 8 8 & & $ $ $ $ $ $ $ % & & & % % $ $ $ $ $ $ $ $ $ ",
"$ $ $ $ $ $ $ $ $ $ $ $ $ $ $ $ $ $ $ $ $ $ p p & & % % & & p z z z y e 8 8 6 # # # @ $ $ $ % % $ $ % o $ o . X X 3 4 7 5 7 # # $ $ $ $ $ $ $ $ $ $ $ $ $ $ $ $ $ $ $ $ $ $ $ $ $ $ $ $ $ $ $ $ $ $ $ $ $ $ % 8 6 % $ $ $ $ $ $ $ % & p & & % $ $ $ $ $ $ $ $ $ ",
"$ $ $ $ $ $ $ $ $ $ $ $ $ $ $ $ $ $ $ $ $ % s p p & % % % % & p a a a 8 8 p % % % $ $ $ $ $ $ $ $ % % % o o o . o X X 4 7 # $ $ $ $ $ $ $ $ $ $ $ $ $ $ $ $ $ $ $ $ $ $ $ $ $ $ $ $ $ $ $ $ $ $ $ $ $ $ % % % i 6 % $ $ $ $ $ $ $ $ % $ $ $ $ $ $ $ $ $ $ $ $ $ ",
"$ $ $ $ $ $ $ $ $ $ $ $ $ $ $ $ $ $ $ $ $ $ $ % % & % $ % & & p p s p p p % $ $ $ $ $ $ $ $ $ $ $ $ % @ $ $ $ $ $ o + + + $ $ $ $ $ $ $ $ $ $ $ $ $ $ $ $ $ $ $ $ $ $ $ $ $ $ $ $ $ $ $ $ $ $ $ % % % & & p p p i # % $ $ $ $ $ $ $ % $ $ $ $ $ $ $ $ $ $ $ $ $ ",
"$ $ $ $ $ $ $ $ $ $ $ $ $ $ $ $ $ $ $ $ $ $ $ $ % % $ $ & & & p p p p & & $ $ $ $ $ $ $ $ $ $ $ $ $ $ @ $ $ $ $ @ # @ $ % $ $ $ $ $ $ $ $ $ $ $ $ $ $ $ $ $ $ $ $ $ $ $ $ $ $ $ $ $ $ $ $ $ % % % p p a a a a p & & % $ $ $ $ $ $ $ $ $ $ $ $ $ $ $ $ $ $ $ $ $ ",
"$ $ $ $ $ $ $ $ $ $ $ $ $ $ $ $ $ $ $ $ $ $ $ $ $ % $ $ & & & p & p p % $ $ $ $ $ $ $ $ $ $ $ $ $ $ $ $ $ $ $ % @ $ $ $ $ $ $ $ $ $ $ $ $ $ $ $ $ $ $ $ $ $ $ $ $ $ $ $ $ $ $ $ $ $ % % % % % % a a f z z z e p 6 & % % $ $ $ $ $ $ $ $ $ $ $ $ $ $ $ $ $ $ $ $ ",
"$ $ $ $ $ $ $ $ $ $ $ $ $ $ $ $ $ $ $ $ $ $ $ $ $ % $ $ & i & p p p & & % $ $ $ $ $ $ $ $ $ $ $ $ $ $ $ $ $ $ $ $ $ $ $ $ $ $ $ $ $ $ $ $ $ $ $ $ $ $ $ $ $ $ $ $ $ $ $ $ $ $ $ $ % # # # # 8 9 f m m ) m m u a 8 8 & & % $ $ $ $ $ $ $ $ $ $ $ $ $ $ $ $ $ $ $ ",
"$ $ $ $ $ $ $ $ $ $ $ $ $ $ $ $ $ $ $ $ $ $ $ $ $ $ $ $ % & # i i & p & % $ $ $ $ $ $ $ $ $ $ $ $ $ $ $ $ $ $ $ $ $ $ $ $ $ $ $ $ $ $ $ $ $ $ $ $ $ $ $ $ $ $ $ $ $ $ $ $ $ % % % % 6 7 8 7 9 9 e z m _ _ _ _ m a 8 p p % $ $ $ $ $ $ $ $ $ $ $ $ $ $ $ $ $ $ $ ",
"$ $ $ $ $ $ $ $ $ $ $ $ $ $ $ $ $ $ $ $ $ $ $ $ $ $ $ % % % % % % p p & $ $ $ $ $ $ $ $ $ $ $ $ $ $ $ $ $ $ $ $ $ $ $ $ $ $ $ $ $ $ $ $ $ $ $ $ $ $ $ $ $ $ $ $ $ $ $ $ $ $ $ $ $ $ 6 5 7 8 r u ! m m _ u m z a a a p & % $ $ $ $ $ $ $ $ $ $ $ $ $ $ $ $ $ $ $ ",
"$ $ $ $ $ $ $ $ $ $ $ $ $ $ $ $ $ $ $ $ $ $ $ $ $ $ $ $ % % % % % % & & $ $ $ $ $ $ $ $ $ $ $ $ $ $ $ $ $ $ $ $ $ $ $ $ $ $ $ $ $ $ $ $ $ $ $ $ $ $ $ $ $ $ $ $ $ $ $ $ $ $ $ $ $ & 5 7 5 r u u r z e m y a a a p p & & % $ $ $ $ $ $ $ $ $ $ $ $ $ $ $ $ $ $ $ ",
"$ $ $ $ $ $ $ $ $ $ $ $ $ $ $ $ $ $ $ $ $ $ $ $ $ $ $ $ $ $ $ $ $ $ $ $ $ $ $ $ $ $ $ $ $ $ $ $ $ $ $ $ $ $ $ $ $ $ $ $ $ $ $ $ $ $ $ $ $ $ $ $ $ $ $ $ $ $ $ $ $ $ $ $ $ $ $ $ $ 6 e u ^ u r e 5 a 9 9 z a p p p & % % % $ $ $ $ $ $ $ $ $ $ $ $ $ $ $ $ $ $ $ ",
"$ $ $ $ $ $ $ $ $ $ $ $ $ $ $ $ $ $ $ $ $ $ $ $ $ $ $ $ $ $ $ $ $ $ $ $ $ $ $ $ $ $ $ $ $ $ $ $ $ $ $ $ $ $ $ $ $ $ $ $ $ $ $ $ $ $ $ $ $ $ $ $ $ $ $ $ $ $ $ $ $ $ $ $ $ $ $ $ % 8 y u e e 7 7 7 p 9 9 8 p p p $ % % % $ $ $ $ $ $ $ $ $ $ $ $ $ $ $ $ $ $ $ $ ",
"$ $ $ $ $ $ $ $ $ $ $ $ $ $ $ $ $ $ $ $ $ $ $ $ $ $ $ $ $ $ $ $ $ $ $ $ $ $ $ $ $ $ $ $ $ $ $ $ $ $ $ $ $ $ $ $ $ $ $ $ $ $ $ $ $ $ $ $ $ $ $ $ $ $ $ $ $ $ $ $ $ $ $ $ $ $ $ $ % e u 9 9 5 5 5 8 8 p & 6 p p p & & % $ $ $ $ $ $ $ $ $ $ $ $ $ $ $ $ $ $ $ $ $ ",
"$ $ $ $ $ $ $ $ $ $ $ $ $ $ $ $ $ $ $ $ $ $ $ $ $ $ $ $ $ $ $ $ $ $ $ $ $ $ $ $ $ $ $ $ $ $ $ $ $ $ $ $ $ $ $ $ $ $ $ $ $ $ $ $ $ $ $ $ $ $ $ $ $ $ $ $ $ $ $ $ $ $ $ $ $ $ $ $ % 8 e 8 9 e 8 8 6 8 p % % % p p $ % & $ $ $ $ $ $ $ $ $ $ $ $ $ $ $ $ $ $ $ $ $ ",
"$ $ $ $ $ $ $ $ $ $ $ $ $ $ $ $ $ $ $ $ $ $ $ $ $ $ $ $ $ $ $ $ $ $ $ $ $ $ $ $ $ $ $ $ $ $ $ $ $ $ $ $ $ $ $ $ $ $ $ $ $ $ $ $ $ $ $ $ $ $ $ $ $ $ $ $ $ $ $ $ $ $ $ $ $ $ $ $ % e e 8 8 5 7 6 6 8 p & % $ $ $ $ $ $ $ $ $ $ $ $ $ $ $ $ $ $ $ $ $ $ $ $ $ $ $ ",
"$ $ $ $ $ $ $ $ $ $ $ $ $ $ $ $ $ $ $ $ $ $ $ $ $ $ $ $ $ $ $ $ $ $ $ $ $ $ $ $ $ $ $ $ $ $ $ $ $ $ $ $ $ $ $ $ $ $ $ $ $ $ $ $ $ $ $ $ $ $ $ $ $ $ $ $ $ $ $ $ $ $ $ $ $ $ $ $ 8 u y 8 8 9 6 # # & & p & $ $ $ $ $ $ $ $ $ $ $ $ $ $ $ $ $ $ $ $ $ $ $ $ $ $ $ ",
"$ $ $ $ $ $ $ $ $ $ $ $ $ $ $ $ $ $ $ $ $ $ $ $ $ $ $ $ $ $ $ $ $ $ $ $ $ $ $ $ $ $ $ $ $ $ $ $ $ $ $ $ $ $ $ $ $ $ $ $ $ $ $ $ $ $ $ $ $ $ $ $ $ $ $ $ $ $ $ $ $ $ $ $ $ $ $ $ 6 e 8 8 8 & & & # % % % $ $ $ $ $ $ $ $ $ $ $ $ $ $ $ $ $ $ $ $ $ $ $ $ $ $ $ $ ",
"$ $ $ $ $ $ $ $ $ $ $ $ $ $ $ $ $ $ $ $ $ $ $ $ $ $ $ $ $ $ $ $ $ $ $ $ $ $ $ $ $ $ $ $ $ $ $ $ $ $ $ $ $ $ $ $ $ $ $ $ $ $ $ $ $ $ $ $ $ $ $ $ $ $ $ $ $ $ $ $ $ $ $ $ $ $ $ # 6 6 7 6 & $ $ % % $ $ $ $ $ $ $ $ $ $ $ $ $ $ $ $ $ $ $ $ $ $ $ $ $ $ $ $ $ $ $ ",
"$ $ $ $ $ $ $ $ $ $ $ $ $ $ $ $ $ $ $ $ $ $ $ $ $ $ $ $ $ $ $ $ $ $ $ $ $ $ $ $ $ $ $ $ $ $ $ $ $ $ $ $ $ $ $ $ $ $ $ $ $ $ $ $ $ $ $ $ $ $ $ $ $ $ $ $ $ $ $ $ $ $ $ $ $ % # # + # # % $ $ % % % $ $ $ $ $ $ $ $ $ $ $ $ $ $ $ $ $ $ $ $ $ $ $ $ $ $ $ $ $ $ $ ",
"$ $ $ $ $ $ $ $ $ $ $ $ $ $ $ $ $ $ $ $ $ $ $ $ $ $ $ $ $ $ $ $ $ $ $ $ $ $ $ $ $ $ $ $ $ $ $ $ $ $ $ $ $ $ $ $ $ $ $ $ $ $ $ $ $ $ $ $ $ $ $ $ $ $ $ $ $ $ $ $ $ $ $ $ % # # $ $ % $ % $ & & p p & & % % % $ $ $ $ $ $ $ $ $ $ $ $ $ $ $ $ $ $ $ $ $ $ $ $ $ $ ",
"$ $ $ $ $ $ $ $ $ $ $ $ $ $ $ $ $ $ $ $ $ $ $ $ $ $ $ $ $ $ $ $ $ $ $ $ $ $ $ $ $ $ $ $ $ $ $ $ $ $ $ $ $ $ $ $ $ $ $ $ $ $ $ $ $ $ $ $ $ $ $ $ $ $ $ $ $ $ $ $ $ $ $ $ @ + % $ $ $ % % & & & p p p & % % $ $ $ $ $ $ $ $ $ $ $ $ $ $ $ $ $ $ $ $ $ $ $ $ $ $ $ ",
"$ $ $ $ $ $ $ $ $ $ $ $ $ $ $ $ $ $ $ $ $ $ $ $ $ $ $ $ $ $ $ $ $ $ $ $ $ $ $ $ $ $ $ $ $ $ $ $ $ $ $ $ $ $ $ $ $ $ $ $ $ $ $ $ $ $ $ $ $ $ $ $ $ $ $ $ $ $ $ $ $ $ $ # 7 6 % % $ $ $ % & p $ % & % $ $ $ $ $ $ $ $ $ $ $ $ $ $ $ $ $ $ $ $ $ $ $ $ $ $ $ $ $ $ ",
"$ $ $ $ $ $ $ $ $ $ $ $ $ $ $ $ $ $ $ $ $ $ $ $ $ $ $ $ $ $ $ $ $ $ $ $ $ $ $ $ $ $ $ $ $ $ $ $ $ $ $ $ $ $ $ $ $ $ $ $ $ $ $ $ $ $ $ $ $ $ $ $ $ $ $ $ $ $ $ $ $ $ % 7 7 # $ $ $ $ $ & & & $ $ $ $ $ $ $ $ $ $ $ $ $ $ $ $ $ $ $ $ $ $ $ $ $ $ $ $ $ $ $ $ $ $ ",
"$ $ $ $ $ $ $ $ $ $ $ $ $ $ $ $ $ $ $ $ $ $ $ $ $ $ $ $ $ $ $ $ $ $ $ $ $ $ $ $ $ $ $ $ $ $ $ $ $ $ $ $ $ $ $ $ $ $ $ $ $ $ $ $ $ $ $ $ $ $ $ $ $ $ $ $ $ $ $ $ $ $ @ 6 7 % $ $ $ $ % p & % $ $ $ $ $ $ $ $ $ $ $ $ $ $ $ $ $ $ $ $ $ $ $ $ $ $ $ $ $ $ $ $ $ $ ",
"$ $ $ $ $ $ $ $ $ $ $ $ $ $ $ $ $ $ $ $ $ $ $ $ $ $ $ $ $ $ $ $ $ $ $ $ $ $ $ $ $ $ $ $ $ $ $ $ $ $ $ $ $ $ $ $ $ $ $ $ $ $ $ $ $ $ $ $ $ $ $ $ $ $ $ $ $ $ $ $ $ $ % 6 7 % $ $ $ $ & & % $ $ $ $ $ $ $ $ $ $ $ $ $ $ $ $ $ $ $ $ $ $ $ $ $ $ $ $ $ $ $ $ $ $ $ ",
"$ $ $ $ $ $ $ $ $ $ $ $ $ $ $ $ $ $ $ $ $ $ $ $ $ $ $ $ $ $ $ $ $ $ $ $ $ $ $ $ $ $ $ $ $ $ $ $ $ $ $ $ $ $ $ $ $ $ $ $ $ $ $ $ $ $ $ $ $ $ $ $ $ $ $ $ $ $ $ $ $ $ $ # 8 % % $ $ $ p & $ $ $ $ $ $ $ $ $ $ $ $ $ $ $ $ $ $ $ $ $ $ $ $ $ $ $ $ $ $ $ $ $ $ $ $ ",
"$ $ $ $ $ $ $ $ $ $ $ $ $ $ $ $ $ $ $ $ $ $ $ $ $ $ $ $ $ $ $ $ $ $ $ $ $ $ $ $ $ $ $ $ $ $ $ $ $ $ $ $ $ $ $ $ $ $ $ $ $ $ $ $ $ $ $ $ $ $ $ $ $ $ $ $ $ $ $ $ $ $ $ 6 7 8 % $ $ $ p $ $ $ $ $ $ $ $ $ $ $ $ $ $ $ $ $ $ $ $ $ $ $ $ $ $ $ $ $ $ $ $ $ $ $ $ $ ",
"$ $ $ $ $ $ $ $ $ $ $ $ $ $ $ $ $ $ $ $ $ $ $ $ $ $ $ $ $ $ $ $ $ $ $ $ $ $ $ $ $ $ $ $ $ $ $ $ $ $ $ $ $ $ $ $ $ $ $ $ $ $ $ $ $ $ $ $ $ $ $ $ $ $ $ $ $ $ $ $ $ $ $ % 9 9 & % $ $ & $ $ $ $ $ $ $ $ $ $ $ $ $ $ $ $ $ $ $ $ $ $ $ $ $ $ $ $ $ $ $ $ $ $ $ $ $ ",
"$ $ $ $ $ $ $ $ $ $ $ $ $ $ $ $ $ $ $ $ $ $ $ $ $ $ $ $ $ $ $ $ $ $ $ $ $ $ $ $ $ $ $ $ $ $ $ $ $ $ $ $ $ $ $ $ $ $ $ $ $ $ $ $ $ $ $ $ $ $ $ $ $ $ $ $ $ $ $ $ $ $ $ $ & 9 8 & $ $ & $ $ $ $ $ $ $ $ $ $ $ $ $ $ $ $ $ $ $ $ $ $ $ $ $ $ $ $ $ $ $ $ $ $ $ $ $ ",
"$ $ $ $ $ $ $ $ $ $ $ $ $ $ $ $ $ $ $ $ $ $ $ $ $ $ $ $ $ $ $ $ $ $ $ $ $ $ $ $ $ $ $ $ $ $ $ $ $ $ $ $ $ $ $ $ $ $ $ $ $ $ $ $ $ $ $ $ $ $ $ $ $ $ $ $ $ $ $ $ $ $ $ % 8 a a p $ % p $ $ $ $ $ $ $ $ $ $ $ $ $ $ $ $ $ $ $ $ $ $ $ $ $ $ $ $ $ $ $ $ $ $ $ $ $ ",
"$ $ $ $ $ $ $ $ $ $ $ $ $ $ $ $ $ $ $ $ $ $ $ $ $ $ $ $ $ $ $ $ $ $ $ $ $ $ $ $ $ $ $ $ $ $ $ $ $ $ $ $ $ $ $ $ $ $ $ $ $ $ $ $ $ $ $ $ $ $ $ $ $ $ $ $ $ $ $ $ $ $ $ $ p a z p $ p p $ $ $ $ $ $ $ $ $ $ $ $ $ $ $ $ $ $ $ $ $ $ $ $ $ $ $ $ $ $ $ $ $ $ $ $ $ ",
"$ $ $ $ $ $ $ $ $ $ $ $ $ $ $ $ $ $ $ $ $ $ $ $ $ $ $ $ $ $ $ $ $ $ $ $ $ $ $ $ $ $ $ $ $ $ $ $ $ $ $ $ $ $ $ $ $ $ $ $ $ $ $ $ $ $ $ $ $ $ $ $ $ $ $ $ $ $ $ $ $ $ $ $ p g j d & p & $ $ $ $ $ $ $ $ $ $ $ $ $ $ $ $ $ $ $ $ $ $ $ $ $ $ $ $ $ $ $ $ $ $ $ $ $ ",
"$ $ $ $ $ $ $ $ $ $ $ $ $ $ $ $ $ $ $ $ $ $ $ $ $ $ $ $ $ $ $ $ $ $ $ $ $ $ $ $ $ $ $ $ % $ % $ $ $ $ $ $ $ $ $ $ $ $ $ $ $ $ $ $ $ $ $ $ $ $ $ $ $ $ $ $ $ $ $ $ $ $ $ & z z g s s $ $ $ $ $ $ $ $ $ $ $ $ $ $ $ $ $ $ $ $ $ $ $ $ $ $ $ $ $ $ $ $ $ $ $ $ $ $ ",
"$ $ $ $ $ $ $ $ $ $ $ $ $ $ $ $ $ $ $ $ $ $ $ $ $ $ $ $ $ $ $ $ $ $ $ $ $ $ $ $ $ $ $ $ % $ $ $ $ $ $ $ $ $ $ $ $ $ $ $ $ $ $ $ $ $ $ $ $ $ $ $ $ $ $ $ $ $ $ $ $ $ $ $ % g z h B B % $ $ $ $ $ $ $ $ $ $ $ $ $ $ $ $ $ $ $ $ $ $ $ $ $ $ $ $ $ $ $ $ $ $ $ $ $ ",
"$ $ $ $ $ $ $ $ $ $ $ $ $ $ $ $ $ $ $ $ $ $ $ $ $ $ $ $ $ $ $ $ $ $ $ $ $ $ $ $ $ $ & % % % $ $ $ $ $ $ $ $ $ $ $ $ $ $ $ $ $ $ $ $ $ $ $ $ $ $ $ $ $ $ $ $ $ $ $ $ $ $ $ s z g C K h $ $ $ $ $ $ $ $ $ $ $ $ $ $ $ $ $ $ $ $ $ $ $ $ $ $ $ $ $ $ $ $ $ $ $ $ $ ",
"$ $ $ $ $ $ $ $ $ $ $ $ $ $ $ $ $ $ $ $ $ $ $ $ $ $ $ $ $ $ $ $ $ $ $ $ $ $ $ $ $ $ % & % % % $ $ $ $ $ $ $ $ $ $ $ $ $ $ $ $ $ $ $ $ $ $ $ $ $ $ $ $ $ $ $ $ $ $ $ $ $ $ s g g C K K $ $ $ $ $ $ $ $ $ $ $ $ $ $ $ $ $ $ $ $ $ $ $ $ $ $ $ $ $ $ $ $ $ $ $ $ $ ",
"$ $ $ $ $ $ $ $ $ $ $ $ $ $ $ $ $ $ $ $ $ $ $ $ $ $ $ $ $ $ $ $ $ $ $ $ $ $ $ $ $ $ $ & % $ $ $ $ $ $ $ $ $ $ $ $ $ $ $ $ $ $ $ $ $ $ $ $ $ $ $ $ $ $ $ $ $ $ $ $ $ $ $ $ s h d G  .#.h $ $ $ $ $ $ $ $ $ $ $ $ $ $ $ $ $ $ $ $ $ $ $ $ $ $ $ $ $ $ $ $ $ $ $ $ ",
"$ $ $ $ $ $ $ $ $ $ $ $ $ $ $ $ $ $ $ $ $ $ $ $ $ $ $ $ $ $ $ $ $ $ $ $ $ $ $ $ $ $ % & % $ $ $ $ $ $ $ $ $ $ $ $ $ $ $ $ $ $ $ $ $ $ $ $ $ $ $ $ $ $ $ $ $ $ $ $ $ $ $ $ p z h G  .R F $ $ $ $ $ $ $ $ $ $ $ $ $ $ $ $ $ $ $ $ $ $ $ $ $ $ $ $ $ $ $ $ $ $ $ $ ",
"$ $ $ $ $ $ $ $ $ $ $ $ $ $ $ $ $ $ $ $ $ $ $ $ $ $ $ $ $ $ $ $ $ $ $ $ $ $ $ $ $ $ % % $ $ $ $ $ $ $ $ $ $ $ $ $ $ $ $ $ $ $ $ $ $ $ $ $ $ $ $ $ $ $ $ $ $ $ $ $ $ $ $ $ & g C K  .R K h $ $ $ $ $ $ $ $ $ $ $ $ $ $ $ $ $ $ $ $ $ $ $ $ $ $ $ $ $ $ $ $ $ $ $ ",
"$ $ $ $ $ $ $ $ $ $ $ $ $ $ $ $ $ $ $ $ $ $ $ $ $ $ $ $ $ $ $ $ $ $ $ $ $ $ $ % $ $ % & $ $ $ $ % $ $ $ $ $ $ $ $ $ $ $ $ $ $ $ $ $ $ $ $ $ $ $ $ $ $ $ $ $ $ $ $ $ $ $ $ % V G K R  .R G h $ $ $ $ $ $ $ $ $ $ $ $ $ $ $ $ $ $ $ $ $ $ $ $ $ $ $ $ $ $ $ $ $ $ ",
"$ $ $ $ $ $ $ $ $ $ $ $ $ $ $ $ $ $ $ $ $ $ $ $ $ $ $ $ $ $ $ $ $ $ $ $ $ & % % $ $ % & $ $ $ $ $ $ $ $ $ $ $ $ $ $ $ $ $ $ $ $ $ $ $ $ $ $ $ $ $ $ $ $ $ $ $ % $ % $ % & h P R &.l.K K G h $ $ $ $ $ $ $ $ $ $ $ $ $ $ $ $ $ $ $ $ $ $ $ $ $ $ $ $ $ $ $ $ $ $ ",
"$ $ $ $ $ $ $ $ $ $ $ $ $ $ $ $ $ $ $ $ $ $ $ $ $ $ $ $ $ $ $ $ $ $ $ $ $ & p & $ $ $ % % % % $ $ $ $ $ $ $ $ $ $ $ $ $ $ $ $ $ $ $ $ $ $ $ $ $ $ $ $ $ $ $ $ % & % $ & d G  .l.i. .K K G h $ $ $ $ $ $ $ $ $ $ $ $ $ $ $ $ $ $ $ $ $ $ $ $ $ $ $ $ $ $ $ $ $ $ ",
"$ $ $ $ $ $ $ $ $ $ $ $ $ $ $ $ $ $ $ $ $ $ $ $ $ $ $ $ $ $ $ $ $ $ $ $ & p h s % $ $ % $ % % $ $ $ $ $ $ $ $ $ $ $ $ $ $ $ $ $ $ $ $ $ $ $ $ $ $ $ $ $ $ $ $ $ p & p d h h R &.,.K K K G G $ $ $ $ $ $ $ $ $ $ $ $ $ $ $ $ $ $ $ $ $ $ $ $ $ $ $ $ $ $ $ $ $ $ ",
"$ $ $ $ $ $ $ $ $ $ $ $ $ $ $ $ $ $ $ $ $ $ $ $ $ $ $ $ $ $ $ $ $ $ $ % p s C h d % $ $ $ $ $ $ $ $ $ $ $ $ $ $ $ $ $ $ $ $ $ $ $ $ $ $ $ $ $ $ $ $ $ $ $ $ $ $ & h s h h G C R ,.F P K F K $ $ $ $ $ $ $ $ $ $ $ $ $ $ $ $ $ $ $ $ $ $ $ $ $ $ $ $ $ $ $ $ $ $ ",
"$ $ $ $ $ $ $ $ $ $ $ $ $ $ $ $ $ $ $ $ $ $ $ $ $ $ $ $ $ $ $ $ $ $ $ $ & & h h s & $ $ $ $ $ $ $ $ $ $ $ $ $ $ $ $ $ $ $ $ $ $ $ $ $ $ $ $ $ $ $ $ $ $ $ $ $ $ & z C C G F G C ,.K P  .P R & $ $ $ $ $ $ $ $ $ $ $ $ $ $ $ $ $ $ $ $ $ $ $ $ $ $ $ $ $ $ $ $ $ ",
"$ $ $ $ $ $ $ $ $ $ $ $ $ $ $ $ $ $ $ $ $ $ $ $ $ $ $ $ $ $ $ $ $ $ $ $ & % s s p p $ $ $ $ $ $ $ $ $ $ $ $ $ $ $ $ $ $ $ $ $ $ $ $ $ $ $ $ $ $ $ $ $ $ $ $ $ $ % z P F K F K C t. . .,. .T h & $ $ $ $ $ $ $ $ $ $ $ $ $ $ $ $ $ $ $ $ $ $ $ $ $ $ $ $ $ $ $ $ ",
"$ $ $ $ $ $ $ $ $ $ $ $ $ $ $ $ $ $ $ $ $ $ $ $ $ $ $ $ $ $ $ $ $ $ $ % & $ % & & p p % $ $ $ $ $ $ $ $ $ $ $ $ $ $ $ $ $ $ $ $ $ $ $ $ $ % p & & % $ $ $ $ $ $ % d P F G R R C R ,.,.r.R R G d p $ $ $ $ $ $ $ $ $ $ $ $ $ $ $ $ $ $ $ $ $ $ $ $ $ $ $ $ $ $ $ ",
"$ $ $ $ $ $ $ $ $ $ $ $ $ $ $ $ $ $ $ $ $ $ $ $ $ $ $ $ $ $ $ $ $ $ $ $ $ $ % & & s h s $ $ $ $ $ $ $ $ $ $ $ $ $ $ $ $ $ $ $ $ $ $ $ $ $ & p s p & % $ $ $ $ $ % g P F C R  .F K &.l.z. .G R C h & $ $ $ $ $ $ $ $ $ $ $ $ $ $ $ $ $ $ $ $ $ $ $ $ $ $ $ $ $ $ ",
"$ $ $ $ $ $ $ $ $ $ $ $ $ $ $ $ $ $ $ $ $ $ $ $ $ $ $ $ $ $ $ $ $ $ $ $ $ $ & & p h h h $ $ $ $ $ $ $ $ $ $ $ $ $ $ $ $ $ $ $ $ $ $ $ $ $ % & & & & & & $ $ $ $ % p ' R R R l.&.P &.,.x.A.B.C  .h s % $ $ $ $ $ $ $ $ $ $ $ $ $ $ $ $ $ $ $ $ $ $ $ $ $ $ $ $ $ ",
"$ $ $ $ $ $ $ $ $ $ $ $ $ $ $ $ $ $ $ $ $ $ $ $ $ $ $ $ $ $ $ $ $ $ $ $ $ $ & & p h G h % $ % $ $ $ $ $ $ $ $ $ $ $ $ $ $ $ $ $ $ $ $ $ % % $ % & & & & $ $ $ $ $ p L ,.x.r.B.r. . .&.x.A.A.F  .h d & & $ $ $ $ $ $ $ $ $ $ $ $ $ $ $ $ $ $ $ $ $ $ $ $ $ $ $ $ ",
"$ $ $ $ $ $ $ $ $ $ $ $ $ $ $ $ $ $ $ $ $ $ $ $ $ $ $ $ $ $ $ $ $ $ $ $ $ % & p d h F R & % % $ $ $ $ $ $ $ $ $ $ $ $ $ $ $ $ $ $ $ & p & $ $ % $ % % % $ $ $ $ $ p [ A.J.A.L.l. . .&.B.L.L.R  .C h & $ $ $ $ $ $ $ $ $ $ $ $ $ $ $ $ $ $ $ $ $ $ $ $ $ $ $ $ $ ",
"$ $ $ $ $ $ $ $ $ $ $ $ $ $ $ $ $ $ $ $ $ $ $ $ $ $ $ $ $ $ $ $ $ $ $ $ $ % & & h h h G s & % $ $ $ $ $ $ $ $ $ $ $ $ $ $ $ $ $ $ $ & & $ $ % % $ $ % % $ $ $ % & z -.J.U.J.J.x.&.&.-.B.L.L.#.R K h & $ $ $ $ $ $ $ $ $ $ $ $ $ $ $ $ $ $ $ $ $ $ $ $ $ $ $ $ $ "
};
