/* XPM */
static char *ba19ca1e2a654487b962fd42a1749d80L1VTftnDwLmpV9cp[] = {
/* columns rows colors chars-per-pixel */
"128 128 256 2 ",
"   c #30233C",
".  c #392A47",
"X  c #3C304E",
"o  c #2F1E41",
"O  c #45344C",
"+  c #483857",
"@  c #493453",
"#  c #4C3A64",
"$  c #533D66",
"%  c #533D72",
"&  c #4C4557",
"*  c #54485C",
"=  c #534E59",
"-  c #544364",
";  c #55436B",
":  c #5A456B",
">  c #5C4C6C",
",  c #584A65",
"<  c #5B5368",
"1  c #5C4B73",
"2  c #5A4877",
"3  c #5D5475",
"4  c #4D4569",
"5  c #634C6A",
"6  c #64536C",
"7  c #67586B",
"8  c #634D73",
"9  c #654D7A",
"0  c #645373",
"q  c #6A5574",
"w  c #645B74",
"e  c #6B5B74",
"r  c #64537B",
"t  c #6B557B",
"y  c #6C5B7C",
"u  c #655A7A",
"i  c #725C7B",
"p  c #745978",
"a  c #715771",
"s  c #6C627B",
"d  c #6B6476",
"f  c #74637C",
"g  c #78677A",
"h  c #79737C",
"j  c #6C636C",
"k  c #615665",
"l  c #826F7C",
"z  c #5C4E83",
"x  c #654D85",
"c  c #6C5B83",
"v  c #685687",
"b  c #735D84",
"n  c #765B88",
"m  c #6B5993",
"M  c #755C96",
"N  c #6B4E91",
"B  c #6C6486",
"V  c #746383",
"C  c #7A6484",
"Z  c #7B6B85",
"A  c #74648B",
"S  c #7B658B",
"D  c #756A8B",
"F  c #7C6B8B",
"G  c #756B84",
"H  c #7C738C",
"J  c #7A7586",
"K  c #746393",
"L  c #7B6493",
"P  c #7C6B93",
"I  c #79689A",
"U  c #7C7395",
"Y  c #6D6394",
"T  c #745DA3",
"R  c #7B68A4",
"E  c #7C74A4",
"W  c #7569AD",
"Q  c #826C8C",
"!  c #846988",
"~  c #83738C",
"^  c #87768A",
"/  c #836C94",
"(  c #836C9B",
")  c #876997",
"_  c #847393",
"`  c #8B7494",
"'  c #8C7B94",
"]  c #84739B",
"[  c #8B749B",
"{  c #8C7B9B",
"}  c #847A97",
"|  c #927C94",
" . c #927C9C",
".. c #947699",
"X. c #927094",
"o. c #846CA4",
"O. c #866BA8",
"+. c #8473A3",
"@. c #8B74A4",
"#. c #8C7BA4",
"$. c #8C74AB",
"%. c #8C7BAB",
"&. c #8478A7",
"*. c #937CA3",
"=. c #937CAB",
"-. c #9778A7",
";. c #8B77B5",
":. c #947BB3",
">. c #977AB8",
",. c #8B6BB3",
"<. c #A37DA9",
"1. c #A47DB3",
"2. c #856196",
"3. c #987AC7",
"4. c #9172C5",
"5. c #A47CCC",
"6. c #7C8390",
"7. c #89828C",
"8. c #8B8498",
"9. c #94839C",
"0. c #97879A",
"q. c #978C93",
"w. c #A3909D",
"e. c #8B83A7",
"r. c #9483A3",
"t. c #9A84A4",
"y. c #9C8BA4",
"u. c #9483AB",
"i. c #9B84AB",
"p. c #9C8BAC",
"a. c #958AA6",
"s. c #9B94A8",
"d. c #9583B3",
"f. c #9B83B4",
"g. c #9C8BB3",
"h. c #9B83BB",
"j. c #9C8BBC",
"k. c #9488B8",
"l. c #9C93B9",
"z. c #8C87B1",
"x. c #A38CAC",
"c. c #A488A8",
"v. c #A493AC",
"b. c #A795A9",
"n. c #A38CB3",
"m. c #A38CBC",
"M. c #A788B7",
"N. c #B28ABA",
"B. c #AB94B4",
"V. c #A393BB",
"C. c #AB94BB",
"Z. c #AB9BBB",
"A. c #A698B5",
"S. c #B398BA",
"D. c #B29AAA",
"F. c #ABA4B9",
"G. c #B6A6BA",
"H. c #AFA7AE",
"J. c #AAA19D",
"K. c #C5B0BF",
"L. c #9C86C5",
"P. c #9D93C4",
"I. c #9E83D1",
"U. c #A38BC3",
"Y. c #A58CCB",
"T. c #A888C8",
"R. c #B68DC8",
"E. c #A493C4",
"W. c #AB93C4",
"Q. c #AC93CC",
"!. c #AC9BCB",
"~. c #A798C6",
"^. c #B49CC4",
"/. c #B394CC",
"(. c #B49CCB",
"). c #B998C7",
"_. c #A889D4",
"`. c #B38CD9",
"'. c #AD94D3",
"]. c #AC97D6",
"[. c #B394D3",
"{. c #B39BD4",
"}. c #B393DB",
"|. c #BA9CDB",
" X c #B89AD7",
".X c #ABA3C8",
"XX c #B4A3CC",
"oX c #B9A7C7",
"OX c #B4A3D3",
"+X c #BBA3D3",
"@X c #BBA3DB",
"#X c #BAA9D9",
"$X c #B8B3D0",
"%X c #B99AE3",
"&X c #B38DE2",
"*X c #BDA6E4",
"=X c #BFACEC",
"-X c #9FA0C0",
";X c #C49BD8",
":X c #C39ACB",
">X c #C3A8CA",
",X c #C5B5CA",
"<X c #C3ABDC",
"1X c #C5A7D8",
"2X c #C7B5D9",
"3X c #D5B9DA",
"4X c #D2B2D6",
"5X c #C39CE7",
"6X c #C69DF1",
"7X c #C3A4E4",
"8X c #C4ABE3",
"9X c #CBACE4",
"0X c #CBACEB",
"qX c #C6A6EA",
"wX c #D3AAE7",
"eX c #C5B2E4",
"rX c #CAB4E4",
"tX c #CCB4EB",
"yX c #CCBAEC",
"uX c #CAB8E6",
"iX c #D3B4EC",
"pX c #D3BBEC",
"aX c #D6B8E7",
"sX c #CCACF3",
"dX c #C8A6F3",
"fX c #D3ACF6",
"gX c #CDB5F3",
"hX c #D3B4F4",
"jX c #D4BBF3",
"kX c #DBBCF4",
"lX c #DBBCFD",
"zX c #D7B6FB",
"xX c #E2BDFE",
"cX c #E4B8FB",
"vX c #E4BAEE",
"bX c #D1C3D9",
"nX c #D7C4E9",
"mX c #DCC3FC",
"MX c #D9C5F6",
"NX c #CDC6E7",
"BX c #E3C4FE",
"VX c #EAC5FF",
"CX c #E4CBFE",
"ZX c #EBCCFF",
"AX c #E4C7F4",
"SX c #F2CCFF",
"DX c #ECD3FF",
"FX c #E9D6FD",
"GX c #F3D4FF",
"HX c #F5DAFF",
"JX c #FCDCFF",
"KX c #F8D6FC",
"LX c #E7CEEA",
"PX c #FEE2FF",
"IX c #FCE8FF",
"UX c #F8ECFF",
/* pixels */
"<.| | c.B.c.0.| ' ' y.+X@X8X8X<XmXHXCXBXkXiX<X1XhX@X X'.Q.h.' f w e G ^ | ' h ! Z g ~ Q Q [ @./ 8 < =.` ~ Q ! _ [ ) 2.V i f ! .   r 3 + & = H ~ ~ ` { *.Q = < k d h 7 O O O + #.o.O.O.I I V.XX+X{.OXOXh.n v v r r u V ' 9.9.9. ...[ r.p.Z.oX<X9X[ [ V.V..XoXZ Q ",
"} | 0.0.B.B.v.v.b.b.b.<X2X2XrX9XHXHXJXGXCXkX9X:XkX8X@X!./.U.-.' ' ^ ^ c.y.| ^ ^ ~ ~ ~ ~ ~ ! e q q 6  . . .| ) ! -.@.` _ / [ M O . o . & & , < w ' ` ` ` ` < w s G J 7 ! g g g R R I I I V.Z.oX+X+X$.c v v v v w e G F Z 9.y.y.c.0. .x.n.Z.oX,Xi. . ...` F.oX! ~ ",
"_ ' | 9.B.S.b.b.b.b.MXuXaXnXnXnXMXGXZXMXMXMXkX:XS.tX<X+X(.).R.0.8.7.7.B.n.7.^ ^ J ^ ^ ` S C f f p p 8.0.0. ...) :.r.-.r.2.2.v o o O . X + 6 u y B B #.~ ~ | G H U U { ~ ! ! ^ +.+.+.$.@.0.A.m.A S n n c 9 > w s V Z ~ S p.n.B.B.B.b.A.A.S.oX+X0.c.c.c.....` {.Q ",
"9.` 9.9.0.B.G.B.B.B.aXnXAXAXCXbXFXCXFXDXFXZXAXaX1XkXaX<X1X1X;X' 0.8.9.C.7.^ ^ 7.7.t.[ _ Q ! ~ ^ ^ ! g B.c.<...) ) v.B.-.) -.$ . $ @ O @ + 4 3 V A A c v r | H U e.e.} ^ ^ ! =.u.d.d.u.k.L ~ ) / / ) x : , 3 3 G H } 8.r.9.V.W.^.v.B.B.S.G.oXx.x.B.C.C.c.t. . .a.",
"c.c.S.c.9.c.b.c.S.F.nXAXDXCXmXJXGXGXGXHXHXGXSXAXaXCXAXaX;XwX1X).0.9.v.v.^ 7.p.{ p.p.{ ' ' 7.0.0.0...X.1XN.1.../ C oXM.N.1.9 $ t 5 $ O X + 4 3 v v L n c 0 6 z x a.l.p.X.~ ^ V.V.V.a.# J } *.-.@.O.2 2 , , 3 u P } e.a.g.| E.B.S.A.A.G.oX>X>XB.N.C.W.^.).N.c.w.0.",
"A.B.G.oXoXS.S.v.y.jXCXCXmXBXDXJXJXJXHXHXHXGXGXVXkXMXCXpXW.7XtXwX' ' v.a.{ r.a.{ u.i. .9.0.s.b.D.B.c.<.` ).1...! S +XN.).9 M 8 n p 5 + O @ 4 ; 2 x v K B d j w 4 2 z P G.^ ^ C.,.$ + # U #.:.;.,.2 ; 4 , < w B A #.u.g.V.t.B.^.oXA.G.,X,X3X>XR.T.U.W.W.(.(.S.B.b.",
"v.S.S.oX>X).2X<XoXmXCXCXCXZXPXPXJXHXHXJXHXHXGXZXBXDXDXCX1XBXmXmX' ' y.' { r.a.{ r.y.t.s.b.H.G.>X>X:XN.-.:XM.-.X.! #X'.n n <.X.X.! - # + + + ; 2 2 x v D G h h z v K I I  .F R I v r M K o.,.,.2 ; - - < w y A V u.k.A.Z.S.B. XoXG.oX,X2XnX>XR.T.m.m.U.W.(.(.S.S.",
"S.^.).oX>X).^.oXF.CXCXDXZXZXPXPXPXPXPXHXHXHXHXSXVXZXCXmX<XZXDXZX' ' 9.' { 9.a.' a.x.x.A.H.$X,XbX3X4X:X1.j.N.<.X.! tX$.$.~.M.-.X.! 0 : - # + # ; : 2 1 G J 7.7.U &.%.$.v D t :.>.:.$.;.n I R T : - , , w s A L F i.A.~.XXOXoX@XF.oX2X2XbXnX;XT.M.>.>.f.m.U.W.^.^.",
"S.C.^.XXB.G.>XF.XXjXBXCXDXAXGXPXPXPXPXPXPXJXHXGXVXGXDXDXkXmXtX8Xt t n b y 9.r.' y.x.v.F.oXbXnXLXAXvXwX:X-.).c.-.X.B.-.m.OXS.B.<.X.y p q : , * - , > > G H 8.} u.; %X_.j.OX(.>.L.1 h.d.K v v > > > < 0 u A L _ H { ~.!.{.~..X<XXX<X2XuXnXMX}.M.:.=.=.=.=.f.g.A.^.",
"S.S.c.F.$X<X2XjX#X<XCXDXDXGXGXPXPXPXPXPXPXPXHXHXZXDXDXZXzXmXkX7Xn ) ) ! n t 8 ^ y.x.A.F.$XbXFXDXSXSXvX:X<.XXS.M.-...N.).!.XX).N.Q i i p e , , , < < 7 7 J _ m._.I.I._.j.{.!.;.;.;.;.R 7 c q q q q w t c P _ ] ' #.W.Q.[.k.l.$XXX#X2XrXiX}.T.:.=.-.-.-.-.*.u.p.A.",
"4X1XF.oX2XuXnXMXuX2XDXGXGXHXHXDXmXPXPXPXPXPXPXJXGXGXGXBXlXCXBX) ) m.h.) ) n t 8 + 1 B.F.$XNXFXHXGXSXcX:X<.[ ).R.M.M.B.c.~.~. XR.Q C f V i e 7 7 j j j t.E k._.3.3.3.L.Y.!.~.:.;.;.;.O.>.Y.;.y y y b b A F U ] #.u.j.Q.T.&.@X#X<X+X<X7X{.h.:.=.@.@.@.@. . . .t.b.",
"aXAX1X2XuXnXmXBXCXaXBXGXHXJXMXMXHXJXZXBXPXHXDXDXDXJXSXZXCXCXCX@.-.U.h.-.) ! i 0 - * - , oXNXFXFXGXGXcX;XN.-.[.W.m.).N.M.(.W.[.=._ Q Z Z Z h h l 7.4.&.;.:.;.3.3.;.;.%.L.Y.E.E.W O.W R I Y.k.d.&.c A A b L ] [ #.u.f.T.] ] OX+X|.(. X|.f.$.@.[ [ [ [ [ [ { s.bXAX",
"ZXGXZX2XpXMXmXCXDXAXkXGXGXZXCXCXGXHXJXJXPXHXHXGXGXGXVXGXGXGX8X| | c.j.>.@.) t q q , , > 6 q +.FXDXSXcXwXR.-.e.U.T./.R.m.M.C.W. .{ _ ~ ^ 7.q.D.R I E E &.&.3.4.;.;.&.;.;.&.k.P.R R R R Y ;.L.[.Y.( L r P P / [ #.u.f.h.P [.{.[.[.T./.Q.( ] _ ` [ [ [ ` J s.$XnXDX",
"UXJXKXuXnXG.G.$XuXMXnXZXGXHXGXZXHXJXJXJXJXJXHXGXZXGXZXGXGXDX>XS.Q ! ! | -.) e e f 7 e e e y c c b zXcXwXR.1.[ m.W.W.T.m.>.M.W.*.9.8.0.w._.v v v Y I R R I ;.,.W ,.D.G.oXoXoXoXoX;.R Y m ;.j.L.].=.[ ] _ L ] [ #.=.u.$.[ (.[./.T.U.T._ / / ~ _ ` C S H U s.$XFXFX",
"UXPXJX3X .F.oX2XrXjXpXCXMXmXGXGXZXGXJXHXHXHXGXZXZXZXCXGXZXZX4X>X4XC  .| ' ' { h ! ! Q F S S V A b b c ) R.1.) V.m.U.L.h.:.-.f.y.9.D.>.z v 3 v v v Y K R ,.,.,.D.^ A.oXoXoX,X2X2XF ~ L.v L.L.P.;.{.*.*.#.#.#.] P =.u.$. X{./.T.U.>.$.P F Q Q ~ _ / Q H } a..XMXDX",
"HXbXoXG.9.oX$X<XeXtXjXMXBXlXMXBXCXBXJXHXGXGXSXZXDXDXCXCXCX1XM.-.-._ '  .` t.p.p.{  .*.[ [ ( / P S A b b y S R.N.:.:.:.$.$.@.Z 1X,.m m z v v I dX%XqX%XdXlX>X7.7.q.2X2X2X2X2XuXpXi.[ [ #.hX0X#X*X*XM.i.i.r.=.u.n.S 0 g.m.[.T.U.>.$.{ _ Q H } { #.@./ _ } e..XNXNX",
"s.H.G.,X+XoX#X<X8XCXGXHXrXjXlXmXlXzXGXHXGXGXGXZXZXZXZXCXCXCXkX9X<.` _ -.[ *.r.g.g.V.r.:.=.*.@.[ / Q S S F u.f.i.j.@.@.o.( zX}.}.}.'.xXBXlXsXdXqXdX=XdXCXAXv.b.J.3XuXuXuXuXyXjXMXmX[ ] #.MXAXgX{.{.Y.m.g.i.[ P P $.[ [ { =.Y.M.:.@.! Z Z ~ { #.%.#.] _ } 8.l.NXs.",
"q.H.G.2XkXXX<XjXCXDXDX^.+XhXjXjXiX9XjXmXBXCXBXmXBXBXCXBXBXBXhX(./.M.Q -.Q Q [ r.u.g.V.r.9.f.u.*.[ [ ` i.i.p.p.x.x.V i.lX0X7X%X%X}.dXsXzXsXsXdXqXsXCXVX4XaXH.G.K.rXuXuXyXuXyXjXMXmX( _ ] BXBXkXjXgX#XL.{.n.i.E.(.(./.[ { e.V.:._ P ~ ~ _ ' { r.=.=.@.] _ l.s.J 7.",
"q.s.G.nXAX2XjXmXmXCXZ.+X<XhXhXgXiX9XjXjXlXjXhXjXjXjXpXtXhXjX!.(.W.<.` -.! ! _ { { r.g.n.r.p.p.g.i.p.p.p.i.p.p.x.n.s 8X8XgX0XqX5X%X8X%X%X*XP.E.zXlXVXVXVXZX,X,XLXeXeXtXtXtXuXyXjXmXlX/ ) ZXDXBXBXmXlXhX!.C.C.(.(.Q.Q.U.r.u.~.u.G ' ' ' 8.r.r.r.*.u.=.{ ` ' 8.Z J ",
"8.s.$XGXVXiXMXMXMXmXrXCXMXCXCXqX7XhXjXhXlXjX8X7X8XtX9X9X0XW.W.W.M.-.Q C ~ ^ ' ' {  .r.i.r.r.f.j.U.n.n.x.p.p.p.p.x.9XtX0XhXhX0XqX%X8XzXzXgXlXxXxXxXBXBXVXVXnXLXVXeXeXeXeXeXrXuXgXjXlX/ M GXSXCXBXBXmXkX1XZ.B.M.W.W.W.P L u.8.g.t.9.9.r.r.i.p.i.u.[ i e Q H V Z J ",
"8.a..XDXVXuXyXMXjX>X8XMXpXmXmXjXgXgXsXgXlX*X7X7XhXhXgXqX Xm.m.m.m.-./ 7.b.7.0.|  . .r.#.%.P &.d.h.h.h.x.p.i.a.a.a.iX0X0XiXhXfXqX%XzXzX0X9X0XiXiX1X,X3XZXSXSXGXgXeXrXrXuXrXrXuXyXjXtXg.2.ZXGXDXZXGXCXBXrXoX^.(.<.m.#.S p q e b.w.0.y.p.p.g.g.r.Z C f g J 6.V G H ",
"6.8.MXCXsXeXeXuXyXeXtXyXeXtXgXgXtXlXlXlXgX{. XsXsX0XqXT.{.f.f.g.M.=.0.y.n.b.B.r.r.{ _ A P ` [ [ @.;.$.$.$.i.t.r.VXsXqX5X%X%XdX7XgX0XsXsXsXsXzXzXxXnXZXZXGXKXSXtXeXrXrXuXuXyXyXyXyX*X*X-.DXGXJXJXGXZXlXtX>XXX).(.u.! l l g Z F p.,Xn.V.V.n.` ~ Q Z ~ / H g J 6.J ",
"F.8.yXzXOX#X#X*XeX#XeXeX#X8X8XhXhXhXhXsX0X7X0X0X7X*X}.T.T.d.u.u.=.A.Z.^..X+X).n.F q Q / / / [ [ _ _ / P ( ) t.b.zXhXhXdX5X[.-.tXC.qXdXdXdXqXhXzXBXSXSXKXJXJX8X8XeXrXyXpXpXpXpXyXyX*X#X!.PXPXPXJXGXmXgX8X^.XXXXc.u.n.|  .*.^ g P ^ +Xu.p.0.| 9.r.*.[ _ P A G J s.",
"8.$XVX=X{.!.OXOX!.!.OXOXOX#X#X0XhXhXhX0X0XqXtXtXtX1XU.f.M.u.=.i.a.a.s.v.A.n.9.~ { [ / / / / [ [ / / F _ 9.0.^ GXcXzXfX0X5X}.tX7X9X%X5XdXdXsX9XzXxXZXSXKXbXLXtXeX<XtXyXpXpXjXjXjX*X#XCXHXPXPXPXJXDXCXmXjX<X<X<Xc.x.0.n.| #.l g 0.v.{ a.9.u.u.p.i.u.#.] / F D H 6.",
"U =X=X~.!.E.~.!.W.E.~.OX!.{.{.#X0XhXgXtXtXqX0XeXrXrX).).M.*.u.i.a.p.g.V.V.!.C.C.f.@.[ ] / P F [ _ r.c.0.0.0.b.sXcXzXfXdX*X9X1X X|.|.@X@X%XdXqXfXzXBXlX>X4XlXtXtXuXyXtXyXjXjXjXjXCXFXHXHXHXPXHXHXDXCXCXjXXXr.0.B.B.v.w.w.{ { 0.y.x.A.b.r.r.r.u.=.d.=.[ [ / F D U ",
"e.].%XE.E.j.E.OXU.E.P.!.E.E.Q.!.8XeXtXyX0X*XeXrXtX<X X/. X*.*.#.r.u.u.j.d.u.u.U.m.#.@.] _ /  .Z.F.B.v.c.0.b.AX8X0XdX}.|.JXZX7X X|.<X<X8X7X%XqXdXlXb.B.aXBXtXrXuXyXMXuXMXCXCXDXDXFXHXHXHXCXPXHXHXDXBX<Xn.9.7.w.w.Z.B.G.D.} 2X2X<X^.v.AXy.r.*.*.#.@.] ( #.] P F U ",
"P.k.!.U.j.k.k.j.U.U.k.P.U.U.E.E.!.#X8XtXeX@XiXMXcXT.m.W.Q.=.#.#.#.*.#.#.#.[ ] h.h.@.@.] g.i. .[ Z.S.Z.b.b.A.zX@X+X'.T.k.GXKXKX0X8X8X9XqX%X}.iXjXZXBX1XlXBXtXrXuXpXMXMXnXCXDXDXDXFXFXHXDXHXFXDXCX^.^.B.B.w.w.H.H.H.K.3X,XaXjXaXwX<X1XB.b.c.t.*.{ [ ( +.+.L L F F ",
"z.k.'.U.h.d.%.U.U.U.%.z.U.k.U.j.l.<X#XeX8XnXkXwX[.h.f.T.T.:.] ] ] *.[ _ ] _ _ :.:.:.u.e.u.u.r.| p.y.9.S.S.3X+XXXXX(.m.f.JXKXHXJX8X8XqX5X%X7XkXCXZXDXGXHXOXOXeXuXnXMXCXnXAXDXDXDXFXFXFXDXDX2XmXoXoX.XS.D.1X2XuX2XpXjXMXpXMXaXjXiX9X<X>XCXB.x.t.#.@.@.+.U P K A y ",
"G J Q.U.h.:.>.Y.Q.U.E.~.U.j.h.k.~.{. X*X XnXkX1XT.>.:.M.M.@.9./ P P Q J -.Z Z i.] +.&.#.e.a.r.r.| x.t.y.Z.zX(.(.(./.M.sXZXlXlXCXlX@X%X}.7XiXmXCXZXGXGXVX~.~.#XuXnXMXCXMXMXDXDXDXDXDXDXpX>XMX,X2X,XoXK.kXpXiXpXjXmXmXMXAXMXMXMXjX9X<X>XCX(.x.t.*.#.@.] ( L A A V ",
"J OXY.j.=.h.W.!.!.!.#X#Xj.j.d.d.j.j.].kX XyXkX X>.$./ -.*.0.y./.Q 8.x.t.J A.C.9.A P ] } { e.a.r.*.r.C.^.+X!.^.W.W.W.W.GXSXZXDXDXGXxX|.qXBXkXjXBXZXGXGXE.~.!.l.g.g.MXMXmXMXCXCXCXaX,X>X3XnXuX,X,X,X4XkXmXjXkXjXjXjXCXmXCXCXBXMXMXwX1X+X X^.W.B.i.r.*.[ _ F S V G ",
"H !.U.Q.Y.h.L.V.!.Q.g.z.h.d.%.:.%.e.MXkX1X<X9XU.>.:.$.( Z J ^ M.g J Z <Xp.9.p.p.) B A U } 8.r.g.g.p.p.p.mX~.W.W.U.m.V.CXZXCXCXCXCXsXJXhXBXZXCXjXBXCXVXk.P.E.~.g.j.V.l.~.2XuX2X3X3X3X3XLXnXnX,XbXbXmXmXmXjXMXmXCXjXjXjXMXDXZXmXtXiXyX#X XjX(.S.B.p.r.{ ` ~ F Z Z ",
".XE.k.|.|.Q.#X~.{.Q.z.u.h.:.$.:.( e.OXlX;XrX}.( / S V V V s ^ -.d g s ' 8.a.g.g.m.w B U U 8.u.u.f.g.g.W.Y.m.m.m.M.>.BXVXZXZXZXGXLXSX9XiXjXBXCXBXxXxXg.u.k.j.E.XX+X~.~.XX$X,XbXnXnXnXnXLXLXLXLXS.H.0.D.FXCXCXCXDXDXDXkXkXMXDXCXtXjXwX1X1X8X1X+XS.V.p.r.9.' ' ! Z ",
"~.E.8.~.|.Q.#X.XOXQ.=.:.L.+.o.$.P U ~.@X`.qX>.@.) L V c t u r.) Z d f H 8.p.m.V.U.< s B } 8.e.u.f.g.l.8Xf.f.f.:.=.f.lXZXZXSXJXHXHXPX7X9XtXjXmXiXlX5X] #.e.d.j.!.OX#X<XoX,X2XnXnXLXLXLXHXKXLXLXLX7.7.s.s.s.v.CXDXDXFXFXCXkXMXmXmXjXjXiXyXeXeX+X(.Z.B.v.v.w.0.' ~ ",
"E.l.r.f.j.@X#X.X!.Q.%.$.j.P P P A D l.!.<X}.$.( S b s r 0 i.m.C e e f ) e.g.m.E.E.M.d s ~ } #.u.d.g.V.}.=.:.:.:.$.dXzXZXZXKXDXLXHXJX7X7X7X8XtXhX5X` P ] ] #.u.V.Z..X#X2XrXNXnXnXFXHXLXIXPXJXKXFXHX^ q.q.q.w.b.2XDXDXDXCXmXCXpXCXtXgXtXtXtX8X1XoXoXG.F.H.D.N. .7.",
"V.g.u.f.i.XXXXl.!.j.[ d.h.o.A L B D e.E.j.f.`.O.L n r 0 w F S t u m I K ] d.P.E.Y.U.w G U 8.u.=.u.g.~.@.@.$.$.o.$.|.j , BXDXG.>XrXKXJX|.|.@X%X>X>.[ [ F P _ r.u.V.Z.XX+X<X2XoX3XLXHXJXIXIXPXKXHXDXFXJ.7.q.w.D.rXXXPXIXPXHXGXHXGXZXDXCXjX9X*X^.,X,X,X,X4X;XR.i.^.",
"g.i.u.g.H J #Xl.Q.L.U.h.k.k.l.e.Y c #.u.u.T.U.-.M n n m r c c d.:.K K +.+.- k.L.L.L.L G U { u.g.j.k.%X[ ] ( ( +.^ d h J ' < S.2XaXBXVX}.5XXX:.>.:.=.@.b V F { #.d.g.l..XoX$X2XG.G.nXJXKXIXIXnXCXCXDXFXHXZXw.+X(.(.BXDXZX,X2X3X3X1XCXDXMXiX#X8X2X2XaXaX0X5X/.f.C.",
"f.(.$X8.H H p.l.l.~.E.h.f.k.&.e.D V } { r.P >.$.) 8 > 1 d / S n K n K E +.v # # k.k.d.s D } %.d.k.j.f.( ( +.>.5.d h ^ ' i.m.a.n.9XxXGX=.f.:.:.=.$._ ~ Q V  .L P ] +.e.A.F.oX,XoXoX>X>XAXPXJXuXnXMXFXFXHXPXPXHXQ.Q.iXBXMX3XZXZXDXLXAXSXkX7X#XrXaXpXhXfXqX}.j.#Xm.",
"l.F.$Xa.H } s.Z..XOX!.U.L Q H } #.H b d.=._ D { [ n 0 s k.s S S S L L K +.&.$ + X X %.u B P +.%.z.Y.=.$._.3.;.x.J ' 9.p.m.W.g |.CXsXiX9X$.$.@.>.$.~ ^ ` F _ _ _ _ D 8.a.v.Z.oX3X>XaXaX3X2XZX3XbXnXMXFXFXHXPXJXIXIXW.pXDXIXHXDXPXJXAXGXCXaXpXuX|.jX0X%X[.U.u.'.1X",
"s.F.XX^ } 8.s..XOX~.#.{ _ / F H } } e y V t q U ] @./ Q / - K @./ / P P %.#.t + @ X X + s B K I &.].}._.3.4.3.r.7.0.x.W./.5X,.eX0X8X8X<X( S m.@.q ~ _ ' _ F F Q F F ~ 8.s.A.,XFXiXiXiX<X<X2XuXNXnXLXFXHXFXPXPXPXPXIXIXHXj ' GXHXJXGXAXMXMXMXpXyXG.|.Q.U.[.S.8.a.",
"a.V.8.' 8.a.A.P.{ ] ] } [ / F Z { r.U e t q 6 c K I P ] 5 > t m K &.S _ { u.g.$ + + O + Z.A.s.8.} _.I.3.,.,.{.g.V.W.@X%X,.,.R *X8X8X<X1XW.@.@.O.q _ ~ ~ { C Z b b s G } H.,XNXMX9X;X(.+X(.OX,X2XuXnXMXnXMXIXPXPXPXPXDXDXFXFX*.@.HXGXAXCXjXjXjXyXaXg ' 9.9.' 8.8.",
"a.l.| ' ' C.=.] _ H P H _ Q Z V { e.D q t 5 q t M I L i 9 t q t v m Y K & p.n.t * & & & w .XA.a.rXI.3.;.,.4.j.~.7X&.;.;.O.R M v #X<X<XT.+.L M t > Z ! _ ~ e y t t d q.J.H.G.,XnXMX XT.C.l.~.oXoX,X2X3X2XUXUXPXPXJXPXDXDXDXHXHXHXkXo.( U.jXgXyXtXtX! ^ 0.y.8.8.8.",
"a.8.{ Y.L.=.@./ F Z V Z F S V i H ] ] - B t t - 1 v n c t t q 8 8 9 x v m v ; Z., < 6 , , $XF.s.%XL.3.;.W 8XY.E E &.%.;.$.@.@.v #X@X#XU.f.S 0 t , , Z Z V g 0 C d 7.w.J.G.K.4X3XnXiXW.=.a.g.A.oX,X2XoXoXIXIXPXJXJXFXIXPXJXGXGXDXDXZXCX{ tXtXtXrX8X| | b...7.7.8.",
"Q.*.f.h.=.] P C g f f f V S i C Z F #.- r 8 1 + ; 1 n v c t t 8 8 1 1 1 r v 9 : 8 # f s w ,XoX$X]._.I.I ) R I R E &.%.$.$.+.( ) ;.E.L.$.( A , , > > V i Z 9.C f 7.q.J.H.K.,X3X3XaX1X(.v.F.r.p.Z.G.oXF.oXIXPXJXKXGXIXIXPXJXKXSXZXCXBXBXMXBXzXyXyXtX+X0.v.J J H 8.",
"9.[ #.@./ F g f g p e i p y i f f V P > 9 : O + + # % x r r r 9 8 1 : : 1 9 9 - 2 > 8 1 e ' ,XPX].$.@.) =.I I I E &.%.=.@.o.) $.$.L.P.=./ c - , , : _ ' '  .` g 7.q.H.G.,X3X3X3X4X1XV.A.F.oX,XoXF.v.s.nXDXJXKXCXPXPXPXJXKXSXCXBXBXlXjXpXyX8X8XqX*XCXt.b.J A.y.0.",
"| ..) Q F C g g f a a e q t f f i i b c : + O @ + + # 1 1 9 9 8 1 1 : : : 1 2 $ + : : 8 9 9 t j.=.@.) n U K I I U &.%.=.$.( ;.$.O.&.$.-.@.b 3 0 , e * V _ ' ' h 7.w.F.$X2X3XaXaX1X>Xa.b.F.G.>X1XaX,X2XCXZXSXVXlXHXHXJXKXSXBXmXmXlXiX9X<X<X#X*X*X|.}.>X>Xy.t.9.9.",
"^ ../ ! C g g g p a a 7 q 6 V i i t t v : + @ @ X X + 4 : 1 2 1 1 : : ; : : ; - + ; : 1 8 8 L g.$.( L n U Y I I U #.=.:.O.&.&.o.R +.n [ ) t , > - u y V F ~ _ J 7.y.Z.oX<X2X9X1X1X).Z.s.A.S.+X1XoXoX2XlXlXzXzXsXDXGXGXSXVXlXjXjXjXrX<X1X+X#X#X*X@X%X3XaX{ | ' ' ",
"! -.Q Z g g g g p a 7 6 6 5 t b t t 9 1 2 + @ X X X X X ; ; ; ; ; ; ; ; ; ; $ - ; : ; * 5 > 7 V.v v L / &.%.K U +.+.&.&.&.&.&.o.R n v v 9 ; + + + ; + + + S A Z ~ r.g.~.XX+X<X1X;X).B.p.n.C.(.$X<X2X2XmXlXzXqX}.lXCXCXBXlXhXtXtXyXwX1X).1XuXeX{.BXxX< , bXG.D.! ",
"3X-.Q g g g g g p a 7 6 5 q t t t 8 > ; ; # @ X . . . . ; ; - - - - - - - - $ # $ , , , , < < < v v x x T M &.I U U E E &.&.$.@.L n 9 v 8 $ + + + + - : : - y f F [ r.g.V.~.(.(./.x.x.p.g.Z..X^.(.XX+X,X0X0XqX7XY.mXlXlXhXtXrXrXuXpX1X:XsXAXBXBXBX:.6 , bX$XF.$X",
"nXkXs >Xh l l g g a 7 5 5 q q 0 8 : - ; : ; + . . o   . X - - - - - - - - # 8 6 - - - # + w = = 1 2 2 z % I %.U U &.&.+.e.&.f.:.M ) 9 x $ O @ @ + @ # # $ < ^ l Z F ] #.u.g.m.U.m.i.F.G.x.x.A.} } j.S.oX@X*X X{.Q.DXDXhXiXaXaXaXaXnXcX..AXCXVXBXxXs 6 - H bX$X2X",
"MXBXy P e.@X! l g p 7 5 7 q q 0 8 , , 8 : - # O .       . - - - - - , : t 0 > : - + + + @ w < = J % $ % I Y K U Y E e.&.%.%.h.h.) ) n x # X O X O - + $ 7 g g ^ ^ ` S / ] #.u.f.C.v.A.Z.x.r.B.[ g.l.z.Z.8X{.(.Q.W.W.DXHXPXZXnXJX1X).x.KXZXCXCXBXVXg w , - NXNXNX",
"mXBXmXD +.P.].].X.i a q e e q 0 8 : : 8 : - $ O .       . + - , , I n t 8 > : $ # + + + 7 < & & & + + @ 2 z I U :.2 x M R E R E 2.O.M x + X X . * e g 5 7 C j ^ ^ ~ ` | [ p.n.n.p.s.v.s.A. . .,Xg.g..Xn.Z.~.!.^.).oXGXHXJXUXhX1X1X).S.ZXZXZXCXVXC Z f 6 , 2XNXnX",
"mXmXmXP U k.E.].].].:.q e q q q q 6 t 8 5 , * * O . . . X X < $.( ) b 8 : - $ # + + @ . v n Y Y B R @ m x x % D $.M x N x 9 2 E o.N x 2 O @ , @ + 6 g d l ! a d g ' _ p.A.G.,Xx.r.9.9.a.x.` ` S [ &.U +.e.j.+X+X1X1XVXGXBXlXtX<X+X).SXCXCXCXCXkXW.(. X|.`.Y.NXMX",
"CXmXmXgXU e.P.~.!.Q.Y.:.+.e e q q e p q 6 5 , * O . . . e =.=.@.( M m - + + : # @ # C 3 r x v B B A 1XvXM m I D ;.:.m I n P ( L e , * 7 V * , < * 6 7 h  .7 a a b.B.` 9.s.F.,X>X^.y.8.r.p.D y y y B D U &..Xu.m.ZXVXiXBXmXjXrX<X2X1XcXlXBXMXDX1Xj.U.Q.T.U.:.5 7 ",
"7 p mXjXP +.P.E.~.Y.Y.$.o.P A 6 e e C i p q 6 6 6 O &.#.&.$.$.o.) n n 9 + + @ 9 Q Q ! 1 9 1 > 3 B P /.=.o.2 M +.] $.O.M n I o.A t / ^ _ b , > 7 d . .   O @ h w.c.B.*.} 8.s..X X^.C.A.{ V B y y y c B U z.s.SXxXcXzXiXBXMXaXJXVXzXxXlXhXMXmXmX:.%.:.>.>.$.] D.7 ",
"a p i i gXU %.j.E.Y.>.$.P A A b t 8 C C C p e , d.d.+.] +.o.o.I n m x 2 + + ~ ` ~ / 0 : ; 4 , 3 3 K R =.*.v M o.d o.m v 9 M v 9 - e d ~ ' q * = . . . O * * 7 p ! B.M.Z } a.~.Q.V.*.{ _ Q ~ A b c u c a.SXGXxXzXfX|./.C.HXJXKXcX0XSX#XuXMXCXCX/ b A o.o./ H J a ",
"! p b i p >Xj.k.j.L.>.o.L K n v r 1 $ O Q > P %.%.%.U +.U I I 6 I L n @.x.^.{ | ` ) : : , , & < u K o.i.a.!.U.:.$.I R 9 : ; $ + O . . 1 0 Q C c.. O @ = 5 5 7 q i b / V Z } j.M.>.@./ X.` _ { ( c J VXVXVXBXCX&X`./.C.zXcXSXSXVXzXlX$XNXMXDXfXS i t u s D Z 7...",
"! n ! n i ..+XM.Y.j.:.$.I n c x 1 : ; O y $.#.#.&.&.@.I I ~ ~ ^ m.oX>X).G.S.Z. .*.@.1 : , & < 3 V P O.0  .U.h.:.$.o.M v 2 1 ; + O O > 1  ._ ` 0.S.@ = < 7 q q n q 8 t 8 w u :.>.:.@./ $._ F } _ <XxXlXlXlXlXlX_.$.( `.6X6XBXBXxXBXlX$XNXMXFX) n t t q q e G 8.F.",
") n n n i t <X).M...W.O.M v 3 2 : ; ; , w , %.&.+.+.%.J J 7.9.b.>XoX+X>X).).x.r.u.V 0 > = < 7 s P &.;.;.9.M.f.f.$.S I ; 2 x ; $ O = i -.;X).9X).x.B.< 6 y c 9 n n 9 9 $ < d [ O.O.I L @./ F F r.dXhXdX0X%X_.%XdXo.L %X&X6XzXlXmXlXmX$XbXMXGX/ C t q 6 6 w s } p.",
"*X! n n i t M.<X).` Q Q t.r 9 #.| Q q , : r x &.&.0.y.0.b.7.9.0.oXG.).S.B.B.c.p.f.t t = < 7 s H { %.:.;.9.x.f.f.@.( r m x v 9 + < /  X[.7X1Xr.C.1X).6 w c n x n v 5 $ $ , s O.( M K A I L D D %XqX%X7XqXqX}._.&XM 5.}.&X&X6XhXfXzX.X$XNXLXh./ C p q 6 6 7 e } a.",
"P./ S S i b i 8X@Xm.` Q Q Q 4X>Xc.c.| { ` t.t.9.0.y.v.^ ^ ' | y.>X>X>XS.x.C.c.0.[ y e 7 7 d G } e.XX+X8X X$.$.f.*.S b K v v 9 = e -.%X7XqX9X|.9X1X1X;Xr v v x q 9 5 5 s { #.v M n r r D V V %.}.}.}.%X%X%X_.;.}.].`.`.5.`.%XqXsX#X.X$XNXGX) [ S i q q 6 6 e f e.",
"k.h.@./ / / / @X[.Q.d.=.#.t.x.n.B.b.t.' 0.0.0.b.w.0.| ~ ^ b.oX>X1X/.<X1X:.i.y. .V y 7 j f G 8.G s.F.!.+X@Xn.C.j._ F S K n n v 7 m.T.`./.qXhX9X7X1X1X1X0 r v v 6 3 { #.u.Z..Xs.s.b.u 0 c V Q _.I.I._._._._.3.3._.`.`.`.5.}.}.@X<XP.$X#XnX6XL n b C f p e 7 e i +.",
"e.j.;.O.+.( ] / [.[.f.u.CXBX>XoXc.c. .y.x.y.b.0.0.9.w.0.D.<X+X#X+X<X2X:.>.$.-._ ~ f e g Z 7.J ^ A.Z.{.E.~.g.m.a.9.' / S L A A }.}.}.}.}.*X7X7X5X7X7XqXqX: 1 _ *.] { #.g.V.~.p.s.A.Z.2X2Xy [ 3.;.3.3.I.>.Y.Y.4.4.I.`.`.}.}.5X8X8XA.$X2XmXv L S p p C f p p p i D ",
"U #.O.o.I P ( P |.[.d.f.BXmXrX<X^.' ! 7.C.b.G.0.oX>X>X1X] +.%.=.( m.; - 1 9 ( Z g < ^ Z Z Z s V ] #.{ #.g.e.W.A.v.t.' 9.U K Y._.`.}.}. .-.:.%X%X%X%X7XlXL.L.f.:.:.:.%.l.l.P.~.A.oX+X<XtXmXjX>.Q.3.>.$.@.}.3.4.;.,.,.4.3.5.'.].%XZ.oX2XfXc 8 : b q Q Q C g f i f ",
"F } E.R I K A K ] gX X<XBXlXrX<XZ.^ t.8.b.Z.h.' A.1X<X] ( ] P ] W.S L A L L / ^ ^ 7 j d d J d g ~ A V e.V.E.XXXXXXC.oXB.n.k.Y.3.0X1Xx.i.M.-.}.&X%X8XmXMXBXk.h.>.:.;.:.l.l.P.~..XOX@X7XqXzXtXrX8X>.M I ,.T.T.;.,.W ;.3.,.x rXiXhXoX9XzXn c t 8 5 $ + C f C ^ ! ! ",
"! H e.M n M t o.=.qX[. XlXjX<X+X| | 9.F u.g.W.0.G.1Xm.m.V.V.n.[ i Q Z C Q L 7 h 0.g h h ' 7.J ~ y.p. .#.j.l.V.Z.i.{ 0.' VXY.}.;.;.sX/.R. XC.%XaXaXkXrXaXjXh.>.:.;.;.k.&.D D k.{.{.|.*X*X7X1X|.0X/.( >.O.5.T.>.N M ,.T T %XqX6XhXlXhXsXv c t 0 0 5 , ! c.t...X.` ",
"X.H } o.x M v c h.Q.U.Q.mXiX+Xv. .{ 9./ M t C ! C [ f.g.n.^.r.F Q C ` ^ ` Z d Z v.^ ^ 7.J 0.7.t.i.t.u.d.g.g.d.8.V.p.b.ZXZXlX>.$.1X@X;X1X%X}.}.jXkXkXaXaX<XY.:.;.,.y V V V V G G H  X}.}.h.{.7X@X/.M.Q.U.|. X>.M 2 T M 3.qXdXdXdXdXfXR x c t t V ' ..X.B.S.B.<...",
"-.` } e.I v r u 8X/.@.R.MXkXp.p. .9.` Q [ / X.y./ | { p.W.^.r.n.x.t.9.9.t.m.^ ~ 0.0.' 0.7.8.x.n.B.i.*.#.a.a.V.n.6 { KXSXmXV e qX0X=XL.}.}.`._._.jXiXiXiX<X<X;.G V L P P P P U } u.g.m.OX8X'.Q.Y.h.:.[.:.`.|.T.-.T M M dXdXdXdXdXdXsXv c v B 8.r.y.x.*.B.).).N.<.",
"M.c.H } M 9 3 0  X9X*.=.hXiX9.r.' Q *.` / :.o.$.-.c.t.C.C.y.C.C.B.x.x.0.f.7.0.w.G.] r.[ q.0.b.B.C.n.*.F F F F K < < < = & & i B.m.f.f.}.}.`._._.gXtXtXhXC.3.[ ] ] o.U U U } #.e.m.W.Q.) _.#XL.L.o.L.Q.>.Q.}.>.M @.-.%X9XfXsXdXdXdXM 1 r y.B.W.p.n.B.x.c.>X:X).R.",
"N.N._ } j.9 1 3 c 7X Xf.@X|.' 9._ Q -.[ Q h.:.Q./.N.9.x.x.x.v.v.v.c.c.0.$.w.c.A.oXG.oX[ / 0.S.S.V.n.u.{ ] V b c rX< = & = aXaX).c.zXW.Q.Y._.3.3.3.0X/.5.3.>.;.%.@.O.o.E &.e.z.j.U.'.'.) P.'.'.U.,.T.T.>.5.T.O.v M |.1X9X_.fXsXsX*X< 3 w y n.W.(.+X#X(.).wX9X;X).",
").R.M._ u.r 8 , $. X[.1X9X8.s.| -.Z ) ~ *././.+X X Xx.x.x.n.v.x.y. .9.] | b.v.F.G.oX^ 7 6 J g f V I Y I r A b c c ^ g C.W.BXwX:XB.| t.xXT.zX|.dX%XT.T.T.>.:.$.>.$.O.R E &.z.k.U.Y.Y.T.) '.'.Q.Q.5.5.>.5.T.5._._.}.1X5X5X`.}._.|.I 3 w s G Z F ^.OX#X<X1XR.<X1X1X",
":X:XN.] %.d.* * >.{./.|.{ ~ 7.| b C C _ | | 4XaX>XoXB.y.r.y.y.{ ' y.y.F s.v.S.S.F.x.g j g J d g 0 0 r U } n c c c @X9X+XiXhX9X1X).*.y.y.C.qXdXH F M.T.T.5.>.$._.O.O.R R E z.k.U.Y.Y.$.$.[.{.[.{.{.O.>.T.|. X`.2 8X9XqX5X5X%X>.o.6 w s G ~ _ ` ` _ OX+X(.R.<XrX1X",
";X;XR.[ @.$.0 - >.Q.Y.m.[ h 7.| ! q e S  .' S.G.1XiX^.B.r.a.t.t.r.y.r.x.s.v.^.Z.Z.n.i.^ d d * & , 3 c A P U c u u +.zXhXlXiX9X1X).).x.p.C.-.`  .[.%X7XT.T.U.:.=.o.R R R E %.k.L.I.L.o.Y.{.{.{.@X|.,.qX9X0X7Xn 9 9X0X0XqX6X>.T.>.d s G H { r.a.t.` ! p S.R.).aXwX",
"wX;XR.-.P L S b :.Y.T.f./ J J ~ S t t S +.@.` >X).).t.x.x.r.*.x.x.v.A.p.b.C.W.V.V.f.-.[ * & & & = 0 m A D P c P c &..XhXsX0X8X1X;X).y < w ).M.{ { 9X}.0X>.U.h.:.o.R R I E &.k.L.L.>.O.}.].OXOX*X9X5XqX9X5X) L kXkXzXfXfX_.) M N >.J ~ 8.a.p.t.9.0.| ! C p M.uXwX",
"wX;X1.-.L b b u.:.m.U.:.g g g ) n q / / ( S S -.).).t.S.,XG.>X>X>XoX,Xv.y.W.C.n.i.*.e , , O O & & 6 c A P P B %.l.#X#X#X@XgX0X7X-.n t 6 w c w g.u.1X1XjXiXlXL.h.>.E E U +.&.:.h.>.:.;.>.&.%.h.!.{. X'. X}.) ( iXlXxXkXU.n n n n n m 9.p.0.0.s.v.x.c...) ! C Z :X",
"Q 1.1.<.F c t /.i.x.B.i.^ ~ a.~.! b Q F V C Z F -.-.G.3X3Xt.B.v.x.y.8.F v.+XC.@.S e & t > 0 & & = e t B &.E &.e.#XOXOXOX|.].gX0XdX/ C t 0 t y A F ] lXlXfX:X5XL.L.+.+.&.&.%.d.h.E.f.>.;.h.@XgXjXjXkXhXzXlXf.2XpXcX) b b V b b p t : + m y.s.b.S.S.N.c.-...Q F / ",
"/ ] #.L P y y S W.V.W.B.9.' ^ g.{ m.:._ _ { _ [ W.+XB.>XaXaXc.B.B.c.y.^ 9. .F Z b t b n 0 9 9 3 v K L / } E.&.k.BXCX!.].].Y.qXqXqX7X(.i u w y V V P ] sXsXfX+X X3.z &.&.e.d.j.m.P.Y.BXQ.Y.!.gXMXMXlXzXzXlX<XBXO.v t n V V Z C i p p 2 v m R Q.oX>X>X).N.<..._ _ ",
"[ ] #.$.( P i i n.g.C.y.0.0.0.b.Z.E.V.V.'  .p.x.oXZXkX>X>X>X+Xc.B.x.p.0.8.' w u c > > > b c 1 1 r t Q Q L !.D BXCXmX~.P.L.&.I *X*X*X@X X[.|.y e V A P P  .xXwX<X<X1Xd.e.z.j.V.MXCXCXCXBX0X!.@XMXMXlXlX0X@X:.) n c c v # J ^ ~ X.! ! $ 2 2 x m R W 1X1X:XN.<.` [ ",
"*.] #.( ( P V V #.p.n.A.Z.G.oXG.oXoX,X2XZ.B.>XBXW.CXxXZX+X+X(.B.` ~ Q ^ ' > < y c 8 8 1 1 n t c y g v.v.c.^ ~.gXmXlXsXk.k.3 B %X%X|.|.|.{./.Q.'.V V F Q H xXkXiX9X<Xy.a.p.r.^ CXCXCXCXCXjXa.uXlXW.kX/.>.$.$.) ! C b c + c ^ ' | X.[ ` : : 2 2 x v m R 8XR.M. .{ ",
"#.] @.( ( / V Z F _ [ ~ Q ^ | v.uXyXMXmXCXCXiX9X1X).BXZXZX(.| ` m.Z V H > > < b > 0 9 8 b v t r e oXA.S.N.0.C.XX#X=X|.].c 1 R ;.Y.].].].].{.{.[./.T.+X_ H ).cXhX9X8X7Xs.p.r.u.CXCXmXmXCXt.v.+XjXQ.U.f. XM.) -.[ / ! f + @ 0.y.c.0.9.9.- , : : : > 6 y V P L.-.[ ",
"Z u.] ( ( / / F i.m.~ ~ ! ! ~ oXrXyXMXMXBXCXhX9X). X7XiXiX;XF Z c C V q 6 < < S 6 A S S b r ^ e oX>XS.).R.t.n.g.~.].Y.L.;., K K L.L.L.Y.].].{.{.[._.T.>.%.u.cXhX0X8X7Xs.p.a.MXmXmXmXmXzX8XE.!.!.'.W.U.m.m.) n.-.-.F ^ ! $ ^ Z.^.s.y.b.c.5 5 5 7 j j g g ! ` @.>.",
"( n : [ ( ] [ / m.i.~ ` ` ^ #X8XeXuXMXMXMXCXCX9X).kXrX#X] _ F C V t y q 6 < b V A A Z V i { a.x.>X1X).)./.n.n.i.u.m.d.+.&.< c n &.;.;.;.L.].].].}.'.T.3.M x z hX0X7X*X#Xg.p.mXmXmXmXP.U.k.k.~.!.{.!.(.W.n.C.~ M.M.8.0.c.5 5 oXA.b.H.G.>Xe e j h h l 7.q.| ..X.[ ",
"! - : , > _ [ i.M.{ W.' 9.OXOX#X#X<XrXrXtXjXjXtXm.1X^.OXOX#XF V Z s i y n Z Z u V V Z f f f ` ~ _ f e i p { [ S %.;.%.K K c v v c o.E k.L.L._.]._._.Y.T m x N 9 2 T %X{.g.l.jXuXg.Z.V.U.U.j.~.!.XXXXXX.XB.B.t.*.N.s.Z.S.p p oXZ.F.$XuXkXC g J ^ 7.q.b.b.b.c.<.X.",
"! * * , 5 6 e i P E.E.r.!.{.#X<X#X<XrX2XtXyXtX7XM.M.f.g.~.~.~.~.[ / Z Q Z g g e e C C C C C C Z Z ).n.M.f.B.).^.p.Z.r./ c r r r c &.&.;.:.>.L.L.I.I.3.m v 1 1 o.M M m M ' T.g.l.A.~.g.Q.E.l.V.!.XX+X#X#X).).x.M.a.@.XX<XX.! <..XoX2XnXBXcX~ ^ 8.a.A.^.oX).S.B.-.",
"p , , 6 6 7 e i G !.XX2X2X1XkXMXkX*XyXtXyXyXtX8X XT.>.r.u.u.l.P./ F Z Z g f g w e C C Z Z F Q Q ~ _ { -.[ S.(.~.*.p.] A y r r c c A U +.$.;.;.;.;.;.m v 3 < 6 L.L.L.;.;.0.m.l.V.Z..X~.E.V.V.C.XXXX$X<X2X1X1X1XN.A.D.c.X.g ! ;XoXXX2XMXCXBX`  .r.g.E.(. X X XW.M.",
"8 6 6 q 7 y C Z H W.OX#X1X+X<XaXiXiXtX2X2XrXtX8X|.T.M.{ r.u.Y.Y.~ Q ~ F f s f 0 w / C V F F _ _ ` { *.:.@.] P ~.9.8.A v V v c c c A I U ( o.o.o.O.O.2 1 < 7 u ].].r O . 1 9 8X|..XXX+XV.A.Z.oXoX$XoX#XuXiXaXwXwXZ.nXNX<.` ^ wXwXOX#XyXmXBXwX-.=.f.m.W.[.{.Q.T.M.",
"q q p 0 0 y V Z H ^ #X#X*XeX@XrX9X<XrXeXtXyXtX0X@X/.|.l.~.Y.Y.:.V V C V e e e < 0 y n b V F _ _ { *.=.{ @./ F F A c v c b b c c c n K P P ( I I M 2 4 , < j h.0 @ @ @ O 8 8 8X<X<X|.XXl.F.oX>X>X>X2X<XnXkXAXkXiX.XtX#X;X-.9.cXcX#X#XeXMXlXlXc.-.=.f.h.U.h.h.h.$.",
": , > 6 w C Q Z H ~ 8XeXrXuXyXkXuXrXrXeXeXrXtXtX<X(.~.~.~.E.U.C i y e D q 7 7 6 6 3 n b b A H } { *.-.i.@./ S V y t c c c F c c v n A K P L L r 1 , - = O = < = * * , 8 8 > *X8X8X<X+Xg.; ,X3X4X<X<X2XnXnXAXkX$XnXCXnX;XqXa.wX:XwXOX#XeXtXhXA.<.-.=.=.*.=.=.=.! ",
"- > < w S ) F Z H ~ 2XtXtXyXjXMXNXmXxX9X8XeX*XW.m. X~.E.E.E.U.e e q 6 B V , 5 5 6 5 , F b V F } { =.} M.-./ V t c c b c c A c c v c n L A r q 0 < , p ^ g p 7 7 7 7 * 5 5 5 > 9X9X9X<X+X> > ; %XaXoX^.2X2X1X).bXbXnXzX;XjXVXvX;X).mXeX<XeXrXtXM.-.[ [ [ [ [ ` & ",
", c c y ..) Z Z ^ ~ ^ yXyXyXyX0XjXlXlXlXjX XQ.m.g.Q.T.E.E.U.f.e 7 6 6 6 y < * * * 5 , c b A D H #.=.W.M.=./ b t V b b c v c ) c c c 0 0 r u w g !.^.B.w.| h g g g g q 6 6 6 6 8X0X0X8XOXK q 8 ^.$X2X^.2XuXmX9XNXNXcXwXN.BXVXcXwX).).jXMXjXeXrXR.-.) ` Z ~ ) 9 * ",
"I A s ( -.*. .9.y.v.A.jX9X8X8XqXkXlXjXtXeX<X#X).M./.Y.T.U.L.i b y t q > 6 w * * * + $ - u c V F @.>.U.f.=.[ b S S S n b c c S t 1 3 3 < t a.!.~..XOXXXB.x.^ ^ 7.' ! ' s.Z.).).u.].}.].].].;X).Z.,XnXAXMXCXBX<X<XeXmX;XR.mXBXkXwX:X).MXpXyXiXpX1X1.Z g Z / @.- 0 ",
"L V s S.S.y.t.y.s.v.A.2XyXjX0XY.[.hX7X8X#X#X+X(. X|.[.T.h.L.b y t 0 0 0 { [ - $ + + @ + r w y V S o.+.d.=.@.( D P / L n c r > > > < < e.!.Q.E.E.~.XXOX(.7.q.w.^ c 7 J 9.B.R.M.i.2XuXI.I.p.R.M.g.].L.*XtXtXgX7X1X<XhXqX;XjXlXzXwX).Z.F.uXaXpX1XT.Q Z Z F [ -.r q ",
"V $.>XoXG.p.y.0.y.v.Z.XX0X[.Q.'.lXlXlXkXkXtXtX7X X[.'._.T.@.V e 6 6 5 > 0 [ [ > + + + @ 3 u t c V P D D P o.A D ] @.[ b 0 1 > t h k.k.l.P.Q.E.P.E.!. XXXs.7.b c t j h ' *.=.i.*.2XuXnXnXf.a.f.=.L.L.L.Q.*X*X7XqX/.#XqX XgX;XrX7X).C.F.nX1X_.T.>.@.^ ' 9.9.b u L ",
"/.T.>X>X).8.0.y.x.v.A.XX@X'.W.m.mXmXVXMXlXiX0X@X!.u._._.T.F Z f 7 6 6 5 , ] ( c : 1 @ O O 3 r u L A B B B B L A +.+.( M c > J z.z.k.k.l.E.E.j.k.l.~.!.7.V c y y 7 l ^ ^ |  . .' [ NXnXAXf.a.#.:.].L._ :.*./.[.'.W.OXOX;X|.R.eXrXwXS./.[.}.T.M.=.#.' | 9.t.c y M.",
"/.1X;XW.' 0.y.v.p.v.F.oXeXW.U.@X#X#X@XkXhXiX<XU.U.U.Q.Y.:.Z b y t y 7 6 5 > r L - : 1 + O > 3 q D V s s s v r 1 1 3 I m U &.%.z.&.z.k.P.P.U.j.d.d.#Xw.s y y y d q.q.7.| | | | | | yXMXCX/ / / | [ e y 8 q 5 v c A l.oX#X#X1X X).T.=.#.*.}.Q.m.u.9.`  .r.( [ R.).",
"[ )./.m.9.0.v.v.b.Z.XX#XeXU.+XBXkXiXhXlX0XqX;X[.Q.T.L.T.S V i t 0 > : q 6 , > 3 @ @ ; ; + u < 0 V s u s { t r 3 3 3 P E +.&.&.h d e.k.P.P.Y.j.OX$X2Xy y f d g h D.w.w.w.0.0.0.0.9._ tXjX` / Q | S S Z q g i 7 q t B A {.(.(.+Xc.V.W.{ | r.e.m.g.a.t. .y.>.>.)./.",
"{ /.C.9.0.y.D.S.S.oX2XNXuXMXVXCXBXhXlXqX7X0X7X|.[.Y.:.L.F V y 0 > , - - 6 6 , , & O O O . 4 c +.n ^ ^ ^ G t u 0 < D o.( E d G H J J ^ g 0..XoX$XrX,Xd d g g h K.>XS.B.c.c.c.0.c.c.c.#X*X .` ) P P L / K Q C i q e y y i Y. X+X|.f.o.$.f.c.d.g.s.v.<X0.y.>.[ *.{ ",
" .C.n.9.y.H.K.>X^ 0.2X,XNXZXBXBXlXhXhXqX X%X[.T.L.>. ._ F V y 6 , * $ + 7 6 5 * * O O X . O 0 L D D s H s B s e w @.[ i.P U } &.z.z.8.J < 7 j 7 g w g h h J 7.aX1XoXS.B.B.x.v.v.v.B.=.!.~.Q / Q ' Q Q y n b ! e g f f f V :. X X/ / ( / S E.V.8XhX9Xt.t.S =.*.{ ",
" .x.y.0.y.,XA J 9.G.bX,X,XCXmXmXhX0X0X@X{.|._.T.>.*. ._ F V y q , * + @ O e q * * O O . O & i.oXG A D D < Z Z G *.$.[ M.).+.E E e.k.s.J J j g ^ ^ q.h J 7.7.#XzX9X).S.B.B.x.v.n.B.B.x.m.T./ ' ` ^ 9.` q b p q y g g ^ ^ ' ! ] @.Z S S S S m.VXxXzXG.' ~ Z @.[ { ",
"' p.0.0.G.F Z a.Z.>XnXuXoXmXCXjX@X[.[.Y.>.Y.L.;.] P ` _ Z V i e 6 , * @ O d p 6 @ O < @X X+X8X#XBXxXxXB c 0 ^ ' M.-.-.-.1XR.&.%.k.p.g.A.h J A.#XoX2Xl.8.8.a.jXgX8X(.S.C.n.x.x.n.B.C.M.:.:.f.L n n b b K M M I B D D f g ^ ^ ` #.$.o.$.$.i W.+Xr.r.p.-.x.X...) _ ",
"` | 0.0.S V Z ~ v.oX2XZ.v.eXhX8X{.W.<X<X{.T.Y.:.n t V i Z f e y 6 , * & @ & y f OX@X X X{.jX@X{.cXlXzXhXsX).f i.R.M.<.-.;XN.-.e.k.g.g.E.XX#X!. XOXXXP.P.~.OXgX8X+X^.N.M.x.i.i.p.n.m.M.[ K L F V G F b I I o.K P } &.U V F } d.L.g ( $.t i c.H.G.x. .| B.{ 0.*...",
"~ ' | | V i G 8.S.oX.XA.x.#X0X*XY.C.#XOX~.Y.L.%.( 0 t y Z V e e w 6 < = = B.9X8X X X{.{.Q.jX@X!.lXzXhXsXdXdXqXzX XR.R./.9X X).).z.j.m.E..X@XW.@XE.(.P.P.P.~.Z.F.).).N.M.x.t.r.r.i.i.i.*.t C b i t t V 5 8 8 v B I m u c g F +.( U d.q 5 q B.G.oX>Xf ..n.| Q Q ` ",
"9.c.b.v.c.0.A.aX1X+XXX).N.tXeXOXXXi.E.h.k.h.h.g.i.9.g g Z f e 7 d j 7.hXpXiXtX{.Q.{.{.{.8XhX8X!.!.zXsXsXqXqX5XsX=X&X5X[.dX0XzXzXlXn.M.).Z.(.(.(.i.~.k.l.P.B.Z.F.oX).).M.i.*. .9.*.*.*.{ c.Z C i y q g | ^ Q e r q q g Q v.S.S.g ^ } [ q t i.oX>X>X| ..c.y.y.| 0.",
" .c.b.9.t. .| r.u.S.G.S.B.C.2XiXXX^.W.j.d.:.;.u.=.0.0.q.Z f d j b.lXjXpXaXiX9X(.Q.{.{.'.zX8XOXU.Y.fXsXdXqX7X0X%X%XL.>.&X&XsXfXlXxXlX).;Xl.Z.<X+Xx.l.P.k.+XB.A.S.XX)./.C.x. .{ { |  .{ { 8.p ' C C ..` >.m.>.%...i n *.i.N.9XhX-.^ ' p.[ p i.(.+XS...B. .c.b.v.0.",
"' | 0.B.B.x.c.a.*.r.r.B.S.S.B.rX<X~.h.:.%.$.$.] v.G.G.bXJ q.BXlXjXjXpXaXyXtXOX{./.[.Q.& Z H } { u.(.sXqXqX7X_.U.h.%X].}.dXsXfXBXVXVX5XfX:.(.+XXXk.k.P.k.S.B.B.W.(.(.n.p.i.t.*.| [ [ ` } 8.C ' } ' ..r.{ =.r.yXjXR.N.;X0X;XiXkXwX-.{ t.r.C *.y.~ ! f X.~ a e g | ",
"v.0.y.Z.Z.B.c.t.i.i.i.p.i.i.B.C.+Xu.$.o.I R P =.9.b.b.bXBXBXmXjXjXtXtXyXyXtX{.{.U., * F ] { e.u.g.W.*.@.7X6X@.3.%X%X%X%XqXsXhXdXdXcXwXzX=.f.(.^.e.z.l.Y.x.N.n.j.u.d.f.f.i.u.*. .[ _ / H 8.8.' x.f.v.t.{ _ <XrXjX XM.[.hXjX[.xXxXM.{ 7.y.u.x.8.g. .| B.x.c.t.' y.",
"t.| 0.S.B.x.i.i.x.n.C.C.V.n.p.i.u.$.o.I K #.#.*.G.FXGXCXCXBXmXMXMXkXtXtXtX@X].^ 7 e 6 %.%.u.d.j.V.W.sX;X X=.5.%X&X&X}._.].].%XdXdXzX_._.fX{ ~.E &.z.k./ 8.u.d._ #.#.%.u.u.u.*.*.[ ` Q n D F q U.#XeXrX<XtXtX8X8X X;X[.9XjXjXiXBXc.' 8.~ a.g.f.x.t. .B.>X).S.x.t.",
"' ^ '  .x.V.B.B.B.x.x.n.x.x.i. .[ V.g.( *.[ @.FXDXHXGXZXCXDXmXMXMXkXtX0X#X{ r.u.f.S &.:.:.d.j.Y.%X%X%X}.5X{ _ qXqX_.;.Y.Y.gXzXzXlXxXcXcXxXcX&.U E e.z.@.@.%.d.#.u./ / @.#.#.#.8. .Q S n n b :.q 5 , 6 S.tXtXtXtX8X@X7X1XgXgXjXjXxX..~ ~ y.p.x.v.B.n.S.>X:Xc.*.` ",
"` ~ ` y.x.x.B.S.C.n.n.x.i.{ _ _ | n.^ K A A F 8.0.y.B.0.j B.y.y.y.=.Z = #.d.g.m.U.@.;.:.:.d.'.{.|.%X%X`.o.F H &X%X%XsXzXlXBXBXBXBXzXBXcXcXzX5X`.} g.V.O.P P +.@.#.@.@.F F H 8.] _ ! C b b y s o.I p.1X X+XOX+XR.) T.}.qX0XlXDXnXBXM.! h J p.p.p.i.-.N.).N.N. .{ ",
"f g Q ~ _ [ _ [ [ x.{ P L S V b y i.1 K @.] mXs.oX+XB.0.0.g j 9.^ k 7 = $.j.L.U.Y.O.$.;.d.Y.Q.].}.%X%X}.V V G }._.`.&X%XqXzXdXdXdXxXlXzXzXfXdX`.3.z.O.) n n K P P ] ] U ] P P ( / Q S n i e s #.8X8X)./.1X@X@X[.-.@.-.7XgXmXMXCXCXkX .^ J r.i.y...) -.x.*.X.Z Z ",
"C V S F F / F P A V i c c c r y B.x.; 9.A } MXXX#XOX0XZ.C.C.g j j g h %.:.j.L.Y.Y.>.$.$.L.U.Y.'.}.}.}.|.s s f }._._.}.}.}.}.}.7XzXzXzXfXfX6X6X5.>.s.( n t t v c m K L S S P S P P P F C i e e e.0X(.|.T.M.@X*X}.:.$.1.).1XrXmXCXDXDX[.X.Q r.u.B.-.X.c.x.-.-.Z V ",
"Z F F y y V ~ u t c c c t 8 8 e S w $ | 4XS.e.8X8.#XqXOXZ.w.7.l l 7.v.:.:.h.L.Y.T.h.$.>.>.L.Y._.`.`.`.&XV 1 < }.`.`.[.[.}.%X}.}.}.`.hXdX6X6X_.o.F 8.B.t 8 8 8 9 x v n n c t t S S F ~ ! C p i #X*X8X X1.[.r.p.1.t S X.c.x.i.v.A.yXlXzX1.-.' s.Z.^.-.M.M.<.-.S Z ",
"V A S i g ^ F t 0 8 8 1 1 1 Z t.Q + AXkXaX9X<XDXk.OX#XZ.^.J.q.q.l v.0.y.0.0.L.L.h.h.:.:.>.3.L.L._._._.&X_.> < 1XB.n.p.y.y.y.x.x.>.P x.6X6X_.[ / F V V 0 6 5 ; : 2 v v v v c t q q Z C ` ! ! g.*X#X#XOX[. .r.t.-...@.T.;XoX).).oX X0XiX>._ ^ 8.A.C.N.M.N.<.[ ! V ",
"F i Q ~ ! y y t 0 8 1 : : Z ' v.nXs.ZXAXkXiX9X1Xr.U P.z.OX{.oXoX>XG.b.v.H.b.7.L.k.h.>.:.:.>.3.3.3.3._.5.3.v 1X<X>X).).oX>X>X1X X1.1./ n T #.@.] F C i x.8.a # ; : 2 2 2 x v c t t q 8 g | t.OX#X#XV.~.~.@XOXT.M.$.-.R.1X1X1X1X0X;XT.T.) Q ` ^ Z.XX).).(.N.).) F ",
"F Z V Q b y t t t r 8 8 7 ' x.t. .4XC i t 0 g ` u B &.c E #X!.pXaXkX<X<XuX<X(.C.!.>.h.:.>.>.;.;.;.3.,.3.qXlXC.iX>X1X4X3XiXiXiX0X1.>.O.N 3 - u ] P S b b 7 < 6 5 # # % ; 2 2 3 u u i ! g q 8..XOXE.j.!.{.OX#X@XQ.T.>.T.).oX+XS.).).` N.Z ] D f ~ S.N.(.XX/.(.) F ",
"Q S V S b b u b y v y ' a.oX4X>XF 1XA.i ` x.C.M._ V Y Y 1 : E E.hXzX8X<XtX8X>X{.{.@X Xh.;.;.;.;.;.3.zXsX0XqXwXxXhXxXBXBXBXxX%X}.O.,.M z < u r u b F t 0 7 7 d g a a + # 4 4 3 D _ _ _ Q ! E.~.!.j.k.P.E.{.].{.'.[.@X*X8X<XrX0X7X9X1.1.f S F F / r.).XXXX).+X-.` ",
"/ / / L S V G f _  .| a.F.uXaXG t.n.A.MXC.(.W.m.S r 3 B 3 > ; B B !.pXiX9X1X$X+XOX@X@X@XZXCXjX8X@XlXzXhXsX0XxXZXzXxXCXSXBX7XqX%X,.N z % 4 y > v c b c t 0 d J ^ ! l p 7 e 6 y A P ] ] [ Z j.U.E.f.d.P.~.~.!.Q.Y.Q.{.*X*X*X8X0XqX|./ $.! b ! S S A.(. Xp.1X).c. .",
"/ F F Q Z ~ v.B.{ `  .G.2XCXG H C.n.CXGXVX9X1X/.=.t 1 3 B 4 : 3 3 E U.Q.aXiXyX<X@X8X8X*XgXCXMX8XeXlXzXzXhXhXBXSXSXqXqX7X%X%X&X5.% N 2 X & B V B b A B c t d H {  .X.O.I L A S A P U ] [ &.k.h.E.g.g.g.l.E.E.T.>.L.Y.OX XOX X X{./ n n n <.) c.y P g.(.#.#.).N.Q ",
"F F H a.Z.C._ V f Z ^.G.A.B J V.C.V.mXCXCXBXU.U.h.U.> 1 s D ; - > Y N z.Q.T.iXjX9X8X8X8X7XCXjXtXxXlXlXlXzXxXzX,._.%X%X&X&X&X3.4.% z # @ X 3 A z v z Y I c v D +.R R R I K A A A F ~ ] @.z.d.>.>.j.j.j.j.T.E.U.$.O.>./. XOX X@X_ X.X.p 8 ) ! X.! u g.j.U ] ] m.S ",
"F H { a.S V V V Z F ~ V D J U /.C.V.|.[.<XQ.U.@.( S 0 < 3 B r U ;.m Y.'._.L.z.k.'.tXtXtX8XBXjXtXxXlXlXzX].R M O.3.qXsXdXdXdX&X3.2 ; # + + 4 P C z 4 2 ; c r 2 x m m m m n c V V F F ` =.:.;.;.,.d.j.j.j.P.Y.T.,.B $.T.{.!./.H ' X.) ) ) C.b ! n t #.Q.e.u.#.W.S ",
"H s } V Q Z Z F ~ _ { 8.U U e.C.n.f. XQ.{.!./.U.>.( o.q 0 s c U *X8XY.'._.E z.!.E z m 7XtXtXjXMXBXsXM x x R $.O.4._._.dXdXdX&X5.2 1 ; + + + v 2 m 2 + # 1 1 ; : 2 2 2 x x c B V F _ ` %.;.:.:.z.+.#.&.e.k.j.L.O.o.U.!.XXOXG ~ ^ ! t p 9 ! N.C.) t s _ #.#._ -.s ",
"D s e V D ^ ^ ` ' { e.a.s.F.<Xm.[.=.[.U.Y.j.U.d.k.@.] ` g.#.] l.MXMXkX0X3.Y E L.I.z m T T ;.O.R m m m m O.;.$.O.I I.I.I.6X&X_.3.B n # + # + X X X X X @ : > , $ $ % % ; : 1 u B D U ] +.&.$.O.] E @.&.e.z.k.,.,.o.I Q.'.$.H D 8.9.t n q q M.m.M.>.d { g ' ` -.y ",
"V Z ) V G 9.9.9.9.r.a.s.F.oXu.r.|.-.{.M.[.E.T.j.U.U.=.*.{ { [ a.MXgXsXqXY.P.Y W ;.v T T T ;.T R R R h.>.>.;.$.O.L.R I I M O.Y.3.0 1 - $ # # X X O & O O - , , # + + # # # 4 : 3 B P I I I R ] ] @.@.#.&.z.k.>.m M M >.S ( F D U f.) @.q p >.f.f.:.` ^ j [ F -.e ",
"V -.X.V G H x.x.x.p.v.A.oXjX=.*.#.T. XQ.|.{.Q.j.T.T.L.T.t.{ [ _ *X%X&XI.:.z.;.m z v m T # # # 4 :.Y.Q.U.U.;.$.o.m N m m M Y M r 1 1 : ; ; $ . @ @ 6 G @ & * = 6 @ @ @ @ @ + + 4 3 B m m m +.$.$.&.&.%.&.z.k.v v v 3 M Q.T.:.Y.Y.t 8 : , > C.M.c.X.! ] [ / [ ~ g ",
"C x.-.) G U #.S.Z.A.Z.F.$Xm.=.#.#. X'.tXiXiX<X{.[.'.T.W.( U P L 8 1 + O & + * 1 2 # + + # 2 O.R Y.U.h.>.T.;.$.o.R M m R I I I r X X . . X X * O i 6 d s O * = < X X O O O O @ & < I z x m o.O.$.&.%.%.%.d.O.x v > {.[.T.U.:.%.Q n q 5 , X.C.-...X.Z | 9.*.C ! Q ",
"<.c.M.-.Z _ ] #.!.oXoXoXNXM.-.-.@.@.0XkX*XqX}.@X|.}._.'.:.c c I > & & & 0 0 > , & & + ; R R R M '.Y.U.h.d.K I o.R 2 ; ; # # # X X . . . . 3 u y , = * < < < < 6 O X O O O O O O = 2 2 2 R R R =.o.I o.o.I M m 8 Q.[.[.T.>.B U #.) n 8 , v.c.c.<. .' 9.y.) ! H x.",
"M.-.u.h./ ! _ { r.u..X,XlXU.>.@.[ V.rX%X*XqX|.E.7X}._.'.}.B.x.* * < 6 < < , 5 , , : c A R K M m D W.U.L.h.k.m 2 , ; , > q f 5 . . X . X , 3 v c n < w 6 w & 6 e B O O O O O O O m 2 : : A I ( $.I M I n n M !.{.}.R.T.c y V P { =.-.b b S.S.N.M.<.{ r.p.V.n V ..",
"` ` W.$.@.! Z Q  .r.s.Z.(.U.>.W.(.iXCXAXaXCXBXBXkXhXqXI.>.6 S 5 e e 7 e i q q q y y c b A b c v 9 U.U.j.d.P 3 w q q e / S Q !   X O X : 3 3 1 z x > z 3 d 6 < s V @ O O O O O + 9 8 % x @.F A K A b v ~.Q.!.{.{.O.1 c t s V _ ] @.@.@.p.XX).).N.J #.u.p.l.! C ..",
"..^ ^ ).] ` ` ~ ~ ~ s.rX X@X7X X).CXCXBXkXiX1XCXsX}.Y.L.L.=.Z e 6 6 d G V Z g f f i i b ] :.>.$.@.f.@.Q F F S s F S b @.@.#.) . + + : q G _ F H _ ` [ _ 1 & = = u v @ O O O @ + x x o.R R m.Z.$.(.XXOXOXOX{.R x r r 0 y _ ` [ [ ) ) @.p.Z.^.+X).[ y.v.Z.^.S.! C "
};
