/* XPM */
static char *a1a297d927314f09ec79837cbb651fb1KbTIwJsikuEdugWF[] = {
/* columns rows colors chars-per-pixel */
"128 128 188 2 ",
"   c #030102",
".  c #0B0506",
"X  c #060A06",
"o  c #080C07",
"O  c #07070A",
"+  c #0C0709",
"@  c #070B08",
"#  c #090E09",
"$  c #110707",
"%  c #120807",
"&  c #120708",
"*  c #150809",
"=  c #1C0B0B",
"-  c #0D130B",
";  c #0F180C",
":  c #10160D",
">  c #121B0E",
",  c #0E0D12",
"<  c #0F1010",
"1  c #131314",
"2  c #141E10",
"3  c #15141E",
"4  c #18171E",
"5  c #1C1C1B",
"6  c #181111",
"7  c #210D0D",
"8  c #250F10",
"9  c #2A1010",
"0  c #201E1E",
"q  c #15200F",
"w  c #162211",
"e  c #192612",
"r  c #1D2C14",
"t  c #1E211D",
"y  c #1F3015",
"u  c #202F16",
"i  c #21241E",
"p  c #2D201E",
"a  c #213317",
"s  c #243618",
"d  c #263A19",
"f  c #293E1B",
"g  c #29371F",
"h  c #161621",
"j  c #181722",
"k  c #1B1A24",
"l  c #1F1E28",
"z  c #171821",
"x  c #201E27",
"c  c #201F29",
"v  c #222224",
"b  c #24232C",
"n  c #28262E",
"m  c #2A2A2D",
"M  c #282B25",
"N  c #30322F",
"B  c #3B312E",
"V  c #272630",
"C  c #282730",
"Z  c #2C2B33",
"A  c #302E36",
"S  c #312F38",
"D  c #343633",
"F  c #373934",
"G  c #393A36",
"H  c #35323B",
"J  c #39363E",
"K  c #3C3C3B",
"L  c #2D3527",
"P  c #413A37",
"I  c #2D441D",
"U  c #2F481F",
"Y  c #31471F",
"T  c #314A1F",
"R  c #334D20",
"E  c #365322",
"W  c #395623",
"Q  c #3C5A25",
"!  c #3E413C",
"~  c #3F6027",
"^  c #405E27",
"/  c #41433E",
"(  c #406227",
")  c #426428",
"_  c #4C6F2D",
"`  c #4E722D",
"'  c #4D6639",
"]  c #3A3740",
"[  c #3D3A42",
"{  c #413E44",
"}  c #434343",
"|  c #474944",
" . c #494B46",
".. c #464349",
"X. c #49464C",
"o. c #4C4C4B",
"O. c #494742",
"+. c #4E514B",
"@. c #53534E",
"#. c #58524D",
"$. c #4E4B51",
"%. c #514E53",
"&. c #555355",
"*. c #595556",
"=. c #565952",
"-. c #595C56",
";. c #565358",
":. c #5A565A",
">. c #5D5A5C",
",. c #605C5F",
"<. c #5B6254",
"1. c #5E615B",
"2. c #5E6955",
"3. c #586A4A",
"4. c #61655D",
"5. c #626A5C",
"6. c #68765D",
"7. c #5F5C60",
"8. c #625E61",
"9. c #666264",
"0. c #696567",
"q. c #656961",
"w. c #6A6D66",
"e. c #6B6669",
"r. c #6E696C",
"t. c #716C6E",
"y. c #6E716A",
"u. c #6B7264",
"i. c #71756D",
"p. c #74786F",
"a. c #736E71",
"s. c #757173",
"d. c #787376",
"f. c #767A72",
"g. c #797D75",
"h. c #7D7E79",
"j. c #7C8077",
"k. c #7E8279",
"l. c #82857C",
"z. c #84887E",
"x. c #868B81",
"c. c #8A8E85",
"v. c #838780",
"b. c #8D9187",
"n. c #8E9389",
"m. c #92968C",
"M. c #95998E",
"N. c #969B91",
"B. c #999E94",
"V. c #9CA196",
"C. c #9EA399",
"Z. c #A2A69C",
"A. c #A4A99E",
"S. c #A0A197",
"D. c #A6ACA1",
"F. c #A9AEA3",
"G. c #ACB2A6",
"H. c #AEB5A8",
"J. c #B0B4A7",
"K. c #B1B7AA",
"L. c #B1B6A9",
"P. c #B1B6AA",
"I. c #B2B8AB",
"U. c #B1B8AA",
"Y. c #B3B9AC",
"T. c #B4BAAD",
"R. c #B5BAAE",
"E. c #B7BDAF",
"W. c #B6BDAE",
"Q. c #B4BAAD",
"!. c #B8BDAF",
"~. c #B7BDB0",
"^. c #B9BFB1",
"/. c #B9BFB2",
"(. c #B9BEB1",
"). c #BAC0B2",
"_. c #BCC2B4",
"`. c #BFC5B8",
"'. c #C0C5B7",
"]. c #C1C6B9",
"[. c #C4CABC",
"{. c #C8CFBF",
"}. c #C9CEC0",
"|. c #C7CDC0",
" X c #CCD3C3",
".X c #C7D0C0",
"XX c #D1D6C6",
"oX c #D2D9C9",
/* pixels */
"H.H.K.R.E.K.R.E.K.R.E.F.G.D.A.G.K.H.G.^.E.G.R.G.G.D.H.D.F.V.Z.F.D.I.K.K.G.^.R.Z.G.`.I.R.G.H.R.^.).K.).).R.R.K.H.H.R.^.R.^.D.R.K.G.F.R.K.).E.E.G.E.E.K.I.G.C.n.S.K.J.K.K.E.I.E.n.~ = W I a w t.9.t.a.9.:...Z l k ^.^.F.^.].0.0.r.r.t.t.t.0.9.t.0.,.X.A k k z.R.E.",
"H.Z.^.A.H.(.G.K.H.I.R.).).G.I.).D.I.K.K.R.I.H.D.G.G.R.H.I.I.I.H.H.F.K.G.^.E.R.^.I.R.`.G.F.H.).).!.).I.G.I._.K.I.I.I.F.`._.E.E.R.G.K.F.K.E.I.^.E.K.I.R.E.G.A.A.G.F.R.G.^.(.A.I.c.) 7 Q T s w t.s.t.. a r e ; - # ).).E.E.`.2 w r.a.T E E E E E * * & . .   n.I.E.",
"C.G.J.^.K.K.I.R.E.R._._.I._.E.I.I.E.G.K.R.H.D.D.G.A.F.G.G.K.K.H.C.R.G.I.).E.E.A.R.(.E.E._.c.G G G D G D D D D D G G D G G F F D N D D D D D G F F D F D D D D D D / R.R.G.E.G.b.) 7 Q T s w a.a.r.. e w > - o X I.`.R.G.(.> > 0.r.f I I I I I * & . .     b.R.K.",
"D.G.I.K.H.^.G.I.R.(._.G.R.R.H.I.D.E.I.^.E.E.H.I.D.D.D.K.I.G.I.R.F.E.I.R._._.`.^.`.^.G.K.].w.X l c # # - # # #         #   X X c k k o # o # o o # # X X   X 3 z z v y.E.I._.K.c.) 7 Q T s w t.a.r.. e . .       K.R.I.D.G.. . 9.0.$ & & & &   s y e > # X N.^.K.",
"K.A.D.K.E.N.f.w.q.q.q.4.q.q.4.4.1.5.4.4.q.4.1.4.4.>.-.-.4.-.1.1.-.4.4.y.z.R.(.I.R.R.^.D.'.t   j j                   #   X X X j j j X X X X X X X X X X   X z z z k +.R.E.G._.m.) 7 Q T s e r.a.e.$ a . . . . . R._.I.D.).. . a.a.* * * * * * & & . .     V.G.D.",
"K.A.G.E.K.n. .D D D G D D F D N D D F F F G D G F D F D D D F F F D D D -.V.^.).)._._.E.K.X X z z   .   . .       #   # X X X z z z X X X X X X X X X     X z z z z  .E.H.F.^.N.) = Q T s } t.a.t.* I &   >     E.R.A.K.(.    t.a.          T T I a w - o V.R.K.",
"D.Z.E.H.E.n.                k k k k l c l k l c l j l l l k l l l -   -  .c._.E._.(.G.`.I.@ X z 3 - - - - - -   -     - # X X z j z # # # # # # # #     X   z z z 3 } R.!.F.H.m.e.r.r.a.t.a.e.a.t.* W *   r . . A.Z.G.E.G.& $ e.r.* = = = = =             V.K.K.",
"K.A.G.G.E.l.. . . . . .     z 3 z z k j j j j z j j j j z j j j j z z j K x._.E.K.^.(.(.R.z z z 3 3 z z z z 3 z z z j z z j z z z j - - - - - - -     #   X z z z z } F.R.R.K.n.r.r.t.a.t.a.s.a.a.t.e.>...S l k K.G.Z.K.H.r.e.e.r.a.a.a.t.r.r.0.>...H b j N.).Z.",
"F.G.F.K.^.k.-               3 3 3 z 3 j z z z z z z z 3 j z z z z z z 3 D x.R.R.G.!.G.^.E.k k k k j j k k k k k k k k k k k k k k k - > > > > :   . -   #   j j z z } ^.G._._.c.t.a.r.a.t.t.t.t.a.a.e.>...Z l j R.).).(.H.a.0.r.t.t.a.t.a.t.r.9.>.$.H c j m.E.D.",
"K.F.G.D.K.g.. . . . .       3 z z X   o                       z z - . - v z.E.^.).I.K.H.D.- - C n n n b b x v x v v b b b C C C C C w e e e e   . e . >   X l k j   } K.F.^.E.m.d & s r w 2 w t.a.* R *   r . - ).E.R.E.`.$ . r.r.t.e.>.:.:.*.&.o.J n 4 3 C.R.K.",
"K.).D.D.I.i.. - - - - # X X z 3 j X   X                       j z #   # v g.H.H.E.(.K.I.F.- - { { [ 1 e e e e . e .   q > 1 [ [ { ..s d d d   & d & s . >   C b k X } F.(.(.R.m.r . e w > > > t.s.* f &   q   - E.^.^.E.).. . r.e.a.0 * * * * * $ . .     V.D.G.",
"H.K.D.(.F.y.. > . . . .   X k k l X   X                       k k   @   M z.G.I.Z.B.C.I.K.> : ;.%.&.w w w w w . w .   q > - :.;.;.;.T R R   * R * T * d . - ] C l   } H.D.G.D.M.. . e e 2 > > a.s.$ s .   >   # !.R.E.).K.. . a.0.a.. . . . . . . . .     B.K.H.",
").R.D.G.^.i.. r . r e e   # Z Z Z - . - . .   . .   - - - # # C b -   # v x.E.E.E.F.Z.D.C.w > 9.8.0.w e e e e . e .   2 > - 8.*.9.9.W Q   = Q = Q = E * r   X.H k @ / G.H.H.R.M.s s s a r e w t.a.$ s $   >   # E.K.R.R.I.. . r.t.a.. . . . . . . .       C.I.R.",
"I.E.G.R.^.i.* f * f   r . n ......  a   r r r r .   s . . . . [ H :   - v l.).^.E.I.Z.m.G.r 2 e.e.r.r a a a a $ a . r e 2 > r.9.r.a.8.  = ( 7 ( 7 ( = T   K %.J b   / F.E.G.D.B.* * * I f u r r.r.* I *   e   - ^.).D.G.I.. . a.t.a.$ $ $ $ & $ . . .     V.^.F.",
"^.H._.E.R.i.:.;.>.>.>.>.>.>.;.>.>.=   W       T *   E * & . . %...e . - v j.G.H.R.R.A.H.D.$ . 9.0.0.* * * * * I * I f s e > a.r.r.t.r.r.>.0.t.t.r.r.r.t.r.0.%.J b . } m.R.G.^.M.7 7 7 * Y d a e.t.* E *   r . # Z.F.G.R.(.f . r.9.s.* * * * * * & . .     B.H.R.",
"Z.Z.F.R.D.w.9.0.e.e.e.e.9.e.9.9.r.9.8.e.e.e.r.0.r.9.9.e.9.0.9.8.%.] n k m k.R.^._.D.R.^.D.e.e.9.e.e.R W W Q Q = = W R I r w a.t.r.r.9.r.9.e.r.a.r.0.r.a.r.9.$.J n j  .A.I.I.).V.r.r.r.t.t.t.a.t.a.r.r.>...Z k n I.Z.G.G.R.r.r.e.t.s.* = = = = * * & .     V.R.N.",
"B.R.D.D.D.w.e.0.e.0.e.8.r.0.r.r.r.r.r.a.r.r.0.0.e.r.r.r.0.r.0.0.&.[ n k m k.E._.^.I.!.R.).>.a.9.0.r.= = = = = = = Q W I a w t.a.r.t.t.r.r.0.r.r.>.r.e.t.e.9.%.J n j =.I.R.^.K.V.0.9.9.t.e.r.a.t.t.r.e.:.} Z k G ^.^.H.R.^.>.0.r.r.t.= = = = = = * * . .   Z.!.F.",
"G.R.D.D.K.i.& d & d * & . . w r.t.R * E * E * E *   Q * * $ . e.&.J b 3 m l.).R.^.D.K.G._.V.r.9.e.a.Q ( ) ) 7 7 7 ( Q T a w s.r.t.      & d & d &   f . w . > J b - b.B.G.I.D.G.k.E E R * a . a.t.r.8.o.J b 4 y.(.R.K.A.G.8.9.0.e.a.= = 7 7 7 7 = * .     V.K.G.",
"D.F.V.K.K.f.. r .             t.a.f * I * I * I *   R * $ . . 9.%.[ # - 5 l.R.K.R.K.I.R.).].K.D.D.Z.M.A.G.G.V.F.A.K.D.Z.D.G.G.A.Z.V.D.A.A.A.D.V.D.V.G.A.F.D.F.F.F.R.R.H.H.G.K.Z.[.B.N.A.A.A.A.Z.B.n.B.V.C.C.D.H.R.R.A.K.].v 9.r.a.s.= 7 7 7 7 7 * * . .   A.).E.",
"G.Z.G.H.E.i.. e & & $ . . . . t.e.a $ s & s & d %   f $ . . . 8.&.{   o 1 j.(.I.H.^.G.R.E.G.K.).A.K.C.F.D.D.R.E.(.).R.R.).R._.R.K.G.R.).E.H.R.R.K.G.G.^.I.G.I.R.Z._.^.I.K.G.I._.E.K.I.K._.R.^.R.E.I.I.E.I.H.R.I.F.G.G.I.^.  t.a.r.s.= = 7 7 7 7 = * . .   B.K.D.",
"G.D.K.D.A.y.& s s s s a r e w 9.r.d & f & d & d *   I & . . . 0.;.{   X   g.G.G.I.K.K.G.G.G.R.G.G.F.B.G.D.H._.R.G.K.R.R.).I._.E.I.G.F.F.G.R.D.G.K.R.R.G.I.K.G.H.F.).D.^.I.K.G.R.R.R.F.D.R.^._.H.^.D._.G.I.H.R.m.A.R.G.E._.  r.e.a.d.= 7 7 7 7 = = * . .   B.!.E.",
"G.K.F.D.K.w.* * * * * * & $ . 9.r.* * T * R * T *   W * & . . 9.:.[   #   g.H.C.G.G.R.K.D.R.I.Z.K.G.K.G.K.D.E.E.R.(.I.^.E.`.E.K.I.^.).D.G.G.K.D.K.R.).H.G.D.G.H.K.^.!.^.D.G.H.D.R.R.Z.G.G.^.R.^.I.H._.E.H.K.Z.C.H.K.E.H.R.  r.r.a.a.9.7 7 7 7 = = * . .   B.H.K.",
"K.^.D.K.R.i.Q Q Q Q Q E I d a 0.r.E Q Q = Q = Q =   ) * * $ . ,.%.... -   p.R.G.H.!.E.D.H.I.E.G.I.D.G._._.R.R.K.I.H.I.R.).E.R.R.R.K.R.^.G.E.F.G.(.^.H.H.G.H.H.G.).G.`.^.F.I.G.B.E.E.^.D.).I.(.I.I.E.E.D.G.D.G.H.D.R.K.A.H.  t.r.t.t.e.e.a.r.t.0.9.$.A b j M.Z.R.",
"I.R.A.E.D.i.a.a.a.a.9.a.a.r.e.r.r.e.9.r.0.r.r.0.e.9.>.r.r.0.e.8.:.} . -   y.R.K.K.I.K.D.G.E.i. .} G G G K K ! K K ! / 4.F.).^.I.G.^.K.R.I.(.!.V.K.I.H.G.K.D.G.^.^.K.K.G.K.B.D.I.D.R.K.R.G.E.R.(.E.^.H.K.A.G.I.(.H.D.I.E.D.. a.r.r.r.r.9.0.e.r.e.8.o.H b j N.A.H.",
"K.H.R.Z.G.w.r.a.a.s.0.t.a.t.t.0.r.r.r.r.e.t.r.r.e.t.r.e.e.r.0.e.;.} . >   g.K.(.I.).^._.I.j.F 8.9.>.8.9.8.8.>.8.9.8.8.e.F K.^.^.R.H.E.(.I.G.G.H.I.^.E.(.K.K.R.K.).I.^.Z.F.G.F.(.K.^.E.E.H.^.E.E.^.R.G.H.H.H.E.I.F.R.E.R.G.w r.e.t.e.9.r.t.t.r.r.8.X.H b j V.K.H.",
"H.D.^.D.K.i.* * * * * * * & . a.t.r.8.>.:.%.*.>.%.;.:.>.>.r.r.9.:.... > . g.E.^.G.H.R.E._.w.%.$.%.. . . . r . r . . . . . c.I.^.G.E.F.E.K.G.C.N.M.m.N.B.V.c.M.N.V.m.c.N.m.c.B.A.Z.D.G.D.A.G.H.D.C.A.A.A.H.(.).F.D.E.E.D.G.. r.r.e.. & & & & & $ + . .     V.D.K.",
"H.H.H.^.E.i.I I I I I f s r e a.r.a.i f f f f f *   I & . v a.0.:.... > . f.^.^.I.G.).G.E.=.H J J - - - - . - . - - - - # p.E.R.F.H.G.R.^.n.4./ G G D D D N F F F D D F D D F K / ! ! / / / ! / / } } +.y.Z.).G.H.E.I.G.S.w t.e.r.w e r r r r r e > - X X m.G.R.",
").I.D.^.H.i.d d s d s a r w > e.a.a.r r r r r r a . r & . . r.r.>.... > . f.E.K.).R.R.K.D.. b n n         o   #           y.G.G.G.K.).R.).m.G - - - - - #   X k z j X X X X # #   #         b b b b > F o.x.R.F.K.I.G.H.Z.  e.r.t.                        B.Z.K.",
"E.I.K.R.^.y.f f f f d s r e > t.a.s.e e e e e e e . e w > > 0.8.:...e . - f.H.R.R.D.D.F.I.  j k k       o   #     o # @ X i.G.A.K.I.I.K.E.m.# # # # # # X   X z z z X X X X X X   X       X k j j j . . ! x.G.G.A.A.D.H.D.. r.e.t.. & & & & $ $ . . .     m.H.E.",
"E.G.I.).I.p.* * * * * * & . . r.t.s.. + & & $ $ a . r e 2 > r.8.;.{ n >   f.G.G.G.H.G.G.^.1 k k k     -   -     -         y.G.G.K.^.I.G.(.l.# # - # # # X   X z z z X X X X X X   X       X z z z 3 3 . G k.G.Z.G.I.I.).G.K 0.r.r.* * * * * * * * $ .     B.G.^.",
"A.G.R.I.G.p.Q Q Q Q Q E I a e t.t.s.f I I I E * I * f s e > 0.0.>...Z l z i.G.R.^.G.R.^.).b n n n . > . >     > . . . . . p.D.K.F.G.^.I.I.x.- - - - - - #   X z 3 z # # # # # #   #       X 3 z 3 3 z z m k.D.G.D.A.E.^.D.r.r.a.0.E Q Q Q Q Q W R f r > - C.H.K.",
").R.K.).E.f.a.e.a.r.a.a.r.t.r.t.r.0.* = =   ) = W = R I r 2 8.8.:...Z k z i.I.H.C.R.R.^.`.J J J J [ J J ] J J S C b k j z p.K.G.D.F.K.R.G.x.z z z j z 3 z z z z 3 z - - - - - -   - .     X z 3 z 3 z 3 b g.H.V.G.R.H.G.G.9.a.a.0.e.r.t.e.9.r.e.>...J c j C.K.^.",
"E.).E.E.R.g.t.r.t.r.r.r.r.r.r.9.a.r.Q Q =   _ = ( = W I a w 9.9.:...Z k j f.I.(.K.I.^.R.].%.%.%.%.%.;.$.o.%.%.$.[ Z c k z i.G.R.K.G.F.I.E.x.k j j k j k j k k j k k - - - - - - . -       X j z j 3 3 3 b f.F.F.H.I.G.K.H.t.t.r.r.a.r.t.r.9.r.r.8.o.H b j C.I.I.",
"G.).^._.).l.:.>.>.:.:.>.:.r.t.t.r.s.  ( 7   ` 7 ) = Q T s w e.e.8.w   #   y.F.R.H.D.R.I.!.. . 9.,.I     T * T * f r w - # p.H.R.).G.I.R.G.l.k k k c k k c b n n b C > w w w w w . 2 . . - X k l k       5 f.D.G.I.K.I.I.I.w . t.0.T * * * * * * * & . .   Z.(.^.",
"R.(._.R.^.n.* * * * * * * v a.0.r.a.= ) 7   ` 7 ) = Q T s w 0.0.:.>   o M f.R.I.J.H.R.^.^.. > 9.:.    I * I * f $ . .     i.F.E.G.I.D.G.G.l.q .   q q > > 1 ] ] ] ] y a a a a a $ a . e .   H Z C       5 l.I.R.K.I.C.I.K.2 . e.r.f * I I I I I d r > - # N.R.).",
"E._.`.E._.G.. r r r r r e 2 a.t.t.s.= ) 7   ` 7 ) = Q T s w t.0.>.>   X y.M.A.Z.F.G.G.V.!.> . r.,.  s & d $ d $ y e > # X y.^.K.K.D.^.).H.l.. w .   w > > - o.%.$.;.* * * * I E   I * a . . ..[ J       4 k.K.H.G.H.G.G.G.. 2 a.t.  & s & $ & $ . . .   @ Z.(.`.",
").).G.E.^._.R.R.C.1.-.=.=.@.g.h.i.f.P ' p 1 ' B 3.#.6.2.<.<.g.q.f.l.D.H.D.C.K.D.E.A.B.G.`.. w t.e.d & d & d & d   . .     y.H.R.H.E.K.K.K.l.w . w .   > > - 0.8.0.8.7 7 7 = Q )   W * I . . ;.%.} ; - # t k.G.K.H.F.D.H.E.e . a.t.$ d & * * * * * & .   o D.!.).",
"R.^.E.R.I._. X X X{.{. XXX_. X|.(.[.^. X[.].{.].{. X[.[.].]. X X}.^. X X].D.G.D.I.G.G.^.H.r   a.r.* T * R * T     a w - # i.H.K.(.K.R.I.K.z.. a . y &   > > e.e.r.t.8.^ ( 7 ( _   Q = I $ K e.9.%.. . . 5 k.G.F.R.I.).E.(.6   a.t.I * T           a .   # R._.E.",
"I.V.K.D.G.G.R.R.E.^.I.I.E.^.).G.A.G.G.F.G.D.I.^.K.H.K.F.F.^.R.S.V.C.R.H.I.F.Z.F.G.R.K.R._.    t.a.E = Q = Q       * . .   i.R.I.F.I.F.G.G.c.I * I * f *   > t.e.a.t.t.t.r.:.9.0.0.r.a.9.r.a.0.7.$.a w - t g.I.G.G.(.I.R.`.Z.  r.a.* Q = = = = = * f .   4.^.`.K.",
"K.R.G.J.G.D.K.R.R.K.R.).K.R.H.D.F.H.A.A.R.I.G.R.G.F.G.H.R.H.D.D.^.H.F.K.K.H.C.I.Z.G.I.R._.0.a.0.t.a.r.e.e.r.0.,.>.X.Z k k w.^.F.R.D.K.I.`.c.  W = W * I &   a.0.9.t.t.t.9.,.0.0.,.9.r.0.r.t.0.>.;.[ C k b k.E.).R._.H._.(. XR.G.Z.C.M.N.N.C.A.A.N.V.A.Z.R._.R.H.",
"D.H.).!.R.H.K._.G.I.R.K.F.I.K.(.D.K.F.G.I.I.I.^.G.^.R.!.K.H.K.K.K.(.K.F.K.C.Z.K.D.).I.I.H.e.t.t.t.r.e.r.r.t.r.9.7.o.H c k y.K.I.G.I.R.K.E.l.= ( 7 Q = I $   e.r.r.t.t.e.>.9.r.9.0.t.t.r.a.r.r.,.%.[ C k v g.^.R.H.^.I.E.^.G.K.F.D.K.F.G.K.I.^.).R.K.).^._.^.).R.",
"D.I.^.).E.J.R.^.I.D.K.G.K.R.K.^.F.(.).R.Z.H.D.R.H.G.^._.R.^.^.A.R.D.G.R.G.Z.A.G.R.I.D.D.H.a r t.t.r.9.>.>.>.;.;.o.K C j 3 y.^.R.I.E.I.H.K.x.  ` 7 ( = T $ w 9.0.r.. $ & d & d I   d & r . . . 9.:.r e   2 i.^.^.).I.I.E.R.R.H.H.G.I.R.A.K.A.I._._.K.I.G.^._.^.R.",
"E.E.).R.).E.^.D.I.H.A.D.K.G.E.).(.^.K.G.K.(.I.I.K.E.F.H.E.I.E.I.`.H.D.E.Z.A.I.I.E.R.G.G.H.r e 9.r.0.i * f *   *   r > - X i.G.).E.G.A.F.).l.  ` 7 ( = T $ w t.r.t.w e . r . r u   r . w . . . 0.:.e >   - j.I.R.D.K.D.R.E.G.E.I._.H.I.G.G.R.I._.).R.J.K.K.E.^.E.",
"^.R.^.R.E.I.K.^.R.K.K.A.m.D.R.R.^.R._.E.G.F.E.H.^.^._.I.E.H.^.H.E.K.K.H.G.K.!.K.R.J.I.K._.L 2 e.r.t.r . . r .   $ . .     y.I.H.D.F.D.C.F.z.  ` 7 ( = T $ w a.r.t.e e . e . e r   e . e . . . 9.:.> >   : g.K.I.K.K.H.R.D.G.E.I.R.E.G.H.F.H.G._.).R.^._.^.E.(.E.",
" .+.-.-.1.>.4.q.4.4.q.q.1.>.4.y.k.G.K.H.I.E.I._.E.M.w.4.4.1.q.>.4.q.1.4.q.y.m.R.!.).^.!.K.w.> 0.9.s.e . . . e .   > - X X w.H.^.G.D.K.G.F.c.  ` 7 ( = T & w a.e.e.a s & s $ s f   s $ a . . . ,.;.w >   2 g.F.E.).F.H.R.G.I.B.i.q.4.q.1.4.-.4.q.q.q.4.1.-.=.@. .",
"3 z 3 .   e . w . w 2 > - 3 C C F F N.R.H.R.G.E.=.D   ; - -   x k   -       D / R.K.A.^.`.y.. t.r.a.r $ $ $ $ a . . .     i.(.G.^.^.I.G.G.f.  ` 7 ( = T & } t.e.a.    * T * T W   T * I & . . 9.:.r w   5 f.K.I.E.^.R.(.G.q.F 0.0.9.r r r r r r . >     X   3 z ",
"z z z j j k k k k k k k k k j k k - 1.G.K.E.G.A..   >         z j . - . - - - D F.G.H._.^.i.. r.8.e.f * * * * * f r > # X i.K.E.I.E.E.I.D.x.9.a.9.e.r.a.r.r.r.0.9.7 7 7 Q = Q )   Q = E * & & 9.>.a r   t f.K.G.E.E.H.I.^.4.> &.%.:.r a s a a   . >   #   X z 3 ",
"3 z z z 3 z z j j z z z z z j z j j o.R.D.E.H.Z.z z 3 z 3 3 z 3 3 3 3 3 3 z 3 j K.R.Z.I.R.y.e.r.9.e.E * = = = * * & . .   i.D.K.I.I.D.G.R.c.t.t.a.t.0.a.r.e.r.r.t.0.0.a.a.r.e.a.r.r.r.r.t.a.r.8.;.{ Z k v y.H.I.E.E.G.H.(.H J [ J [ r r r r   . e . -   X   3 z ",
"z z z z z z z 3 z z z z z z z 3 z z | ^.D.^.G.m.z 3 3 z z 3 3 3 3 z 3 3 z z 3 j E.^.R.G.I.w.a.t.r.a.Q = = = = = * * r - o y.E.E.R.A.R.I.D.g.0.t.a.r.a.r.r.a.a.t.a.e.r.a.r.t.8.r.0.r.r.r.r.r.r.e.:.] Z k b i.D.H.G.K.F.H.H.b b b n C > w w   . 2 . -   #   X 3 z ",
"3 X X o @     #   #   X   X X z z # | ).K.G.K.N.-   -   #     3 3 z 3 3 3 3 3 3 R.E.G.N.D.y.r.a.r.s.Q = 7 7 7 = = * r : o w.D.G.G.E.I.E.R.z.  I & d & r w 2 w t.e.R E E E W E ^   E * T * & . e.>...C 4 b k.D.K.E.R.F.Z.H.z j k k k . . . X ; . - . -   X   3 3 ",
"j         X     X   X   X   X z j # | G.R.H.G.M.#   #   o     j j j @   # # # # I.G.R.F.F.y.r.0.e.t.Q 7 7 7 7 = = * r : o y.K.R.R.I.(.^.R.k.  u . r . . . . . a.e.* * * * * * *   I * f $ . . e.>...<   v l.I.^.).K.D.A.D.O z j k k - - - - . - . - . -     j z ",
"b X o # o   o     #   o   X   j z X  .K.F.H.D.m.-   -   #     c b b o   X X X X E.I.^.R.K.y.a.t.r.a.Q = 7 7 7 = = * r - # w.D.H.R.E.R.I.K.x.  r . e e w 2 > 2 r.r.s s s d s d s d s & a . . . 0.>.X.-   i l.).).G.A.D.G.H.  k c b b . . . . > . > . >     X b c ",
"H . . . . > . > .   >   -   o k j o  .G.R.M.K.B.> . > . -     Z H H #   X X X X I.G.G.G.K.p.a.r.9.a.Q 7 7 7 7 = = * .     y.(.I.F.H.H.G.H.x.  f $ & $ & . . . 9.e.$ & * & * * & * & & s . . . e.>...  X 5 x.^.G.^.F.C.I.I.o A H H J r r r r . r . r     >   H H ",
"X.r a a a $ a + a &   s   >   b k #  .K.A.R.H.V.a $ a . e . . ..X.X.> . - # X X F.V.(.H.I.i.r.r.r.r.e.( ) ) ) ( W I r - o y.).E.R.K.I.).G.c.  E * * * = * * & >.0.= = = = = = = = = = * d r w 9.>...-   5 l._.H.K.Z.H.I.H.  X...$.$.}   I * I * I     a . A o.$.",
"8.U R R R * R * R *   E   r . A l -  .A.^.G.H.c.R * R * f . . 8.>.8.a . w > - # C.H.F.G.I.w.e.t.a.9.a.a.t.e.9.0.:.o.H l j y.(.K.I.(.E.).R.c.Q = = =   E I d a 8.e.E Q Q Q Q Q Q Q Q Q * I f . 8.:.X.    M z.E.I.).K.R.I.F.. 8.:.8.:.:.>.8.:.8.>.>.>.8.>.8.7.8.8.",
"r.t.0.e.9.a.r.r.r.9.9.,.e.>.o.H n k  .K._._.R.M.9.0.r.9.9.e.r.e.e.9.I * a w - - G.F.H.G.H.i.a.a.a.0.t.t.a.t.r.9.8.$.H b z i.^.^.(.I.K.R.I.n.r.t.a.t.a.r.r.e.r.r.r.a.e.t.t.r.a.e.9.r.t.t.r.a.9.>.:.... - / l._.K._.G.K.H.G.> 9.r.r.0.e.r.r.e.r.0.9.r.9.8.r.e.e.r.",
"r.a.e.a.t.r.e.r.t.9.e.t.t.9.%.] n k o.E.G.K.D.V.e.a.t.r.r.r.r.r.t.t.E * & . . . D.I.R.E.K.y.0.0.t.0.t.s.a.t.e.e.8.$.H b j f.I.K.I.G.)._.'.A.t.t.t.t.t.e.r.e.8.r.t.r.r.r.0.r.r.t.t.a.t.r.s.r.e.9.:.... > 1.c.R.E.K.).E.H.K.. r.e.s.t.r.a.t.r.t.a.r.r.r.r.r.r.r.r.",
"r.R E E E * E * E *   W   r . J n j +.K.^.G.J.M.*.:.>.>.:.8.t.t.r.a.W E f r > - G.I.K.^.I.i.t.r.r.r & d d d d d a e > # X g.H.I.G.G._.R.`.].c.* * *   W * s . a.0.0.e.,.;.&.;.*.:.>.>.:.,.0.r.,.;.} . 2 c.C.I.G.(.).H.(.I.w r.r.r.  f & d & d & d $   a . 2 . a.",
"e.f I I I * I * I *   I   e . ] n k =.K.R.Z.E.M.f * f & a v t.e.r.s.W E f r > - G.G.K.F.D.w.e.r.t.w r . . . . . . . .     k.I.K.H.H.I.R.^.}. X`.).`._.K._.).K.K.R.(.^.^._.^.H.[._.].].E.].`.].`.].(._._.(.A.G.E.K.^.G.F.F.w e.0.r.  r . r . r . r .   e . > . a.",
"t.s s s s & s & d $   d   q   J V j f.K.R.B.R.m.r . r . w . r.0.t.a.W E f r > - K.F.G.K.D.n.a.t.t.e e r & & $ + . . .     c.C.F.G.R.D._.G.K._.^.`._.R.K.'.`.E.^.G.F.`.`.].`.^.].].{.].`.).^.^.[.{.^.^.).E.K._.^.R.Z.I.^.K.f.t.r.r.  r . e . e . e .   r . > . r.",
"0.d d f d & f * f &   f   w . ] n n.!.K.^.I.^.m.  . e . > . t.0.e.a.W E f r > - D.D.G.G.K.^.g.t.e.a s s                 f.G.D.F.H.(.E.E.R.`.K.R.F.D.G.K._.I.G.F.G.D.E.K.F.I.R.R.^.J.(.G.).D.K.I.^.'.I.K.E.E.R._.^.E.).K.(.).F.r.e.  f $ s $ s $ s $   d . e . 9.",
" X{. X{.{.[. X_.{. X[.].}. X}. X].!.^._.K.K.R.m.$ $ r . 2 . t.9.r.r.>.E f r > - G.H.D.G.G.D.[. X^._.{.^.]. X].].]._.[.].V.E.K.R.E.^.K.E.I.R.I.G.K.A.A.K.K.I.G.A.G.D.E.E.H.R._.K.R.R.E.D.^.R.^.H._.I.E.H.K.K.G.K.C.).!.K.H.I._._.]. X}. X X.X X XJ.~._.].]. X].{.",
"I.R.R.E.E.E.E.E.I.G.G.G.E.^.^.).^.R.^.R.^.R.R.l.I I f & e . a.e.8.e.8.X.} Z k 3 B.A.D.I.).I.).I.I.G._.R.D.H.K.R.D.(.I.D.G.^.K.H.K.(.R.K.E.E.E.K.A.I.E.^.).G.H.G.D.G.H.H.I.E.E.I.R.`.H.K.I.I.K.F.^.K.K.I.R.F.I.R.R.C.K.E.E.I.E._.H.^.)._.I.E.K.G.R.G.E.K.I.).G.G.",
").K.H.D.D.A.E.G.D.A.G.R.B.).K.K.R.R.).^.D.G.A.z.= = * * r . e.e.9.0.8.;.} C k j D.Z.G.E.K.K.^.I.Z.G.I.R.A.K.F.D.K.H.^.I.D.K.K.(._.R.).R.I.K.E.K.F.E.).R.I.K.R.A.K.K.Z.I.K.).).D.G.^.E.D.J.G.R.K.R.^.E.I.K.^.D.R.I.K.I.(.K.E.R._.G.E.^.R.K.^.G.^.G.D.G.E.K.E.).R.",
"(.E.E.).R.I.K.D._.I.R.D.H.G.D.F._._._.^.I.E.E.M.~ Q W I a . r.r.8.r.8.:...Z k z D.H.I.E.^.R.R.G.G.F.K.H.F.D.B.H.R.E.^.^.G.R.I.R.K.R.E.R.E.(.E.A.I.I.I.K.I.K.K.D.K.R.K.^.K.K.I._.G.).E.D._.G.R.E.).^.(.K.).^.).K.^.K.G.R.R.I.H.G.E.I.`._.G.D.C.F.F.Z.D.I.E.G.E.E.",
"R.K.^.A.E.).E.G.I.E.R.'.H.I.I.^.K._.!.E.R.K.E.M.          . e.9.8..             F.F.G.I.E.E._.R.E.I.I.H.D.N.E.Z.G.R.E.E.K.(.G.I.H.E.I.K.(.`.R.E.G.E.).R.K.K.R.F.F.R.!.K.E.K.I.K.G.).D.H.).K.E.I.^.R.E.E.`._.^.^.^.).).E.I.I.).I._.K._.R.H.F.^.G.F.H.K.R.K.E.K.K.",
"K.E.F.I.I.^.`.R.R.^.R.).G.^.H.R._.R.^.D.I.).I.B.9 9 8 = * . e.e.0.. . . .       H.H.D.E.I.N.} D F D D D F D D D D F D D D F D D D D D D F G D F F F G F F F G D D D G D F F G D F D D N D F D D D G D F F G F A.R.R.^.I.K.H.R.K.H.).G.H.H.I.R.^.I.R.^.I.I.I.K.^.",
"K.K.E.H.H.I.E.^.E.G.R.'.D.E.).K.`._.K.G.R.^.K.V.) ) Q T s w t.t.9.e e q > - X X K.K.R.N.(.f.> >.;.r r r . r .   r .           3 z z X   o             #   X c k k b > > > > > > > . > . # o l k k X X X X X X  .E.^.E.D.G.K.^.)._.)._.R.H.I.E.H.H.E.R.R.R.E.).K.",
"4.1.4.4.4.1.-.q.4.1.4.4.q.w.i.n.R.K.R.I.(.G.E.B.) ( Q T s e e.9.r.a a r q - # @ _.K.R.K.^.w.- ....w e e . e .   w .           3 z 3 X   X             X     j 3 z k   . . . . . . . -   o X j z 3             G ).I.^.I.K.G.E.H.x.i.w.4.-.1.-.-.1.1.4.q.4.4.4.4.",
"F F F F F F D D F D D G G F G q.J.I.R.R.D.^.I.V.) ( Q T s } t.9.r.I I f r > - - _._.R.R.H.+.- Z A > 2 > . 2 .   2   .         3 z z X   X             X X X z z z z 3 - - - - - - - -   X , z z 3 # # # # # # D K.R.E.R.I.R.).D.i.G F D F D D F D D F F D D D D ",
"k l - -       - - - - # X X j =.Z._.K.K.R.D.I.N.t.r.t.r.r.a.r.r.0.E W T d e > - A.^.F.^.E.2 # k k - > > . > .   > . .         z 3 z #   #                   z z z z z z j z z j 3 3 3 z 3 z 3 3 3     . .     G R.R.R.R._.I.(.S.p.. > . . . X . . . > . . #   c ",
"j j - - . .   - - - - # X X z +.V._.'.^.I.E.G.B.r.r.r.r.a.a.t.9.r.r.8.o...Z k j K.K.(.`.K.j j j z j j j j j j j z z z 3 z 3 z z z z -   - . . .       # X X j z z j j j z z 3 z z 3 3 z z z 3 z z z z 3 z 3 z F ^.G.I.(.^.D.K.Z.j j j z z z j z z z j j z z z j ",
"j z - -   .   - - - - # X X 3  .V.A._.!.G.^.E.B.e.r.r.r.t.a.a.0.r.e.e.;...Z k j B.D.R.(.H.k j k k k k k l k k k k k k k k k k j k k - . > . . . .           k k k k k k k k k k j k k j k k j k k k j z j z 3 D ^.(.D.^.R.K.^.A.z z 3 3 3 3 z z 3 z z z z z z z ",
"z z - : . .   - - - - # X X 3  .M.E._.^.R.I.D.m.d d s r w 2 w r.0.R R I s w - - ).!.K.^.D.- - C C C n b b b b b v v b k b C C C n C w .   e e e . e . .     C C C         . .       .         C C . . X .     D R.E.H.R.J.K.).A.z 3 3 3 3 3 3 3 3 3 3 3 3 z z 3 ",
"j z - > . .                 3  .V.^.^.^.H.H.D.M.r r e w > > > r.r.f f s r > - - I.E.K.`.G.> - J [ { 1 e . e . . . . . . . 1 [ { [ { $ s & & &   I   s r > - [ [ [ - - - ; - > - > - - -       { [ . . . .     D H.H.Z.(.G.F.^.V.z j O # # # # # o o o o   + j j ",
"k k > 2 . . . . . . . .     z  .M.G.!.E.C.H.G.N.e e e e 2 > > t.r.a s r w : # # I.!.F.E.K.2 : :.:.;.w w . w . . . . . . . . ;.&.$.%.* * R R R 7   W * & . . :.:.:.. . . . . . . . . . > . . . ;.%.. . . .     D A.F.F.G.K.G._.A.l c                     @   l k ",
"Z Z e   . r r r r e w - # X z  .m.K.^.F.G.H.K.N.s s s a r e w r.t.s s a e > - - !.G.K.K.G.e > 8.8.:.w e . e . . . . . . . . >.:.9.8.* = =       7   E I a w e.0.9.r a a a a a a a a . r . . . 8.9.$ $ . . .   D G.N.A.G.F.^.).C.Z S . . . . .         .   X Z S ",
"..[ [ * f * * * & & . .   1 z  .M.D.D.R.(.H.G.N.              r.r.I I f r 2 - - K.K.D.D.(.r 2 r.a.r.r a $ a & $ $ . . . . . e.e.t.t.9.= = 7 7 7 ( = Q T s { t.t.r.I               U * I & . . e.r.* * & . .   D G.F.B.V.F.G.R.Z...X.                    .   ....",
":.:.;.8.:.>.>.:.>.;.$.[ C l z } M.F.K.D._.G.R.N.7 7 7 7 = * * a.r.E E T d e > - ^.J.D.F._.g e r.t.a.f I * I * = = = * * & . t.e.r.0.r.a.r.e.a.r.9.e.8.t.r.e.e.r.r.E = = 7 7 7 7 7   )   I & $ r.e.* * * $ . . F Z.H.V.V.D.E.K.A.>.8.& & & & & & & % & . w . >.>.",
"0.>.>.9.r.e.e.e.e.9.7.X.J b j } M.F.G.G.F.!.E.N.r.9.t.r.a.r.r.a.e.0.e.;...A k k I.K.D.R.^.q.r.t.a.a.* = W     Q Q W R I r w r.9.9.t.e.r.t.r.r.a.r.r.r.r.r.r.r.r.e.e.t.t.r.t.r.a.r.r.r.t.t.r.t.t.0.t.e.:.J C j D F.H.H.D.D.H.).A.e.r.* * * * * * * * * *     r.e.",
"r.e.e.r.t.0.a.r.r.r.8.&.J b k | M.K.R.^.H.R.G.n.0.e.e.t.r.r.a.s.e.r.e.:...Z k j ^.K.I.R.R.f.a.e.r.s.Q Q     ( ( ( Q W I a w 9.r.t.a.t.0.r.e.r.r.0.r.t.r.r.a.r.t.t.0.t.t.r.a.a.r.t.>.e.r.r.e.t.a.e.a.e.;.[ n k  .(.I.E.K.K.R.^.Z.r.s.= = = = = = = = = = * . a.r.",
"s.r s d d & & & & & . .        .N.I.!.F.A.F.G.n.E E E R I a r a.0.t.:.X.H b j 3 G.G.K.I.E.Z.t.9.a.s.= =   ) ) ) ) ( Q T a w 0.t.s.. $ & & & d & d & s r w > w t.r.R *   E E E E E E E 7   a r r.r.r.,...H k 3 g.K.K.^.K.G.K.I.Z.t.s.= = 7 7 7 7 7 =   T a w r.a.",
"r.. . . . . . . . . . .        .V.R.K.^.K.D.D.c.* * * & $ . . r.9.r.i s e >     R.J.R.I.H.].].R.I.F.A.A.D.C.A.D.C.m.A.F.F.G.G.A.G.A.S.K.F.A.Z.Z.D.S.A.A.D.Z.A.A.G.C.A.A.G.B.Z.B.C.B.Z.C.A.A.Z.F.Z.A.G.D.D.D.H.^.R.!.).K.R._.I.A.r.d.= 7 7 7 7 7 7   Q * & . 0.a.",
"e.e e e e e . . . . . .        .m.^.H.E.I.R.G.c.d s s a r w > r.e.a.. . . -     C.R.G.E.K.I.H.G.H.K.I.H.G.G.R.^.K.I.D.K.K.K.R.K.).).R.G.R.G.(.K.A.A.H.D.G.I.I.I.R.).K.(.K.I.E.K.K.H.).^.^.G.E.R.R.K.K.R.E.).R.(.^.E.I.H.R.K.).A.9.s.= = 7 7 7 7   ( = T s w 8.>.",
"0.. & & $ $ s $ & $ . . .     } M.G.R.R.G.F.I.m.f & & & . . . 0.e.t.w q . -     A.R.G.E._.^.).K.R.(.F.H.G.D.).R.G.A.F.G.^.K.R.G._.(.R.H.A.G.D.R.E.E.B.A.^.E.R.R.I.H.I.G.K.D.^.D.D.F.K.^._.G.H.H.G.G.Z.G.H.).K.I.^.K.G.E.E.^.`.A.e.a.= 7 7 7 7   ) = Q * & . a.9.",
"e.I U T T T * T * * * $ .     } M.H.K.D.^.E.V.B.T * T I d r w a.0.9.  r . -     Z.F.).K.K.G.H.G._.(.I.D.K.H.(.K.K.G.K.A.I.H.I.E.I.^._.I.B.G.Z.F.E.G.K.D.K.R.G.D.G.I.H.G.F.D.F.H.D.G.I.A.D.A.D.F.G.C.C.K.E.D.K.K.R.K.E.G.^.R._.A.t.r.>.7 7 7   ) 7 ) = T s } r.0.",
"t.* = = = = Q = Q = * * . .    .M.I.D.I.R.G.Z.m.Q = Q * * $ . e.8.e.& d . >     A.V.G.).I.G.).).R.^.!.R.R.^.G.G.G.^.(.^.'.R.R.).^.^.^.R.H.K.G.H.K.K.K.H.E.I.I.H.G.A.K.H.K.^.G.I.I.D.A.H.).G.K.A.R.Z.H.F.Z.I.H.E.^.).R.E.^.E.`.D.e.0.9.t.r.r.a.r.t.r.r.9.0.t.e.9.",
"r.t.e.r.e.r.t.r.t.r.9.;.[ b k  .c.G.R.K.K.K.D.M.9.t.r.a.t.r.0.t.r.a.* I $ e .   G.G.G.K.K.).I._.^.^.I.I.E.K.R.K.G.`.).E._.(.R.R.R.^.R.F.R.I.H.H.K.R.D.G.R.E.D.D.E.I.G.F.F.D.^.E.D.q. .! K K ! G K ! D K K +.f.R.^.!.I.I.R.).I.D.r.r.t.r.a.r.a.e.r.r.t.0.e.r.t.e.",
"9.r.e.0.e.e.r.e.r.r.8.;.] C k o.c.K.I.G.(.R.G.n.e.t.t.t.a.t.9.e.9.t.* R * r .   K._.E._.R.R.K.R._.^._.E.).R.^.K.I.R._.).).R.(.K.^.^.(.G.D.F.H.G.H.).I.E.K.E.G.K.E.G.R.C.H.G.D.).@.>.9.8.8.8.>.8.>.9.* & . . D  .R.).R.E.H.R.(.A.r.r.t.r.t.r.a.r.a.t.r.r.t.t.e.t.",
"9.T E E E E * E *   W & w      .m.K.K.E.K.H.D.m.:.:.*.>.*.9.e.e.a.d.* E * r .   R.).I.).E.A.K.I.R.Z.Z.V.V.m.V.m.N.B.N.V.V.M.V.V.m.V.V.M.B.V.N.N.v.B.B.N.B.C.G.F.^.I.K.H.I.V.C.Z.{ } { { ..o.%.%.$.%.f . . . . F ^.K.R.I.R.K.E.D.t.. & & d & d I   d $ r w 2 w a.",
"a.f I I I I * I *     . >     | M.G.H.E.H.A.G.m.f * f & . 5 t.r.t.s.= E * r .   K.^._.E.I.Z.D.A.g.=.} K D D G F G F D G D D D F G G G D G F D D F G G F K / =.g.G.).I.H.G.D.I.n.q w q > > 1 ] ] H J   r . . . D _.^.).K.G.H.G.K.t.. . . r &   r   r . w > > > e.",
"e.$ & & & & d %     . e . o    .M.G.I.K.!.Z.D.M.. r . . . . 0.t.r.d.= E * r .   _._._.E.E.H.K.A.f.v o o # o # # # #           n n     .           . - - # o F 1.C.R.I.D.G.Z.I.N.# # # # o X n b b b .   > . . 1 K.!.K.R.H.G.K.D.r.e e e . e &   r   r . . . . t.",
"t.d d f f d &     & s . >      .M.H.R.K.E.F.F.M.e . . . . . t.r.a.s.= E * r .   E.E.E.I._.H.^.D.g.X # # # # # # # #   @   X X j j # # # # # # # # # # # o X X =.V.R.K.!.D.R.K.m.            k j j j - . - . . + D.K.F.D.D.G.Z.A.t.. & & s & s *   f   a r e w 9.",
"r.* * * * *     * T * s . # X  .n.K.E.^.G.R.H.n.$ . . . . . t.t.a.a.8.E * r .   E.^.I.^.D.I.K.A.n                     #   X X 3 z # # # # # # # - # # # o X X +.N._.^.H.A.G.I.N.            j j j z 3 . - . . . Z.G.^.G.F.D.K.M.e.I T T * T * T =   E * & . . 0.",
"r.E Q Q Q Q   = Q = E * e     } n.I.R.E.J.G.E.b.* * * $ . . e.0.r.r.9.;.X.Z k j K.^.H._.K.H.R.G.z - - - - - - - - - - -   o X 3 3 - - - - - - - - - - - # X X o.m.I.K.I.R.K.I.n.. . .       n n b c l k j z 3 3 G.G.K.K.E.H.(.G.e.* =   Q = Q = Q 7   E I d a 9.",
"a.r.r.r.a.a.a.a.0.e.9.:.[ n k  .n.F.H.(.R.A.R.B.= = * * . . t.9.e.a.9.:...Z k j K.J.D.E.E.H.).D.z z 3 z 3 3 z 3 z z j 3 z 3 3 3 3 z 3 3 j z z 3 3 3 3 3 3 z z  .M.H.R.I.I.G.R.V.. . . . .   J J J H Z C b j j z K.A.G.).I.G.K.G.r.t.e.t.t.t.r.t.e.r.a.t.9.0.9.r.",
"r.t.a.r.e.t.a.a.r.r.9.;.[ C k  .M.H.I.I.E.G.I.N.( Q W I a w r.0.r.r.9.;...Z k j E.K.D.^.^.H.^.H.k j j j j z j k j k k z k j j k k k j k k k k k k j 3 j z z z } m.R.H.G.R.D.H.V.* * * $ . . X.X.%.o...J Z c j 3 E.I.F.R.R.E.G.D.r.0.0.0.t.a.t.r.t.t.0.r.r.9.0.e.",
"t.e.0.>.>.*.>.>.*.:.%...H n k @.n.H.G.E.I.R.K.n.7 = = * $ . e.r.r.r $   r . # X R.R.G._.F.H.`.G.b > > > > > > > > > > > - - # V n n b x x k k k k k j j 3 3 3 | m.^.E.G.G.K.D.m.= * * * . . 8.>.9.. r . > .   . K.D.).(.R.K.E.G.e.* *   ^ * E * E = E * * $ . a.",
"r.a.5 * * * I * f *       # k =.c.F.Z.K.).(.G.n.) ( Q T s w e.9.r.  . w . -   # ^.).D.F.D.D._.G.H > w w w w w w w w w q > - - [ J [ , . . . . . . . . .   @ z | m.I.G.H.K.I.G.m.= = = * & . r.e.r.. w . -       Z.R.R.R.^.G.R.A.>.* *   R * I * I * I & $ . . e.",
"e.a.. . .   r . r . r . - # k f.m.G.F.D.I.R.^.n.7 = = * & . a.t.r.. e . >   X # R._.H.D.H.E._.G.X.e r r r r r r r r r e 2 > > %.%.;.> w w w w w q > > - o   j  .c.H.I.K.I.I.V.n.7 = = * & . t.t.a.. w . -       R.H.R.F.I.I.I.H.C.$ &   f $ d & d & s $ . . . t.",
"e.0.G o.@.=.-.@.<.-.5.q.A.A.Z.A.A.D.H.D.H.A.H.m.9 9 7 = * . t.r.t.a $ r . -   t _.K.H.H.C.D.E.F.>.  s s s s s s s s s a r w > 9.9.,.. . . . . . . . .   o   j  .V.R.G.G.(.H.K.c.7 7 = * $ . t.t.a.. a . w       K.^.^.G.D.G.E.[. X`.^.x.u.=.5.@.<.=.5.@.O.N 0 ,.",
"_.].[. X[.].`.`.[.XXoX XXX X{.].I.E.G.R.C.Z.N.B.          ..t.r.t.* I & r .   ! ^.E.).G.Z.F.^.F.e.=   T T T T T T T U I d r e r.9.9.r y a a a a a r r   #   j  .M.^.^.D.I.K.A.N.7 7 = * $ { r.t.t.*   *   e   . ).K.E.^.K.E.R.). X X X[.].]. X].I. X X].].{. X^.",
"F.A.E.^.K.K.K.F.H.^._.E.^.E.)._.`.E._.^.C.C.D.A.g.e.9.9.e.9.9.e.r.E *   I   > w.I.^._.R.F.A.G.A.t.E = Q Q Q Q Q Q Q Q E I a . e.9.r.f I I I I I I I I   -   k o.M.G.).E.I.Z.F.V.r.r.a.t.r.0.9.a.e.E *   *   >   (.(.E._.G.R.).R.^._.^.(.H.H._.K.D.K.E.R.I.G.R.F.",
"K.I.G.G.D.A.I.I.R.!.^.E.).R.G.H.I.(.H.R.B.R.R.D.K.D.C.Z.C.B.Z.N.Z.A.C.N.B.C.V.G.'.^.K.G.G.H.H.N.r.r.9.r.e.a.a.t.e.r.e.r.t.t.a.0.t.a.E W Q Q Q W Q E E   >   j o.M.H.I.E.G.G.G.N.e.9.r.t.r.e.r.e.t.a.r.>...Z l j R.F._._.D.E.).I.I.E.E.K.I.E.(.I.G.D.G.D.G.K.R.F.",
"K.).R.R.^.I.R.R.E.K.R.I.R.K.R.K.K.G.K.^.F.A.^.G.R.K.D.G.K.R.D.K.).^.K.E.K.G.K.R.`.H.F.D.).E.K.N.t.9.e.r.a.a.a.a.r.e.r.0.a.t.r.r.0.s.Q Q ( ( ( ( ( Q Q   >   j  .N.D.D.E.D.H.G.V.a.t.r.t.r.r.r.r.t.t.r.:.X.Z k j (.I._.R.K._.).(.K.K.^.^.K._._.H.H.K.G.K.K.I.K.K.",
"K.I.I.).I.K.R.Z.I.G.F.I.K.R.K.).K.H.G.H.D.G.!.E.R.R.(.D.G.Z.G.E.)._.E._.(.I.E.G.I.K.G.I.K.R.E.Z.9.0.e.>.:.*.:.:.:.;.:.:.,.e.r.r.r.d.Q ( ) ) ) ) ) ~ ^   >   j  .n.K.(.(.H.A.G.B.& & & . . . . t.t.* R * s . - . _.E.R.R.(.E.(.^.).H.(.E.E.E.).I.I.E.D.H.I.E.F.^.",
").I.^._.E.E.R.G.F.F.D.H.K.K.E.^.(.G.Z.F.D.).).^.^.^.E.R.E.^.R.K.!.^.I.H.H.E.E.G.Z.I.R.D.D.H.E.C.t.e.5 f * f f f f f f d a 0 e.e.a.s.Q ( ) ) ) ) ) ~ Q   >   j | m.Z.I.I.H.G.H.V.. . . . . . . t.r.& f $ r . - - R.I.H.).I.K.R.(.).R.I.R.^.E.K.H.K.H.K.G.F.E.E.I.",
"R.R.^._.E.H.R.I.F.K.K.H.A.F.K.I.K.K.D.H.G.K.^.E.E._.E.).).H.^.E.).).D.R.H.I.S.G.G.G.D.K.G.E.).B.r.9.. r . r r r r r r r w > t.r.a.a.Q ) ) ) ) ) ) ( Q   >   k  .N.G.G.R.I.H.^.V.. . . . . . . t.r.& a . w . # # H.K.H.I.K.G.).K.E.I.K.R.E.E.K.R.R.D.^.K.K.D.R.E.",
"E.^.^.J.l.q.q.4.4.4.4.q.1.1.4.q.4.1.=. .o.@.+.-.-.1.4.4.>.=.1.4.4.4.-.4.q.f.N.K.I.H.R.R.K.(.).V.0.r.. e . e e e e e e w > > 0.r.a.t.Q ( ) ) ) ) ) ~ Q   >   k | n.E.H.D.F.R.R.M.& $ $ $ . . . e.a.& d $ e . - # E.A._.^.H.(.C.f.q.4.4.1.4.4.4.4.q.q.y.m.R.G.D.H.",
"!.^.B.F M w w .   e   -   , z z z       > r s f = * * & & . . 8.0.f &   r # D 4.H.R.K.K.(.I._.B.r.a.. a $ $   a a a r e 2 > r.e.a.r.e.) ) ) ) ) ) ~ Q   > 4 k  .V.A.F.K.I.).I.m.* * * * & . . r.a.* I * r . - - R.R.^.^.E.f.F b n C - - - -   - -   - F D K.R.G.",
"G.R.z.k k k j z j j j z 3 z z z 3 - - - . . & * I = * & $ . . ;.&.d &   r   - D H.`.E.^.^.E.^.C.9.t.* I = = =   I I f s e > e.t.e.r.r.r.t.r.r.r.r.r.8.;.] V k  .m.G.G.I.I.I.).m.= = = * * & & t.t.* E * d . >   G.^.^.E._.i.X k j k # - -   -       #   F G.E._.",
"I.H.g.z j z z z z z 3 z 3 z 3 z 3 z z j k b Z H J H J ] J J J J J J H C b j z F I.).^.).^.K.R.A.e.e.*       Q 7   W R I r w e.e.r.r.r.a.a.t.a.r.t.9.>.;.J C k  .M.G.A.H.K.E.R.M.a.e.r.t.t.r.r.t.r.r.r.8...Z k z G.K.R.).].y.z z z j   - . - -     .   #   F._.).",
"(.K.g.z z z 3 z z z z z z 3 3 3 3 z z z j k j k b b b b b b b b n b c k k z 3 N H.I.K.E._.^._.A.a.s.= = = = = ( =   W I a w e.e.e.s.r.r.r.0.0.a.r.e.9.%.[ n k  .M.K.D.(.D.K.D.B.r.r.e.t.r.0.t.t.0.r.t.>.} Z k j H.I.).K.'.n z z z j . - . - - . . .   #   A.^.^.",
"E.R.f.          o   X         z z   -   - - - -   - .         k k j j 3 3 3 3 F E.K.E.G.I.E.`.A.r.s.= = 7 7 7 ) 7   Q       0.r.a.r s d d d d d d s r .   #   o.B.(.I.E.I.R.I.M.E E E T I a r e.a.r.9.X.J n 4 3 ^.G.R.C.'.z z j z j   - . - - . .     #   V.E.^.",
"D.^.f.          X   X         j j #   #         #   #         j k k O       # F ^.I.K.D.R.R.K.A.a.s.= 7 7 7 7 ) 7   ) * $ . a.r.r.. . . . . . . . . . > .   X  .B.R.F.^.^.K.I.N.* * * & $ .   a.t.r.i f   >   # (.R.E.K.(.O j j j k . - . - > . .   . #   V.E.R.",
"K.K.f.          #             c b   -     - - -   -   -       b b b           D K.F.D.D._.^.`.V.e.t.= = 7 7 7 ) 7   ) * s w r.r.a.w e e e e e e e e w . -     o.B.(.K.(.R.^.I.B.s s s a r .   r.a.a.r r   -   X I.K.K.^.^.X b b b b . > . > w . . . . #   B.I.I.",
"E.K.p.. . . . . > . . . .     A H > .     . .   >   > . -     H H H           F R.K.F.G.^.!._.Z.t.a.= 7 7 7 7 ) 7   ) * s . r.e.t.$ $ & & $ $ $ $ & $ e . #    .N.R.I.G.G.K.^.V.d d d s r .   r.a.s.w e   -   X ).D.H.R.^.  H H H J . r . r s . . . . -   N.^.R.",
"D.R.f.$ $ $ & & a a a r r q > o.X.$   f $ $ $ $   d   r . > . $.X.X.. . .     F F.F.I.D.).).'.C.a.a.9.7 7 7 7 ) 7   ) * s } t.0.9.* * * * * * * * * *   e   X  .N.G.G.Z.K.K.(.m.T T T I d .   r.t.a.r r   >   # G.D.D.^.].  o.o.%.$...I * I R & & . . -   B.D.G.",
"Z.^.f.* * * * * R R R I f a r :.>.*   Q * * * *   Q * T & r . 8.:.8.a r w - - F H.E.R.E._.R._.Z.t.r.r.r.r.r.r.r.r.r.a.e.e.9.a.r.9.* = = = = = = = = *   r . o o.m.H.H.Z.K.K.G.c.Q Q Q E I &   a.t.d.f I   w . - R.F.H.I._.> 8.8.8.>.8.8.8.8.>.:.%.] n k j n.G.K.",
"E.R.i.e.e.e.9.9.r.r.r.e.8.e.9.e.e.0.r.e.0.9.e.0.e.0.e.r.r.t.t.e.9.r.* * . . . D G.I.^.^.^.!._.D.t.e.e.a.r.r.r.r.r.a.a.r.t.r.s.r.t.r.r.t.t.a.r.r.a.r.>.%.] n k =.N.D.H.G.K.K.G.B.a.t.r.r.e.r.r.t.a.s.T E   r . - K.I.F.^.).. r.e.e.9.e.9.0.9.9.>.:.} Z l z M.!.D.",
"A.E.g.r.t.e.e.a.r.r.r.e.0.9.e.e.0.e.a.r.0.e.r.r.t.9.t.t.t.t.a.t.r.a.E T s w > D R.H.E.^.^.K._.G.0.a.a.r.e.t.r.a.t.a.t.t.a.e.r.r.e.e.t.t.e.t.t.r.r.r.>.%.K n k w.B.G.H.D.F.).H.V.t.a.t.0.0.0.a.r.r.a.E Q   r . - E.H.F.).K.. t.r.a.r.0.r.r.0.>.r.8.X.H c j N.J.K.",
"H.).k.* * * * * E E E R I s r r.9.9.0.>.;.;.*.;.>.*.>.;.,.e.a.r.t.s.^ * & . . D ).G.H.R.).E.`.].].. & & & & & d &   f . w . w e.0.* * * * * * * * * *   r   x.c.A.A.A.E.G.R.^.V.>.>.>.>.>.r.r.t.t.s.W Q   u . - H.R.K.).].  s.r.a.. s & d     d a e > o   N.A.I.",
"H.I.f.* * * * * * * * * $ . . r.e.r.4 Y * * * *   Y % d $ v r.t.a.a.) * * & . / G.E.R.).I.R.!. X}.{.`.{.[.`.`.`.^.K.]._.`.(.(.(.I.]._.].'._.I.R._.K.J.!._.^.R.G.Z.D.A.E.K.H.R.m.f f f d a v r.r.t.s.W Q   a . > F.).I.^.^.. a.a.t.w .   u . r . . . .     m._.R.",
"E.E.C.s s d s & & $ $ & . . . r.r.t.  a . . . .   a . r . > a.a.t.r.(   d   > -.G.R.R.K.(.R.^.)._.).`.^.{.'.^.).^.^.].`.].`.R.`.I.`.].].^.].).K.I.R.D.`.K.^.!.G.H.F.G.A.^.G.^.m.r r r     . e.r.r.d.W Q   a . : H.R.^.R.].w r.t.e.e .   r . e . . . .     B.G.R.",
"E.^.].K.    f * & & & & . . . e.r.t.  r . . . .   r . w . > t.r.r.e.)   d . l.N.I.R.).E.^.^._.I.).^.'.E.R.^._.R.G.E.^.G.R.H.H.I.G.G.R.K.H.(.I.G.I.K.R.G.D.R.H.G.(.K.I.H.G.).R.n.e e . . . . t.0.0.a.W Q   u . . E.A.^.E.`.. r.e.r.$ $   f $ s $ . . .     M.E.`.",
"E.E.I.R.]._.{._._.].].{./.].[.[.{.]. X_._.`.{.{.}.{._.{.{.].I.K.I.^.H.H.R._.H.Z.I.(.).^.K._._.).K.^.^._.E.I.).^.R.I._.K.R.R.G.^.K.D.D.K.K.S.A.Z.D.K.^.D.G.I.I.D.R.!.E.E.R.I.G.c.a $ r e 2 > r.r.9.e.,.Q   r > > K.E.^.E.^.{ r.r.9.I T T W * T * * & . .   M.K.E.",
"G.G.R.K.D.R.K.R.H.D.K.E.E.G.R.K.H.E.^.G.E.E.).F.I.E.G.G.R.D.Z.I.D.m.A.B.K.B.G.Z.^.K._.(._.(.).).E.^.R.).^.H.I.G.D.E.).^.^.I.I.G.D.K.K.K.G.I.D.A.D.G.^.E.I.H.H.D.Z.G.).(.E.H.H.c.* I * & . . a.a.e.9.,.;.X.A k j E.K.K.H._.e.r.a.r.* = = = = Q * * & . .   m.R._.",
"E.I.E.G.I.R.I.A.V.K.Z.D.G.A.F.R.H.H.D.I.K.D.K.I.I.D.G.D.K.I.D.Z.F.D.G.G.K.Z.F.Z.G.K._.K.(.R.E.R.G.I.E.H.K.D.^._.G.G.R.).A.H.).H.G.F.I.R.G.E.E.E.I.K.G.G.I.G.C.D.F.J.K.R.G.G.R.M.W = R I r 2 t.a.r.e.9.;...Z l k R.H.K.).R.r.t.a.9.r.0.0.0.e.r.0.>.$.H b k c.R.)."
};
