/* XPM */
static char *_eb102e1713c46adb18f123395b5c080GWs2GAcnBH2c5LSp[] = {
/* columns rows colors chars-per-pixel */
"128 128 248 2 ",
"   c #0B0302",
".  c #1C0B06",
"X  c #1D0E09",
"o  c #150906",
"O  c #1D110C",
"+  c #1D1611",
"@  c #220E09",
"#  c #260B07",
"$  c #350C07",
"%  c #24120C",
"&  c #2C140C",
"*  c #2D180E",
"=  c #33150C",
"-  c #3A150B",
";  c #34180F",
":  c #3B190E",
">  c #381207",
",  c #241611",
"<  c #2B1710",
"1  c #2C1A12",
"2  c #281B14",
"3  c #331B12",
"4  c #3B1D12",
"5  c #341912",
"6  c #3C2116",
"7  c #34221A",
"8  c #3C241A",
"9  c #38231A",
"0  c #2D211A",
"q  c #3D2B21",
"w  c #3F3229",
"e  c #441B0E",
"r  c #4B1C0D",
"t  c #46140A",
"y  c #541C0C",
"u  c #431E12",
"i  c #4A1E12",
"p  c #501B10",
"a  c #661D0B",
"s  c #442215",
"d  c #4B2315",
"f  c #432519",
"g  c #4C2619",
"h  c #44291D",
"j  c #4C2A1C",
"k  c #532415",
"l  c #5B2514",
"z  c #5C2916",
"x  c #532619",
"c  c #5B2618",
"v  c #542B1B",
"b  c #5C2C1B",
"n  c #562817",
"m  c #5D301F",
"M  c #57301F",
"N  c #56210E",
"B  c #68230D",
"V  c #632513",
"C  c #642A16",
"Z  c #6B2A16",
"A  c #632D1B",
"S  c #6B2D1B",
"D  c #682617",
"F  c #732D1B",
"G  c #772C17",
"H  c #64311E",
"J  c #6C311D",
"K  c #73331D",
"L  c #7B341D",
"P  c #7D361C",
"I  c #74250D",
"U  c #442D22",
"Y  c #4C2E21",
"T  c #532F20",
"R  c #5C2E20",
"E  c #4C3224",
"W  c #493529",
"Q  c #543324",
"!  c #5C3323",
"~  c #543A2B",
"^  c #5B3B2B",
"/  c #573728",
"(  c #583F31",
")  c #7B2F20",
"_  c #643422",
"`  c #6B3522",
"'  c #653826",
"]  c #6C3925",
"[  c #643B2A",
"{  c #6C3D2A",
"}  c #733521",
"|  c #7B3621",
" . c #743A25",
".. c #7B3A24",
"X. c #733D29",
"o. c #7B3E29",
"O. c #663223",
"+. c #5C4334",
"@. c #5D412E",
"#. c #64412E",
"$. c #6C412E",
"%. c #74412D",
"&. c #7C422C",
"*. c #634432",
"=. c #6C4532",
"-. c #6B4A36",
";. c #684A39",
":. c #744532",
">. c #7B4631",
",. c #744A35",
"<. c #7C4A34",
"1. c #744D3A",
"2. c #7C4E3A",
"3. c #7C523D",
"4. c #77523B",
"5. c #795644",
"6. c #6A5341",
"7. c #852E1A",
"8. c #82351D",
"9. c #84391E",
"0. c #8B3A1E",
"q. c #89351B",
"w. c #963A1C",
"e. c #8D2B10",
"r. c #AC3E1A",
"t. c #843422",
"y. c #8B3423",
"u. c #843C24",
"i. c #8B3D23",
"p. c #833D29",
"a. c #8B3E29",
"s. c #933D23",
"d. c #9A3C24",
"f. c #953A27",
"g. c #852F20",
"h. c #A73A24",
"j. c #854027",
"k. c #8C4126",
"l. c #84432B",
"z. c #8C442B",
"x. c #8C482E",
"c. c #86482F",
"v. c #934226",
"b. c #9C4325",
"n. c #94452A",
"m. c #9A462A",
"M. c #94492E",
"N. c #9C4A2D",
"B. c #824631",
"V. c #844A33",
"C. c #8B4B33",
"Z. c #884B35",
"A. c #934C32",
"S. c #9B4D32",
"D. c #924833",
"F. c #84523B",
"G. c #8B533B",
"H. c #895339",
"J. c #945136",
"K. c #9B5135",
"L. c #94543A",
"P. c #9B553A",
"I. c #9C593E",
"U. c #94593E",
"Y. c #A34425",
"T. c #A14629",
"R. c #A44B2C",
"E. c #AB4C2C",
"W. c #AB4726",
"Q. c #B34D2B",
"!. c #B64A27",
"~. c #B3512E",
"^. c #BC522D",
"/. c #A34E31",
"(. c #AA4F32",
"). c #A45234",
"_. c #AB5334",
"`. c #A45639",
"'. c #AB5639",
"]. c #A45A3D",
"[. c #AC5B3C",
"{. c #AD5837",
"}. c #B35433",
"|. c #BB5533",
" X c #B45837",
".X c #BB5936",
"XX c #B35C3B",
"oX c #BB5D3B",
"OX c #B25638",
"+X c #B04E30",
"@X c #BB613E",
"#X c #B3441D",
"$X c #C5532C",
"%X c #C45A35",
"&X c #C35E3A",
"*X c #C95B35",
"=X c #D35D34",
"-X c #CB502A",
";X c #C3623E",
":X c #CB623C",
">X c #D7633B",
",X c #E4673C",
"<X c #F76A3A",
"1X c #C54417",
"2X c #8C5B44",
"3X c #855843",
"4X c #945C43",
"5X c #9C5C42",
"6X c #905F48",
"7X c #A35D41",
"8X c #AC5E40",
"9X c #B15F41",
"0X c #8C624B",
"qX c #9A634A",
"wX c #996A52",
"eX c #8C6652",
"rX c #A46245",
"tX c #AB6245",
"yX c #A8674B",
"uX c #B36343",
"iX c #BC6443",
"pX c #B36A4B",
"aX c #BB6A4A",
"sX c #A86D52",
"dX c #A87258",
"fX c #B97456",
"gX c #B76F50",
"hX c #AD7B62",
"jX c #C36542",
"kX c #C36C4A",
"lX c #CB6D49",
"zX c #C96844",
"xX c #D76B44",
"cX c #CA714E",
"vX c #D8734C",
"bX c #C87856",
"nX c #D77953",
"mX c #E6754B",
"MX c #E57B53",
"NX c #EE7145",
"BX c #C23F26",
"VX c #BE8467",
"CX c #D9825C",
"ZX c #F38458",
"AX c #D08968",
"SX c #EC926B",
"DX c #FFA77C",
"FX c #FFBB8B",
/* pixels */
"`.4 & }.=.].Q dXsX/ J.nXlX%.}.bXK.tX..s yXh j v 3 4 J @ ..).C.n.= N.z n.S.s 3 &.nX&.aX4 b.l.l.n l 8.d : n.b / @ ` i.; J & = n n X./ 3  .U j s &.Q 3 :.4X^ G.3 H.F.! 6 ] { U.[ <.<.[ aXX.>.^ S ` d ] b h %._ h >.n L.&.` Z.{ :.L.].pX]._.Z...x S } { _.X.kX1 &.f ",
"bXn U U.' [ wXqX2XfXx.k.A h = tXFXj...F.sX] _ l C V R v M.J |.S.xXc.l.k.& P.] s / [ tX].b x ..d.= K C 4 &.z u.v.e 4 :X8 SX. % >.! & @ ( [ 1 Q J.8 7Xh O Q { AXpX;.E 8 ].gXU.gXH.G.1 wX7 AXZ.} A  .v } } A V.6 n &._ _ 2 h / s F.v 6 S.g $.k...g & _ &.z.& A.P % ",
"S & ! ] 5X=.! Q F.u L./ m l.[ E N.S.M.H.G.&.^ l._ f K ] J._ oX& : XX` ! C.A.! z.tX<.4 % f Z.W.i.i G v.K J 3 K K n u J u s.& v @ kXd s & F.,.[.6 ! G.%.bX[ &.%.>.V.2 ! 5X5XV.wX/ W fXwX9 S.X.C.| l.[ p.x._ P.j &.' n ! C.' s T & [ aXnX&.z.; b b A 3 ` xXA N...E.",
"n.& XX{ ^ fX1 ^ | g X A.& h Q s 4 H H.! { [ _ ] Y :.! / H ..k.[.z.] s m x.;Xm.H & & n z ..J Z V l s = J 9.P g i.v.R.&.V.X.= G.& : & 6 nX%.cXB.4XqX<.:.[ ' ! 6 j _ Z.2X&.$.U 1 5.2 Y fXkXY ] X.] X.,.Z.A :.{ Z.f b  .$.L.&.Q 6 6 X.4 >.g M.z...& u.! v.v ; 4 L ..",
"K c.d o.yX3XpXj %XS j s & s _ } n & V.[ / $.<.>.F.&.U Y b n C = K.K.A.].C.A.d b A n uX&XN.L N l x.& u.S 9.R.L i.; E.i.pX/ %.% [ *X& & J.J.x o.1 [ yX] 3 1 ! x.*.B.~ tXG.^ G./ qX^ :.qX$.{ x.X.[ W F.] :.C.& F.6 :.&._ / A.Z.x J X.Q _ ' <.4 d & C.j.s H v.z.J b.",
".X; =.! =.:.b 0.m.A S ` . & i.i.kX/ rX2X{ ^ %.F.=.3XE Y n F z } S oXvX% s z s X.k.A.k K X.X...- d = ] i.|.m.N.S.j.b ^.3 & mXK x u tXJ } .XZ.d 4X{ ^ [ j X.c.[.E :.>.F.f rXyX[ gX4X$.Q C.C.' p.F.G.:.U.9 3 4 x.! Y _ :.&.%.J ! x o.v.b N.; z.iX3 g & f % @ } ; i ",
"x _ ] / 6 f  .R.9.L A v >.$.k.A _ 6 J.=.:.4X,.<.4X2XF...b e 4 M.s ` K.b n.Z.j.n x.M.H K A p._. .X.0.& 9.s.} &.xX& !.& b @ b.v & & i.~.: K E.% Z.% 6 tX>.2XnXB.B.K.F.F.:.L.F.2.:.[ G.<.b >.X./ 1.2.#./ ! ,.v K.o.F.u Z.{ <.H g c.{ n ..: OX_ ; n.{ vX` A } ~.N.u ",
"A ] n 6 ! b J = } C : 4 J.R.` N.X.x g rXgX2 4X6XG.qX1.M.C ` m.i.x d K i A.8X` A.K i.k.p.S n u ).; %X: N.P l.J b u ! % k.).= X.& ..: } k u.& Z.s =.g ` 1 Q 7 J.<.wXQ 1.[ <.F.bX-.F.[ :.[ 3X-.^ 5.! ^ J.%.#.$.Q H. XH.I.f u.tX].I.Z.cX} k.& nX&.).A f d NX` | b }.",
"A K &.u o.K.n j.8.k...m &.N.l v.h B.>.j <.b ,.3.qX4. . Xj.).H ..).l.S o.Z.Z.].C.J.C s z v z.} (. .l %XC = l.G.;XL : &Xk }  X.X9.b.J `.}.J N.K.Z.4 Z.[ [.yXA.3 j :.W pX/ F.<./ 5XtX4.:.h ,.=.*.#.[ ^ $.X.{ G.' M.Z.Z._ tX&.x._ s Z._.u.z.[ 4 X.! 4 }  XZX: z S R.",
"_ P.} d n A.} A i.9.: `.J m.m.! _ `.K.%.].%./ / [ bXx.N.X.g J K.M.b [.&.&.A.s uXoX` _ u s o.X.d v. .uXS [.X d i.A u d u K._.@ b.u.v.u v.J &.x H { g Y ! #.g ~ 2 _ rX2X9 U V.^ j / F.=.*.1.=.*.;.U :.T I.] _ $.:.h / & b 7X7Xc.f 6 S.$.4 ..% 6 s A J j @ ; n 4 v.",
"_ u.k.N.} K. .A x.J d L L m.; e _ H.Z.J.l.<./ 6X2Xv `.iXJ.4 K. X} x.4 `.&.] Z.Z.N.g i.[.C.b ]. .R.o.x.A _.R.R.>Xu.4 C s !.XXS & ,Xb.=XA v ` ' >.4 1 c.g X.Z.B.3 2 Q sX3X4X:.*.-.-.*.3X~ 1.1.2X5.( 1.[ I._ $.E _ Z.l...Z.{ Z.V.$.C.x.b c.`.X.u . 6 g % u.- b ` J ",
". 4 b & & u x.k A { j.v.` i.1 1 xXQ ` ] H =.<.AXfXqX_ ; 3 C.c.C.A._ oXZ.c.XX{ }.[.j.d X.& ` `.9.n k ` M.].v.4 = &XS & 4  .9...i %Xl.K b.x U.: s n L.XX-.1 h qX, B.V.F.G.:.wX3X1.U 1.E #./ 3X>.$.*.F.[ U >.8 E :.] ! 8 <./ CX%.c.! 4 j.T j b l.. o h ; d j % ; b ",
"} j : u k.] : J v u d g i.l { I.b %.>.`.c.V.2.7 >.4X>.7 & _ &.c.uXMXoXK.c.b n aXb o.B.>XMXJ.K s `.- 1 6 l.%.K J ^.u x.% _.^.& S & T &Xb.] [ 4 3 ! & A % Q 8 B.P.Z.2XV.o.b Y <.-.Q E E ^ 3X=.X.1.#.-.*.Q / :.^ 2.' 2.Q Y 4X7XB.; { j.& 3 h J ; T xXS.4 & 9X'. .M.",
"b S j.. j A  .x m.i.N.m.z.M.:.{ % ! $._ P.<.% ^ -.sX5XB.>.%.uX%.&.].jXA.A.A.d '. X! ' j.7XT d H ; xXkXB.xXoX .R.d & g S Q.` & @ L.u 0.& u.Z.c.j._.k.N.4 >.3.S._ { <.j Z.tXW 5X4.F.^ 2X*./ $.,.+.1.=./ ^ *.*.W ^ ~ A n h ,.qX] <.h kX:.d ..f g } { 6 4 v 4  .X  .",
"A j.d f T 3 &.A 9.l u._.& 0XF.C.4 3.pXX.Q 9 AXDX7 U V.C.b 3 &.].gXI.zXx.! s { _ L.! f <.G.&.& S.K.n.uX[ S pXx...u & & l.d e &.@ ; 3 ] x.g j & b 8 s b j.:...v J.{ 5X&.6XT { >.>.$.[ 2.{ %.,.4.F.;.*.^ ~ -.@.q W ~ q 7 ~ ! :./ 4Xj s A.[.d 7 _ N._ { v f K H <.x ",
" X6 g k = d ` A s ).k.; S.wXwX' wX6X2Xc.AXL.0X1.SXJ.<.%.= ].c.h f P.P.! : %.X.] b d 4 >.i.rXP S oX3 <.! n ! b.& N.0.m S A ^.; S ).d d X.^ ,X;X: i.} z.{ g { Z.b ' B.7XZ.V.p.3X .P.X.%.*.] X.X.x.;.U 5.^ *.+.*.^ U ~ U E $.A %.,.C.] $.` g H P.{ =.g b f n.J x ..",
"n J x b f { & k.] ..b % f 4 ..M./ / #.dXSXf 2X,.9 S.Z.C.I._ _ C.kXh X.rXC.n Z.nXC.[.%.jX& ; r W.e `.&Xf &X_ &.M.K.n K [.K 3 & 4 v $Xv !  ._ : uXk.] 3 K C.f 5XZ.B.R V.o.C...z...p.} =.o.| o.y.t.t.1.+.1.*.-.Q 7 ~ W ~ W *.,.d.A h <.J.8 f vX& &.! X.S.J b n.J J ",
"L v.A } ..u.3 A b J.N.3 yXH l.] fX1.rX;.Q sX3.bX4.I.J.U. .b ] ` A.] _ { gXH L.tXuXC.&.m.u @XF Z.0.).uX& ..A.v.C W.s.u $X: u.b.T.x x N.H / ; : ..S.! / ] <.&.! tXG.V.L.>.o.D.a.p.p.a.t.) y.y.t.t.t.S.q *.~ *.~ ^ ( 0 , -.$.F.,.b h / h Q 4 ! g 4 E _.& & j.} A ..",
"k.M.K } b X S m x.G.K.G.yXK. X^ / [ ;.3.AX8 3X6X{ I.o.].J.&.A.Z.x  .Z.>.uXI.[ rXE.Z.].v.i.` i.s.J K.nX,X..K & s  XXXoXb.J ,Xm.C T.9.S x _ H.jX).n.; K.>.kX9 %.V.V.R { J.n.p.S y.t.t.t.y.g.) y.t.t.f.w +.3.@.~ ~ W W 8 E #.4.^ [ @.F.h [ X.n >.yX7X}.j x b N.S 6 ",
"H 4 A m.i.l.d x S.B.3 3 c.K.,.5X2 Z.0X0X;.=.4X2XZ.f %.J.A.C.&.b X.A.%.[ % G.K.[ & f J K Z.v.6 s n &.J K.v _.i.C } R.i.|.d R.T.m.J & k K Q X.O  .@Xz.&.{ I.<.[ yXZ.x qXX.J.x.a.| u.y.g.y.y.g.t.t.t.f.+.~ %.-.W w 9 0 q Q ^ Q ,.#./ ~ / E ] ).V.Z.Q s s  .s ] & J ",
"} K k.K 4 4 s n i.A.[ T c.b 6X1 ! qX3Xh h AXdXqX>.tXZ.].v ].} ! [.&.s `.% <.I.i & R.zX} ] ; ;Xh 4X& 3 f x.K S v.& >XR.h K % ..u.Z.W.`.= J b o.$.Z.3 1 3 tX[ 2Xh >.! :.o.o.B...p.u.t.L g.t.y.t.} f.a.-.7 #.8 w W 7 Q [ / h 9 @.~ q ^ Q $.[._ ] ..b ` A._ E...L ..",
"x.n ..n L @ c d b xX[.' X.%.1 yXX.sX% , 1.AX0X<.' [ { ' i._ &.v &.u.c.; H.:.P.[.! XX; m.=X X4XQ F.u.B._ &.4 Z S R.& ; L K K x % ` ! @X` : / J &.c.1.4 8X& <.d g j [ >.} t.a.y.t.y.t.t.y.| y.f.t.| *.-.W @.~ *./ U h Q f.[ 8 *.~ 1.-.S } ..d ..| % A.A.] K m.n g ",
"J e k. XN.S J n ..@ oXT j %.o F.3 4XT Y eX[ eX].; %.6 P.b uXK.x.u.: :Xd ' f @ = } 3 o.& % Z.! $.S.f jXI...m.xXn.i.K h & m.$X` &Xi.& E.v.R...P.d ` /.{.c A.A.} u.b D.| o.) } | g.a.y.y.t.t.t.i.y.*.+.~ ;.;.f.E ^ U / 0 ' 8 +.3.*.^ _ t.p.p...s.d (.& g % ` K E.x ",
"L K K A K R.i.j.k M.n j 1 ! yXv f 2.^ 1 ( 2X;XlXaX@ s d Z.G.c.A.= u l C.7X% L @ @ 2 H 3 b o.cX& tX5Xd i.T & k.L *X; u.g ..9 |  .4 u E. ...l Q.c /.l.N.A o.} A y.g.a.T.} s./.u.y.f.i.t.t.t.y.t.-.-.+.~ *.*.*.2 *.E =.b 6.~ ^ @.*.] G F K i.| | i.3 o.v.l.i.i.A | ",
"i.N.S & S v._.` j.}.u.1 `.*.B.1 2X[ [ AXT 8 C._ _ B.` g Z.Z.C.jX& & c.8Xd 4 & d zXx J & & & ` n.8Xx.s ..H b R.; K S v.J q Y u.3 cXl._ b.C u.u S ` z NXx.x 7X_.t.u.n.p.p.a.f.y.t.D y.i.7.t.f.@.-.*.*.~ =.^ E 7 9 f S E E / -.0X@.7.q.f.y.v.n.v.A Y a.}.u.k.k...d ",
"/.J b u.i.e  X< K.`.M...s ! . % ,.qXsXj 9 E ..; mX_ jXZ.j vX4 L & x.% _  X; m.R.u c.Q u N.H s &.o.x x H.z.H u.i.6 T.u.XX2 .X6 (.}.& z.& 3 0.S z h v 1 A.} l.l.OXa._.X.A u.f.g.f.) i.f.t.y.-.=.-.=.5.~ +.~ +.q 7 2 W 3.U { / ~ *.c D F i F.i./.u ! j J _.; M.u.K ",
"| } & v...i.S d & J 8 ].K.b v 2 9 AX, [ gXu zXf XXu { _ `.& ' ;  .j.M._ g @ % = 4 j.v & & & &.c.:Xx s }.v.} m.n R.c.A `.k =XnXA i.S J.pX; ! @ _.& R.4 1 9 x./.` uX! P.o.D.S.t.f.f.t.y.t.=.*.[ [ >.-./ @.@.U *.0 ^ [ #.8 d.F.3.A ` u.M.F b o.u S m.z.H ` A z.p. .",
"} ~.}.| u.d . & n } & X.K.c.u.& s 5.W 2 <.).s `.%.! d  .b u._.Z.g d kXZ.} I.j.A NXQ < 3 ~.K.=XjX .& K.A MXH ..S  Xz.% d oX....& ).O ! h % 3 CX< & & F.f lX} % ! I.H o.d ` ..t.s.g.t.y.y.*.*.*.X.1.+.1.~ F.-.x T.x Z.uXQ b.G Q <.$.[ <.b p.u.A z  .&Xj.K  .} =X; ",
"A X n k.J R...u. .& u L 2 h % _.} 4 3XsX! e jXU.! V.A.`.% ] b A H d ; *XA b ; j.% & T ..N.j zXb s |.vXzX&.&.u.c.; zXx.A ' 6 b <.xXN.T ..M.1 xXA d & i.; j oX& `.fX8XT X.5Xy.f.b.+Xm.z.*.} 4.p.i.| +.*.E q ^ F k c.M.} q t.} b ] } ! oX .j.n X.d z.T n M. X% ..H ",
"f F.i.o.s } v.n | u P ; i...8.`.J & O ..S b T ' $.%.` %.&.P.& & j s A.J z. .(.d = { v zXs * s ..% K 4 fX& 1 A N.m.7X2.b ,XS 3 >.[ z.l Y ; _ ;Xb [ & d MXs 4X7 { 3X! < &./.f.y.f.h.F *.C.D 1.y.Z.,.,.>.b o.E 0X0.D y.V H.o.[ &.A <.] b t.j.K } } A A |.S.xXj. .% ",
"& . _ S H N.K ~.u _.x.T.K f S k M.Z.n [...& @ j ; : :./ %.*XP . } 3 g J J  .d ] X >Xb ` u.m.4 N.K & J J 1 % A 3 & M.zXnX3 8 ~ Q Q iXh }  .:Xd { >.A.cX& %.kX].s < 5.f ` T.f.a.!.~.-.S.p.c.A.f.N.h.w.n b 4 / <.g 7.G $.D } ..n b } M.S.x H  .b o.p.p._.b x }.S.K ",
"4 x 3 J l 4 S R. .S & Y.= ! @ n *X= % b 4 $.L.h & n i.0.=Xu.f } l NX{ i.i.i.% g K 6 v.i.E.& & s d x ..J 3 S.d % ] z.x._ aXE F.Z.X o.' ] % 1 OX& gXv.c._ 1 c.&.W SX4 G...f.f.f.h.-X$.} W.,.p.A q.F V.b d.i h.BX3.8.h.F X.7.i.s._ [  .9 7 g ] z...A R.n :.o.J N.&X",
"4 } m >.x k.O _ u.:.n.oX& oXL u  Xv.H  .2XH.j } c.R.pX3 d & ,X{ j.,XA u yX, ^ R.& % | S mXY g & /.K Y x.nXv _.& 8 ,.[.[ / =.o./ 3 3 nXaXv f  X_ 7X& / 1 1 c.! / H K.| S m.l.G a.^ C.X.F.$XV.m.F 7.F S 8.h.7.D V D d.l l Z.{ J ] g Z.d x.B.C.j.OX .x 6 &...u A Y ",
"x G.X N.n _.% 4 J A...s.] & n : R.m.3 K.% 2 d . *., 3 l NXE.<X; e Y i.& cXn ..m.f u.& :Xb x & 1 b J 9 b _.s J...C.h 2 / AXj G.4 E XX9 *.uX& d >.*Xx _ cX[ < 0XQ % h (.} y...Z.5X%.A b p.#.=.<...n #.b h.S F D D S d.l.t.9.K v.i.z.u.n.X.=XA.] x _.[ / :XA & % h ",
"& ; J _.j sXA C.J :X*X0.b.l.& L E.b =X7 j.B.n 8 4 A i.k.@ i.>X9.N.; ZX; m.n E.x 3 T } 3 s ' & } j.M.:X[.3 3 g { 9 X.1 2 T `.& f ! :.lX1 q l. X/ _.1 jX2 j _ K.& U.]  .6 v.f.A X.X.x b ` ! h [ j f ! s F G F F H b : i.c u.k.m.b z.{ b A._.3 n $.4 >.n f ..rXG.cX",
"vX* d 1 % 8 bX6 iX|.% 2.& S oXJ i.n u...jXcX& X.i.U.z x ; u : e i.P K ; < d 4 H u.& u.` % 4 ! R.f  XU.} 4 3 ` ` &.A.F.6X< _ :.{ U.b 2.d h x.K.3 9 `.s 0 & & 7 A.b hX_ 4 _ (.j.M 6 _ d p.K ../ 2.h Q A 8.G P s.Y.K } J L i.K Z.& _.g &.3 X.n.p.n X X xX; z.N.u.` ",
" .M.S.b Q % `.dXN.] u.s A ! ` P Y.4 E.<.A.W 4 4 u b J :.` b J n._.m./.i.| 1 K & k.kXbXJ T :.k.T gXbXC.F.g o.& o.& f L.5X] CX&.&._.4 j.{ kXA.M.4 g A.M.1 1 f ..x.1 *.cX>.5X).[ C.i.i.i.u K 3 n  .X.b u.%.z 9.V P k =XT.K m.R.R.S.! V.o.} 8Xi.X d Y .. XE _ ^ 3 B.",
"3 u.j f 3 v.{ =.B.M.n.Y.H R.d = E.n 6  .n.n 3 d ] qXXXP H b c.;Xx ..E.s ; J & m.s _.4 sX}.n n H ; }.M.`.' [ E vX .uXpX6 nXzXN.&XJ.K.6 l.f `.4 XX XZ.& q 1 & & qX9 4 1 SXo.c.3 _ i.X.} i V F ` l.A L d F L s.b.} u.u.P K E.| J } &.zX&Xb 4 z.v d %. X% 1 rXcX% 1 ",
"S.7X% 3 { 4 2 zXs 3 xX..& v.v.i.7 E.m.x.} u b jX .lX[ } 5X..A...R N.6 A m.|.! J J.& ; G.x 4 I.C./.< 2 * 1 z.3 N.{ 2XuX2 b _.C.%.}.1  ._  X X` ; MXd 3 c.j.:XoXtX; [ 1 yX6 1 X.} } ; v R.= V t.K b d m.9.K *Xx C ..& m.i.v.| c.} V.o.f u.s c.uX% 6 v 7 A.} 1 Y ! ",
"C.% dXkXaXA 2 l.;X`...v.; P K.k A R.n A X.d n K.j { :.c.j ;Xv j _ _.J ..i.4 s 4 k.h uXj.b ! s 8 G.,.`  XzXn 3 2 5X2 % 4  .CXJ f _ C.[ p.u.%.< s jXiXn j kX& X.b E [ % ! *.g L.&.} A ..g S x C 4 S l u.v b 4 ; Q.u.lXu..Xu...i.3 ` j...i.).! 7X, OX0XZ.7 /.4Xs f ",
"j U.dX' 3.*.n.Z.j @X`.m..Xv.q.S _ xX;  ._ _ j h j.j X.x ` ] J.<.g b %Xd 4 A v.s =.2 I.3 lX` & m.z.X.2 XX&.tXS._ $.*.B.%., vXA.3  . .! n.[ &.: / J _.` ; 3 & @X1 ~ O `.< N.M.M.vXP & : <.K i.A A i.6 d : W.b.NXn d ].A q.m.u.d _.M.A &._ 6 zX3 aX{ SXf 5XX x.P.H.",
"=.7 qXY v / b  .m.P.iXl.z.XXu.9.uX_.U.3 4 A S.oXX.x ).`.X._  . XA {.M.z.i.b.|.; | ;X' u.A.u.n aX_.*.T v s & 1 3 9X{ b X.E < 3 lX<  .A b d b H n.c.vX3 ! [ A W kXE < fX$.&.] , A Q { K } & S R.z u u.S & = z A o  .0.= g i.s...[.X.% &.A _ Z.`.1 ~ 1 { v R <.&.2.",
"7 Z.%.Q [ L.c.E  .E.iXX.7 R., uXx 1 4 N.M.& Q c.x h g kX` N.c.n d C.x A.|.f v.b } m.;X XZ.j c.4 l.} o. XjX[.aX3 cXZ.b < bX3 % b  Xs _.{ &.o.& &...'.3 l...[ lXb fX*.1 A.T CX& S K K }  X Xv.c.u.J oXL i.J i.f i.N.= L T.4 b d :.` 3 J b  .j.gXU C.O q z.P.yX3X7 ",
"kXoX .! [ kX! O U , 3 U & `.j %XN..Xd ` { Q % _.N.n.g } ).b x .. .i.K { _.` & b J.u J d f 4 s z.i.M.c.& 1 J.3 ! A.8 XXv A.b j <.P.>.i. .j  .H X.& @ % 2 3 h Q [ 1 AXh _ cXv v & R.| N.m.| u.. e % l ).v.C K e K ..i.u.Z.j.{ z.n _.9 N.5XlX>.`.).SXnX[.f { qX[ &.",
"K.h % X.Z.G.>._ { K.[.` c.d .X).2 & z.m.3 * 6 ].b 3Xl.g M. .3 _.&X` [.4X` &Xx._ 4 b 6 rXi.W.b j.b 3 2 SXh [.S.% j (.v yX(.XX).m.s 4 ,.nX[.G.).H J i.J 3 ! X.J./ 2 <.2.1 kX& ..`._ ; 6 v.T.~.x l.[ E.Y.= Y.- Y.: Y.u.n F :Xi.% % % rXl.S._.MXU./ >.4 , W U sXDXV.",
"b s ;Xn s , , 6 cX&.jXl.` A.N...L.J A s b _ [.j., 7 J %X; N.f ..b CX& 3 ).W._.b jX; 4  X_.k.N.s z..._.Q xX& c.S.ZX! P.&XJ ,.}.s l.X.^ ] X.&.3 i.A.).R.& iXj.&.%.1 eX& { N.M.& *XH j.% R.K i.x S @ i : J E.9.K %X& S A.# i.; & f /.&X .% g 3.7 & 8 % SX6XR X B.4 ",
"K.A.] g A.% v & _ T ! A.[.d u.n  Xx.j.` | =.j ] 1.6 4 @ = u i.}.v.d _ z.d _ 3 n.4 |.3 g  X .b g yXh K.< xXuX..p.J c.% 3 jX& & _.F.rX_ ! N._ i.`.....v.Z.2 &XC.&.g b I.lXd ; m...J x % ; 6 k K = k e F q.W.9.9.d $X- A ; J d R.f _ < ' b ^ ,.XX4 3 Q 2 nXZ.% } & ",
"4 o /.$.n nXoXj ! b vX, H H f ` * H.M.1 b } & ; H ..zX4 u.K & b K V i.iXb g g b s R.x u.s b  X<.g [ uX& &.} & N.3 % . V.N.uX..; 3 ..} _.b &.[.S.{.N.m & & K. .x.U S.%.4 j...v.% i.L z % z.e Z Y.F F q.l w.8.S k } l K u.= M.& ].O , ; E bX+.AX<.O Q O T x ,.c.4 ",
"v.9 ; n n.....g X.T g Z.V.[.X.S.3 =.1 Z.G._.`.k.G.Z n mXY.@ L i.n & i.A u b 7 ( CX_ &.R.b / uXh ,.f Z. .3 J.g E b.=.M |.vXu._.(.| }.}.A m.R.k.j.xXc.).Z.{ jXU c.&.A.K.& jXC n i.A.P K l w.x l s.l Z = J k o : B u.q.u.& 4 zX! 1 H [ 4 % 1 wX%.*.2 U  .b 6 4 V.A ",
"M. Xu...s m.& P & g { ] T  .Z.l.@Xs iX* n $.c.k.L j J v b.% Z i @ i 0.S j.& f 3 vX Xb [.3.c.yXQ $.L.K.J.XXY z.& 2 x S.E.i.3 oX3 d d i./.d ; S 4 H J o.bX_ 1 aXo.d b }.Q b.| i J u 9.l.S.b.p k l d.K K v.b.l k Z B W.u 3 o.nX' zXI.6 , ~ 2 ~ 6 5.P.&./.&.1 4 H jX",
"` }.n b k.S.b ..b 3 C.S.X.% 3 x ' H j % _.<.P.lX^.{.A u ~.; =X! d.q.d 4 !.& n j U XXH H X./ P.[ g [ ] H M.Q A.g & s k.|.& *X%XK k C & 6 i.b.S.| m.N.& C.x.].X.X.Z.3 ; 6 N.N.@X} i & X.q.= Z I Y.G K Q.u.; C z e V z Z.x l.; Y P.{ uXqX6 b / P.[ 2 &.cXyX6  .4 u ",
"i.} ....z.v.u.k.x 4 k d &.! R J.Z.L._ 4 [./ 1 :.m _.K.& E.L v.s A 9.n & 7XQ x 2 1 _ i.d n `.%.J.K.{ `.c... .x ` u.d -.....n T.6 !.h 4 i.%X!.b J :Xx 1 o.l.n &._ N.= Z.6 z.K K b E.H K C 9.t t !.!.^.E.i.=XP { C 8.L x S.yXu._ f :.~ 3X, [ 3 Z.' K.<.3 zXi.A J ` ",
"E.` H ` d ` A _ xX} u m.S ! &.]._ & ` P.uX%.%.Z.l.: J :X3 b.P L 4 ..Q.K g j.s 9.j.f `.o.N.b ] &._ M._ X.N.....b.k. XN.Q...& T.i.L ^.s.& C n % N.j.S.nXc.X.tXm.u.}.h e S ; j  XK b d K v.& V D e *Xv.u.u.K @ ..d n.` b ..cX} x _.-.6 ! ! =.J.3 v K.A X.f ..x.i.s ",
"A z.A i.i.R.J d M.N.&.u.!._. . X1 } uX].,.K.H.tXY.A 6 -XC n Y.M.C $XL ; M.S A.;Xs ].` X.! b A K j...u.m.i.K b s K L ,XK k.L b.S S W.s.q.r x & | x } S...=XK n & S S _.S Y.S XX@ l K u 0.z # e y.4 }  XcXS.zXK C K - ` 4Xu u.d A ,.3X*.h 1 & ` S...' 4 s !  .d ..",
"b 4 } } b } ` R.R.g b M.M.<.& R...% _ s 2 ` K.&Xn e 0.n s.E.; z % F e & & ! s k.x &.c.N.` i.i.s.b } m.n.v.m.n K k.u.} z J A z *X0.P >Xk P Q.4 N._. XZ.R.g i.A k Z l.l d K C u Z.n.k m.z g _ X @ $Xm.aXo.} L.<.& R.` g s i.} C Z.; aX& s :.p.j ] [ A 6 b A  .} v ",
"z.A } _ g k...M.&.N.z.$.A 6 E.#.c.d v ).1  ._ 9 9.d x @ H L P d E.=X| v.` u J K ....` l.H z.i.d m. .] A v.u.} J S ..u.z S W.i.z & K ^.u.- Q.9.& f d C.i.~.L ! x.K 0.T.3 k A % l l / 6 _ ^ ] S Z C ZXA n } g s .XoXn.i.3X*Xs ` c.H.d yX1 R.3 ; X d _ 4 ' j.j.....",
"b ..} ` l. .J ! 4 ] `.J J d R. .& A R.u.f v.u.& C d u ^.u.8.v k % K N.S b.n K u.u.K.&.&.N.z...v.n ....m.} } | R.Q.K G 0.=Xs.0.i./.: u.C Y.%X..b.u l.n.E.~.n = ` l V u b s w.G N.f n.i b & X n s d r R.C z.; K u._ A.x. .L % ` X : n. Xs n ;Xm.i.S P.z.J i.4 j.z.",
"3 _.A ] ] ] b x M.` M...& S | A E.i.C s 4 K f n l.v._.T L >XR.^.$XX 9.!.9.i.b  .l._ M.! x.j.g _.i.m.i.i.Y.u.s.P b.Q.k -XN.i.A i.% i.m.= J v.v.} _ i.u.9.i.u b u.p # !.Z b p.y l./ ] b ` % X.v.J @ Z & = J u z : ..v.l.v d R.} Q ] n MX3 n 6 k.x %.}.u.J c.H  .b ",
"` :X3 H _.X.l.).M.b v ; K R.u n d Z 6 A 1 L 3 x.@X..v X.k.% X 8 J._.i.u l.L k } J _ X.m c.b ] @XK. .b XXx P J K A F d.K l ~.u.b K %Xs m zXS i.A R.b.: ..q.o u l - c.@ } & Z o *X$ > & C W.S k A l P uXn b ! < ` % x % tXz z P C.3 s `...d A.F.P  ...4 m.` p.M. .",
"' nXS./.&.%.j.l.z.} u.i.m.x z u.R.v.i.X i.n S g b ` &._ & n i.O b b f ~.v.i.W. .u.H l.M.c.J.u.M. .n i.m.` t.P A W.s.F W.] j.}.j...6 S.; _.9.m.;  Xi...4 Y.K L = u.4.V.g b . o - d K @ V . u.r 3 K 0.: 3 e u } x P _ s b d _ ).! u.A.[ ZXtXi.& E.d 4 N.s b M.].iX",
"j X.$.&. ._ _.x. ._ z.j.v.b } } $XP ; $X~...z W.z & A : Y.d K d MXi.V.m.[  .` g v.X.j.`  .n.k ..x n.b m.j.i.V L A s.S | M.` }.& u.b ..j.NXk S.n s j.x { d C R.n c.Q 4 uXX.@ - q.A w.N u ..p.n = L e ] S g @ k & u.].i x R...& X.M.6 `.S.@Xn H i.d ~.k.Z.n v f h ",
"X.%.X.Z.[.{ o.` n S }. .n m.L |.Y.: ..E.& i.k.[.S R.i.i.; k.Q.= L 3 J 6 ).+Xs.~.j k...k.m.Q.J n v.K L ..K i.A M.z R.j.M.S.X.u [ pXE L.n [.b.J } z b ).C @ J P v.< } A.g ].X.b e a D Z z > }.@ 9.&  ...& i.} , i n i H P._ &XM.& ;XZXn jXkX` f 6 ..x ! L.! 6 <.] ",
"B.v f ] 1 XX Xg ..m.} u.n E.|.d =Xu u.E.v.K R.jXS. Xi.|.& |..X^.W.m.J } x b _.X.m._.A K.| i.i.l.` H n o...} e } } u...A A R.O MXf & Z.f d m.b s : b.g = S n v ; j..Xx f d  X4 . q.- d.L S ^.g g H e & i.: b A @ _ S _ f M.:.8 ` 2 b % & kXfXc.m.m 4 %.f j X.f ' ",
"M.P.b h _ &.f 4 ..f N.A S K d s.n n v.& :  .Q.u.3 u.R.%X4 g u.& N.M.u.] H ;Xz R.n &.H A.J [.n o...4 n M.} n.A l...a.j.L.i K A l ! 3 3 U.Z.cX.XA i.; 9.. u n _ c.% b ` `  .Q d J l k ; S u.F S v.z u ..b ..u & 9 }.d % i x gXm.A.} }.d `.3 b ..pX2 c._ f v A o.A.",
").b ] c._ b :.Z.M x b E.v ../..XP S u.i.= l } g [.[.n M.c.S.l %XvXn.oX)..._.|.b m.m.&._ [.v o.j U.o...H } M.u...n s.S |.S b.k. X&  .% ].b b { b d _ i.Z.u.XX@X& ).! o x.[.m S # A o i.- i.n d J.b.u.J 4 m.1 x z & u.Z.& ! |.mX .4 K % xX} E.1 & Q P.l.kX_ x.M.n ",
"c.H n f ] ' j &.` X.N.|.1 ;XR.] u.K ; T.Q.tX_ & & K S.T S.x } o x m.Z.M.n.` A.M.j.K X.` v.g ! `.Z.S.o.X.j.x.S ..'.} A J  Xe } & b J 1 S.X.d A 4 ; J.n f ] 3 +XiXx.' *.o &.k.V & e u.$Xb.P = 4 = L R.d =X^ b @ J 6 & j.; @ ! ;Xk.d % zX:XY 1 <.fXb &.:.A.4 n } ..",
" X..A & >._ {  .S.] .. Xn.%Xm.` } &.^.b.R.& ` ] iX| n  XW.!.m.` 4 n K H b /.x o.] i.A.l...x.A... .} } v.S y.S n.d 4 : ! n.d k.& NXn.; A.J n ].d j.& o.l.u.2 & j. .1 ; 6 3 V l Z G S z ` S K n.% | K b.& E.X u.u.T d K.[.3 ...._.7 _ `.%.dX9 1 b 1 3 } ` &Xn A _ ",
")...b m C.] b ..o.b A.m.J m.m.d d W.u.P :Xn _ iXo.c.A.b N.@XkXu.K d K.m.u.4 v.b u.& g l.N. .S.).s H _.K.S u.k m.H :.S n S i.S.A.S./.XX_ '.C.u f _.d j.oX& 1 & 6X& 3 E.6 d   v.3 j.%Xb r L m.S m.Z._.i.d m._.J ! K H [ j : b cXd A.9 _ 2 ] *.iXSXY 4 [.%XM.z. ...",
"M.b c.&.6 c.`  .4 `.A.d i.} N...m.K u.K k.n.K.` ' iXS.iXd &.2 8 `  .v.s /.! 4 c _.i...x.k.S.H ` } j.N.c K ] _ | M...ZXv.; oX3 1 J A E.4 _ 4  .[._.H %Xb j.; z.Z.& * A [.o o = k r w.T.: k = 9.~.}.~.d J ; u.K S.aX& i.n 7 u.n.g  .].g F.O v $.F.h L j N.v. .b l.",
"b x ` %. .S.` ).S.` j.n u.v._.N.i.} v.m.m.; U.] `.& |.!  X:.&.8 )._ &..Xu z.i.R...N.&._.b 4 d E.%XA ` S u.l t.E.&XW.%Xm.b ; R.i.i.s ; i.kXs g R [._ zXnXNXA & }.iXZ.c.9 n g 4 t l 0.0.i.l.` S m.} n i.v.^.n & s.K 3 K.1 ).K ! u.xX1.kX8 Q B.5X*.b & z.x k.N.A b ",
"X._ v M._ H N.j.M./...z.g n ..M.v.S ..T.n  XQ lX3 XXJ z.H nXuXX.c.` d 4 g u S i.m.i.v.k., ..} d A A |.b.i.S s.i.} >Xz.u i.{ ! x k.J | v.A.} J } & l.bXf :X% CXx.g & & 1 d ..n : C - Z jXR.x g K n % ..} m.& ! A.& d R._.b K & j.uXo.H 3 E.A uXA.N.3 b |.b ..h } ",
"f ..`  .b M.S.n n.;Xx d  .}.m.J m u...}  X_.h f 3 .XA x A g A.f b < b S.d R.E.R.K s ; .X|.; P S | R.E.} L A J.A 4 | S ,X4 R./...; 4 | i o.S.S.3 A 2 Y X./.b E.xXj oXk.2X1 { : & 8.N $ V E.W.}.d J m m.s %.L 8 h : ; , ] x A...; g / f  .AXjX..[.%Xg i...N.s  .j.",
"b _ o._ l.x.j.m...4 n n.N.N.k.:XJ z.v.K z.../.&.b C.` n ` A o.& s 3 ; A 4 n K b x u.).*X_.^.u | ; n m.d s.p.} +XL }.J u i ..}...` _.x.S z.u.Z.A  .~ [ U.& & >XA uX>Xk k.J zXj.i J 8.Y.<X|.k *X..3 L S.J & 4 c.j K u g i.% &.h , % & c.3 B.>.{.x v.| n ` N.X.] x.",
"X.X.x  .m ' l.vX_.j _.N.x |.f & m.N.n.b.k g o.c. .A.u A ; A x n s b A & b t.| R...J J L i.; ..).u.v.K d j.| l.= } K i.m.u (.d &Xx b }.A x ..d _ i.6 & ; S.& mXE & u i.m.z ..u.d - - |.0.v.$Xd n >XH u.& 4 & :.ZX>X& % n.{ zXpX& ` ! { V.g &.3 4 P.g X.A.H |  . .",
"X._ m H x } ] R.o.Z.X.J .X< n J j.n K c n } u._ A n.A u.A A d b  .A b x 4 d n n...H n H z.K u E.B.| /.A } i.t.A } d m.K p.[ | _.i.` 4 m.Q.u b p.1 F.3 iXuXH zX< K 1 nXs n i.: ; O b = L ; }.j.i.1 ! H / 4 u.n ! u.T.4 J k.2 1 K P.& Q & ;Xm.s I.n s K.s d _ _ n ",
"` N. .x.j.d & 4 1 9 S.S.%.m.| & A d ` _.o.u S ..A } | S A n n x A X.` d d b n Q s j.N.m.[ } OXa.| ..i.A W.A d i.u | S } L.S.| S d J i.J b u.6 *X} v ] % yX} } K s {  X}.bXnX& } 3 A = % - ).u.h % A u.l.H l.d K Y MX_.n.E X.J & 3 v ; '.R.9 3 4 .Xj b z.x.Z.n._ ",
"i.H b H n J z.i.d 8  .A.' &.v _.& i.u ` ..} u.n.H b p.} V | S D ` ..v u u A = f 3 n | v.T.} A b.S i.u.A i.| S }  .z.n.A g ` | K }. Xn.S n v.c.N.h X n & `.u.3 i.@ 1 ..E.I.A J % z.v &.; = k A { : u Z.fXm.zXJ.U.b 6 _ K.{ G.E.A.; i.d b H  XF.>.%.s b d x.&.x.b ",
"` b _ } J n.H z.i.; o.;  Xx o._.3 v.R.u.' } ` A ....| ` F l ..} z x ` k k A d 3 = & A m.b t.K f.l R.| i.b S R } } n.,.! >X` d |.} m.j.u.>Xi.3 4 f 6 rX4 & = S.} i.n lXuX3 & %XS x @ k.; 4 ..v d %Xb ; h L.[ ; j.fX& P.T 3 [.J._ 4 u.N.6X;X1 x b ' ! bX6 %.b l.c.",
"L j.`.j _...A ' ;XJ `  ...c.` ` d A } j.n.a.L ..} p.....F  .} D S A : k A d 4 s b ; & z.p.~.} } b u.S | i.i.| v.z./.T 5XR.} _ i.K ' z.R.xXR.4 u 8Xj.j.& i.& 3 v.u.< & ..&  X& & <.n s & 3 ` vX` % K.; 4 _ jX& j SX`.].% ] n.i.& 4 T & } b u $.b p.%.[ A S.&.} ` ",
"i.v u.J x S.@XA A ` X.` b } j._ ` b ..p.` ` s.` t.D A n  ...` C c c T A D b k n b n g u - j.S } i.v.X.v.K S | s. .n uXJ u.uXs Z./.`.C.S x.m.4 ! c.P K 2 H  X; 1 x 1 B.).E.=X$Xx 3 n S ; X `.s J g K.| 6 b iX{ j 1 f c.V.<.iX` j.jXS ..K.s = j.s u.H ! l.&.A.x.M.",
" .u _ 4 j jX}.k.b  .N.X.A.l.z.A ` b | ` ` X.u...D j.| | X.t.G | S A t.p.b F c S v  .n d S i.i.A }.k c.| u.i.N.}.u.g L.h  .` jXiXS.3 c.H | ZXs  .& A.Q % J Q 1 b ..%.& 8 C J C ;Xk.b z e L h h S.} : A %.b ..[.& .XA b lXS.A.kXj.4 l.d s } 4 m.c.d d  .f :.H X...",
"j.%.K.4 G.A M.=XR...N.n.} ).(.N.} n p.S z.D.` z.o.z.n. .j.D a.a.t.F | k d x A b b ` b ` < ..b ).zX_.7Xj.l.'./._.g b >.c.$.x VXl.' 6 R.&.|.% % 4.oX& * ,.h k.s  Xb *.m.Y.H  .& e 3 u.l e J.J A n K _ x.d b m Z.S.b ..X.x 4  .i.)...m...F.s bXh j L E o.X.%.%.] c.",
"` ` M.{ >.b (.v.} v..Xb ..j.M.S.o.S...n.z...a.} o.o.t. .o.a.z.| p.t.) k ) c } a.` b u s j u t.).u.} jXA ..` b u.&.! [ X. .iXX.K.b %... .| & ' Q m.4 aX-.* & ! i.h $.b : 3 3 d C &.& & &.7 ..& @X& & R. .mX_ (._.u x.] } b u...; pX[.Z.+X5XH R.R.A [.X.%.C.x.x.A.",
"_ H % bX7 ` d m.K E.@XS...x.S.X.K.l.b &.D. .a.o.p.x.i.} o.S.G n.) ) y.D y.} } p. .A n 4 u d z  .} S D.a...XXU.X.&.4 Z.q C.& z.x n o.oX_.&X& ` & ! :Xx.L.j.5.i.l.7 fXQ 3 A.7X& ; rX9 A F..Xx k.} &.s.b `.u p.s _ a.] o.n m.s 4 4 %.X.R./ S F.b J _ g ' _ C.X.] m ",
" .x.J.u. .g R.b m.J .XM.l.A.o.l.c.x.n.c.A.` p.z.S A.} p.A.A b m.t.d.T.t.y.T.} } g S S n n i x j.x.d N./.p.} S.` C.s yX$.4 S.).m.b 4 M._ 2XO jX& 6 sXZX4 .., g U 2 gX% XX4 1 ! & & c.E 3 ! ..u.%.= ` } A.o.X.x o.X.V.n g >Xu.}.; XXm.rX4 v Q Y j.CX[.H _ ' ] <.X.",
"%.4X! ] Q  Xb 7Xn o.).).M.z.Z.].c.K.` z.| n.S ) l.p.S p.S.} X.c n.y.%.y.y.} S _ z J A ` c i & S k b.} ` i.C.j.[.B.1 3 9 X.mXu.S.).H l.] [.vX` [._ 2.sX{ & 2.Y J.qXc.1 / eX*.3 [ 1 @X[.1 Q 2 Z...yXg 4 S.Z.l.&.u b ` j.} L z.oXh oX4 b Y M.3 SXS.` L.! 6 ] ! ! $.",
"] X.$.x x i.s i.x.M.S.c.'.A.Z.C.A.A.x...A S l.h.l.S.a. .] z.D.l.z.| z.f.o.f.z ..c } S n k b s u u n.a.b ..(.} &X5XC.aXnX' } zX).O XX_.).; 4 Q % U.G.7 3 u 3 ..4.& & X.3 & H % 3.1 _.& ; J K.} _ W _ X._.k X.] _ b  .).c.A s s k.3 3 4 f c._ fXh A.J.{ 6 _ ! o. .",
"f ] j &.pXS.j.&XR.&Xc.p.c.C.A.` /.p.x...s.A.o.B.o.l.S  .p.y...| `  .z...y.a.a.} J } | ` b A & c 4 n.n u v.S./.3 s v K... .c.kX% 7X<.:.K.& [.lX% 5.% q gX^ A.O |...K.Z.s xX] 8X3X X<X} 3.{ m 3.@X4 vXb ' c.p.4 c.g ..} d v.). .} S.! ..*.A 4X6 f OX9 _ Q g &.....",
").n.j 4 ] I. .X.M./.).o.S.K.A.l.J.l.p. .S. .A c.o.A.s.d.| { 2.o.o.p.l.S.p.f.D.} } } a.A J A d d 4 n } z._ ..v &XoX_ SX_ &.).SXC.l. .O I.bX5X@X/ wX& 7 4 1 yXpX3X7 b l.& K.[ A.{ ../ b ~ &.^ x [.M.[ { L.S.X.` S.b b n.M.! N.m.c.4 bX` 6 _ ' ; K.! A.&.b  .T x ' ",
"/ c.u.s _ ] `.[./.).[.C.S.`.l.S.J.| y.S.z.`.C x.o.c.m.k W i...} n.| z p.n.) S.a.s.p.z.x.j.`  .B.u 4 j. .x u. .z.& A.C._ jX` ` _.J ` A 1 tX2 uX1 <.3 / / 2X_ ].< 4 < q , ! , _.' g ' ( 7 _ 4 pX>X>.=.qX>.Z.x B.J.n v.| l ..` G.&.& E B.] ! } ,.4 x Z.h u 3 b Q ..",
"_.b >._ M...M...).XXK.A. XK.A.Z.A.` A.A.z.A.F x.c.z.n.t.5.n ..) } s.d f.f.7 ] ..x.} } X.o.H ! ' / &._ 8X] @XA.uXT ).} m.` *X} m.A n & } 3 -.& AXhXZ.qX[ 7 3 3 fXhXhX3 G._ K [ ! 0 2 7 & , ..K.3 Q 3 h s %.A.C.o.b c ; `  .XXm.S 2 7 J.L.n K.F.N.Z.l.` C.f tXi.] ",
"] F.&.` ` N.M.z.N.S.M.a._.{.C.K.n.t.] C.A.l.| l.p...n.a.n.} } f.S ) F  .) t.Q ` z.A } ` S n :  .xX@ &.%.3 l.;Xn.m.J ` v.rX_ 4 [.MXoXxXb / Q f ! F.3 { I.j f bXaX+ iX! % & [ : & A./.m u bX;.0 ] U.,.2.Z.R &.v d S d  .{.d  .Q % j ; 3 S.X.%.).g i._ _ ] &...x n ",
"b X.' l.` j.m ..i.E./.)._.[.C.A.P.iX..Z.A.l. .p...a...a.m.Q n.F.S F G i.} u.U.t.` } J } K J A S z.2 o.A 7 | A k...& g S.:Xx u b S ! h J lXx.u h 9 [ wX3Xf 5X_ hXCX[ Y [ <._ K.v.=X2  .0X+.nX .3XK.A.7 h <.X.E.A.s ` A.c.A.uXQ ! _.; %Xo.! { A M.u..._ A n 4 kX6 ",
"f X.&.b H x _ zXM.i. X/.A.C.K.c.P.J.J.| A.B.D.p.p.j.n...n.|  .....t.| | p.t.i v n u _ u.mXb.J A n | R.W.% A i.n.s % n ..&X*X% b H.xXJ uX/ }.: [ u ! 6XiX3 8 f `.7X` :.6 d 6 ] H.j _ VX&.Y U.3 =.].& 3 b ` } A.] 9 Z.b X.H ; b : G.Z.9 ^ ].] K._ ` } ! x p.d j...",
"..&.g  .s x.H l.M.N...n.x.{.'.C.c.{ tXp.o.f.A.c.x.o.z.u.S.u.x.p./.u.i A.z /.S u u b |.` b n m.v.n k.K d 1 J u R.i.3 J z.z.}.u x  XN.4 P.%.m < =.] K.H.<.oXXX' A X.z.3 5Xj ! &.% Z.eXv q X.1 G.fXiX3 | } d A b j.{ uXE.` d c.4 } H iX/ ` A j nXv ` z.XXm.i b.n b ",
"] A l.X.H ` H ).oX_.).N.z c.Z.A.C.B.Z.A.b l.c.n.x.M...A o.z.M.f.i t.} } u k u Q...b  .& x |._ R.R.n u.K b 9.L } ..K K S.H M.b ; = >X7XJ.i s 3 f 6 3 [ 4 }.5X[ n :  X`.|.u %.Q aXU 3 2 dX! bXyX, SX..i.3 ,.v.i.m.u s E.aXz B.; & ,.bXoXd ..yXR ` s.x ..A u J n n ",
"b u.x s ] ..j.u...M.A.l.] N.N.).tX&.A.J.l.XXl.l.z.A v.A | u.a.L s.B.v.E.k A vX..xX} v.u.u A.%XK 3 B.m.S | z b.Q.u...E.k...K &.g u &.d F.j.` 4 h 2 8 O  .[.j.[.K n s t.K _.4 8 G.U 4.j ^ ! _.rX$.4 s 7 v C.d m.; m. .A M.b X.4 /.b }.m.H ..3 j.d o.%.v.h N.b ..b ",
"u.J i.j. .S.b j.S n M. ._._.c.&.C.Z.J.A.uXl.| x.A ..OXJ } ] E.d.i m.d *Xm.n zXoXg m.: P P s & m.x m & & v.V G Y.Y.i.S v.9.d 9.m.9.%.& _ ..z.& x.Q % q 4 3 3 H } L : H g J $.{ lXqXb / Y % X.nX*.Z.U.V.Y [ ` K ! S.s c.3 _ ` m.Z.d f A C.].A.oX..d m.K x x u ../.",
"K J | b b A S F S g z.K._.j.x.C.{ X.P.C.&.P.o.o.p.t.A o._ d A i.j.d ; } P ; }.b.XXb u u.Q.K 4 d ^.x P % z i.@ #Xw.$XV l . {.; : 4 M z.S b A...A.>.M.9 A.o & s l ..l H l...F.CX&._.x 4 o.O 9 / b $.` E n }  .} A. .1 / 5X} 6 j.u } n ..b x.% ` x b J u.m.s.u.n.u.",
"| J A b H } u ..z.Z.b [.K.c.z.c.A.&.C.I.[.C.J v C.n.>.g } S n j...K E.A @ &X& W.% d _.m.Y.K $XC u.4 u.E.- l # k y I 7.    0.: J s N.A. .&XcXM.v U 2 s M.& & o d J A u _.m./.j XX_./ d ` 6 2Xv CXXX8X&.7 %.n ' A & % $.T m.K ..~.s v...H !.+X& i...; j S u ..i.b ",
"b x n A ` d ` s  ...S M.Z.l.&.C.c.&.).! X... .%.m.p.] u.&.K.` b jXj i...S tXi.L x u :X_.J E.k e Y.i.d Z L V r ; Z B B y > t : k d ' A.; n *X& H 1 & &X&.lXB.s & b n M.A.b h 1 }. X! g O ].% ;.&.Z.6 Y A.{ [.b ` 3 g v.&.oXP ).B.g j.b n /.; H v._ x u.b b } } } ",
"n S z b d 4  .A A o.M.uXj.oXx `  .<.F.`.] S.Q k.A m.J K.n N.&. .F.zXo.m.1 &X}.u n.n b = v.n ~.= K n i P V y Z y t y N > 8.V Z K g u.&XR.J._ & nX2 ; )./.Y & 2 3 ` 4 , f k j ; L.S.uXL.< 6X2.[ 2 h ! v 9 h 1 h ] X :Xm.J m.i.4 u A b d d oXr S % m S J E.A } ....",
"` A i.z.b n n } ` n } x c.]....._ ` g } A.n.bXN. XK.T ..).XXb sXh ! `.& vX} jXS._.u C z C e !.C F i.w.i.l F V r B # # > $ t V K s E.`.H &. .:X5Xx [.xXI.xX1 &.x _ M.n 1 ] Q ` b _ f U.yX>.I._ Q :.jX; m.4 n [.)...] n & v.A A J i.A n.g ~.C d l i 9.d u._ n ` S ",
"` ..H ` ` J | d _ /.n 4 b n | _  ... .' 2.H S.X.s g J u.b : mXc.[ G.3 & cX_.i.S R.4 Y.Z L e w.P e k G l Z V p G - # . $ y t l u.b lXj..X=Xh 4 H A % aX& &.1 iXH u = H d _ -.` nX7XSX/ AXMX` 6 & % J s 3XaXA 1 s.%XyXv.J 9.u k k A J A u.d d W.v.& i.n ..j.j.A ..",
"K m.z.A A J H i d l n K.f j.b  X..m.Z.g & f ! _.xX^.% jXc.& H J ..j 1 } _ jXz.0.& _ i.] i.e W.u L G h.K q.Z l : #   > $ $ r p x.% ` 1 6 % @ v.d m.b &.x 1  X}.3 z n.K k } _ 3 A 3X{ Q j.j [ K N.m.Q.G % d u n n S 4 >.` d m.K : b.s.K Q.S 3 s.u.b d ` K A z.A | ",
"b i.J } ..b n.o.b | | ! b N.H T b oX,XS % ' % P.4 3 K E.K & 4 n A [.3 f % [  .x L )...s.&XL ; `.c.F Y.F q.Z r l e.y $   t a e.k : t.xX_ }.'.; [ XX] % 4 A j.J d s x S H = s v &.j c.g i.j.v ..n d e n.K _.& ..Y.d s.e f $X: K i.u b.n | J S n s.u 4 m.g A A p.} ",
"S } J u.} M.u.} K i...4 } ] & i.u.3 R.nXQ K.& S 8.8.b.F u.!.9.! i.K } cX; h :.] 6 #.& ` k :  .e ).x N u.i G p r.w.y t a r.y t t 8.n ..lXc.&XXX@ 6 }.3 Z.] _./.J 3 b.z i n o.; d & ; h b : b P , u l ^.l i.& 0.s w.S i d d S P i L Y.A 4 F n u.i u S d i.u S s.u.",
"S J .._ b A n c...d A u.| A.4 S j E.u j.).e k h P d S d W.W.0.m.$Xq.P.E.; ; s s 3 X.X.3 & d b } L : u.8.l : C G F G y y a t w.$ G @ ^ & % tX4 /.n ` b : & j.% 3 4 u :X9.n }.` i...A 6XJ C & b e k S K 9.i.9.f i s R.8.d.A n i i ..K i.F F g =X!.n S ..b v.n S | ",
"u.A ..S ` n o.n ..H S l A B._ i.jX/ [ % z.d d n _.8.P n Z C l = 0.i r r l ^.; $.H T.& F N.`.% f K J u._.i L G l Z B I # w.# a e.  @ @ g uX_ iX` Z.[ / m.b  Xf 3 A k j.z i : = d u x g s.b.d S u.z v.....u i.u = d.u y.8.i S u.L k l ; V A n K u k S s.z x G s.d.",
"K  .p.b u.A A xX%.x } 4 4 6 A pXg 6 N.s.7XE.u.& k.R.l u.b.!.Y.= q.w.p Z e w.J : = L %Xk.mX3 v h ` b % P.M.v.%.} B > I e.  I   t     J 6 X.6X%.T 4 l. X'.|.A ` n 4 4 x _ K A L u X & & A X x S L % z k.P & x Z 8.} S 4 b.A k.A e K F L A |.3 ..K u.b.T.K.| s.S L ",
"i...} i.| u.A n J | : : nX4 %.3 _ L.V.K S d & }.J C X.Y.~.Y.P W.^.y =X1Xy P w.>Xw.' 4 = Z K l l ..- A P % X M.@ } w.e - # # #   I N r 4 D R =.%.,.` gXg vXi.i.k $X@ b ` : k.4 P & =XQ.l.u.b.= C b.K Y.A x ; u u K i.G P 9.u s.= F i.i.G S G l C P e i b.d | z...",
"T.i.| n i.L m.d K K ; f x V.<.h o :XY..Xi. X..& ~ S.; _.m.b.] z.u.p.I B > -Xe l G q.p G Z q.p V & i.6 & - g 3 n X.j . G b ; @   . r.# # =X! u uX9 [.f U { _ 9.K x & - u K ..& J x s ..J e P : %.P !.v.S w.*X=Xi : A p.V T.A E.s.b.D t.f C q.8.C u s.J F F i.| z.",
"R.u.| n.S J K K S d N.v.' /.x C.u.6 &  .Z Q.& %.).& { c.j.s i P G & i - Z N 0.k.7.Y.t v.J V k.W.} u.K ` S k @ k - 4 _ P z K 3 b p # B t a @ J U.4X3 2...N.K.J v.b &.S jX .Z.S.n.u.k.9.b.L ..ZX} J J %Xv.K N.Q.A S u l y.y.b.Z K L L n s.s.d k k.p.K u.A y.F j. .",
"l.u K c.b 4 9...=X; S  .b { 6 1 H ] x.u.*.CX& _ i.A ` ;Xj.q.F u p i. .= H % r w.w.B q.$X!.*X9.e i.C S ! s C = ; v : C.& ; ` = d i $ r p # a @ ] :X4Xn.Z.d m.b u.k  .].K.& Z.iX; R.C R.% _.7Xb R.} s.x & S./.W. XS u.F c A ] | Z  .`.b.i.zXk t.! j.| A d K C.[. X",
"M.3 u.n u.u b = _ 3 j ] [. .H.i z.S.^.oXv.j lXH ).b M ..d V G F S r } z.R.L l N y 8.e l u.w.9.` e A : Y.n H C b F x 6 ; S 4 k.: _ d & o $ B > = l x j K 4 & A | 9.% ] H X.%.P.].A.k.n { A n b Q.x 4 ` x A n z.s.m.N.L M.`.u.Y.A ; c u.A x b._.`.Y X.[.v.] bXA.XX",
"c.[.A o.K } u.; 6 ; X.] ! H aXXXu u.e s cX..& u.lXi.4 - u 9.G Y.i & d 1 s x x.u B G -X_ Y.9.r =XZ A [.S.}.C n @ X & ' ; %.% 3 [.& & X - V = k ..P ..b _ 4 N.H 3 M.m.N.J.j P.sXj u.% A j ` n ;X/.u.A.H j.L /.A o.b...b ' R u.x.u.i.b.L g v.K l.` j.l.b f M &...4 ",
" X:.yX] n ; S N.m.; Z.d Z.aXX._.J.s.c.X.J.s S n |.J i m.# - u L ~.@ A H & H J = # l l & i z - k n d } v u.S C ! i b X.x u.kXiX& A ..3 @ u t ` J n Z e % b J b b ` ! g b K.C.[ uXnXv.:.d H n.*XP ..K b %XA oX .x.A.A u b cXv.`  .W.n.S ../.G.A c s _ c.n 6 A.l.jX",
"M.} ` x.9.4 &Xf B.H d f tXS.vXZ.M.K.@Xi.W.NXi.jX}.3 :.e l F V W.K K n J 3 M ..n 4 & C S &.l 9.J c.m.k.A x., : u.[ `.X.A.: A.= 6 4 & # b , &.L A k.u u.& N.J X.4 6 K.b _ ! <.[ { Q , 3 & X m.j.& s & }.}.iXi R.b n i.} - & &.k ..u.k ..S ' z.n x | i.P & i Q k.n ",
"S.h l.& lXu d ; d & &.R.4 _ g u J.{  Xb x.Y.ZX0.A [.l.o.p k N R.8.Z & Y.u.j b H b z : _ e b m._.j c.,.b gX..8 f _ j._ d `.: &XK $X= # i - @ wX% #.2 A x 2Xz.x.s b Z.&.h ZXb ' T 4.:.o.h Z.u.L % : A = n x } j.} A K M...z.= l.b u.S 9X} h ; d 4 > !._.n h x A b ",
">XL M.m.i.u.i  .{ o.vXuXX.{ 9.R.c.: i.A :Xs.nXb v.oXz ; l n > ..9.s.= u K } n i.u.& z S u e u.U H 2Xd v m.M.4 b b R.mXH C C - ..3 l M = >.n _ 7 s G.& m [ pXK.uX{ Z.! W ] ] , *.$.2X^ ] % J n v.L i.q.F u.t.n.k A ].| A F v.A | xX..; } A S % & d.(.9.b 4 / & 3.",
" Xm.n Y }.b J E.s Z.5X& U...cX; @ k Z 6 i.Y E.b.i K n.: _ R.`.9.Q.& S v.m J s d ^.m.1 =X@ = n.n = d i - [ i.Z  .d iXF r d.$XF }.l z ] i u bXZX* bX/ z.' j L.1 P.H.{ 7 [ G.] j 3 bX`.>.h iX{.k...9.b.d A K L u.A A i.z oXo.x.4 % v.f N. .z.n.s.l S g V v.m.} C.MX",
"_.b R.& v.} f 9.!.b.k 6 _. XbX& J x V N - j.r : 7.y F J u.uX1 j jXE.$XP = L k.& tXR.k.m.R.g ; x.K r = K P J & # n l - k k W.@ J } . S u n H 7 ` % : ..i.-.j x.>.g 9 ! 2 O %._ 1 ' 5X! 4 bX[.B.oX,XT.s.G i d F K u.k A S o.s ..g & n & 4 `.; &.; 9.r i X.e x K S ",
"v._.}.v.m.; s.9.&.A.l.J L %.n = K : 3 : e 8.Y.^.p T.6 -X'.k : &  .i.b v.W.*XJ T.& _ & A s.K v . %X7.n - Z - Z & 8.= C e r k S.l : 2.F % ZX[ C o.v.v.H 3 =Xm.u X.B. .cX3 2XG.Y ] 9 [ T ! h I.` XXE.u.k.& l i.X.k d.n 8.C (.n o.J u  .X.c._ } A.v J [.& L S l.J.| ",
"A.W.% & uXyX0.d } ` H d H l.@ C } ] >Xu.n s . - P I 9.Y.u.{ :.U.s ' & N.}.: { 4 S ..J i g u.b F u J 9.J G L r # = @ k L d x d 3 % A.; I.zXQ.d P f { & [ mX% %.C.X ].G.X cXC.Q f ] h 5XB.C.&.lX1 % Z.G.S b A d G S z A ..b x l L uXh & _ M.A.s P.c.3 /.z & b b } ",
"m.S >X& R.m.; >XC.&.A.cX! Q.%.` P.L J H m.u . C W.: I h V ; b ] C.; b g L.u.3 n.g :X .n j.R.| d v.e r.b.N.; r K b.P z S _.f ' 5X1 ` , P.n ^.:XK b & / E 3 >.A.b 1 4.! -.Q aX>.rX[ b <.{ V.b X.S.X.] /.n S.3 >.u S `.; }.3 ` ] C.] cX&.A.p.& N.K u s } A A : K N.",
"% i.& d pXM.M.{ rX} P.&.e h Z.J.^.P b oX% _ : x p G G z CXb &.j *X% &.F.m `.J.P.5XQ ..{ tX;XM.n L A q.: l n.g K &.` A m.K }.qX; ( x., [._ <.Q s }  .6XC.2X^ tXuX2X/ 2 =.3 5X5.8 5.B.V.5XpXZ.G.B.XXJ.].$.7 $.j f _ M. .j _ c ` J.uXU.A.&.3 f s vX& uXK & S Q >Xi.",
"..Z.2XT b Y 3X3XMXCX4 Z.z.! `.k.d %.M.|.v.CXn 4 d 1X9.[ b.xX&.S.i.W.s { X.8X[.{ { <...;X).g  .d P e E.*Xu `.i.` [ z.8X_ : h O Y ; 3 U j.J _ 3X6XH 8 g H.! 8 { >.+.4X/ tX& g A.L.5XtXF.F.] 2.eXq J.4 A.! *.T [ g ^ 3 %.' x ] I.X.A.B.B.L.x. X; &.T.u.A.K u  .X.J ",
"% i./ `._ l.6 1 fXtXfX& m.S lXL kX^.b n bX3 6 ` 7.j.Z }.[.[.` xX9.: ` ~.J.g :.3 { &.-.yX~.R.. b u Y.u k ; r @ L R.z._.b Y sXN.fX<.dX&.Q & ! A.b ! 2X[ SX$.,.g yXH., / =.%.Q rX5XrX[ kXG.sX=.Y CXI.[.[ b ! h 6 J.{ g Z.%.` ] J _.tXJ.U.I.A j.j.& ..m.8Xd 7 K.u  ."
};
