/* XPM */
static char *weapon_xpm[] = {
"32 16 3 1",        /* width height colors chars_per_pixel */
"  c #000000",      /* background (black) */
". c #FFFF00",      /* gun color (yellow) */
"+ c #555555",      /* gun shading (gray) */
"                                ",
"                                ",
"                                ",
"                                ",
"           .......              ",
"          ..........            ",
"         ............           ",
"         ............           ",
"         ............           ",
"         ..+++++++...           ",
"         ..+     +..           ",
"         ..+     +..           ",
"         ..+     +..           ",
"          ++     ++            ",
"                                ",
"                                "};
